(adap2)
(T1 D=6 CR=0 - ZMIN=7.8 - flat end mill)
G90 G94
G17
G21
G28 G91 Z0
G90

(Adaptive1 4)
T1
S18000 M3
G17 G90 G94
G54
G0 X30.6 Y29.686
Z30.1
G0 Z20.1
Z10.6
G3 X32.752 Y31.572 Z10.489 I0.14 J2.011 F600
X30.851 Y33.707 Z10.378 I-2.01 J0.124
X28.732 Y31.791 Z10.267 I-0.109 J-2.009
X30.662 Y29.69 Z10.156 I2.008 J-0.093
X32.747 Y31.634 Z10.044 I0.078 J2.006
X30.788 Y33.702 Z9.933 I-2.005 J0.062
X28.738 Y31.729 Z9.822 I-0.046 J-2.004
X30.724 Y29.696 Z9.711 I2.002 J-0.031
X32.74 Y31.696 Z9.6 I0.015 J2
X28.74 Y31.696 I-2 J0
X32.74 Y31.696 I2 J0
G1 X32.743 Y31.809 F1300
X33.062 Y32.651
X33.17 Y32.794
X33.27 Y32.973
X33.351 Y33.189
X33.406 Y33.44
X33.426 Y33.723
X33.404 Y34.032
X33.331 Y34.361
X33.203 Y34.702
X33.013 Y35.044
X32.759 Y35.379
X32.439 Y35.692
X32.056 Y35.973
X31.611 Y36.209
X31.111 Y36.388
X30.565 Y36.499
X29.983 Y36.531
X29.378 Y36.476
X28.766 Y36.33
X28.162 Y36.091
X27.582 Y35.757
X27.044 Y35.333
X26.562 Y34.826
X26.15 Y34.244
X25.822 Y33.599
X25.587 Y32.905
X25.453 Y32.177
X25.424 Y31.431
X25.504 Y30.683
X25.692 Y29.95
X25.984 Y29.249
X26.376 Y28.594
X26.859 Y28
X27.425 Y27.481
X28.06 Y27.048
X28.752 Y26.71
X29.487 Y26.474
X30.248 Y26.347
X31.021 Y26.331
X31.788 Y26.426
X32.534 Y26.63
X33.244 Y26.94
X33.902 Y27.348
X34.494 Y27.848
X35.092 Y28.521
X35.595 Y29.269
X36.057 Y30.042
X36.446 Y30.855
X36.74 Y31.706
X36.922 Y32.588
X36.983 Y33.487
X36.918 Y34.386
X36.727 Y35.266
X36.415 Y36.111
X35.987 Y36.904
X35.455 Y37.631
X34.831 Y38.28
X34.125 Y38.84
X33.352 Y39.303
X32.526 Y39.662
X31.662 Y39.917
X30.773 Y40.066
X29.873 Y40.109
X28.975 Y40.044
X28.09 Y39.874
X27.23 Y39.607
X26.404 Y39.248
X25.624 Y38.797
X24.899 Y38.262
X24.233 Y37.655
X23.636 Y36.98
X23.116 Y36.244
X22.676 Y35.458
X22.317 Y34.632
X22.049 Y33.772
X21.872 Y32.889
X21.783 Y31.992
X21.787 Y31.091
X21.886 Y30.196
X22.074 Y29.315
X22.347 Y28.456
X22.709 Y27.631
X23.152 Y26.847
X23.669 Y26.109
X24.26 Y25.429
X24.917 Y24.813
X25.63 Y24.262
X26.396 Y23.787
X27.206 Y23.394
X28.051 Y23.08
X28.922 Y22.852
X29.813 Y22.716
X30.713 Y22.667
X31.613 Y22.706
X32.504 Y22.839
X33.377 Y23.059
X34.226 Y23.362
X35.038 Y23.751
X35.808 Y24.219
X36.531 Y24.756
X37.198 Y25.362
X37.813 Y26.02
X38.379 Y26.721
X38.894 Y27.46
X39.351 Y28.237
X39.749 Y29.045
X40.084 Y29.881
X40.345 Y30.743
X40.538 Y31.623
X40.655 Y32.517
X40.692 Y33.417
X40.655 Y34.317
X40.536 Y35.21
X40.338 Y36.089
X40.068 Y36.948
X39.718 Y37.779
X39.299 Y38.576
X38.814 Y39.335
X38.261 Y40.046
X37.65 Y40.709
X36.985 Y41.317
X36.269 Y41.863
X35.511 Y42.349
X34.714 Y42.769
X33.884 Y43.12
X33.029 Y43.405
X32.66 Y43.495
X32.635 Y43.5
X32.338 Y43.552
X32.134 Y43.585
X31.52 Y43.67
X31.316 Y43.673
X30.907 Y43.671
X30.702 Y43.667
X29.476 Y43.596
X29.271 Y43.582
X29.067 Y43.567
X28.862 Y43.544
X28.658 Y43.514
X28.453 Y43.466
X28.045 Y43.36
X27.84 Y43.305
X26.613 Y42.938
X26.409 Y42.874
X26.2 Y42.795
X25.796 Y42.625
X25.72 Y42.59
X24.978 Y42.171
X24.364 Y41.817
X24.288 Y41.772
X23.751 Y41.445
X23.63 Y41.363
X23.547 Y41.299
X23.342 Y41.132
X23.136 Y40.954
X22.32 Y40.185
X22.115 Y39.992
X21.841 Y39.726
X21.707 Y39.587
X21.474 Y39.317
X21.324 Y39.113
X20.908 Y38.499
X20.48 Y37.848
X20.071 Y37.179
X20.009 Y37.067
X19.924 Y36.863
X19.756 Y36.454
X19.677 Y36.249
X19.231 Y35.022
X19.171 Y34.817
X19.049 Y34.364
X19.009 Y34.203
X18.929 Y33.59
X18.903 Y33.385
X18.809 Y32.567
X18.762 Y32.158
X18.755 Y31.953
X18.752 Y31.544
X18.753 Y31.34
X18.82 Y30.726
X18.891 Y30.112
X18.916 Y29.908
X18.992 Y29.294
X19.037 Y29.09
X19.14 Y28.681
X19.194 Y28.476
X19.416 Y27.862
X19.662 Y27.186
X19.716 Y27.044
X19.962 Y26.43
X20.067 Y26.226
X20.436 Y25.612
X20.889 Y24.924
X21.298 Y24.312
X21.391 Y24.18
X21.502 Y24.046
X21.951 Y23.567
X22.115 Y23.401
X23.025 Y22.544
X23.138 Y22.438
X23.247 Y22.339
X23.547 Y22.094
X23.751 Y21.956
X24.16 Y21.702
X24.364 Y21.576
X24.978 Y21.222
X25.591 Y20.875
X25.796 Y20.768
X26 Y20.676
X26.204 Y20.593
X26.474 Y20.498
X26.613 Y20.455
X27.84 Y20.088
X28.249 Y19.975
X28.453 Y19.919
X28.625 Y19.885
X28.658 Y19.88
X29.271 Y19.814
X29.476 Y19.797
X30.702 Y19.726
X30.907 Y19.722
X31.316 Y19.72
X31.52 Y19.723
X32.134 Y19.809
X32.338 Y19.841
X33.565 Y20.058
X33.706 Y20.089
X34.178 Y20.21
X34.383 Y20.266
X34.996 Y20.517
X35.2 Y20.603
X35.814 Y20.868
X36.427 Y21.141
X36.632 Y21.247
X36.758 Y21.317
X36.836 Y21.362
X37.245 Y21.639
X38.063 Y22.247
X38.472 Y22.553
X38.676 Y22.708
X38.726 Y22.748
X38.88 Y22.888
X39.085 Y23.076
X39.162 Y23.158
X39.346 Y23.362
X39.521 Y23.567
X40.107 Y24.265
X40.539 Y24.794
X40.693 Y24.999
X40.83 Y25.203
X41.057 Y25.612
X41.129 Y25.751
X41.779 Y27.044
X41.864 Y27.249
X42.03 Y27.658
X42.104 Y27.862
X42.261 Y28.476
X42.454 Y29.294
X42.597 Y29.908
X42.623 Y30.112
X42.671 Y30.521
X42.689 Y30.726
X42.693 Y31.34
Y31.953
X42.692 Y32.158
X42.686 Y32.772
X42.661 Y32.976
X42.607 Y33.385
X42.574 Y33.59
X42.284 Y34.817
X42.234 Y35.022
X42.073 Y35.635
X41.991 Y35.84
X41.817 Y36.249
X41.743 Y36.421
X41.11 Y37.681
X41.002 Y37.885
X40.887 Y38.09
X40.76 Y38.295
X40.619 Y38.499
X40.516 Y38.633
X40.107 Y39.128
X39.434 Y39.931
X39.289 Y40.092
X39.061 Y40.34
X38.88 Y40.505
X38.676 Y40.684
X38.594 Y40.749
X37.654 Y41.451
X37.245 Y41.755
X36.836 Y42.022
X36.632 Y42.149
X36.571 Y42.181
X36.427 Y42.253
X35.814 Y42.525
X35.189 Y42.795
X34.996 Y42.876
X34.383 Y43.128
X34.178 Y43.183
X33.769 Y43.288
X33.565 Y43.336
X32.635 Y43.5
X32.542 Y43.505 F800
X32.45 Y43.497
X32.381 Y43.471 Z9.605
X32.313 Y43.446 Z9.618
X32.246 Y43.422 Z9.641
X32.187 Y43.37 Z9.679
X32.132 Y43.323 Z9.729
X32.083 Y43.28 Z9.788
X32.053 Y43.231 Z9.859
X32.03 Y43.192 Z9.937
X32.013 Y43.163 Z10.021
X32.003 Y43.146 Z10.109
X31.999 Y43.14 Z10.2
G0 Z20.1
X30.6 Y29.686
Z10.1
G3 X32.752 Y31.572 Z9.989 I0.14 J2.011 F600
X30.851 Y33.707 Z9.878 I-2.01 J0.124
X28.732 Y31.791 Z9.767 I-0.109 J-2.009
X30.662 Y29.69 Z9.656 I2.008 J-0.093
X32.747 Y31.634 Z9.544 I0.078 J2.006
X30.788 Y33.702 Z9.433 I-2.005 J0.062
X28.738 Y31.729 Z9.322 I-0.046 J-2.004
X30.724 Y29.696 Z9.211 I2.002 J-0.031
X32.74 Y31.696 Z9.1 I0.015 J2
X28.74 Y31.696 I-2 J0
X32.74 Y31.696 I2 J0
G1 X32.743 Y31.809 F1300
X33.062 Y32.651
X33.17 Y32.794
X33.27 Y32.973
X33.351 Y33.189
X33.406 Y33.44
X33.426 Y33.723
X33.404 Y34.032
X33.331 Y34.361
X33.203 Y34.702
X33.013 Y35.044
X32.759 Y35.379
X32.439 Y35.692
X32.056 Y35.973
X31.611 Y36.209
X31.111 Y36.388
X30.565 Y36.499
X29.983 Y36.531
X29.378 Y36.476
X28.766 Y36.33
X28.162 Y36.091
X27.582 Y35.757
X27.044 Y35.333
X26.562 Y34.826
X26.15 Y34.244
X25.822 Y33.599
X25.587 Y32.905
X25.453 Y32.177
X25.424 Y31.431
X25.504 Y30.683
X25.692 Y29.95
X25.984 Y29.249
X26.376 Y28.594
X26.859 Y28
X27.425 Y27.481
X28.06 Y27.048
X28.752 Y26.71
X29.487 Y26.474
X30.248 Y26.347
X31.021 Y26.331
X31.788 Y26.426
X32.534 Y26.63
X33.244 Y26.94
X33.902 Y27.348
X34.494 Y27.848
X35.092 Y28.521
X35.595 Y29.269
X36.057 Y30.042
X36.446 Y30.855
X36.74 Y31.706
X36.922 Y32.588
X36.983 Y33.487
X36.918 Y34.386
X36.727 Y35.266
X36.415 Y36.111
X35.987 Y36.904
X35.455 Y37.631
X34.831 Y38.28
X34.125 Y38.84
X33.352 Y39.303
X32.526 Y39.662
X31.662 Y39.917
X30.773 Y40.066
X29.873 Y40.109
X28.975 Y40.044
X28.09 Y39.874
X27.23 Y39.607
X26.404 Y39.248
X25.624 Y38.797
X24.899 Y38.262
X24.233 Y37.655
X23.636 Y36.98
X23.116 Y36.244
X22.676 Y35.458
X22.317 Y34.632
X22.049 Y33.772
X21.872 Y32.889
X21.783 Y31.992
X21.787 Y31.091
X21.886 Y30.196
X22.074 Y29.315
X22.347 Y28.456
X22.709 Y27.631
X23.152 Y26.847
X23.669 Y26.109
X24.26 Y25.429
X24.917 Y24.813
X25.63 Y24.262
X26.396 Y23.787
X27.206 Y23.394
X28.051 Y23.08
X28.922 Y22.852
X29.813 Y22.716
X30.713 Y22.667
X31.613 Y22.706
X32.504 Y22.839
X33.377 Y23.059
X34.226 Y23.362
X35.038 Y23.751
X35.808 Y24.219
X36.531 Y24.756
X37.198 Y25.362
X37.813 Y26.02
X38.379 Y26.721
X38.894 Y27.46
X39.351 Y28.237
X39.749 Y29.045
X40.084 Y29.881
X40.345 Y30.743
X40.538 Y31.623
X40.655 Y32.517
X40.692 Y33.417
X40.655 Y34.317
X40.536 Y35.21
X40.338 Y36.089
X40.068 Y36.948
X39.718 Y37.779
X39.299 Y38.576
X38.814 Y39.335
X38.261 Y40.046
X37.65 Y40.709
X36.985 Y41.317
X36.269 Y41.863
X35.511 Y42.349
X34.714 Y42.769
X33.884 Y43.12
X33.029 Y43.405
X32.66 Y43.495
X32.635 Y43.5
X32.338 Y43.552
X32.134 Y43.585
X31.52 Y43.67
X31.316 Y43.673
X30.907 Y43.671
X30.702 Y43.667
X29.476 Y43.596
X29.271 Y43.582
X29.067 Y43.567
X28.862 Y43.544
X28.658 Y43.514
X28.453 Y43.466
X28.045 Y43.36
X27.84 Y43.305
X26.613 Y42.938
X26.409 Y42.874
X26.2 Y42.795
X25.796 Y42.625
X25.72 Y42.59
X24.978 Y42.171
X24.364 Y41.817
X24.288 Y41.772
X23.751 Y41.445
X23.63 Y41.363
X23.547 Y41.299
X23.342 Y41.132
X23.136 Y40.954
X22.32 Y40.185
X22.115 Y39.992
X21.841 Y39.726
X21.707 Y39.587
X21.474 Y39.317
X21.324 Y39.113
X20.908 Y38.499
X20.48 Y37.848
X20.071 Y37.179
X20.009 Y37.067
X19.924 Y36.863
X19.756 Y36.454
X19.677 Y36.249
X19.231 Y35.022
X19.171 Y34.817
X19.049 Y34.364
X19.009 Y34.203
X18.929 Y33.59
X18.903 Y33.385
X18.809 Y32.567
X18.762 Y32.158
X18.755 Y31.953
X18.752 Y31.544
X18.753 Y31.34
X18.82 Y30.726
X18.891 Y30.112
X18.916 Y29.908
X18.992 Y29.294
X19.037 Y29.09
X19.14 Y28.681
X19.194 Y28.476
X19.416 Y27.862
X19.662 Y27.186
X19.716 Y27.044
X19.962 Y26.43
X20.067 Y26.226
X20.436 Y25.612
X20.889 Y24.924
X21.298 Y24.312
X21.391 Y24.18
X21.502 Y24.046
X21.951 Y23.567
X22.115 Y23.401
X23.025 Y22.544
X23.138 Y22.438
X23.247 Y22.339
X23.547 Y22.094
X23.751 Y21.956
X24.16 Y21.702
X24.364 Y21.576
X24.978 Y21.222
X25.591 Y20.875
X25.796 Y20.768
X26 Y20.676
X26.204 Y20.593
X26.474 Y20.498
X26.613 Y20.455
X27.84 Y20.088
X28.249 Y19.975
X28.453 Y19.919
X28.625 Y19.885
X28.658 Y19.88
X29.271 Y19.814
X29.476 Y19.797
X30.702 Y19.726
X30.907 Y19.722
X31.316 Y19.72
X31.52 Y19.723
X32.134 Y19.809
X32.338 Y19.841
X33.565 Y20.058
X33.706 Y20.089
X34.178 Y20.21
X34.383 Y20.266
X34.996 Y20.517
X35.2 Y20.603
X35.814 Y20.868
X36.427 Y21.141
X36.632 Y21.247
X36.758 Y21.317
X36.836 Y21.362
X37.245 Y21.639
X38.063 Y22.247
X38.472 Y22.553
X38.676 Y22.708
X38.726 Y22.748
X38.88 Y22.888
X39.085 Y23.076
X39.162 Y23.158
X39.346 Y23.362
X39.521 Y23.567
X40.107 Y24.265
X40.539 Y24.794
X40.693 Y24.999
X40.83 Y25.203
X41.057 Y25.612
X41.129 Y25.751
X41.779 Y27.044
X41.864 Y27.249
X42.03 Y27.658
X42.104 Y27.862
X42.261 Y28.476
X42.454 Y29.294
X42.597 Y29.908
X42.623 Y30.112
X42.671 Y30.521
X42.689 Y30.726
X42.693 Y31.34
Y31.953
X42.692 Y32.158
X42.686 Y32.772
X42.661 Y32.976
X42.607 Y33.385
X42.574 Y33.59
X42.284 Y34.817
X42.234 Y35.022
X42.073 Y35.635
X41.991 Y35.84
X41.817 Y36.249
X41.743 Y36.421
X41.11 Y37.681
X41.002 Y37.885
X40.887 Y38.09
X40.76 Y38.295
X40.619 Y38.499
X40.516 Y38.633
X40.107 Y39.128
X39.434 Y39.931
X39.289 Y40.092
X39.061 Y40.34
X38.88 Y40.505
X38.676 Y40.684
X38.594 Y40.749
X37.654 Y41.451
X37.245 Y41.755
X36.836 Y42.022
X36.632 Y42.149
X36.571 Y42.181
X36.427 Y42.253
X35.814 Y42.525
X35.189 Y42.795
X34.996 Y42.876
X34.383 Y43.128
X34.178 Y43.183
X33.769 Y43.288
X33.565 Y43.336
X32.635 Y43.5
X32.542 Y43.505 F800
X32.45 Y43.497
X32.381 Y43.471 Z9.105
X32.313 Y43.446 Z9.118
X32.246 Y43.422 Z9.141
X32.187 Y43.37 Z9.179
X32.132 Y43.323 Z9.229
X32.083 Y43.28 Z9.288
X32.053 Y43.231 Z9.359
X32.03 Y43.192 Z9.437
X32.013 Y43.163 Z9.521
X32.003 Y43.146 Z9.609
X31.999 Y43.14 Z9.7
G0 X30.6 Y29.686
Z9.6
G3 X32.752 Y31.572 Z9.489 I0.14 J2.011 F600
X30.851 Y33.707 Z9.378 I-2.01 J0.124
X28.732 Y31.791 Z9.267 I-0.109 J-2.009
X30.662 Y29.69 Z9.156 I2.008 J-0.093
X32.747 Y31.634 Z9.044 I0.078 J2.006
X30.788 Y33.702 Z8.933 I-2.005 J0.062
X28.738 Y31.729 Z8.822 I-0.046 J-2.004
X30.724 Y29.696 Z8.711 I2.002 J-0.031
X32.74 Y31.696 Z8.6 I0.015 J2
X28.74 Y31.696 I-2 J0
X32.74 Y31.696 I2 J0
G1 X32.743 Y31.809 F1300
X33.062 Y32.651
X33.17 Y32.794
X33.27 Y32.973
X33.351 Y33.189
X33.406 Y33.44
X33.426 Y33.723
X33.404 Y34.032
X33.331 Y34.361
X33.203 Y34.702
X33.013 Y35.044
X32.759 Y35.379
X32.439 Y35.692
X32.056 Y35.973
X31.611 Y36.209
X31.111 Y36.388
X30.565 Y36.499
X29.983 Y36.531
X29.378 Y36.476
X28.766 Y36.33
X28.162 Y36.091
X27.582 Y35.757
X27.044 Y35.333
X26.562 Y34.826
X26.15 Y34.244
X25.822 Y33.599
X25.587 Y32.905
X25.453 Y32.177
X25.424 Y31.431
X25.504 Y30.683
X25.692 Y29.95
X25.984 Y29.249
X26.376 Y28.594
X26.859 Y28
X27.425 Y27.481
X28.06 Y27.048
X28.752 Y26.71
X29.487 Y26.474
X30.248 Y26.347
X31.021 Y26.331
X31.788 Y26.426
X32.534 Y26.63
X33.244 Y26.94
X33.902 Y27.348
X34.494 Y27.848
X35.092 Y28.521
X35.595 Y29.269
X36.057 Y30.042
X36.446 Y30.855
X36.74 Y31.706
X36.922 Y32.588
X36.983 Y33.487
X36.918 Y34.386
X36.727 Y35.266
X36.415 Y36.111
X35.987 Y36.904
X35.455 Y37.631
X34.831 Y38.28
X34.125 Y38.84
X33.352 Y39.303
X32.526 Y39.662
X31.662 Y39.917
X30.773 Y40.066
X29.873 Y40.109
X28.975 Y40.044
X28.09 Y39.874
X27.23 Y39.607
X26.404 Y39.248
X25.624 Y38.797
X24.899 Y38.262
X24.233 Y37.655
X23.636 Y36.98
X23.116 Y36.244
X22.676 Y35.458
X22.317 Y34.632
X22.049 Y33.772
X21.872 Y32.889
X21.783 Y31.992
X21.787 Y31.091
X21.886 Y30.196
X22.074 Y29.315
X22.347 Y28.456
X22.709 Y27.631
X23.152 Y26.847
X23.669 Y26.109
X24.26 Y25.429
X24.917 Y24.813
X25.63 Y24.262
X26.396 Y23.787
X27.206 Y23.394
X28.051 Y23.08
X28.922 Y22.852
X29.813 Y22.716
X30.713 Y22.667
X31.613 Y22.706
X32.504 Y22.839
X33.377 Y23.059
X34.226 Y23.362
X35.038 Y23.751
X35.808 Y24.219
X36.531 Y24.756
X37.198 Y25.362
X37.813 Y26.02
X38.379 Y26.721
X38.894 Y27.46
X39.351 Y28.237
X39.749 Y29.045
X40.084 Y29.881
X40.345 Y30.743
X40.538 Y31.623
X40.655 Y32.517
X40.692 Y33.417
X40.655 Y34.317
X40.536 Y35.21
X40.338 Y36.089
X40.068 Y36.948
X39.718 Y37.779
X39.299 Y38.576
X38.814 Y39.335
X38.261 Y40.046
X37.65 Y40.709
X36.985 Y41.317
X36.269 Y41.863
X35.511 Y42.349
X34.714 Y42.769
X33.884 Y43.12
X33.029 Y43.405
X32.66 Y43.495
X32.635 Y43.5
X32.338 Y43.552
X32.134 Y43.585
X31.52 Y43.67
X31.316 Y43.673
X30.907 Y43.671
X30.702 Y43.667
X29.476 Y43.596
X29.271 Y43.582
X29.067 Y43.567
X28.862 Y43.544
X28.658 Y43.514
X28.453 Y43.466
X28.045 Y43.36
X27.84 Y43.305
X26.613 Y42.938
X26.409 Y42.874
X26.2 Y42.795
X25.796 Y42.625
X25.72 Y42.59
X24.978 Y42.171
X24.364 Y41.817
X24.288 Y41.772
X23.751 Y41.445
X23.63 Y41.363
X23.547 Y41.299
X23.342 Y41.132
X23.136 Y40.954
X22.32 Y40.185
X22.115 Y39.992
X21.841 Y39.726
X21.707 Y39.587
X21.474 Y39.317
X21.324 Y39.113
X20.908 Y38.499
X20.48 Y37.848
X20.071 Y37.179
X20.009 Y37.067
X19.924 Y36.863
X19.756 Y36.454
X19.677 Y36.249
X19.231 Y35.022
X19.171 Y34.817
X19.049 Y34.364
X19.009 Y34.203
X18.929 Y33.59
X18.903 Y33.385
X18.809 Y32.567
X18.762 Y32.158
X18.755 Y31.953
X18.752 Y31.544
X18.753 Y31.34
X18.82 Y30.726
X18.891 Y30.112
X18.916 Y29.908
X18.992 Y29.294
X19.037 Y29.09
X19.14 Y28.681
X19.194 Y28.476
X19.416 Y27.862
X19.662 Y27.186
X19.716 Y27.044
X19.962 Y26.43
X20.067 Y26.226
X20.436 Y25.612
X20.889 Y24.924
X21.298 Y24.312
X21.391 Y24.18
X21.502 Y24.046
X21.951 Y23.567
X22.115 Y23.401
X23.025 Y22.544
X23.138 Y22.438
X23.247 Y22.339
X23.547 Y22.094
X23.751 Y21.956
X24.16 Y21.702
X24.364 Y21.576
X24.978 Y21.222
X25.591 Y20.875
X25.796 Y20.768
X26 Y20.676
X26.204 Y20.593
X26.474 Y20.498
X26.613 Y20.455
X27.84 Y20.088
X28.249 Y19.975
X28.453 Y19.919
X28.625 Y19.885
X28.658 Y19.88
X29.271 Y19.814
X29.476 Y19.797
X30.702 Y19.726
X30.907 Y19.722
X31.316 Y19.72
X31.52 Y19.723
X32.134 Y19.809
X32.338 Y19.841
X33.565 Y20.058
X33.706 Y20.089
X34.178 Y20.21
X34.383 Y20.266
X34.996 Y20.517
X35.2 Y20.603
X35.814 Y20.868
X36.427 Y21.141
X36.632 Y21.247
X36.758 Y21.317
X36.836 Y21.362
X37.245 Y21.639
X38.063 Y22.247
X38.472 Y22.553
X38.676 Y22.708
X38.726 Y22.748
X38.88 Y22.888
X39.085 Y23.076
X39.162 Y23.158
X39.346 Y23.362
X39.521 Y23.567
X40.107 Y24.265
X40.539 Y24.794
X40.693 Y24.999
X40.83 Y25.203
X41.057 Y25.612
X41.129 Y25.751
X41.779 Y27.044
X41.864 Y27.249
X42.03 Y27.658
X42.104 Y27.862
X42.261 Y28.476
X42.454 Y29.294
X42.597 Y29.908
X42.623 Y30.112
X42.671 Y30.521
X42.689 Y30.726
X42.693 Y31.34
Y31.953
X42.692 Y32.158
X42.686 Y32.772
X42.661 Y32.976
X42.607 Y33.385
X42.574 Y33.59
X42.284 Y34.817
X42.234 Y35.022
X42.073 Y35.635
X41.991 Y35.84
X41.817 Y36.249
X41.743 Y36.421
X41.11 Y37.681
X41.002 Y37.885
X40.887 Y38.09
X40.76 Y38.295
X40.619 Y38.499
X40.516 Y38.633
X40.107 Y39.128
X39.434 Y39.931
X39.289 Y40.092
X39.061 Y40.34
X38.88 Y40.505
X38.676 Y40.684
X38.594 Y40.749
X37.654 Y41.451
X37.245 Y41.755
X36.836 Y42.022
X36.632 Y42.149
X36.571 Y42.181
X36.427 Y42.253
X35.814 Y42.525
X35.189 Y42.795
X34.996 Y42.876
X34.383 Y43.128
X34.178 Y43.183
X33.769 Y43.288
X33.565 Y43.336
X32.635 Y43.5
X32.542 Y43.505 F800
X32.45 Y43.497
X32.381 Y43.471 Z8.605
X32.313 Y43.446 Z8.618
X32.246 Y43.422 Z8.641
X32.187 Y43.37 Z8.679
X32.132 Y43.323 Z8.729
X32.083 Y43.28 Z8.788
X32.053 Y43.231 Z8.859
X32.03 Y43.192 Z8.937
X32.013 Y43.163 Z9.021
X32.003 Y43.146 Z9.109
X31.999 Y43.14 Z9.2
G0 X30.6 Y29.686
Z9.1
G3 X32.752 Y31.572 Z8.989 I0.14 J2.011 F600
X30.851 Y33.707 Z8.878 I-2.01 J0.124
X28.732 Y31.791 Z8.767 I-0.109 J-2.009
X30.662 Y29.69 Z8.656 I2.008 J-0.093
X32.747 Y31.634 Z8.544 I0.078 J2.006
X30.788 Y33.702 Z8.433 I-2.005 J0.062
X28.738 Y31.729 Z8.322 I-0.046 J-2.004
X30.724 Y29.696 Z8.211 I2.002 J-0.031
X32.74 Y31.696 Z8.1 I0.015 J2
X28.74 Y31.696 I-2 J0
X32.74 Y31.696 I2 J0
G1 X32.743 Y31.809 F1300
X33.062 Y32.651
X33.17 Y32.794
X33.27 Y32.973
X33.351 Y33.189
X33.406 Y33.44
X33.426 Y33.723
X33.404 Y34.032
X33.331 Y34.361
X33.203 Y34.702
X33.013 Y35.044
X32.759 Y35.379
X32.439 Y35.692
X32.056 Y35.973
X31.611 Y36.209
X31.111 Y36.388
X30.565 Y36.499
X29.983 Y36.531
X29.378 Y36.476
X28.766 Y36.33
X28.162 Y36.091
X27.582 Y35.757
X27.044 Y35.333
X26.562 Y34.826
X26.15 Y34.244
X25.822 Y33.599
X25.587 Y32.905
X25.453 Y32.177
X25.424 Y31.431
X25.504 Y30.683
X25.692 Y29.95
X25.984 Y29.249
X26.376 Y28.594
X26.859 Y28
X27.425 Y27.481
X28.06 Y27.048
X28.752 Y26.71
X29.487 Y26.474
X30.248 Y26.347
X31.021 Y26.331
X31.788 Y26.426
X32.534 Y26.63
X33.244 Y26.94
X33.902 Y27.348
X34.494 Y27.848
X35.092 Y28.521
X35.595 Y29.269
X36.057 Y30.042
X36.446 Y30.855
X36.74 Y31.706
X36.922 Y32.588
X36.983 Y33.487
X36.918 Y34.386
X36.727 Y35.266
X36.415 Y36.111
X35.987 Y36.904
X35.455 Y37.631
X34.831 Y38.28
X34.125 Y38.84
X33.352 Y39.303
X32.526 Y39.662
X31.662 Y39.917
X30.773 Y40.066
X29.873 Y40.109
X28.975 Y40.044
X28.09 Y39.874
X27.23 Y39.607
X26.404 Y39.248
X25.624 Y38.797
X24.899 Y38.262
X24.233 Y37.655
X23.636 Y36.98
X23.116 Y36.244
X22.676 Y35.458
X22.317 Y34.632
X22.049 Y33.772
X21.872 Y32.889
X21.783 Y31.992
X21.787 Y31.091
X21.886 Y30.196
X22.074 Y29.315
X22.347 Y28.456
X22.709 Y27.631
X23.152 Y26.847
X23.669 Y26.109
X24.26 Y25.429
X24.917 Y24.813
X25.63 Y24.262
X26.396 Y23.787
X27.206 Y23.394
X28.051 Y23.08
X28.922 Y22.852
X29.813 Y22.716
X30.713 Y22.667
X31.613 Y22.706
X32.504 Y22.839
X33.377 Y23.059
X34.226 Y23.362
X35.038 Y23.751
X35.808 Y24.219
X36.531 Y24.756
X37.198 Y25.362
X37.813 Y26.02
X38.379 Y26.721
X38.894 Y27.46
X39.351 Y28.237
X39.749 Y29.045
X40.084 Y29.881
X40.345 Y30.743
X40.538 Y31.623
X40.655 Y32.517
X40.692 Y33.417
X40.655 Y34.317
X40.536 Y35.21
X40.338 Y36.089
X40.068 Y36.948
X39.718 Y37.779
X39.299 Y38.576
X38.814 Y39.335
X38.261 Y40.046
X37.65 Y40.709
X36.985 Y41.317
X36.269 Y41.863
X35.511 Y42.349
X34.714 Y42.769
X33.884 Y43.12
X33.029 Y43.405
X32.66 Y43.495
X32.635 Y43.5
X32.338 Y43.552
X32.134 Y43.585
X31.52 Y43.67
X31.316 Y43.673
X30.907 Y43.671
X30.702 Y43.667
X29.476 Y43.596
X29.271 Y43.582
X29.067 Y43.567
X28.862 Y43.544
X28.658 Y43.514
X28.453 Y43.466
X28.045 Y43.36
X27.84 Y43.305
X26.613 Y42.938
X26.409 Y42.874
X26.2 Y42.795
X25.796 Y42.625
X25.72 Y42.59
X24.978 Y42.171
X24.364 Y41.817
X24.288 Y41.772
X23.751 Y41.445
X23.63 Y41.363
X23.547 Y41.299
X23.342 Y41.132
X23.136 Y40.954
X22.32 Y40.185
X22.115 Y39.992
X21.841 Y39.726
X21.707 Y39.587
X21.474 Y39.317
X21.324 Y39.113
X20.908 Y38.499
X20.48 Y37.848
X20.071 Y37.179
X20.009 Y37.067
X19.924 Y36.863
X19.756 Y36.454
X19.677 Y36.249
X19.231 Y35.022
X19.171 Y34.817
X19.049 Y34.364
X19.009 Y34.203
X18.929 Y33.59
X18.903 Y33.385
X18.809 Y32.567
X18.762 Y32.158
X18.755 Y31.953
X18.752 Y31.544
X18.753 Y31.34
X18.82 Y30.726
X18.891 Y30.112
X18.916 Y29.908
X18.992 Y29.294
X19.037 Y29.09
X19.14 Y28.681
X19.194 Y28.476
X19.416 Y27.862
X19.662 Y27.186
X19.716 Y27.044
X19.962 Y26.43
X20.067 Y26.226
X20.436 Y25.612
X20.889 Y24.924
X21.298 Y24.312
X21.391 Y24.18
X21.502 Y24.046
X21.951 Y23.567
X22.115 Y23.401
X23.025 Y22.544
X23.138 Y22.438
X23.247 Y22.339
X23.547 Y22.094
X23.751 Y21.956
X24.16 Y21.702
X24.364 Y21.576
X24.978 Y21.222
X25.591 Y20.875
X25.796 Y20.768
X26 Y20.676
X26.204 Y20.593
X26.474 Y20.498
X26.613 Y20.455
X27.84 Y20.088
X28.249 Y19.975
X28.453 Y19.919
X28.625 Y19.885
X28.658 Y19.88
X29.271 Y19.814
X29.476 Y19.797
X30.702 Y19.726
X30.907 Y19.722
X31.316 Y19.72
X31.52 Y19.723
X32.134 Y19.809
X32.338 Y19.841
X33.565 Y20.058
X33.706 Y20.089
X34.178 Y20.21
X34.383 Y20.266
X34.996 Y20.517
X35.2 Y20.603
X35.814 Y20.868
X36.427 Y21.141
X36.632 Y21.247
X36.758 Y21.317
X36.836 Y21.362
X37.245 Y21.639
X38.063 Y22.247
X38.472 Y22.553
X38.676 Y22.708
X38.726 Y22.748
X38.88 Y22.888
X39.085 Y23.076
X39.162 Y23.158
X39.346 Y23.362
X39.521 Y23.567
X40.107 Y24.265
X40.539 Y24.794
X40.693 Y24.999
X40.83 Y25.203
X41.057 Y25.612
X41.129 Y25.751
X41.779 Y27.044
X41.864 Y27.249
X42.03 Y27.658
X42.104 Y27.862
X42.261 Y28.476
X42.454 Y29.294
X42.597 Y29.908
X42.623 Y30.112
X42.671 Y30.521
X42.689 Y30.726
X42.693 Y31.34
Y31.953
X42.692 Y32.158
X42.686 Y32.772
X42.661 Y32.976
X42.607 Y33.385
X42.574 Y33.59
X42.284 Y34.817
X42.234 Y35.022
X42.073 Y35.635
X41.991 Y35.84
X41.817 Y36.249
X41.743 Y36.421
X41.11 Y37.681
X41.002 Y37.885
X40.887 Y38.09
X40.76 Y38.295
X40.619 Y38.499
X40.516 Y38.633
X40.107 Y39.128
X39.434 Y39.931
X39.289 Y40.092
X39.061 Y40.34
X38.88 Y40.505
X38.676 Y40.684
X38.594 Y40.749
X37.654 Y41.451
X37.245 Y41.755
X36.836 Y42.022
X36.632 Y42.149
X36.571 Y42.181
X36.427 Y42.253
X35.814 Y42.525
X35.189 Y42.795
X34.996 Y42.876
X34.383 Y43.128
X34.178 Y43.183
X33.769 Y43.288
X33.565 Y43.336
X32.635 Y43.5
X32.542 Y43.505 F800
X32.45 Y43.497
X32.381 Y43.471 Z8.105
X32.313 Y43.446 Z8.118
X32.246 Y43.422 Z8.141
X32.187 Y43.37 Z8.179
X32.132 Y43.323 Z8.229
X32.083 Y43.28 Z8.288
X32.053 Y43.231 Z8.359
X32.03 Y43.192 Z8.437
X32.013 Y43.163 Z8.521
X32.003 Y43.146 Z8.609
X31.999 Y43.14 Z8.7
G0 X31.503 Y33.558
Z8.6
G3 X29.01 Y32.725 Z8.5 I-0.763 J-1.862 F600
X29.467 Y30.139 Z8.4 I1.728 J-1.028
X32.09 Y30.211 Z8.3 I1.27 J1.557
X32.405 Y32.813 Z8.2 I-1.351 J1.484
X29.88 Y33.507 Z8.1 I-1.665 J-1.117
X28.822 Y31.114 Z8 I0.859 J-1.81
X31.032 Y29.717 Z7.9 I1.915 J0.583
X32.738 Y31.695 Z7.8 I-0.294 J1.978
X28.738 Y31.695 I-2 J0
X32.738 Y31.695 I2 J0
G1 X32.74 Y31.808 F1300
X33.06 Y32.65
X33.168 Y32.793
X33.267 Y32.972
X33.349 Y33.188
X33.404 Y33.439
X33.424 Y33.722
X33.402 Y34.031
X33.329 Y34.36
X33.2 Y34.7
X33.01 Y35.043
X32.756 Y35.377
X32.437 Y35.691
X32.053 Y35.972
X31.608 Y36.208
X31.109 Y36.387
X30.562 Y36.497
X29.98 Y36.529
X29.376 Y36.475
X28.764 Y36.329
X28.16 Y36.089
X27.58 Y35.755
X27.042 Y35.332
X26.56 Y34.824
X26.148 Y34.242
X25.82 Y33.598
X25.585 Y32.904
X25.451 Y32.176
X25.422 Y31.43
X25.502 Y30.682
X25.69 Y29.949
X25.982 Y29.247
X26.374 Y28.592
X26.857 Y27.999
X27.422 Y27.48
X28.058 Y27.046
X28.75 Y26.708
X29.484 Y26.473
X30.246 Y26.346
X31.019 Y26.329
X31.786 Y26.424
X32.532 Y26.629
X33.242 Y26.939
X33.899 Y27.347
X34.492 Y27.846
X35.09 Y28.52
X35.593 Y29.267
X36.055 Y30.041
X36.444 Y30.853
X36.738 Y31.705
X36.92 Y32.587
X36.981 Y33.486
X36.916 Y34.385
X36.725 Y35.265
X36.412 Y36.11
X35.985 Y36.903
X35.453 Y37.63
X34.828 Y38.279
X34.122 Y38.839
X33.349 Y39.301
X32.523 Y39.661
X31.659 Y39.915
X30.771 Y40.065
X29.871 Y40.108
X28.972 Y40.042
X28.087 Y39.873
X27.227 Y39.606
X26.401 Y39.246
X25.621 Y38.795
X24.896 Y38.26
X24.231 Y37.653
X23.633 Y36.979
X23.114 Y36.243
X22.674 Y35.456
X22.315 Y34.63
X22.047 Y33.77
X21.87 Y32.887
X21.781 Y31.99
X21.785 Y31.089
X21.884 Y30.194
X22.072 Y29.313
X22.345 Y28.454
X22.707 Y27.63
X23.151 Y26.845
X23.668 Y26.107
X24.259 Y25.427
X24.916 Y24.811
X25.629 Y24.261
X26.394 Y23.786
X27.205 Y23.392
X28.049 Y23.079
X28.921 Y22.851
X29.811 Y22.714
X30.711 Y22.666
X31.611 Y22.705
X32.502 Y22.837
X33.376 Y23.058
X34.224 Y23.361
X35.037 Y23.75
X35.806 Y24.219
X36.529 Y24.756
X37.196 Y25.361
X37.811 Y26.02
X38.377 Y26.721
X38.893 Y27.459
X39.349 Y28.236
X39.747 Y29.045
X40.082 Y29.881
X40.343 Y30.743
X40.536 Y31.623
X40.653 Y32.516
X40.69 Y33.416
X40.653 Y34.316
X40.533 Y35.209
X40.336 Y36.088
X40.065 Y36.948
X39.716 Y37.778
X39.296 Y38.575
X38.811 Y39.334
X38.258 Y40.045
X37.647 Y40.708
X36.982 Y41.316
X36.266 Y41.862
X35.507 Y42.348
X34.711 Y42.768
X33.881 Y43.119
X33.026 Y43.403
X32.631 Y43.5
X32.605 Y43.505
X32.338 Y43.552
X32.134 Y43.585
X31.52 Y43.67
X31.316 Y43.673
X30.907 Y43.671
X30.702 Y43.667
X29.476 Y43.596
X29.271 Y43.582
X29.067 Y43.567
X28.862 Y43.544
X28.658 Y43.514
X28.453 Y43.466
X28.045 Y43.36
X27.84 Y43.305
X26.613 Y42.938
X26.409 Y42.874
X26.2 Y42.795
X25.796 Y42.625
X25.72 Y42.59
X24.978 Y42.171
X24.364 Y41.817
X24.288 Y41.772
X23.751 Y41.445
X23.63 Y41.363
X23.547 Y41.299
X23.342 Y41.132
X23.136 Y40.954
X22.32 Y40.185
X22.115 Y39.992
X21.841 Y39.726
X21.707 Y39.587
X21.474 Y39.317
X21.324 Y39.113
X20.908 Y38.499
X20.48 Y37.848
X20.071 Y37.179
X20.009 Y37.067
X19.924 Y36.863
X19.756 Y36.454
X19.677 Y36.249
X19.231 Y35.022
X19.171 Y34.817
X19.049 Y34.364
X19.009 Y34.203
X18.929 Y33.59
X18.903 Y33.385
X18.809 Y32.567
X18.762 Y32.158
X18.755 Y31.953
X18.752 Y31.544
X18.753 Y31.34
X18.82 Y30.726
X18.891 Y30.112
X18.916 Y29.908
X18.992 Y29.294
X19.037 Y29.09
X19.14 Y28.681
X19.194 Y28.476
X19.416 Y27.862
X19.662 Y27.186
X19.716 Y27.044
X19.962 Y26.43
X20.067 Y26.226
X20.436 Y25.612
X20.889 Y24.924
X21.298 Y24.312
X21.391 Y24.18
X21.502 Y24.046
X21.951 Y23.567
X22.115 Y23.401
X23.025 Y22.544
X23.138 Y22.438
X23.247 Y22.339
X23.547 Y22.094
X23.751 Y21.956
X24.16 Y21.702
X24.364 Y21.576
X24.978 Y21.222
X25.591 Y20.875
X25.796 Y20.768
X26 Y20.676
X26.204 Y20.593
X26.474 Y20.498
X26.613 Y20.455
X27.84 Y20.088
X28.249 Y19.975
X28.453 Y19.919
X28.625 Y19.885
X28.658 Y19.88
X29.271 Y19.814
X29.476 Y19.797
X30.702 Y19.726
X30.907 Y19.722
X31.316 Y19.72
X31.52 Y19.723
X32.134 Y19.809
X32.338 Y19.841
X33.565 Y20.058
X33.706 Y20.089
X34.178 Y20.21
X34.383 Y20.266
X34.996 Y20.517
X35.2 Y20.603
X35.814 Y20.868
X36.427 Y21.141
X36.632 Y21.247
X36.758 Y21.317
X36.836 Y21.362
X37.245 Y21.639
X38.063 Y22.247
X38.472 Y22.553
X38.676 Y22.708
X38.726 Y22.748
X38.88 Y22.888
X39.085 Y23.076
X39.162 Y23.158
X39.346 Y23.362
X39.521 Y23.567
X40.107 Y24.265
X40.539 Y24.794
X40.693 Y24.999
X40.83 Y25.203
X41.057 Y25.612
X41.129 Y25.751
X41.779 Y27.044
X41.864 Y27.249
X42.03 Y27.658
X42.104 Y27.862
X42.261 Y28.476
X42.454 Y29.294
X42.597 Y29.908
X42.623 Y30.112
X42.671 Y30.521
X42.689 Y30.726
X42.693 Y31.34
Y31.953
X42.692 Y32.158
X42.686 Y32.772
X42.661 Y32.976
X42.607 Y33.385
X42.574 Y33.59
X42.284 Y34.817
X42.234 Y35.022
X42.073 Y35.635
X41.991 Y35.84
X41.817 Y36.249
X41.743 Y36.421
X41.11 Y37.681
X41.002 Y37.885
X40.887 Y38.09
X40.76 Y38.295
X40.619 Y38.499
X40.516 Y38.633
X40.107 Y39.128
X39.434 Y39.931
X39.289 Y40.092
X39.061 Y40.34
X38.88 Y40.505
X38.676 Y40.684
X38.594 Y40.749
X37.654 Y41.451
X37.245 Y41.755
X36.836 Y42.022
X36.632 Y42.149
X36.571 Y42.181
X36.427 Y42.253
X35.814 Y42.525
X35.189 Y42.795
X34.996 Y42.876
X34.383 Y43.128
X34.178 Y43.183
X33.769 Y43.288
X33.565 Y43.336
X32.605 Y43.505
G3 X31.969 Y43.145 I-0.083 J-0.594 F800
G1 X31.933 Y43.059 Z7.807
X31.897 Y42.974 Z7.829
X31.863 Y42.894 Z7.865
X31.831 Y42.821 Z7.915
X31.803 Y42.755 Z7.976
X31.78 Y42.698 Z8.047
X31.76 Y42.653 Z8.128
X31.746 Y42.62 Z8.215
X31.738 Y42.6 Z8.306
X31.735 Y42.593 Z8.4
G0 Z30.1
G28 G91 Z0
G90
G28 G91 X0 Y0
G90
M5
M30
