(adap3)
(T1 D=6 CR=0 - ZMIN=0 - flat end mill)
G90 G94
G17
G21
G28 G91 Z0
G90

(Adaptive1 3)
T1
S18000 M3
G17 G90 G94
G54
G0 X58.878 Y93.817
Z30.1
G0 Z20.1
Z10.8
G1 Z10.2 F600
X58.871 Y93.819 Z10.106
X58.85 Y93.824 Z10.015
X58.815 Y93.833 Z9.928
X58.767 Y93.846 Z9.847
X58.708 Y93.861 Z9.776
X58.639 Y93.878 Z9.715
X58.561 Y93.898 Z9.665
X58.477 Y93.92 Z9.629
X58.388 Y93.943 Z9.607
X58.297 Y93.966 Z9.6
G3 X55.031 Y94.436 I-3.801 J-14.839
G1 X54.928 F1000
X54.78 Y94.463
X54.602 Y94.461
X54.37 Y94.425
X54.087 Y94.337
X53.76 Y94.181
X53.396 Y93.938
X53.002 Y93.583
X52.587 Y93.082
X52.158 Y92.381
X51.804 Y91.553
X51.55 Y90.689
X51.37 Y89.806
X51.245 Y88.914
X51.157 Y88.017
X51.097 Y87.118
X51.056 Y86.218
X51.028 Y85.318
X51.009 Y84.417
X50.996 Y83.516
X50.987 Y82.616
X50.981 Y81.715
X50.977 Y80.814
X50.973 Y79.012
X50.971 Y76.309
X50.972 Y68.201
X50.979 Y45.679
X50.993 Y2.774
X50.955 Y2.668
X50.814 Y2.493
X50.077 Y1.974
X49.233 Y1.659
X48.356 Y1.455
X47.465 Y1.321
X46.568 Y1.231
X45.669 Y1.171
X44.769 Y1.13
X43.869 Y1.102
X42.968 Y1.082
X42.068 Y1.069
X41.167 Y1.06
X40.266 Y1.053
X39.365 Y1.048
X37.563 Y1.042
X34.861 Y1.037
X25.852 Y1.029
X9.492 Y1.015
X9.305 Y0.985
X9.137 Y0.898
X9.004 Y0.763
X8.92 Y0.594
X8.874 Y0.448
X8.822 Y0.294
X8.701 Y0.038
X8.578 Y-0.166
X8.515 Y-0.268
X8.413 Y-0.387
X8.004 Y-0.849
X7.868 Y-0.984
X7.595 Y-1.24
X7.39 Y-1.394
X7.186 Y-1.526
X7.06 Y-1.598
X6.981 Y-1.641
X6.777 Y-1.732
X6.564 Y-1.803
X6.163 Y-1.923
X5.959 Y-1.978
X5.754 Y-2.03
X5.55 Y-2.065
X5.345 Y-2.079
X4.936 Y-2.097
X4.732 Y-2.1
X2.278
X2.073 Y-2.094
X1.664 Y-2.073
X1.46 Y-2.05
X1.255 Y-2.006
X1.051 Y-1.954
X0.846 Y-1.895
X0.437 Y-1.769
X0.233 Y-1.69
X0.04 Y-1.598
X-0.176 Y-1.47
X-0.288 Y-1.393
X-0.381 Y-1.323
X-0.548 Y-1.189
X-0.79 Y-0.959
X-0.968 Y-0.78
X-1.199 Y-0.54
X-1.403 Y-0.277
X-1.475 Y-0.166
X-1.598 Y0.038
X-1.608 Y0.056
X-1.695 Y0.243
X-1.771 Y0.448
X-1.899 Y0.857
X-1.957 Y1.061
X-2.012 Y1.266
X-2.051 Y1.47
X-2.072 Y1.675
X-2.096 Y2.084
X-2.1 Y2.289
Y51.181
X-2.098 Y51.794
X-2.082 Y51.999
X-2.055 Y52.204
X-2.017 Y52.415
X-1.91 Y52.817
X-1.855 Y53.022
X-1.788 Y53.226
X-1.707 Y53.431
X-1.608 Y53.639
X-1.489 Y53.84
X-1.403 Y53.981
X-1.356 Y54.045
X-1.199 Y54.232
X-1.183 Y54.249
X-0.64 Y54.883
X-0.213 Y55.558
X0.154 Y56.381
X0.418 Y57.242
X0.605 Y58.123
X0.736 Y59.015
X0.827 Y59.911
X0.889 Y60.81
X0.932 Y61.71
X0.962 Y62.61
X0.982 Y63.511
X0.995 Y64.412
X1.004 Y65.312
X1.011 Y66.213
X1.015 Y67.114
X1.019 Y68.916
X1.021 Y71.619
X1.02 Y78.826
X1.012 Y104.051
Y104.952
X1.041 Y105.175
X1.079 Y105.493
X1.118 Y105.85
X1.155 Y106.257
X1.193 Y106.733
X1.23 Y107.304
X1.268 Y108.022
X1.302 Y108.922
X1.324 Y109.823
X1.34 Y110.723
X1.35 Y111.624
X1.356 Y112.525
X1.36 Y113.426
X1.363 Y114.327
X1.366 Y116.129
X1.367 Y119.282
X1.404 Y119.388
X1.475 Y119.476
X2.242 Y119.948
X3.107 Y120.199
X3.995 Y120.353
X4.89 Y120.452
X5.789 Y120.515
X6.689 Y120.556
X7.589 Y120.583
X8.49 Y120.6
X9.391 Y120.612
X10.292 Y120.619
X11.192 Y120.623
X12.093 Y120.626
X13.895 Y120.629
X17.161
G3 X17.725 Y121.093 I-0.021 J0.6 F600
G1 X17.746 Y121.185 Z9.607
X17.767 Y121.274 Z9.629
X17.786 Y121.359 Z9.665
X17.804 Y121.437 Z9.715
X17.82 Y121.507 Z9.776
X17.834 Y121.566 Z9.847
X17.845 Y121.614 Z9.928
X17.853 Y121.649 Z10.015
X17.858 Y121.671 Z10.106
X17.86 Y121.678 Z10.2
G0 Z20.1
X-2.439 Y53.691
Z10.8
G1 Z10.2 F600
X-2.432 Y53.693 Z10.106
X-2.411 Y53.699 Z10.015
X-2.376 Y53.709 Z9.928
X-2.329 Y53.722 Z9.847
X-2.27 Y53.739 Z9.776
X-2.201 Y53.758 Z9.715
X-2.124 Y53.78 Z9.665
X-2.04 Y53.804 Z9.629
X-1.952 Y53.829 Z9.607
X-1.862 Y53.854 Z9.6
G3 X-1.183 Y54.249 I-0.431 J1.523
G1 X-0.79 Y54.663 F1000
X-0.579 Y54.863
X-0.381 Y55.029
X-0.329 Y55.068
X-0.176 Y55.171
X0.028 Y55.289
X0.233 Y55.396
X0.437 Y55.472
X0.846 Y55.598
X1.051 Y55.654
X1.408 Y55.753
X1.795 Y55.924
X2.221 Y56.191
X2.667 Y56.571
X3.135 Y57.102
X3.614 Y57.837
X3.992 Y58.655
X4.275 Y59.51
X4.484 Y60.386
X4.637 Y61.274
X4.748 Y62.168
X4.828 Y63.065
X4.885 Y63.964
X4.925 Y64.864
X4.954 Y65.765
X4.975 Y66.666
X4.989 Y67.566
X4.999 Y68.467
X5.006 Y69.368
X5.011 Y70.269
X5.014 Y71.17
X5.018 Y72.972
X5.02 Y75.674
X5.019 Y83.782
X5.013 Y102.701
X5.041 Y103.601
X5.086 Y104.501
X5.134 Y105.401
X5.18 Y106.301
X5.221 Y107.201
X5.255 Y108.101
X5.283 Y109.001
X5.304 Y109.902
X5.321 Y110.803
X5.334 Y111.703
X5.343 Y112.604
X5.35 Y113.505
X5.356 Y114.631
X5.394 Y114.737
X5.678 Y115.087
X6.402 Y115.623
X7.238 Y115.958
X8.112 Y116.176
X9.001 Y116.322
X9.897 Y116.421
X10.795 Y116.487
X11.695 Y116.533
X12.595 Y116.564
X13.046 Y116.574
X13.946 Y116.59
X14.284 Y116.595
X14.391 Y116.558
X14.479 Y116.489
X14.54 Y116.394
X14.741 Y115.516
X14.779 Y114.616
Y113.715
X14.793 Y112.814
X14.832 Y111.914
X14.899 Y111.015
X15.001 Y110.12
X15.131 Y109.229
X15.313 Y108.347
X15.533 Y107.473
X15.803 Y106.613
X16.127 Y105.773
X16.508 Y104.956
X16.928 Y104.159
X17.375 Y103.377
X17.87 Y102.625
X18.416 Y101.908
X18.994 Y101.217
X19.611 Y100.561
X20.273 Y99.95
X20.966 Y99.373
X21.684 Y98.83
X22.426 Y98.318
X23.205 Y97.867
X24.011 Y97.464
X24.836 Y97.102
X25.681 Y96.789
X26.542 Y96.523
X27.418 Y96.315
X28.304 Y96.149
X29.195 Y96.021
X30.094 Y95.961
X30.995 Y95.959
X31.895 Y96.01
X32.791 Y96.099
X32.904 Y96.101
X33.054 Y96.106
X33.203 Y96.113
X33.353 Y96.122
X33.503 Y96.134
X33.654 Y96.148
X33.814 Y96.164
X33.981 Y96.184
X34.148 Y96.207
X34.297 Y96.228
X34.445 Y96.252
X34.592 Y96.279
X34.741 Y96.307
X34.897 Y96.34
X35.06 Y96.376
X35.232 Y96.416
X35.413 Y96.462
X35.605 Y96.513
X35.81 Y96.57
X35.984 Y96.621
X36.127 Y96.665
X36.27 Y96.712
X36.412 Y96.76
X36.553 Y96.811
X36.701 Y96.866
X36.855 Y96.927
X37.017 Y96.992
X37.188 Y97.064
X37.368 Y97.143
X37.559 Y97.23
X37.762 Y97.326
X37.981 Y97.433
X38.216 Y97.552
X38.473 Y97.686
X38.755 Y97.838
X39.07 Y98.013
X39.239 Y98.111
X39.383 Y98.197
X39.535 Y98.29
X39.694 Y98.39
X39.862 Y98.5
X40.04 Y98.619
X40.186 Y98.719
X40.311 Y98.809
X40.442 Y98.904
X40.578 Y99.007
X40.721 Y99.117
X40.87 Y99.236
X41.028 Y99.365
X41.194 Y99.506
X41.371 Y99.659
X41.561 Y99.828
X41.714 Y99.968
X41.851 Y100.097
X41.995 Y100.236
X42.147 Y100.386
X42.308 Y100.55
X42.479 Y100.73
X42.663 Y100.929
X42.82 Y101.102
X42.928 Y101.225
X43.04 Y101.356
X43.157 Y101.497
X43.278 Y101.647
X43.406 Y101.81
X43.54 Y101.986
X43.682 Y102.177
X43.834 Y102.387
X43.996 Y102.618
X44.172 Y102.877
X44.364 Y103.168
X44.445 Y103.295
X44.525 Y103.422
X44.603 Y103.552
X44.684 Y103.69
X44.766 Y103.837
X44.852 Y103.992
X44.94 Y104.158
X45.031 Y104.336
X45.126 Y104.528
X45.225 Y104.735
X45.33 Y104.961
X45.419 Y105.163
X45.495 Y105.339
X45.573 Y105.528
X45.654 Y105.731
X45.738 Y105.95
X45.825 Y106.19
X45.917 Y106.453
X46.015 Y106.744
X46.12 Y107.07
X46.183 Y107.28
X46.227 Y107.428
X46.27 Y107.585
X46.313 Y107.751
X46.356 Y107.926
X46.4 Y108.113
X46.443 Y108.313
X46.487 Y108.528
X46.531 Y108.76
X46.575 Y109.012
X46.619 Y109.287
X46.664 Y109.592
X46.707 Y109.914
X46.724 Y110.062
X46.74 Y110.212
X46.754 Y110.368
X46.767 Y110.533
X46.778 Y110.707
X46.787 Y110.891
X46.794 Y111.087
X46.799 Y111.296
X46.801 Y111.521
X46.8 Y111.763
X46.795 Y112.025
X46.787 Y112.267
X46.778 Y112.467
X46.765 Y112.681
X46.748 Y112.91
X46.727 Y113.158
X46.699 Y113.428
X46.665 Y113.723
X46.623 Y114.052
X46.582 Y114.337
X46.559 Y114.488
X46.532 Y114.646
X46.501 Y114.811
X46.467 Y114.986
X46.427 Y115.17
X46.383 Y115.366
X46.333 Y115.574
X46.275 Y115.797
X46.21 Y116.038
X46.14 Y116.282
X46.089 Y116.453
X46.032 Y116.634
X45.969 Y116.825
X45.899 Y117.028
X45.82 Y117.246
X45.732 Y117.481
X45.638 Y117.719
X45.579 Y117.865
X45.514 Y118.018
X45.443 Y118.177
X45.367 Y118.346
X45.282 Y118.523
X45.19 Y118.712
X45.088 Y118.913
X45.032 Y119.02
X44.913 Y119.243
X44.78 Y119.485
X44.629 Y119.749
X44.458 Y120.042
X44.259 Y120.37
X44.199 Y120.465
G3 X43.507 Y120.697 I-0.498 J-0.335 F600
G1 X43.418 Y120.667 Z9.607
X43.331 Y120.637 Z9.629
X43.249 Y120.608 Z9.665
X43.173 Y120.582 Z9.715
X43.106 Y120.559 Z9.776
X43.048 Y120.539 Z9.847
X43.001 Y120.523 Z9.928
X42.967 Y120.511 Z10.015
X42.946 Y120.504 Z10.106
X42.939 Y120.502 Z10.2
G0 Z20.1
X-0.304 Y55.89
Z10.8
G1 Z10.2 F600
X-0.297 Y55.887 Z10.106
X-0.276 Y55.881 Z10.015
X-0.241 Y55.87 Z9.928
X-0.195 Y55.854 Z9.847
X-0.137 Y55.835 Z9.776
X-0.068 Y55.813 Z9.715
X0.008 Y55.788 Z9.665
X0.091 Y55.761 Z9.629
X0.178 Y55.733 Z9.607
X0.267 Y55.704 Z9.6
G3 X1.051 Y55.654 I0.49 J1.505
G1 X1.46 Y55.746 F1000
X1.664 Y55.776
X2.073 Y55.797
X2.278 Y55.803
X3.709
X4.112 Y55.823
X4.53 Y55.905
X4.982 Y56.065
X5.487 Y56.329
X6.001 Y56.702
X6.547 Y57.234
X7.096 Y57.948
X7.539 Y58.733
X7.889 Y59.563
X8.162 Y60.421
X8.326 Y61.097
X8.342 Y61.225
X8.331 Y61.353
X8.293 Y61.477
X8.233 Y61.614
X8.208 Y61.683
X8.166 Y61.818
X8.109 Y62.023
X8.055 Y62.227
X7.963 Y62.637
X7.928 Y62.841
X7.907 Y63.25
X7.9 Y63.455
Y63.864
X7.901 Y64.069
X7.925 Y64.478
X7.941 Y64.682
X8.036 Y65.091
X8.084 Y65.296
X8.141 Y65.501
X8.202 Y65.705
X8.459 Y66.569
X8.506 Y66.711
X8.551 Y66.854
X8.594 Y66.998
X8.634 Y67.143
X8.675 Y67.296
X8.716 Y67.457
X8.756 Y67.626
X8.796 Y67.806
X8.837 Y67.998
X8.877 Y68.204
X8.916 Y68.424
X8.956 Y68.661
X8.995 Y68.919
X9.035 Y69.203
X9.074 Y69.515
X9.112 Y69.864
X9.151 Y70.262
X9.189 Y70.721
X9.228 Y71.268
X9.265 Y71.943
X9.303 Y72.829
X9.329 Y73.73
X9.346 Y74.631
X9.357 Y75.532
X9.365 Y76.432
X9.37 Y77.333
X9.373 Y78.234
X9.377 Y80.036
X9.378 Y83.64
X9.373 Y100.756
X9.382 Y101.657
X9.402 Y102.558
X9.432 Y103.458
X9.467 Y104.359
X9.54 Y106.159
X9.561 Y106.722
X9.592 Y107.622
X9.619 Y108.522
X9.642 Y109.423
X9.663 Y110.436
X9.665 Y110.549
X9.704 Y110.654
X9.993 Y111
X10.09 Y111.057
G3 X10.341 Y111.743 I-0.321 J0.507 F600
G1 X10.313 Y111.833 Z9.607
X10.286 Y111.92 Z9.629
X10.26 Y112.003 Z9.665
X10.236 Y112.08 Z9.715
X10.215 Y112.148 Z9.776
X10.197 Y112.206 Z9.847
X10.182 Y112.253 Z9.928
X10.171 Y112.288 Z10.015
X10.165 Y112.309 Z10.106
X10.163 Y112.316 Z10.2
G0 Z20.1
X7.269 Y64.695
Z10.8
G1 Z10.2 F600
X7.275 Y64.7 Z10.106
X7.292 Y64.714 Z10.015
X7.32 Y64.737 Z9.928
X7.358 Y64.768 Z9.847
X7.406 Y64.806 Z9.776
X7.461 Y64.851 Z9.715
X7.523 Y64.902 Z9.665
X7.591 Y64.957 Z9.629
X7.662 Y65.015 Z9.607
X7.735 Y65.074 Z9.6
G3 X8.202 Y65.705 I-0.998 J1.228
G1 X8.281 Y65.91 F1000
X8.377 Y66.114
X8.413 Y66.183
X8.495 Y66.319
X8.617 Y66.507
X8.792 Y66.728
X9.026 Y66.976
X9.185 Y67.137
X9.231 Y67.182
X9.395 Y67.342
X9.654 Y67.546
X9.844 Y67.687
X9.946 Y67.751
X10.049 Y67.803
X10.253 Y67.906
X10.428 Y67.993
X10.561 Y68.062
X10.691 Y68.138
X10.817 Y68.219
X10.939 Y68.306
X11.057 Y68.398
X11.172 Y68.495
X11.283 Y68.596
X11.39 Y68.701
X11.494 Y68.809
X11.593 Y68.921
X11.69 Y69.037
X11.782 Y69.155
X11.871 Y69.275
X11.957 Y69.398
X12.039 Y69.524
X12.118 Y69.651
X12.194 Y69.781
X12.267 Y69.912
X12.337 Y70.045
X12.403 Y70.179
X12.467 Y70.315
X12.529 Y70.452
X12.587 Y70.59
X12.643 Y70.729
X12.697 Y70.869
X12.748 Y71.01
X12.797 Y71.152
X12.844 Y71.294
X12.888 Y71.437
X12.931 Y71.583
X12.973 Y71.733
X13.015 Y71.891
X13.057 Y72.058
X13.099 Y72.234
X13.141 Y72.422
X13.183 Y72.623
X13.224 Y72.835
X13.265 Y73.062
X13.306 Y73.309
X13.347 Y73.579
X13.387 Y73.871
X13.427 Y74.194
X13.467 Y74.559
X13.507 Y74.968
X13.546 Y75.446
X13.585 Y76.011
X13.624 Y76.713
X13.661 Y77.613
X13.687 Y78.513
X13.704 Y79.414
X13.715 Y80.315
X13.723 Y81.216
X13.728 Y82.117
X13.731 Y83.018
X13.735 Y84.819
X13.737 Y87.522
X13.734 Y99.121
X13.738 Y100.022
X13.748 Y100.923
X13.766 Y101.824
X13.79 Y102.724
X13.818 Y103.625
X13.841 Y104.3
G3 X13.396 Y104.879 I-0.6 J0 F600
G1 X13.305 Y104.903 Z9.607
X13.217 Y104.927 Z9.629
X13.133 Y104.949 Z9.665
X13.055 Y104.97 Z9.715
X12.986 Y104.989 Z9.776
X12.927 Y105.004 Z9.847
X12.879 Y105.017 Z9.928
X12.844 Y105.026 Z10.015
X12.823 Y105.032 Z10.106
X12.816 Y105.034 Z10.2
G0 Z20.1
X8.879 Y67.942
Z10.8
G1 Z10.2 F600
X8.886 Y67.94 Z10.106
X8.908 Y67.937 Z10.015
X8.944 Y67.931 Z9.928
X8.992 Y67.922 Z9.847
X9.052 Y67.912 Z9.776
X9.123 Y67.9 Z9.715
X9.202 Y67.887 Z9.665
X9.288 Y67.872 Z9.629
X9.378 Y67.857 Z9.607
X9.471 Y67.841 Z9.6
G3 X10.253 Y67.906 I0.265 J1.56
G1 X10.458 Y67.985 F1000
X10.662 Y68.049
X11.071 Y68.163
X11.276 Y68.215
X11.48 Y68.253
X11.685 Y68.282
X11.889 Y68.294
X12.298 Y68.301
X12.503 Y68.303
X12.937 Y68.325
X13.335 Y68.403
X13.775 Y68.558
X14.252 Y68.808
X14.759 Y69.176
X15.291 Y69.693
X15.835 Y70.402
X16.276 Y71.188
X16.623 Y72.02
X16.894 Y72.879
X17.104 Y73.755
X17.266 Y74.641
X17.389 Y75.534
X17.482 Y76.43
X17.551 Y77.328
X17.603 Y78.227
X17.64 Y79.127
X17.668 Y80.028
X17.688 Y80.928
X17.702 Y81.829
X17.713 Y82.73
X17.72 Y83.631
X17.725 Y84.532
X17.729 Y85.433
X17.733 Y87.234
X17.735 Y89.937
Y96.469
G3 X17.27 Y97.032 I-0.6 J-0.021 F600
G1 X17.178 Y97.053 Z9.607
X17.089 Y97.074 Z9.629
X17.005 Y97.094 Z9.665
X16.926 Y97.112 Z9.715
X16.857 Y97.128 Z9.776
X16.797 Y97.142 Z9.847
X16.749 Y97.153 Z9.928
X16.714 Y97.161 Z10.015
X16.693 Y97.166 Z10.106
X16.685 Y97.167 Z10.2
G0 Z20.1
X11.234 Y68.831
Z10.8
G1 Z10.2 F600
X11.24 Y68.827 Z10.106
X11.259 Y68.816 Z10.015
X11.29 Y68.798 Z9.928
X11.332 Y68.772 Z9.847
X11.385 Y68.741 Z9.776
X11.446 Y68.705 Z9.715
X11.515 Y68.664 Z9.665
X11.59 Y68.619 Z9.629
X11.669 Y68.572 Z9.607
X11.749 Y68.524 Z9.6
G3 X12.503 Y68.303 I0.809 J1.36
G1 X15.979 F1000
X16.379 Y68.323
X16.528 Y68.333
X16.677 Y68.35
X16.825 Y68.375
X16.972 Y68.407
X17.117 Y68.446
X17.26 Y68.491
X17.401 Y68.542
X17.54 Y68.598
X17.677 Y68.66
X17.811 Y68.726
X17.943 Y68.798
X18.072 Y68.874
X18.198 Y68.955
X18.322 Y69.04
X18.443 Y69.129
X18.561 Y69.221
X18.677 Y69.317
X18.789 Y69.416
X18.899 Y69.518
X19.006 Y69.623
X19.111 Y69.73
X19.212 Y69.841
X19.311 Y69.954
X19.407 Y70.069
X19.5 Y70.186
X19.591 Y70.306
X19.68 Y70.427
X19.765 Y70.55
X19.848 Y70.675
X19.929 Y70.802
X20.007 Y70.93
X20.083 Y71.059
X20.156 Y71.19
X20.228 Y71.322
X20.297 Y71.455
X20.363 Y71.589
X20.428 Y71.725
X20.49 Y71.861
X20.551 Y71.998
X20.611 Y72.14
X20.667 Y72.279
X20.722 Y72.419
X20.778 Y72.566
X20.834 Y72.722
X20.891 Y72.887
X20.949 Y73.063
X21.007 Y73.246
X21.06 Y73.424
X21.114 Y73.614
X21.17 Y73.818
X21.226 Y74.037
X21.282 Y74.269
X21.334 Y74.499
X21.387 Y74.749
X21.441 Y75.023
X21.495 Y75.314
X21.546 Y75.614
X21.599 Y75.95
X21.651 Y76.316
X21.701 Y76.706
X21.752 Y77.157
X21.801 Y77.639
X21.85 Y78.209
X21.898 Y78.864
X21.945 Y79.658
X21.987 Y80.558
X22.017 Y81.458
X22.039 Y82.359
X22.055 Y83.26
X22.067 Y84.161
X22.075 Y85.062
X22.082 Y85.962
X22.086 Y86.863
X22.091 Y88.665
X22.094 Y91.368
X22.095 Y93.17
X22.132 Y93.276
X22.203 Y93.363
X22.299 Y93.422
X22.409 Y93.446
X23.302 Y93.332
X23.5 Y93.245
X23.714 Y93.154
X23.916 Y93.072
X24.11 Y92.995
X24.32 Y92.916
X24.547 Y92.834
X24.795 Y92.748
X25.018 Y92.674
X25.246 Y92.602
X25.495 Y92.527
X25.768 Y92.449
X26.026 Y92.379
X26.234 Y92.325
X26.457 Y92.271
X26.699 Y92.216
X26.963 Y92.16
X27.208 Y92.111
X27.422 Y92.071
X27.653 Y92.032
X27.904 Y91.992
X28.179 Y91.953
X28.413 Y91.923
X28.639 Y91.896
X28.885 Y91.871
X29.152 Y91.848
X29.429 Y91.827
X29.674 Y91.813
X29.94 Y91.8
X30.232 Y91.791
X30.798 Y91.78
X31.244 Y91.777
X31.626 Y91.78
X31.978 Y91.788
X32.303 Y91.799
X32.605 Y91.814
X32.893 Y91.832
X33.173 Y91.853
X33.445 Y91.878
X33.713 Y91.906
X33.98 Y91.937
X34.246 Y91.972
X34.509 Y92.01
X34.764 Y92.051
X35.013 Y92.094
X35.254 Y92.14
X35.49 Y92.187
X35.725 Y92.238
X35.958 Y92.292
X36.191 Y92.349
X36.423 Y92.409
X36.657 Y92.473
X36.893 Y92.541
X37.129 Y92.613
X37.367 Y92.689
X37.611 Y92.77
X37.86 Y92.857
X38.111 Y92.949
X38.368 Y93.046
X38.636 Y93.152
X38.899 Y93.261
X39.156 Y93.37
X39.407 Y93.482
X39.655 Y93.596
X39.899 Y93.713
X40.142 Y93.832
X40.376 Y93.952
X40.605 Y94.073
X40.83 Y94.196
X41.052 Y94.321
X41.271 Y94.449
X41.489 Y94.58
X41.707 Y94.715
X41.926 Y94.854
X42.146 Y94.999
X42.365 Y95.147
X42.58 Y95.297
X42.792 Y95.45
X43.003 Y95.606
X43.214 Y95.766
X43.425 Y95.93
X43.634 Y96.099
X43.845 Y96.273
X44.055 Y96.452
X44.258 Y96.629
X44.454 Y96.806
X44.648 Y96.984
X44.839 Y97.165
X45.028 Y97.35
X45.216 Y97.539
X45.403 Y97.731
X45.589 Y97.928
X45.777 Y98.133
X45.969 Y98.347
X46.161 Y98.568
X46.351 Y98.793
X46.53 Y99.01
X46.701 Y99.224
X46.865 Y99.435
X47.023 Y99.644
X47.177 Y99.853
X47.329 Y100.065
X47.477 Y100.28
X47.624 Y100.498
X47.77 Y100.72
X47.913 Y100.946
X48.053 Y101.174
X48.19 Y101.402
X48.323 Y101.633
X48.454 Y101.865
X48.582 Y102.102
X48.709 Y102.344
X48.836 Y102.593
X48.961 Y102.851
X49.086 Y103.113
X49.21 Y103.384
X49.327 Y103.651
X49.437 Y103.909
X49.542 Y104.165
X49.642 Y104.418
X49.737 Y104.671
X49.829 Y104.924
X49.917 Y105.18
X50.003 Y105.438
X50.086 Y105.701
X50.168 Y105.971
X50.247 Y106.249
X50.324 Y106.53
X50.398 Y106.818
X50.464 Y107.091
X50.525 Y107.359
X50.582 Y107.623
X50.634 Y107.884
X50.682 Y108.143
X50.726 Y108.402
X50.767 Y108.663
X50.805 Y108.925
X50.839 Y109.191
X50.871 Y109.462
X50.899 Y109.736
X50.923 Y110.009
X50.943 Y110.282
X50.96 Y110.556
X50.973 Y110.833
X50.982 Y111.115
X50.988 Y111.404
X50.989 Y111.694
X50.987 Y111.993
X50.98 Y112.297
X50.97 Y112.589
X50.957 Y112.869
X50.939 Y113.146
X50.918 Y113.419
X50.894 Y113.69
X50.866 Y113.961
X50.834 Y114.233
X50.798 Y114.508
X50.758 Y114.785
X50.714 Y115.057
X50.668 Y115.326
X50.617 Y115.593
X50.564 Y115.86
X50.506 Y116.127
X50.444 Y116.397
X50.377 Y116.669
X50.309 Y116.934
X50.237 Y117.194
X50.164 Y117.449
X50.087 Y117.7
X50.008 Y117.951
X49.924 Y118.201
X49.838 Y118.448
X49.746 Y118.702
X49.648 Y118.96
X49.546 Y119.217
X49.438 Y119.48
X49.322 Y119.752
X49.198 Y120.03
X49.104 Y120.234
X49.093 Y120.346
X49.12 Y120.456
X49.182 Y120.55
X49.272 Y120.618
X49.379 Y120.652
G3 X49.774 Y121.266 I-0.203 J0.565 F600
G1 X49.766 Y121.36 Z9.607
X49.759 Y121.451 Z9.629
X49.752 Y121.538 Z9.665
X49.745 Y121.618 Z9.715
X49.739 Y121.689 Z9.776
X49.734 Y121.75 Z9.847
X49.73 Y121.799 Z9.928
X49.727 Y121.835 Z10.015
X49.725 Y121.857 Z10.106
Y121.864 Z10.2
G0 Z20.1
X14.71 Y68.831
Z10.8
G1 Z10.2 F600
X14.716 Y68.827 Z10.106
X14.735 Y68.816 Z10.015
X14.766 Y68.798 Z9.928
X14.809 Y68.772 Z9.847
X14.861 Y68.741 Z9.776
X14.923 Y68.705 Z9.715
X14.992 Y68.664 Z9.665
X15.066 Y68.619 Z9.629
X15.145 Y68.572 Z9.607
X15.226 Y68.524 Z9.6
G3 X15.979 Y68.303 I0.809 J1.36
G1 X19.865 F1000
X20.26 Y68.323
X20.41 Y68.332
X20.559 Y68.349
X20.707 Y68.373
X20.854 Y68.404
X20.999 Y68.441
X21.143 Y68.484
X21.285 Y68.532
X21.425 Y68.587
X21.563 Y68.646
X21.698 Y68.71
X21.831 Y68.779
X21.962 Y68.853
X22.09 Y68.931
X22.216 Y69.012
X22.339 Y69.098
X22.46 Y69.187
X22.578 Y69.279
X22.694 Y69.375
X22.806 Y69.474
X22.917 Y69.576
X23.024 Y69.68
X23.129 Y69.787
X23.232 Y69.897
X23.332 Y70.008
X23.429 Y70.122
X23.524 Y70.239
X23.617 Y70.357
X23.707 Y70.477
X23.795 Y70.598
X23.88 Y70.721
X23.963 Y70.846
X24.044 Y70.973
X24.123 Y71.1
X24.199 Y71.23
X24.273 Y71.36
X24.346 Y71.491
X24.416 Y71.624
X24.484 Y71.758
X24.55 Y71.892
X24.614 Y72.028
X24.678 Y72.168
X24.741 Y72.31
X24.805 Y72.461
X24.868 Y72.615
X24.931 Y72.775
X24.995 Y72.945
X25.057 Y73.117
X25.12 Y73.3
X25.183 Y73.488
X25.245 Y73.685
X25.308 Y73.896
X25.369 Y74.109
X25.431 Y74.339
X25.492 Y74.577
X25.553 Y74.828
X25.615 Y75.1
X25.674 Y75.377
X25.735 Y75.683
X25.794 Y76.001
X25.853 Y76.345
X25.913 Y76.727
X25.969 Y77.119
X26.027 Y77.574
X26.082 Y78.046
X26.138 Y78.601
X26.19 Y79.198
X26.242 Y79.908
X26.293 Y80.76
X26.335 Y81.66
X26.366 Y82.56
X26.39 Y83.461
X26.408 Y84.362
X26.421 Y85.262
X26.43 Y86.163
X26.436 Y86.952
X26.474 Y87.057
X26.545 Y87.145
X26.641 Y87.203
X27.523 Y87.388
X28.424 Y87.402
X29.325 Y87.408
X30.226 Y87.414
X30.907 Y87.427
X31.47 Y87.446
X31.962 Y87.468
X32.423 Y87.496
X32.848 Y87.527
X33.256 Y87.563
X33.643 Y87.602
X34.013 Y87.645
X34.373 Y87.691
X34.725 Y87.742
X35.067 Y87.796
X35.401 Y87.853
X35.73 Y87.913
X36.055 Y87.978
X36.377 Y88.047
X36.698 Y88.12
X37.017 Y88.197
X37.335 Y88.279
X37.654 Y88.365
X37.973 Y88.457
X38.292 Y88.552
X38.609 Y88.653
X38.924 Y88.757
X39.238 Y88.866
X39.549 Y88.978
X39.858 Y89.095
X40.164 Y89.215
X40.467 Y89.339
X40.767 Y89.466
X41.063 Y89.597
X41.357 Y89.731
X41.648 Y89.868
X41.936 Y90.01
X42.222 Y90.155
X42.507 Y90.305
X42.789 Y90.458
X43.069 Y90.615
X43.347 Y90.775
X43.622 Y90.94
X43.896 Y91.108
X44.168 Y91.281
X44.438 Y91.458
X44.707 Y91.639
X44.974 Y91.824
X45.237 Y92.012
X45.498 Y92.204
X45.756 Y92.399
X46.074 Y92.647
X46.326 Y92.85
X46.575 Y93.056
X46.821 Y93.266
X47.066 Y93.48
X47.309 Y93.699
X47.552 Y93.923
X47.793 Y94.152
X48.031 Y94.385
X48.266 Y94.621
X48.497 Y94.859
X48.724 Y95.1
X48.947 Y95.343
X49.165 Y95.587
X49.38 Y95.834
X49.59 Y96.083
X49.797 Y96.335
X50.001 Y96.59
X50.201 Y96.847
X50.397 Y97.107
X50.59 Y97.369
X50.778 Y97.634
X50.964 Y97.901
X51.146 Y98.172
X51.324 Y98.445
X51.704 Y99.261
X51.733 Y99.349 F600
X51.749 Y99.441
X51.751 Y99.495 Z9.602
Z9.603
X51.738 Y99.569 Z9.614
X51.725 Y99.64 Z9.636
X51.712 Y99.709 Z9.666
X51.669 Y99.779 Z9.717
X51.631 Y99.841 Z9.781
X51.599 Y99.894 Z9.855
X51.565 Y99.926 Z9.934
X51.54 Y99.95 Z10.019
X51.525 Y99.964 Z10.108
X51.52 Y99.969 Z10.2
G0 Z20.1
X18.596 Y68.831
Z10.8
G1 Z10.2 F600
X18.602 Y68.827 Z10.106
X18.621 Y68.816 Z10.015
X18.652 Y68.798 Z9.928
X18.694 Y68.772 Z9.847
X18.747 Y68.741 Z9.776
X18.808 Y68.705 Z9.715
X18.877 Y68.664 Z9.665
X18.952 Y68.619 Z9.629
X19.031 Y68.572 Z9.607
X19.111 Y68.524 Z9.6
G3 X19.865 Y68.303 I0.809 J1.36
G1 X23.75 F1000
X24.288 Y68.33
X24.777 Y68.426
X25.319 Y68.617
X25.908 Y68.926
X26.54 Y69.384
X27.185 Y70.012
X27.738 Y70.724
X28.206 Y71.493
X28.602 Y72.303
X28.934 Y73.14
X29.212 Y73.997
X29.445 Y74.867
X29.639 Y75.747
X29.799 Y76.634
X29.932 Y77.525
X30.04 Y78.419
X30.129 Y79.316
X30.2 Y80.214
X30.257 Y81.113
X30.279 Y81.563
X30.322 Y81.667
X30.621 Y82.004
X31.347 Y82.537
X32.174 Y82.895
X33.034 Y83.163
X33.907 Y83.386
X34.785 Y83.588
X35.664 Y83.786
X36.541 Y83.991
X37.415 Y84.209
X38.284 Y84.445
X39.148 Y84.702
X40.004 Y84.981
X40.852 Y85.285
X41.691 Y85.614
X42.519 Y85.969
X43.336 Y86.349
X44.14 Y86.756
X44.931 Y87.187
X45.124 Y87.302
X45.898 Y87.765
X46.655 Y88.252
X46.84 Y88.381
G3 X47.037 Y89.084 I-0.36 J0.48 F600
G1 X47.002 Y89.171 Z9.607
X46.968 Y89.256 Z9.629
X46.936 Y89.337 Z9.665
X46.906 Y89.412 Z9.715
X46.879 Y89.478 Z9.776
X46.856 Y89.535 Z9.847
X46.838 Y89.58 Z9.928
X46.825 Y89.614 Z10.015
X46.817 Y89.634 Z10.106
X46.814 Y89.641 Z10.2
G0 Z20.1
X22.481 Y68.831
Z10.8
G1 Z10.2 F600
X22.488 Y68.827 Z10.106
X22.506 Y68.816 Z10.015
X22.537 Y68.798 Z9.928
X22.58 Y68.772 Z9.847
X22.632 Y68.741 Z9.776
X22.694 Y68.705 Z9.715
X22.763 Y68.664 Z9.665
X22.838 Y68.619 Z9.629
X22.916 Y68.572 Z9.607
X22.997 Y68.524 Z9.6
G3 X23.75 Y68.303 I0.809 J1.36
G1 X27.636 F1000
X28.139 Y68.328
X28.289 Y68.338
X28.438 Y68.354
X28.586 Y68.377
X28.733 Y68.407
X28.879 Y68.444
X29.023 Y68.486
X29.165 Y68.534
X29.305 Y68.587
X29.443 Y68.645
X29.58 Y68.708
X29.714 Y68.775
X29.845 Y68.847
X29.975 Y68.923
X30.102 Y69.003
X30.226 Y69.087
X30.348 Y69.174
X30.468 Y69.265
X30.585 Y69.358
X30.699 Y69.455
X30.812 Y69.554
X30.921 Y69.657
X31.029 Y69.762
X31.133 Y69.869
X31.236 Y69.979
X31.335 Y70.091
X31.433 Y70.204
X31.529 Y70.32
X31.622 Y70.438
X31.712 Y70.557
X31.801 Y70.678
X31.887 Y70.801
X31.971 Y70.925
X32.053 Y71.051
X32.133 Y71.178
X32.211 Y71.306
X32.287 Y71.435
X32.361 Y71.566
X32.433 Y71.698
X32.503 Y71.831
X32.575 Y71.972
X32.649 Y72.121
X32.717 Y72.263
X32.784 Y72.409
X32.852 Y72.563
X32.922 Y72.726
X32.994 Y72.901
X33.068 Y73.087
X33.137 Y73.271
X33.205 Y73.456
X33.274 Y73.654
X33.345 Y73.868
X33.419 Y74.1
X33.488 Y74.327
X33.556 Y74.561
X33.626 Y74.817
X33.699 Y75.099
X33.767 Y75.377
X33.835 Y75.67
X33.906 Y75.998
X33.974 Y76.339
X34.041 Y76.693
X34.111 Y77.098
X34.146 Y77.32
X34.333 Y77.73
X34.955 Y78.382
X35.73 Y78.842
X36.553 Y79.207
X37.397 Y79.522
X38.25 Y79.813
X39.105 Y80.096
X39.96 Y80.379
X40.387 Y80.525
X41.085 Y80.77
X41.733 Y81.007
X42.23 Y81.197
X42.782 Y81.416
X43.242 Y81.606
X43.743 Y81.822
X44.172 Y82.013
X44.649 Y82.233
X44.939 Y82.373
X45.469 Y82.635
X45.901 Y82.856
X46.296 Y83.065
X46.394 Y83.119
X46.505 Y83.138
X46.616 Y83.118
X46.714 Y83.062
X46.788 Y82.977
X46.829 Y82.872
X46.861 Y81.972
X46.822 Y81.547
X46.784 Y81.051
X46.746 Y80.451
X46.708 Y79.691
X46.676 Y78.791
X46.654 Y77.89
X46.639 Y76.989
X46.63 Y76.089
X46.623 Y75.188
X46.619 Y74.287
X46.615 Y72.485
X46.613 Y69.782
X46.614 Y60.774
X46.615 Y58.972
X46.631 Y8.409
Y7.508
X46.661 Y7.285
X46.687 Y7.061
X46.662 Y6.951
X46.542 Y6.761
X45.863 Y6.168
X45.041 Y5.8
X44.174 Y5.558
X43.287 Y5.395
X42.393 Y5.285
X41.496 Y5.209
X40.596 Y5.156
X39.696 Y5.12
X38.796 Y5.095
X37.895 Y5.077
X36.994 Y5.064
X36.093 Y5.055
X35.192 Y5.049
X34.292 Y5.044
X32.49 Y5.038
X29.787 Y5.033
X21.679 Y5.025
X11.769 Y5.017
X10.868 Y5.001
X9.971 Y4.92
X9.678 Y4.858
X9.489 Y4.782
X9.337 Y4.648
X9.237 Y4.471
X9.203 Y4.271
Y2.289
X9.198 Y2.084
X9.175 Y1.675
G3 X9.607 Y1.086 I0.6 J-0.013 F600
G1 X9.697 Y1.059 Z9.607
X9.785 Y1.034 Z9.629
X9.868 Y1.009 Z9.665
X9.945 Y0.987 Z9.715
X10.014 Y0.967 Z9.776
X10.073 Y0.95 Z9.847
X10.12 Y0.936 Z9.928
X10.155 Y0.926 Z10.015
X10.176 Y0.92 Z10.106
X10.183 Y0.918 Z10.2
G0 Z20.1
X2.44 Y56.331
Z10.8
G1 Z10.2 F600
X2.446 Y56.327 Z10.106
X2.465 Y56.316 Z10.015
X2.496 Y56.298 Z9.928
X2.538 Y56.272 Z9.847
X2.591 Y56.241 Z9.776
X2.653 Y56.205 Z9.715
X2.722 Y56.164 Z9.665
X2.796 Y56.119 Z9.629
X2.875 Y56.072 Z9.607
X2.956 Y56.024 Z9.6
G3 X3.709 Y55.803 I0.809 J1.36
G1 X4.732 F1000
X4.936 Y55.801
X5.345 Y55.782
X5.55 Y55.764
X5.959 Y55.675
X6.163 Y55.626
X6.368 Y55.565
X6.636 Y55.499
X7 Y55.463
X7.421 Y55.483
X7.912 Y55.578
X8.417 Y55.755
X8.991 Y56.054
X9.57 Y56.471
X10.191 Y57.071
X10.741 Y57.784
X11.128 Y58.446
X11.195 Y58.616
X11.207 Y58.798
X11.165 Y58.975
X11.072 Y59.131
X10.936 Y59.252
X10.77 Y59.327
X10.638 Y59.363
X10.458 Y59.421
X10.253 Y59.5
X10.049 Y59.603
X9.844 Y59.72
X9.762 Y59.773
X9.64 Y59.867
X9.435 Y60.032
X9.273 Y60.182
X9.067 Y60.386
X8.873 Y60.591
G3 X8.164 Y60.691 Z9.763 I-0.422 J-0.426 F600
G1 X8.091 Y60.644 Z9.782 F1000
X8.025 Y60.587 Z9.8
X7.98 Y60.536
X7.941 Y60.48
X7.908 Y60.419
X6.017 Y56.388
X5.992 Y56.325
X5.97 Y56.241 Z9.782
X5.96 Y56.154 Z9.763
G3 X6.368 Y55.565 Z9.6 I0.6 J-0.022 F600
G1 X6.661 Y55.477 F1000
X6.777 Y55.435
X6.981 Y55.343
X7.186 Y55.227
X7.39 Y55.097
X7.431 Y55.068
X7.595 Y54.939
X7.681 Y54.863
X7.799 Y54.756
X7.896 Y54.658
X8.012 Y54.548
X8.264 Y54.37
X8.582 Y54.208
X8.941 Y54.086
X9.388 Y54.003
X9.888 Y53.984
X10.437 Y54.042
X11.07 Y54.203
X11.714 Y54.472
X12.391 Y54.876
X12.973 Y55.349
X13.438 Y55.855
X13.807 Y56.395
X14.085 Y56.965
X14.27 Y57.54
X14.37 Y58.134
X14.377 Y58.49
X14.351 Y58.678
X14.268 Y58.849
X14.134 Y58.985
X13.965 Y59.073
X13.778 Y59.103
X12.503
X12.298 Y59.105
X11.889 Y59.112
X11.685 Y59.126
X11.276 Y59.195
X11.071 Y59.243
X10.77 Y59.327
G3 X10.12 Y59.06 Z9.759 I-0.14 J-0.583 F600
G1 X10.111 Y59.045 Z9.763
X10.019 Y58.897 Z9.8 F1000
X7.927 Y55.52
X7.835 Y55.373 Z9.763
G3 X7.896 Y54.658 Z9.6 I0.51 J-0.316 F600
G1 X8.285 Y54.249 F1000
X8.413 Y54.108
X8.461 Y54.045
X8.588 Y53.84
X8.711 Y53.636
X8.81 Y53.431
X8.822 Y53.405
X8.891 Y53.226
X8.946 Y53.087
X9.091 Y52.839
X9.303 Y52.573
X9.564 Y52.328
X9.914 Y52.084
X10.324 Y51.879
X10.813 Y51.717
X11.395 Y51.613
X12.026 Y51.594
X12.74 Y51.675
X13.502 Y51.875
X14.262 Y52.198
X15.032 Y52.666
X15.727 Y53.238
X16.341 Y53.898
X16.865 Y54.631
X17.291 Y55.424
X17.615 Y56.265
X17.805 Y57.061
X17.872 Y57.812
X17.834 Y58.494
X17.808 Y58.622
X17.734 Y58.813
X17.6 Y58.967
X17.422 Y59.068
X17.22 Y59.103
X13.778
G3 X13.341 Y58.891 Z9.706 I0.021 J-0.6 F600
G1 X13.167 Y58.686 Z9.763
X13.055 Y58.554 Z9.8 F1000
X9.238 Y54.049
X9.126 Y53.916 Z9.763
X9.01 Y53.78 Z9.725 F600
G3 X8.891 Y53.226 Z9.6 I0.458 J-0.388
G1 X8.958 Y53.022 F1000
X9.068 Y52.613
X9.12 Y52.408
X9.158 Y52.204
X9.185 Y51.999
X9.201 Y51.794
X9.202 Y51.59
X9.219 Y51.259
X9.28 Y50.953
X9.391 Y50.641
X9.576 Y50.291
X9.822 Y49.953
X10.158 Y49.609
X10.582 Y49.285
X11.094 Y49
X11.718 Y48.763
X12.428 Y48.604
X13.236 Y48.544
X14.135 Y48.606
X15.017 Y48.792
X15.865 Y49.095
X16.674 Y49.492
X17.436 Y49.973
X18.143 Y50.531
X18.796 Y51.151
X19.388 Y51.831
X19.914 Y52.561
X20.379 Y53.333
X20.771 Y54.144
X21.087 Y54.988
X21.324 Y55.857
X21.476 Y56.745
X21.527 Y57.645
X21.461 Y58.428
X21.412 Y58.639
X21.334 Y58.824
X21.2 Y58.973
X21.025 Y59.07
X20.827 Y59.103
X17.22
G3 X16.832 Y58.942 Z9.691 I0.021 J-0.6 F600
G1 X16.584 Y58.711 Z9.763
X16.457 Y58.593 Z9.8 F1000
X9.736 Y52.329
X9.608 Y52.211 Z9.763
X9.392 Y52.009 Z9.7 F600
G3 X9.202 Y51.59 Z9.6 I0.409 J-0.439
G1 X9.203 Y50.772 F1000
Y48.93
X9.224 Y48.505
X9.295 Y48.145
X9.435 Y47.748
X9.658 Y47.322
X9.957 Y46.909
X10.382 Y46.473
X10.884 Y46.088
X11.551 Y45.714
X12.297 Y45.428
X13.176 Y45.23
X14.074 Y45.153
X14.974 Y45.189
X15.864 Y45.327
X16.736 Y45.553
X17.584 Y45.858
X18.401 Y46.238
X19.184 Y46.683
X19.932 Y47.185
X20.639 Y47.744
X21.303 Y48.353
X21.925 Y49.005
X22.501 Y49.697
X23.029 Y50.427
X23.506 Y51.191
X23.934 Y51.984
X24.306 Y52.804
X24.621 Y53.648
X24.88 Y54.511
X25.077 Y55.39
X25.202 Y56.283
X25.255 Y57.182
X25.209 Y58.082
X25.107 Y58.615
X25.034 Y58.808
X24.9 Y58.965
X24.721 Y59.068
X24.518 Y59.103
X20.827
G3 X20.455 Y58.956 Z9.687 I0.021 J-0.6 F600
G1 X20.183 Y58.72 Z9.763
X20.052 Y58.606 Z9.8 F1000
X9.748 Y49.657
X9.617 Y49.543 Z9.763
X9.409 Y49.362 Z9.705 F600
G3 X9.203 Y48.93 Z9.6 I0.393 J-0.453
G1 Y45.862 F1000
X9.227 Y45.389
X9.236 Y45.239
X9.254 Y45.09
X9.28 Y44.942
X9.313 Y44.796
X9.353 Y44.652
X9.401 Y44.509
X9.455 Y44.369
X9.515 Y44.232
X9.581 Y44.097
X9.654 Y43.966
X9.731 Y43.837
X9.813 Y43.712
X9.9 Y43.589
X9.99 Y43.47
X10.085 Y43.354
X10.185 Y43.241
X10.288 Y43.132
X10.394 Y43.027
X10.504 Y42.925
X10.618 Y42.827
X10.734 Y42.732
X10.853 Y42.64
X10.974 Y42.552
X11.097 Y42.467
X11.223 Y42.385
X11.351 Y42.307
X11.482 Y42.233
X11.614 Y42.162
X11.748 Y42.094
X11.883 Y42.03
X12.02 Y41.969
X12.159 Y41.911
X12.298 Y41.856
X12.439 Y41.804
X12.581 Y41.755
X12.724 Y41.71
X12.868 Y41.667
X13.012 Y41.628
X13.158 Y41.592
X13.304 Y41.559
X13.451 Y41.528
X13.598 Y41.5
X13.746 Y41.475
X13.894 Y41.452
X14.043 Y41.432
X14.192 Y41.416
X14.342 Y41.401
X14.491 Y41.39
X14.641 Y41.381
X14.791 Y41.374
X14.941 Y41.37
X15.091 Y41.367
X15.241 Y41.368
X15.391 Y41.371
X15.54 Y41.376
X15.69 Y41.384
X15.84 Y41.393
X15.992 Y41.406
X16.149 Y41.42
X16.298 Y41.436
X16.447 Y41.454
X16.596 Y41.475
X16.744 Y41.497
X16.892 Y41.522
X17.047 Y41.55
X17.21 Y41.582
X17.381 Y41.618
X17.539 Y41.654
X17.685 Y41.688
X17.831 Y41.725
X17.984 Y41.767
X18.145 Y41.812
X18.313 Y41.862
X18.491 Y41.918
X18.67 Y41.976
X18.825 Y42.029
X18.979 Y42.084
X19.139 Y42.144
X19.309 Y42.21
X19.487 Y42.283
X19.677 Y42.362
X19.857 Y42.441
X20.012 Y42.511
X20.17 Y42.586
X20.336 Y42.667
X20.512 Y42.755
X20.697 Y42.852
X20.889 Y42.955
X21.051 Y43.045
X21.208 Y43.135
X21.373 Y43.233
X21.548 Y43.34
X21.734 Y43.457
X21.926 Y43.582
X22.086 Y43.689
X22.245 Y43.799
X22.412 Y43.918
X22.59 Y44.047
X22.78 Y44.19
X22.96 Y44.329
X23.113 Y44.451
X23.274 Y44.582
X23.444 Y44.725
X23.626 Y44.882
X23.812 Y45.048
X23.961 Y45.184
X24.112 Y45.325
X24.27 Y45.478
X24.439 Y45.645
X24.618 Y45.828
X24.768 Y45.985
X24.91 Y46.137
X25.059 Y46.302
X25.218 Y46.482
X25.387 Y46.68
X25.533 Y46.856
X25.667 Y47.021
X25.808 Y47.2
X25.958 Y47.396
X26.118 Y47.611
X26.251 Y47.796
X26.373 Y47.97
X26.502 Y48.158
X26.638 Y48.363
X26.782 Y48.588
X26.904 Y48.783
X27.013 Y48.964
X27.128 Y49.16
X27.249 Y49.373
X27.378 Y49.607
X27.487 Y49.811
X27.585 Y50.001
X27.687 Y50.207
X27.795 Y50.431
X27.909 Y50.676
X28.002 Y50.884
X28.085 Y51.078
X28.172 Y51.287
X28.263 Y51.515
X28.359 Y51.764
X28.438 Y51.979
X28.504 Y52.167
X28.572 Y52.368
X28.642 Y52.585
X28.714 Y52.82
X28.784 Y53.058
X28.837 Y53.248
X28.887 Y53.441
X28.939 Y53.648
X28.991 Y53.872
X29.044 Y54.114
X29.089 Y54.33
X29.122 Y54.505
X29.153 Y54.68
X29.183 Y54.865
X29.213 Y55.063
X29.241 Y55.274
X29.268 Y55.497
X29.288 Y55.686
X29.303 Y55.848
X29.315 Y55.999
X29.326 Y56.157
X29.335 Y56.324
X29.341 Y56.5
X29.345 Y56.662
X29.347 Y56.812
Y56.962
X29.344 Y57.112
X29.339 Y57.262
X29.331 Y57.412
X29.321 Y57.562
X29.308 Y57.711
X29.292 Y57.86
X29.274 Y58.009
X29.252 Y58.157
X29.227 Y58.305
X29.198 Y58.453
X29.167 Y58.599
X29.155 Y58.645
X29.077 Y58.828
X28.943 Y58.975
X28.769 Y59.07
X28.572 Y59.103
X24.518
X24.434 Y59.094 F600
X24.353 Y59.074
X24.288 Y59.039 Z9.605
X24.224 Y59.004 Z9.618
X24.162 Y58.97 Z9.641
X24.148 Y58.958 Z9.649
X24.089 Y58.908 Z9.689
X24.035 Y58.862 Z9.74
X23.988 Y58.821 Z9.801
X23.947 Y58.786 Z9.87
X23.915 Y58.758 Z9.946
X23.891 Y58.738 Z10.028
X23.877 Y58.726 Z10.113
X23.872 Y58.722 Z10.2
G0 Z20.1
X26.367 Y68.831
Z10.8
G1 Z10.2 F600
X26.373 Y68.827 Z10.106
X26.392 Y68.816 Z10.015
X26.423 Y68.798 Z9.928
X26.465 Y68.772 Z9.847
X26.518 Y68.741 Z9.776
X26.579 Y68.705 Z9.715
X26.648 Y68.664 Z9.665
X26.723 Y68.619 Z9.629
X26.802 Y68.572 Z9.607
X26.882 Y68.524 Z9.6
G3 X27.636 Y68.303 I0.809 J1.36
G1 X31.726 F1000
X32.257 Y68.33
X32.407 Y68.339
X32.556 Y68.356
X32.704 Y68.379
X32.851 Y68.409
X32.997 Y68.445
X33.141 Y68.486
X33.283 Y68.533
X33.424 Y68.586
X33.562 Y68.643
X33.699 Y68.705
X33.833 Y68.772
X33.965 Y68.843
X34.095 Y68.918
X34.223 Y68.997
X34.348 Y69.08
X34.471 Y69.166
X34.591 Y69.255
X34.709 Y69.348
X34.825 Y69.444
X34.938 Y69.542
X35.049 Y69.643
X35.157 Y69.747
X35.263 Y69.853
X35.367 Y69.961
X35.468 Y70.072
X35.567 Y70.185
X35.663 Y70.299
X35.758 Y70.416
X35.85 Y70.534
X35.94 Y70.654
X36.028 Y70.776
X36.114 Y70.899
X36.198 Y71.023
X36.28 Y71.149
X36.359 Y71.276
X36.437 Y71.404
X36.513 Y71.534
X36.587 Y71.664
X36.659 Y71.796
X36.732 Y71.932
X36.804 Y72.074
X36.877 Y72.22
X36.951 Y72.374
X37.023 Y72.531
X37.097 Y72.696
X37.17 Y72.867
X37.244 Y73.044
X37.41 Y73.463
X37.903 Y74.217
X38.607 Y74.779
X39.384 Y75.235
X40.194 Y75.63
X40.606 Y75.811
X41.54 Y76.205
X41.749 Y76.29
X41.861 Y76.295
X41.969 Y76.263
X42.06 Y76.196
X42.124 Y76.103
X42.356 Y75.233
X42.322 Y74.333
X42.299 Y73.432
X42.284 Y72.531
X42.273 Y71.63
X42.266 Y70.729
X42.262 Y69.829
X42.259 Y68.928
X42.255 Y67.126
X42.254 Y63.522
X42.26 Y41.901
X42.271 Y41.809 F600
X42.295 Y41.72
X42.332 Y41.656 Z9.605
X42.369 Y41.593 Z9.618
X42.404 Y41.532 Z9.641
X42.466 Y41.482 Z9.679
X42.522 Y41.436 Z9.729
X42.573 Y41.395 Z9.788
X42.626 Y41.375 Z9.859
X42.669 Y41.359 Z9.937
X42.7 Y41.347 Z10.021
X42.719 Y41.34 Z10.109
X42.725 Y41.337 Z10.2
G0 Z20.1
X30.457 Y68.831
Z10.8
G1 Z10.2 F600
X30.463 Y68.827 Z10.106
X30.482 Y68.816 Z10.015
X30.513 Y68.798 Z9.928
X30.555 Y68.772 Z9.847
X30.608 Y68.741 Z9.776
X30.669 Y68.705 Z9.715
X30.738 Y68.664 Z9.665
X30.813 Y68.619 Z9.629
X30.892 Y68.572 Z9.607
X30.973 Y68.524 Z9.6
G3 X31.726 Y68.303 I0.809 J1.36
G1 X37.657 F1000
X38.066 Y68.301
X38.27 Y68.293
X38.679 Y68.243
X38.884 Y68.201
X39.293 Y68.093
X39.497 Y68.034
X39.731 Y67.955
X39.906 Y67.877
X40.111 Y67.772
X40.315 Y67.651
X40.52 Y67.5
X40.7 Y67.342
X40.929 Y67.123
X41.133 Y66.922
X41.304 Y66.728
X41.468 Y66.523
X41.542 Y66.424
X41.747 Y66.059
X41.824 Y65.91
X41.89 Y65.705
X42.018 Y65.296
X42.067 Y65.091
X42.161 Y64.682
X42.178 Y64.478
X42.201 Y64.069
X42.203 Y63.864
Y63.455
X42.196 Y63.25
X42.175 Y62.841
X42.156 Y62.709
X42.048 Y62.227
X41.99 Y62.023
X41.865 Y61.614
X41.83 Y61.511
X41.782 Y61.409
X41.556 Y61
X41.542 Y60.981
X41.233 Y60.591
X41.133 Y60.484
X41.035 Y60.386
X40.609 Y59.977
X40.52 Y59.905
X40.403 Y59.811
X40.289 Y59.713
X40.179 Y59.611
X40.073 Y59.505
X39.972 Y59.395
X39.874 Y59.281
X39.779 Y59.164
X39.689 Y59.044
X39.603 Y58.922
X39.52 Y58.797
X39.44 Y58.67
X39.364 Y58.54
X39.291 Y58.409
X39.222 Y58.276
X39.155 Y58.142
X39.092 Y58.006
X39.031 Y57.869
X38.973 Y57.73
X38.918 Y57.591
X38.866 Y57.45
X38.816 Y57.309
X38.768 Y57.167
X38.723 Y57.024
X38.68 Y56.88
X38.639 Y56.736
X38.599 Y56.587
X38.559 Y56.431
X38.519 Y56.265
X38.479 Y56.09
X38.44 Y55.903
X38.401 Y55.704
X38.362 Y55.49
X38.323 Y55.26
X38.284 Y55.01
X38.245 Y54.736
X38.207 Y54.434
X38.169 Y54.097
X38.131 Y53.715
X38.093 Y53.275
X38.055 Y52.754
X38.018 Y52.114
X37.981 Y51.284
X37.954 Y50.384
X37.935 Y49.483
X37.923 Y48.582
X37.912 Y47.231
X37.909 Y46.555
X37.871 Y46.449
X37.8 Y46.362
X37.704 Y46.303
X37.594 Y46.28
X36.701 Y46.397
X36.54 Y46.471
X36.369 Y46.547
X36.185 Y46.625
X35.988 Y46.706
X35.776 Y46.79
X35.58 Y46.865
X35.41 Y46.926
X35.23 Y46.989
X35.037 Y47.054
X34.829 Y47.12
X34.605 Y47.188
X34.361 Y47.258
X34.195 Y47.304
X34.05 Y47.341
X33.904 Y47.377
X33.754 Y47.411
X33.596 Y47.445
X33.429 Y47.478
X33.252 Y47.511
X33.064 Y47.544
X32.756 Y47.591
X32.533 Y47.622
X32.292 Y47.651
X32.044 Y47.678
X31.886 Y47.693
X31.773 Y47.703
X31.671 Y47.749
X31.589 Y47.826
X31.538 Y47.927
X31.523 Y48.038
X31.709 Y48.92
X31.824 Y49.174
X31.937 Y49.432
X32.045 Y49.688
X32.149 Y49.945
X32.249 Y50.202
X32.346 Y50.462
X32.441 Y50.725
X32.531 Y50.99
X32.616 Y51.249
X32.696 Y51.506
X32.773 Y51.763
X32.846 Y52.021
X32.916 Y52.282
X32.981 Y52.541
X33.043 Y52.797
X33.099 Y53.05
X33.152 Y53.299
X33.2 Y53.545
X33.244 Y53.789
X33.285 Y54.03
X33.321 Y54.267
X33.354 Y54.499
X33.382 Y54.727
X33.407 Y54.95
X33.429 Y55.168
X33.447 Y55.382
X33.462 Y55.591
X33.473 Y55.794
X33.482 Y55.994
X33.488 Y56.189
X33.491 Y56.38
Y56.565
X33.489 Y56.746
X33.485 Y56.908
X33.479 Y57.058
X33.471 Y57.208
X33.461 Y57.357
X33.448 Y57.507
X33.433 Y57.656
X33.416 Y57.805
X33.395 Y57.954
X33.372 Y58.102
X33.346 Y58.25
X33.317 Y58.397
X33.285 Y58.543
X33.259 Y58.646
X33.18 Y58.829
X33.047 Y58.975
X32.872 Y59.07
X32.676 Y59.103
X28.572
X28.48 Y59.093 F600
X28.391 Y59.068
X28.327 Y59.031 Z9.605
X28.264 Y58.995 Z9.618
X28.203 Y58.959 Z9.641
X28.153 Y58.898 Z9.679
X28.108 Y58.841 Z9.729
X28.067 Y58.791 Z9.788
X28.046 Y58.738 Z9.859
X28.03 Y58.695 Z9.937
X28.018 Y58.664 Z10.021
X28.011 Y58.645 Z10.109
X28.009 Y58.638 Z10.2
G0 Z20.1
X41.856 Y60.226
Z10.8
G1 Z10.2 F600
X41.849 Z10.106
X41.827 Y60.224 Z10.015
X41.791 Y60.22 Z9.928
X41.742 Y60.216 Z9.847
X41.681 Y60.21 Z9.776
X41.61 Y60.203 Z9.715
X41.53 Y60.196 Z9.665
X41.444 Y60.188 Z9.629
X41.352 Y60.179 Z9.607
X41.259 Y60.17 Z9.6
G3 X40.52 Y59.905 I0.148 J-1.576
G1 X40.338 Y59.773 F1000
X40.111 Y59.636
X39.992 Y59.568
X39.906 Y59.529
X39.702 Y59.441
X39.473 Y59.363
X39.293 Y59.313
X38.884 Y59.203
X38.667 Y59.159
X38.475 Y59.128
X38.27 Y59.11
X38.066 Y59.105
X37.452 Y59.103
X32.676
X32.584 Y59.093 F600
X32.495 Y59.068
X32.431 Y59.031 Z9.605
X32.368 Y58.995 Z9.618
X32.307 Y58.959 Z9.641
X32.257 Y58.898 Z9.679
X32.212 Y58.841 Z9.729
X32.171 Y58.791 Z9.788
X32.151 Y58.738 Z9.859
X32.134 Y58.695 Z9.937
X32.122 Y58.664 Z10.021
X32.115 Y58.645 Z10.109
X32.113 Y58.638 Z10.2
G0 Z20.1
X9.618 Y46.474
Z10.363
G1 Z9.763 F600
X9.411 Y46.296 Z9.705
G3 X9.203 Y45.862 Z9.6 I0.391 J-0.455
G1 Y42.18 F1000
X9.22 Y41.834
X9.305 Y41.404
X9.469 Y40.938
X9.728 Y40.444
X10.099 Y39.932
X10.603 Y39.414
X11.257 Y38.912
X12.043 Y38.472
X12.881 Y38.142
X13.752 Y37.913
X13.864 Y37.895
X13.975 Y37.879
X14.421 Y37.819
X14.533 Y37.808
X14.646 Y37.799
X14.748 Y37.753
X14.83 Y37.675
X14.881 Y37.575
X14.998 Y36.681
X14.988 Y35.781
X14.949 Y34.881
X14.892 Y33.982
X14.875 Y33.081
X14.889 Y32.18
X14.924 Y31.28
X14.997 Y30.382
X15.106 Y29.488
X15.277 Y28.603
X15.493 Y27.728
X15.739 Y26.862
X16.048 Y26.016
X16.414 Y25.192
X16.818 Y24.387
X17.251 Y23.597
X17.726 Y22.831
X18.251 Y22.1
X18.816 Y21.398
X19.426 Y20.735
X20.075 Y20.111
X20.761 Y19.526
X21.475 Y18.977
X22.209 Y18.455
X22.973 Y17.977
X23.772 Y17.56
X24.592 Y17.189
X25.432 Y16.863
X26.288 Y16.58
X27.16 Y16.353
X28.042 Y16.172
X28.932 Y16.034
X29.83 Y15.961
X30.731 Y15.943
X31.631 Y15.986
X32.528 Y16.072
X33.421 Y16.187
X34.304 Y16.367
X35.174 Y16.602
X36.032 Y16.875
X36.872 Y17.202
X37.684 Y17.591
X38.475 Y18.022
X39.249 Y18.484
X40.005 Y18.974
X40.36 Y19.251
X40.534 Y19.394
X40.705 Y19.541
X41.383 Y20.133
X42.035 Y20.755
X42.341 Y21.086
X42.489 Y21.255
X42.562 Y21.341
G3 X42.577 Y22.071 I-0.469 J0.375 F600
G1 X42.522 Y22.147 Z9.607
X42.467 Y22.221 Z9.629
X42.416 Y22.291 Z9.665
X42.368 Y22.355 Z9.715
X42.326 Y22.413 Z9.776
X42.29 Y22.462 Z9.847
X42.26 Y22.502 Z9.928
X42.239 Y22.531 Z10.015
X42.226 Y22.549 Z10.106
X42.222 Y22.555 Z10.2
G0 Z20.1
X9.731 Y43.449
Z10.8
G1 Z10.2 F600
X9.727 Y43.443 Z10.106
X9.716 Y43.424 Z10.015
X9.697 Y43.393 Z9.928
X9.672 Y43.35 Z9.847
X9.641 Y43.298 Z9.776
X9.604 Y43.236 Z9.715
X9.563 Y43.167 Z9.665
X9.519 Y43.093 Z9.629
X9.472 Y43.014 Z9.607
X9.424 Y42.933 Z9.6
G3 X9.203 Y42.18 I1.36 J-0.809
G1 Y38.702 F1000
X9.221 Y38.348
X9.305 Y37.92
X9.476 Y37.433
X9.895 Y36.635
X10.244 Y35.805
X10.455 Y34.929
X10.596 Y34.039
X10.701 Y33.145
X10.793 Y32.248
X10.885 Y31.352
X10.991 Y30.458
X11.12 Y29.566
X11.276 Y28.679
X11.46 Y27.797
X11.679 Y26.923
X11.935 Y26.059
X12.228 Y25.207
X12.556 Y24.368
X12.918 Y23.543
X13.313 Y22.734
X13.744 Y21.942
X14.209 Y21.171
X14.708 Y20.42
X15.242 Y19.695
X15.811 Y18.996
X16.412 Y18.326
X17.044 Y17.684
X17.704 Y17.07
X18.388 Y16.484
X19.097 Y15.928
X19.832 Y15.408
X20.591 Y14.923
X21.372 Y14.473
X22.173 Y14.061
X22.992 Y13.686
X23.828 Y13.349
X24.678 Y13.052
X25.541 Y12.792
X26.414 Y12.569
X27.297 Y12.39
X28.187 Y12.254
X29.083 Y12.161
X29.983 Y12.112
X30.884 Y12.104
X31.784 Y12.133
X32.682 Y12.203
X33.576 Y12.315
X34.464 Y12.467
X35.345 Y12.657
X36.215 Y12.889
X37.073 Y13.164
X37.917 Y13.48
X38.745 Y13.835
X39.558 Y14.223
X40.355 Y14.644
X40.548 Y14.759
X40.645 Y14.817
X41.412 Y15.29
X41.783 Y15.545
X41.966 Y15.677
G3 X42.149 Y16.384 I-0.369 J0.473 F600
G1 X42.113 Y16.47 Z9.607
X42.077 Y16.554 Z9.629
X42.043 Y16.634 Z9.665
X42.012 Y16.708 Z9.715
X41.984 Y16.774 Z9.776
X41.96 Y16.831 Z9.847
X41.941 Y16.876 Z9.928
X41.927 Y16.909 Z10.015
X41.918 Y16.929 Z10.106
X41.915 Y16.936 Z10.2
G0 Z20.1
X9.731 Y39.971
Z10.8
G1 Z10.2 F600
X9.727 Y39.965 Z10.106
X9.716 Y39.946 Z10.015
X9.697 Y39.915 Z9.928
X9.672 Y39.873 Z9.847
X9.641 Y39.82 Z9.776
X9.604 Y39.759 Z9.715
X9.563 Y39.69 Z9.665
X9.519 Y39.615 Z9.629
X9.472 Y39.536 Z9.607
X9.424 Y39.456 Z9.6
G3 X9.203 Y38.702 I1.36 J-0.809
G1 Y24.996 F1000
X9.248 Y24.096
Y23.946
X9.252 Y23.796
X9.259 Y23.646
X9.27 Y23.497
X9.283 Y23.347
X9.3 Y23.198
X9.319 Y23.049
X9.341 Y22.901
X9.366 Y22.753
X9.393 Y22.606
X9.423 Y22.459
X9.455 Y22.312
X9.49 Y22.166
X9.527 Y22.021
X9.566 Y21.876
X9.607 Y21.732
X9.65 Y21.588
X9.695 Y21.445
X9.743 Y21.301
X9.795 Y21.15
X9.853 Y20.991
X9.915 Y20.825
X9.982 Y20.655
X10.046 Y20.5
X10.113 Y20.342
X10.187 Y20.175
X10.267 Y19.998
X10.356 Y19.812
X10.451 Y19.619
X10.537 Y19.449
X10.63 Y19.273
X10.731 Y19.086
X10.843 Y18.888
X10.966 Y18.675
X11.076 Y18.49
X11.192 Y18.302
X11.319 Y18.102
X11.46 Y17.887
X11.609 Y17.666
X11.741 Y17.476
X11.886 Y17.273
X12.046 Y17.055
X12.225 Y16.819
X12.379 Y16.621
X12.546 Y16.413
X12.731 Y16.188
X12.935 Y15.947
X13.112 Y15.744
X13.307 Y15.526
X13.527 Y15.287
X13.742 Y15.059
X13.941 Y14.854
X14.164 Y14.631
X14.414 Y14.387
X14.618 Y14.193
X14.839 Y13.99
X15.087 Y13.767
X15.331 Y13.554
X15.548 Y13.369
X15.791 Y13.169
X16.065 Y12.949
X16.291 Y12.772
X16.532 Y12.589
X16.803 Y12.388
X17.069 Y12.198
X17.307 Y12.032
X17.574 Y11.851
X17.871 Y11.656
X18.112 Y11.502
X18.375 Y11.339
X18.671 Y11.162
X18.934 Y11.01
X19.189 Y10.866
X19.475 Y10.709
X19.789 Y10.544
X20.044 Y10.413
X20.325 Y10.273
X20.642 Y10.122
X20.928 Y9.99
X21.208 Y9.866
X21.523 Y9.731
X21.842 Y9.599
X22.123 Y9.487
X22.438 Y9.367
X22.784 Y9.241
X23.056 Y9.146
X23.353 Y9.047
X23.686 Y8.94
X23.987 Y8.848
X24.271 Y8.766
X24.588 Y8.679
X24.926 Y8.591
X25.2 Y8.524
X25.502 Y8.454
X25.841 Y8.38
X26.141 Y8.319
X26.43 Y8.265
X26.752 Y8.209
X27.093 Y8.154
X27.375 Y8.113
X27.686 Y8.072
X28.035 Y8.03
X28.341 Y7.998
X28.652 Y7.97
X29.001 Y7.943
X29.337 Y7.922
X29.639 Y7.906
X29.975 Y7.894
X30.336 Y7.886
X30.628 Y7.884
X30.95 Y7.885
X31.312 Y7.892
X31.619 Y7.902
X31.93 Y7.916
X32.277 Y7.937
X32.614 Y7.961
X32.92 Y7.988
X33.26 Y8.022
X33.62 Y8.064
X33.91 Y8.101
X34.23 Y8.147
X34.589 Y8.203
X34.883 Y8.253
X35.18 Y8.308
X35.51 Y8.373
X35.838 Y8.443
X36.118 Y8.507
X36.425 Y8.581
X36.768 Y8.669
X37.05 Y8.745
X37.344 Y8.829
X37.67 Y8.927
X37.986 Y9.026
X38.275 Y9.122
X38.595 Y9.233
X38.934 Y9.355
X39.221 Y9.463
X39.541 Y9.588
X39.891 Y9.731
X40.164 Y9.847
X40.431 Y9.965
X40.714 Y10.094
X41.028 Y10.242
X41.345 Y10.398
X41.605 Y10.53
X41.878 Y10.672
X41.977 Y10.726
G3 X42.251 Y11.403 I-0.304 J0.517 F600
G1 X42.226 Y11.494 Z9.607
X42.201 Y11.582 Z9.629
X42.178 Y11.666 Z9.665
X42.157 Y11.743 Z9.715
X42.138 Y11.812 Z9.776
X42.121 Y11.871 Z9.847
X42.108 Y11.919 Z9.928
X42.099 Y11.953 Z10.015
X42.093 Y11.974 Z10.106
X42.091 Y11.982 Z10.2
G0 Z20.1
X9.731 Y26.265
Z10.8
G1 Z10.2 F600
X9.727 Y26.259 Z10.106
X9.716 Y26.24 Z10.015
X9.697 Y26.209 Z9.928
X9.672 Y26.167 Z9.847
X9.641 Y26.114 Z9.776
X9.604 Y26.053 Z9.715
X9.563 Y25.984 Z9.665
X9.519 Y25.909 Z9.629
X9.472 Y25.83 Z9.607
X9.424 Y25.749 Z9.6
G3 X9.203 Y24.996 I1.36 J-0.809
G1 Y17.222 F1000
X9.242 Y16.448
X9.251 Y16.298
X9.265 Y16.149
X9.284 Y16
X9.307 Y15.852
X9.334 Y15.704
X9.365 Y15.558
X9.399 Y15.412
X9.438 Y15.267
X9.479 Y15.123
X9.524 Y14.98
X9.573 Y14.838
X9.624 Y14.697
X9.678 Y14.557
X9.735 Y14.418
X9.795 Y14.28
X9.857 Y14.144
X9.922 Y14.009
X9.989 Y13.874
X10.058 Y13.741
X10.13 Y13.61
X10.203 Y13.479
X10.279 Y13.349
X10.357 Y13.221
X10.436 Y13.094
X10.518 Y12.968
X10.602 Y12.841
X10.692 Y12.709
X10.785 Y12.577
X10.884 Y12.441
X10.987 Y12.303
X11.095 Y12.162
X11.209 Y12.018
X11.327 Y11.872
X11.454 Y11.72
X11.584 Y11.568
X11.722 Y11.412
X11.865 Y11.254
X12.014 Y11.094
X12.094 Y11.011
X12.255 Y10.845
X12.424 Y10.676
X12.599 Y10.506
X12.782 Y10.332
X12.972 Y10.156
X13.168 Y9.98
X13.377 Y9.798
X13.592 Y9.615
X13.811 Y9.434
X14.038 Y9.251
X14.277 Y9.065
X14.518 Y8.882
X14.771 Y8.695
X15.028 Y8.511
X15.213 Y8.382
G3 X15.928 Y8.433 Z9.763 I0.323 J0.505 F600
G1 X15.99 Y8.494 Z9.782 F1000
X16.042 Y8.564 Z9.8
G3 X16.031 Y9.228 I-0.505 J0.324
G1 X10.296 Y17.542
G3 X9.823 Y17.801 I-0.494 J-0.341
G1 X9.736 Y17.798 Z9.782
X9.651 Y17.782 Z9.763
G3 X9.203 Y17.222 Z9.6 I0.152 J-0.581 F600
G1 Y11.29 F1000
X9.218 Y10.994
X9.231 Y10.882
X9.248 Y10.771
X9.287 Y10.549
X9.311 Y10.439
X9.298 Y10.327
X9.265 Y10.261
X9.231 Y10.176
X9.21 Y10.087
X9.203 Y9.995
G3 X9.651 Y9.436 Z9.763 I0.6 J0.021 F600
G1 X9.736 Y9.42 Z9.782 F1000
X9.823 Y9.416 Z9.8
G3 X10.402 Y10.037 I-0.02 J0.6
X9.891 Y11.304 I-1.999 J-0.07
G1 X9.769 Y11.428 Z9.763
X9.683 Y11.505 Z9.739 F600
G3 X9.203 Y11.29 Z9.6 I-0.187 J-0.225
G1 Y4.271 F1000
X9.213 Y4.179 F600
X9.238 Y4.089
X9.275 Y4.026 Z9.605
X9.311 Y3.963 Z9.618
X9.347 Y3.902 Z9.641
X9.408 Y3.852 Z9.679
X9.465 Y3.806 Z9.729
X9.515 Y3.765 Z9.788
X9.568 Y3.745 Z9.859
X9.611 Y3.729 Z9.937
X9.642 Y3.717 Z10.021
X9.661 Y3.709 Z10.109
X9.668 Y3.707 Z10.2
G0 Z20.1
X-0.613 Y-5.488
Z11.2
G1 Z10.6 F600
X-0.611 Y-5.481 Z10.506
X-0.606 Y-5.459 Z10.415
X-0.597 Y-5.424 Z10.328
X-0.584 Y-5.377 Z10.247
X-0.569 Y-5.318 Z10.176
X-0.551 Y-5.248 Z10.115
X-0.532 Y-5.17 Z10.065
X-0.51 Y-5.086 Z10.029
X-0.487 Y-4.997 Z10.007
X-0.464 Y-4.907 Z10
G3 X0.006 Y-1.64 I-14.839 J3.801
G1 Y-1.528 F1000
X0.306 Y-0.678
X0.734 Y0.036
X1.081 Y0.868
X1.329 Y1.733
X1.505 Y2.617
X1.628 Y3.51
X1.713 Y4.406
X1.772 Y5.305
X1.812 Y6.205
X1.84 Y7.106
X1.859 Y8.006
X1.872 Y8.907
X1.881 Y9.808
X1.887 Y10.709
X1.891 Y11.61
X1.896 Y13.412
X1.899 Y16.114
X1.9 Y24.222
Y48.546
Y49.447
X1.949 Y49.667
X1.981 Y49.775
X2.03 Y49.876
X2.318 Y50.223
X3.079 Y50.705
X3.187 Y50.737
X3.406 Y50.792
X3.518 Y50.798
X3.626 Y50.767
X3.718 Y50.701
X3.975 Y50.331
X4.298 Y49.49
X4.492 Y48.611
X4.615 Y47.718
X4.693 Y46.821
X4.744 Y45.921
X4.778 Y45.021
X4.8 Y44.12
X4.814 Y43.22
X4.824 Y42.319
X4.83 Y41.418
X4.835 Y40.517
X4.839 Y38.715
X4.842 Y36.012
X4.843 Y26.103
Y4.481
X4.837 Y4.031
X4.821 Y3.919
X4.803 Y3.808
X4.799 Y3.716 F600
X4.809 Y3.624
X4.835 Y3.555 Z10.005
X4.861 Y3.487 Z10.018
X4.886 Y3.421 Z10.041
X4.939 Y3.362 Z10.079
X4.988 Y3.308 Z10.129
X5.031 Y3.259 Z10.188
X5.08 Y3.231 Z10.259
X5.12 Y3.208 Z10.337
X5.149 Y3.192 Z10.421
X5.167 Y3.181 Z10.509
X5.173 Y3.178 Z10.6
G0 Z20.1
X58.878 Y93.817
Z10.3
G1 Z9.7 F600
X58.871 Y93.819 Z9.606
X58.85 Y93.824 Z9.515
X58.815 Y93.833 Z9.428
X58.767 Y93.846 Z9.347
X58.708 Y93.861 Z9.276
X58.639 Y93.878 Z9.215
X58.561 Y93.898 Z9.165
X58.477 Y93.92 Z9.129
X58.388 Y93.943 Z9.107
X58.297 Y93.966 Z9.1
G3 X55.031 Y94.436 I-3.801 J-14.839
G1 X54.928 F1000
X54.78 Y94.463
X54.602 Y94.461
X54.37 Y94.425
X54.087 Y94.337
X53.76 Y94.181
X53.396 Y93.938
X53.002 Y93.583
X52.587 Y93.082
X52.158 Y92.381
X51.804 Y91.553
X51.55 Y90.689
X51.37 Y89.806
X51.245 Y88.914
X51.157 Y88.017
X51.097 Y87.118
X51.056 Y86.218
X51.028 Y85.318
X51.009 Y84.417
X50.996 Y83.516
X50.987 Y82.616
X50.981 Y81.715
X50.977 Y80.814
X50.973 Y79.012
X50.971 Y76.309
X50.972 Y68.201
X50.979 Y45.679
X50.993 Y2.774
X50.955 Y2.668
X50.814 Y2.493
X50.077 Y1.974
X49.233 Y1.659
X48.356 Y1.455
X47.465 Y1.321
X46.568 Y1.231
X45.669 Y1.171
X44.769 Y1.13
X43.869 Y1.102
X42.968 Y1.082
X42.068 Y1.069
X41.167 Y1.06
X40.266 Y1.053
X39.365 Y1.048
X37.563 Y1.042
X34.861 Y1.037
X25.852 Y1.029
X9.492 Y1.015
X9.305 Y0.985
X9.137 Y0.898
X9.004 Y0.763
X8.92 Y0.594
X8.874 Y0.448
X8.822 Y0.294
X8.701 Y0.038
X8.578 Y-0.166
X8.515 Y-0.268
X8.413 Y-0.387
X8.004 Y-0.849
X7.868 Y-0.984
X7.595 Y-1.24
X7.39 Y-1.394
X7.186 Y-1.526
X7.06 Y-1.598
X6.981 Y-1.641
X6.777 Y-1.732
X6.564 Y-1.803
X6.163 Y-1.923
X5.959 Y-1.978
X5.754 Y-2.03
X5.55 Y-2.065
X5.345 Y-2.079
X4.936 Y-2.097
X4.732 Y-2.1
X2.278
X2.073 Y-2.094
X1.664 Y-2.073
X1.46 Y-2.05
X1.255 Y-2.006
X1.051 Y-1.954
X0.846 Y-1.895
X0.437 Y-1.769
X0.233 Y-1.69
X0.04 Y-1.598
X-0.176 Y-1.47
X-0.288 Y-1.393
X-0.381 Y-1.323
X-0.548 Y-1.189
X-0.79 Y-0.959
X-0.968 Y-0.78
X-1.199 Y-0.54
X-1.403 Y-0.277
X-1.475 Y-0.166
X-1.598 Y0.038
X-1.608 Y0.056
X-1.695 Y0.243
X-1.771 Y0.448
X-1.899 Y0.857
X-1.957 Y1.061
X-2.012 Y1.266
X-2.051 Y1.47
X-2.072 Y1.675
X-2.096 Y2.084
X-2.1 Y2.289
Y51.181
X-2.098 Y51.794
X-2.082 Y51.999
X-2.055 Y52.204
X-2.017 Y52.415
X-1.91 Y52.817
X-1.855 Y53.022
X-1.788 Y53.226
X-1.707 Y53.431
X-1.608 Y53.639
X-1.489 Y53.84
X-1.403 Y53.981
X-1.356 Y54.045
X-1.199 Y54.232
X-1.183 Y54.249
X-0.64 Y54.883
X-0.213 Y55.558
X0.154 Y56.381
X0.418 Y57.242
X0.605 Y58.123
X0.736 Y59.015
X0.827 Y59.911
X0.889 Y60.81
X0.932 Y61.71
X0.962 Y62.61
X0.982 Y63.511
X0.995 Y64.412
X1.004 Y65.312
X1.011 Y66.213
X1.015 Y67.114
X1.019 Y68.916
X1.021 Y71.619
X1.02 Y78.826
X1.012 Y104.051
Y104.952
X1.041 Y105.175
X1.079 Y105.493
X1.118 Y105.85
X1.155 Y106.257
X1.193 Y106.733
X1.23 Y107.304
X1.268 Y108.022
X1.302 Y108.922
X1.324 Y109.823
X1.34 Y110.723
X1.35 Y111.624
X1.356 Y112.525
X1.36 Y113.426
X1.363 Y114.327
X1.366 Y116.129
X1.367 Y119.282
X1.404 Y119.388
X1.475 Y119.476
X2.242 Y119.948
X3.107 Y120.199
X3.995 Y120.353
X4.89 Y120.452
X5.789 Y120.515
X6.689 Y120.556
X7.589 Y120.583
X8.49 Y120.6
X9.391 Y120.612
X10.292 Y120.619
X11.192 Y120.623
X12.093 Y120.626
X13.895 Y120.629
X17.161
X17.253 Y120.639 F600
X17.342 Y120.664
X17.406 Y120.701 Z9.105
X17.469 Y120.737 Z9.118
X17.53 Y120.772 Z9.141
X17.58 Y120.834 Z9.179
X17.626 Y120.891 Z9.229
X17.667 Y120.941 Z9.288
X17.687 Y120.994 Z9.359
X17.703 Y121.037 Z9.437
X17.715 Y121.068 Z9.521
X17.722 Y121.087 Z9.609
X17.725 Y121.093 Z9.7
G0 Z20.1
X24.286 Y55.647
Z11.2
G1 Z10.6 F600
X24.29 Y55.653 Z10.506
X24.303 Y55.671 Z10.415
X24.324 Y55.701 Z10.328
X24.352 Y55.741 Z10.247
X24.388 Y55.79 Z10.176
X24.43 Y55.848 Z10.115
X24.476 Y55.914 Z10.065
X24.527 Y55.984 Z10.029
X24.581 Y56.059 Z10.007
X24.635 Y56.135 Z10
G3 X26.259 Y59.008 I-12.446 J8.929
G1 X26.313 Y59.148 F1000
X26.357 Y59.291
X26.374 Y59.44
X26.373 Y59.59
X26.357 Y59.739
X26.328 Y59.886
X26.289 Y60.031
X26.239 Y60.173
X26.18 Y60.311
X26.114 Y60.445
X26.04 Y60.576
X25.959 Y60.702
X25.873 Y60.825
X25.781 Y60.943
X25.684 Y61.058
X25.582 Y61.168
X25.476 Y61.274
X25.367 Y61.377
X25.253 Y61.475
X25.137 Y61.569
X25.017 Y61.66
X24.895 Y61.747
X24.771 Y61.83
X24.644 Y61.91
X24.515 Y61.987
X24.384 Y62.06
X24.251 Y62.13
X24.117 Y62.197
X23.981 Y62.26
X23.844 Y62.321
X23.705 Y62.379
X23.566 Y62.435
X23.426 Y62.488
X23.284 Y62.538
X23.142 Y62.586
X22.999 Y62.631
X22.856 Y62.675
X22.711 Y62.716
X22.564 Y62.756
X22.408 Y62.796
X22.243 Y62.836
X22.069 Y62.876
X21.884 Y62.915
X21.686 Y62.954
X21.474 Y62.994
X21.245 Y63.033
X20.997 Y63.072
X20.726 Y63.11
X20.427 Y63.149
X20.093 Y63.187
X19.717 Y63.225
X19.283 Y63.263
X18.771 Y63.301
X18.145 Y63.338
X17.339 Y63.375
X16.438 Y63.405
X15.538 Y63.424
X14.637 Y63.437
X14.186 Y63.445
X13.962 Y63.462
X13.851 Y63.483
X13.754 Y63.539
G3 X13.045 Y63.433 Z10.163 I-0.283 J-0.529 F600
G1 X12.988 Y63.367 Z10.182 F1000
X12.942 Y63.294 Z10.2
G3 X13.359 Y62.421 I0.529 J-0.283
G1 X25.132 Y60.197
X25.213 Y60.188
X25.291 Y60.189 Z10.184
X25.367 Y60.2 Z10.167
X25.386 Y60.204 Z10.163
G3 X26.114 Y60.445 Z10 I-0.775 J3.562 F600
G1 X26.185 Y60.48 F1000
X26.326 Y60.531
X26.454 Y60.61
X26.569 Y60.707
X26.671 Y60.817
X26.76 Y60.937
X26.839 Y61.065
X26.905 Y61.199
X26.961 Y61.338
X27.007 Y61.481
X27.042 Y61.627
X27.068 Y61.775
X27.085 Y61.924
X27.093 Y62.074
Y62.224
X27.084 Y62.373
X27.068 Y62.523
X27.045 Y62.671
X27.014 Y62.818
X26.977 Y62.963
X26.934 Y63.107
X26.885 Y63.248
X26.83 Y63.388
X26.784 Y63.491
X26.776 Y63.603
X26.805 Y63.712
X26.869 Y63.805
X26.96 Y63.871
X27.392 Y63.999
X28.293 Y63.98
X29.193 Y63.968
X30.094 Y63.959
X30.995 Y63.954
X31.896 Y63.95
X33.698 Y63.946
X35.5 Y63.944
X35.95 Y63.94
X36.174 Y63.922
X36.283 Y63.893
X36.376 Y63.829
X36.458 Y63.786 F600
X36.545 Y63.756
X36.622 Y63.746 Z10.005
X36.698 Y63.736 Z10.02
X36.774 Y63.75 Z10.047
X36.845 Y63.763 Z10.083
X36.911 Y63.775 Z10.129
X36.966 Y63.808 Z10.188
X37.012 Y63.836 Z10.255
X37.05 Y63.859 Z10.33
X37.079 Y63.877 Z10.41
X37.097 Y63.888 Z10.494
X37.102 Y63.892 Z10.547
X37.104 Y63.894 Z10.6
G0 Z20.1
X-2.439 Y53.691
Z10.3
G1 Z9.7 F600
X-2.432 Y53.693 Z9.606
X-2.411 Y53.699 Z9.515
X-2.376 Y53.709 Z9.428
X-2.329 Y53.722 Z9.347
X-2.27 Y53.739 Z9.276
X-2.201 Y53.758 Z9.215
X-2.124 Y53.78 Z9.165
X-2.04 Y53.804 Z9.129
X-1.952 Y53.829 Z9.107
X-1.862 Y53.854 Z9.1
G3 X-1.183 Y54.249 I-0.431 J1.523
G1 X-0.79 Y54.663 F1000
X-0.579 Y54.863
X-0.381 Y55.029
X-0.329 Y55.068
X-0.176 Y55.171
X0.028 Y55.289
X0.233 Y55.396
X0.437 Y55.472
X0.846 Y55.598
X1.051 Y55.654
X1.408 Y55.753
X1.795 Y55.924
X2.221 Y56.191
X2.667 Y56.571
X3.135 Y57.102
X3.614 Y57.837
X3.992 Y58.655
X4.275 Y59.51
X4.484 Y60.386
X4.637 Y61.274
X4.748 Y62.168
X4.828 Y63.065
X4.885 Y63.964
X4.925 Y64.864
X4.954 Y65.765
X4.975 Y66.666
X4.989 Y67.566
X4.999 Y68.467
X5.006 Y69.368
X5.011 Y70.269
X5.014 Y71.17
X5.018 Y72.972
X5.02 Y75.674
X5.019 Y83.782
X5.013 Y102.701
X5.041 Y103.601
X5.086 Y104.501
X5.134 Y105.401
X5.18 Y106.301
X5.221 Y107.201
X5.255 Y108.101
X5.283 Y109.001
X5.304 Y109.902
X5.321 Y110.803
X5.334 Y111.703
X5.343 Y112.604
X5.35 Y113.505
X5.356 Y114.631
X5.394 Y114.737
X5.678 Y115.087
X6.402 Y115.623
X7.238 Y115.958
X8.112 Y116.176
X9.001 Y116.322
X9.897 Y116.421
X10.795 Y116.487
X11.695 Y116.533
X12.595 Y116.564
X13.046 Y116.574
X13.946 Y116.59
X14.284 Y116.595
X14.391 Y116.558
X14.479 Y116.489
X14.54 Y116.394
X14.741 Y115.516
X14.779 Y114.616
Y113.715
X14.793 Y112.814
X14.832 Y111.914
X14.899 Y111.015
X15.001 Y110.12
X15.131 Y109.229
X15.313 Y108.347
X15.533 Y107.473
X15.803 Y106.613
X16.127 Y105.773
X16.508 Y104.956
X16.928 Y104.159
X17.375 Y103.377
X17.87 Y102.625
X18.416 Y101.908
X18.994 Y101.217
X19.611 Y100.561
X20.273 Y99.95
X20.966 Y99.373
X21.684 Y98.83
X22.426 Y98.318
X23.205 Y97.867
X24.011 Y97.464
X24.836 Y97.102
X25.681 Y96.789
X26.542 Y96.523
X27.418 Y96.315
X28.304 Y96.149
X29.195 Y96.021
X30.094 Y95.961
X30.995 Y95.959
X31.895 Y96.01
X32.791 Y96.099
X32.904 Y96.101
X33.054 Y96.106
X33.203 Y96.113
X33.353 Y96.122
X33.503 Y96.134
X33.654 Y96.148
X33.814 Y96.164
X33.981 Y96.184
X34.148 Y96.207
X34.297 Y96.228
X34.445 Y96.252
X34.592 Y96.279
X34.741 Y96.307
X34.897 Y96.34
X35.06 Y96.376
X35.232 Y96.416
X35.413 Y96.462
X35.605 Y96.513
X35.81 Y96.57
X35.984 Y96.621
X36.127 Y96.665
X36.27 Y96.712
X36.412 Y96.76
X36.553 Y96.811
X36.701 Y96.866
X36.855 Y96.927
X37.017 Y96.992
X37.188 Y97.064
X37.368 Y97.143
X37.559 Y97.23
X37.762 Y97.326
X37.981 Y97.433
X38.216 Y97.552
X38.473 Y97.686
X38.755 Y97.838
X39.07 Y98.013
X39.239 Y98.111
X39.383 Y98.197
X39.535 Y98.29
X39.694 Y98.39
X39.862 Y98.5
X40.04 Y98.619
X40.186 Y98.719
X40.311 Y98.809
X40.442 Y98.904
X40.578 Y99.007
X40.721 Y99.117
X40.87 Y99.236
X41.028 Y99.365
X41.194 Y99.506
X41.371 Y99.659
X41.561 Y99.828
X41.714 Y99.968
X41.851 Y100.097
X41.995 Y100.236
X42.147 Y100.386
X42.308 Y100.55
X42.479 Y100.73
X42.663 Y100.929
X42.82 Y101.102
X42.928 Y101.225
X43.04 Y101.356
X43.157 Y101.497
X43.278 Y101.647
X43.406 Y101.81
X43.54 Y101.986
X43.682 Y102.177
X43.834 Y102.387
X43.996 Y102.618
X44.172 Y102.877
X44.364 Y103.168
X44.445 Y103.295
X44.525 Y103.422
X44.603 Y103.552
X44.684 Y103.69
X44.766 Y103.837
X44.852 Y103.992
X44.94 Y104.158
X45.031 Y104.336
X45.126 Y104.528
X45.225 Y104.735
X45.33 Y104.961
X45.419 Y105.163
X45.495 Y105.339
X45.573 Y105.528
X45.654 Y105.731
X45.738 Y105.95
X45.825 Y106.19
X45.917 Y106.453
X46.015 Y106.744
X46.12 Y107.07
X46.183 Y107.28
X46.227 Y107.428
X46.27 Y107.585
X46.313 Y107.751
X46.356 Y107.926
X46.4 Y108.113
X46.443 Y108.313
X46.487 Y108.528
X46.531 Y108.76
X46.575 Y109.012
X46.619 Y109.287
X46.664 Y109.592
X46.707 Y109.914
X46.724 Y110.063
X46.74 Y110.212
X46.754 Y110.368
X46.767 Y110.533
X46.778 Y110.707
X46.787 Y110.891
X46.794 Y111.087
X46.799 Y111.296
X46.801 Y111.521
X46.8 Y111.763
X46.795 Y112.026
X46.787 Y112.267
X46.778 Y112.467
X46.765 Y112.681
X46.748 Y112.91
X46.727 Y113.158
X46.699 Y113.428
X46.665 Y113.723
X46.623 Y114.052
X46.582 Y114.337
X46.559 Y114.488
X46.532 Y114.646
X46.501 Y114.811
X46.467 Y114.986
X46.427 Y115.17
X46.383 Y115.366
X46.333 Y115.574
X46.275 Y115.797
X46.21 Y116.038
X46.14 Y116.282
X46.089 Y116.453
X46.032 Y116.634
X45.969 Y116.825
X45.899 Y117.028
X45.82 Y117.246
X45.732 Y117.481
X45.638 Y117.719
X45.579 Y117.865
X45.514 Y118.018
X45.443 Y118.178
X45.367 Y118.346
X45.282 Y118.523
X45.19 Y118.712
X45.088 Y118.913
X45.032 Y119.02
X44.913 Y119.243
X44.78 Y119.485
X44.629 Y119.75
X44.458 Y120.042
X44.259 Y120.37
X44.199 Y120.465
G3 X43.507 Y120.697 I-0.498 J-0.335 F600
G1 X43.418 Y120.667 Z9.107
X43.331 Y120.637 Z9.129
X43.249 Y120.608 Z9.165
X43.173 Y120.582 Z9.215
X43.106 Y120.559 Z9.276
X43.048 Y120.539 Z9.347
X43.001 Y120.523 Z9.428
X42.967 Y120.511 Z9.515
X42.946 Y120.504 Z9.606
X42.939 Y120.502 Z9.7
G0 Z20.1
X-0.304 Y55.89
Z10.3
G1 Z9.7 F600
X-0.297 Y55.887 Z9.606
X-0.276 Y55.881 Z9.515
X-0.241 Y55.87 Z9.428
X-0.195 Y55.854 Z9.347
X-0.137 Y55.835 Z9.276
X-0.068 Y55.813 Z9.215
X0.008 Y55.788 Z9.165
X0.091 Y55.761 Z9.129
X0.178 Y55.733 Z9.107
X0.267 Y55.704 Z9.1
G3 X1.051 Y55.654 I0.49 J1.505
G1 X1.46 Y55.746 F1000
X1.664 Y55.776
X2.073 Y55.797
X2.278 Y55.803
X3.709
X4.112 Y55.823
X4.53 Y55.905
X4.982 Y56.065
X5.487 Y56.329
X6.001 Y56.702
X6.547 Y57.234
X7.096 Y57.948
X7.539 Y58.733
X7.889 Y59.563
X8.162 Y60.421
X8.326 Y61.097
X8.342 Y61.225
X8.331 Y61.353
X8.293 Y61.477
X8.233 Y61.614
X8.208 Y61.683
X8.166 Y61.818
X8.109 Y62.023
X8.055 Y62.227
X7.963 Y62.637
X7.928 Y62.841
X7.907 Y63.25
X7.9 Y63.455
Y63.864
X7.901 Y64.069
X7.925 Y64.478
X7.941 Y64.682
X8.036 Y65.091
X8.084 Y65.296
X8.141 Y65.501
X8.202 Y65.705
X8.459 Y66.569
X8.506 Y66.711
X8.551 Y66.854
X8.594 Y66.998
X8.634 Y67.143
X8.675 Y67.296
X8.716 Y67.457
X8.756 Y67.626
X8.796 Y67.806
X8.837 Y67.998
X8.877 Y68.204
X8.916 Y68.424
X8.956 Y68.661
X8.995 Y68.919
X9.035 Y69.203
X9.074 Y69.515
X9.112 Y69.864
X9.151 Y70.262
X9.189 Y70.721
X9.228 Y71.268
X9.265 Y71.943
X9.303 Y72.829
X9.329 Y73.73
X9.346 Y74.631
X9.357 Y75.532
X9.365 Y76.432
X9.37 Y77.333
X9.373 Y78.234
X9.377 Y80.036
X9.378 Y83.64
X9.373 Y100.756
X9.382 Y101.657
X9.402 Y102.558
X9.432 Y103.458
X9.467 Y104.359
X9.54 Y106.159
X9.561 Y106.722
X9.592 Y107.622
X9.619 Y108.522
X9.642 Y109.423
X9.663 Y110.436
X9.665 Y110.549
X9.704 Y110.654
X9.993 Y111
X10.09 Y111.057
G3 X10.341 Y111.743 I-0.321 J0.507 F600
G1 X10.313 Y111.833 Z9.107
X10.286 Y111.92 Z9.129
X10.26 Y112.003 Z9.165
X10.236 Y112.08 Z9.215
X10.215 Y112.148 Z9.276
X10.197 Y112.206 Z9.347
X10.182 Y112.253 Z9.428
X10.171 Y112.288 Z9.515
X10.165 Y112.309 Z9.606
X10.163 Y112.316 Z9.7
G0 Z20.1
X7.269 Y64.695
Z10.3
G1 Z9.7 F600
X7.275 Y64.7 Z9.606
X7.292 Y64.714 Z9.515
X7.32 Y64.737 Z9.428
X7.358 Y64.768 Z9.347
X7.406 Y64.806 Z9.276
X7.461 Y64.851 Z9.215
X7.523 Y64.902 Z9.165
X7.591 Y64.957 Z9.129
X7.662 Y65.015 Z9.107
X7.735 Y65.074 Z9.1
G3 X8.202 Y65.705 I-0.998 J1.228
G1 X8.281 Y65.91 F1000
X8.377 Y66.114
X8.413 Y66.183
X8.495 Y66.319
X8.617 Y66.507
X8.792 Y66.728
X9.026 Y66.976
X9.185 Y67.137
X9.231 Y67.182
X9.395 Y67.342
X9.654 Y67.546
X9.844 Y67.687
X9.946 Y67.751
X10.049 Y67.803
X10.253 Y67.906
X10.428 Y67.993
X10.561 Y68.062
X10.691 Y68.138
X10.817 Y68.219
X10.939 Y68.306
X11.057 Y68.398
X11.172 Y68.495
X11.283 Y68.596
X11.39 Y68.701
X11.494 Y68.809
X11.593 Y68.921
X11.69 Y69.037
X11.782 Y69.155
X11.871 Y69.275
X11.957 Y69.398
X12.039 Y69.524
X12.118 Y69.651
X12.194 Y69.781
X12.267 Y69.912
X12.337 Y70.045
X12.403 Y70.179
X12.467 Y70.315
X12.529 Y70.452
X12.587 Y70.59
X12.643 Y70.729
X12.697 Y70.869
X12.748 Y71.01
X12.797 Y71.152
X12.844 Y71.294
X12.888 Y71.437
X12.931 Y71.583
X12.973 Y71.733
X13.015 Y71.891
X13.057 Y72.058
X13.099 Y72.234
X13.141 Y72.422
X13.183 Y72.623
X13.224 Y72.835
X13.265 Y73.062
X13.306 Y73.309
X13.347 Y73.579
X13.387 Y73.871
X13.427 Y74.194
X13.467 Y74.559
X13.507 Y74.968
X13.546 Y75.446
X13.585 Y76.011
X13.624 Y76.713
X13.661 Y77.613
X13.687 Y78.513
X13.704 Y79.414
X13.715 Y80.315
X13.723 Y81.216
X13.728 Y82.117
X13.731 Y83.018
X13.735 Y84.819
X13.737 Y87.522
X13.734 Y99.121
X13.738 Y100.022
X13.748 Y100.923
X13.766 Y101.824
X13.79 Y102.724
X13.818 Y103.625
X13.841 Y104.3
G3 X13.396 Y104.879 I-0.6 J0 F600
G1 X13.305 Y104.903 Z9.107
X13.217 Y104.927 Z9.129
X13.133 Y104.949 Z9.165
X13.055 Y104.97 Z9.215
X12.986 Y104.989 Z9.276
X12.927 Y105.004 Z9.347
X12.879 Y105.017 Z9.428
X12.844 Y105.026 Z9.515
X12.823 Y105.032 Z9.606
X12.816 Y105.034 Z9.7
G0 Z20.1
X8.879 Y67.942
Z10.3
G1 Z9.7 F600
X8.886 Y67.94 Z9.606
X8.908 Y67.937 Z9.515
X8.944 Y67.931 Z9.428
X8.992 Y67.922 Z9.347
X9.052 Y67.912 Z9.276
X9.123 Y67.9 Z9.215
X9.202 Y67.887 Z9.165
X9.288 Y67.872 Z9.129
X9.378 Y67.857 Z9.107
X9.471 Y67.841 Z9.1
G3 X10.253 Y67.906 I0.265 J1.56
G1 X10.458 Y67.985 F1000
X10.662 Y68.049
X11.071 Y68.163
X11.276 Y68.215
X11.48 Y68.253
X11.685 Y68.282
X11.889 Y68.294
X12.298 Y68.301
X12.503 Y68.303
X12.937 Y68.325
X13.335 Y68.403
X13.775 Y68.558
X14.252 Y68.808
X14.759 Y69.176
X15.291 Y69.693
X15.835 Y70.402
X16.276 Y71.188
X16.623 Y72.02
X16.894 Y72.879
X17.104 Y73.755
X17.266 Y74.641
X17.389 Y75.534
X17.482 Y76.43
X17.551 Y77.328
X17.603 Y78.227
X17.64 Y79.127
X17.668 Y80.028
X17.688 Y80.928
X17.702 Y81.829
X17.713 Y82.73
X17.72 Y83.631
X17.725 Y84.532
X17.729 Y85.433
X17.733 Y87.234
X17.735 Y89.937
Y96.469
G3 X17.27 Y97.032 I-0.6 J-0.021 F600
G1 X17.178 Y97.053 Z9.107
X17.089 Y97.074 Z9.129
X17.005 Y97.094 Z9.165
X16.926 Y97.112 Z9.215
X16.857 Y97.128 Z9.276
X16.797 Y97.142 Z9.347
X16.749 Y97.153 Z9.428
X16.714 Y97.161 Z9.515
X16.693 Y97.166 Z9.606
X16.685 Y97.167 Z9.7
G0 Z20.1
X11.234 Y68.831
Z10.3
G1 Z9.7 F600
X11.24 Y68.827 Z9.606
X11.259 Y68.816 Z9.515
X11.29 Y68.798 Z9.428
X11.332 Y68.772 Z9.347
X11.385 Y68.741 Z9.276
X11.446 Y68.705 Z9.215
X11.515 Y68.664 Z9.165
X11.59 Y68.619 Z9.129
X11.669 Y68.572 Z9.107
X11.749 Y68.524 Z9.1
G3 X12.503 Y68.303 I0.809 J1.36
G1 X15.979 F1000
X16.379 Y68.323
X16.528 Y68.333
X16.677 Y68.35
X16.825 Y68.375
X16.972 Y68.407
X17.117 Y68.446
X17.26 Y68.491
X17.401 Y68.542
X17.54 Y68.598
X17.677 Y68.66
X17.811 Y68.726
X17.943 Y68.798
X18.072 Y68.874
X18.198 Y68.955
X18.322 Y69.04
X18.443 Y69.129
X18.561 Y69.221
X18.677 Y69.317
X18.789 Y69.416
X18.899 Y69.518
X19.006 Y69.623
X19.111 Y69.73
X19.212 Y69.841
X19.311 Y69.954
X19.407 Y70.069
X19.5 Y70.186
X19.591 Y70.306
X19.68 Y70.427
X19.765 Y70.55
X19.848 Y70.675
X19.929 Y70.802
X20.007 Y70.93
X20.083 Y71.059
X20.156 Y71.19
X20.228 Y71.322
X20.297 Y71.455
X20.363 Y71.589
X20.428 Y71.725
X20.49 Y71.861
X20.551 Y71.998
X20.611 Y72.14
X20.667 Y72.279
X20.722 Y72.419
X20.778 Y72.566
X20.834 Y72.722
X20.891 Y72.887
X20.949 Y73.063
X21.007 Y73.246
X21.06 Y73.424
X21.114 Y73.614
X21.17 Y73.818
X21.226 Y74.037
X21.282 Y74.269
X21.334 Y74.499
X21.387 Y74.749
X21.441 Y75.023
X21.495 Y75.314
X21.546 Y75.614
X21.599 Y75.95
X21.651 Y76.316
X21.701 Y76.706
X21.752 Y77.157
X21.801 Y77.639
X21.85 Y78.209
X21.898 Y78.864
X21.945 Y79.658
X21.987 Y80.558
X22.017 Y81.458
X22.039 Y82.359
X22.055 Y83.26
X22.067 Y84.161
X22.075 Y85.062
X22.082 Y85.962
X22.086 Y86.863
X22.091 Y88.665
X22.094 Y91.368
X22.095 Y93.17
X22.132 Y93.276
X22.203 Y93.363
X22.299 Y93.422
X22.409 Y93.446
X23.302 Y93.332
X23.5 Y93.245
X23.714 Y93.154
X23.916 Y93.072
X24.11 Y92.995
X24.32 Y92.916
X24.547 Y92.834
X24.795 Y92.748
X25.018 Y92.674
X25.246 Y92.602
X25.495 Y92.527
X25.768 Y92.449
X26.026 Y92.379
X26.234 Y92.325
X26.457 Y92.271
X26.699 Y92.216
X26.963 Y92.16
X27.208 Y92.111
X27.422 Y92.071
X27.653 Y92.032
X27.904 Y91.992
X28.179 Y91.953
X28.413 Y91.923
X28.639 Y91.896
X28.885 Y91.871
X29.152 Y91.848
X29.429 Y91.827
X29.674 Y91.813
X29.94 Y91.8
X30.232 Y91.791
X30.798 Y91.78
X31.244 Y91.777
X31.626 Y91.78
X31.978 Y91.788
X32.303 Y91.799
X32.605 Y91.814
X32.893 Y91.832
X33.173 Y91.853
X33.445 Y91.878
X33.713 Y91.906
X33.98 Y91.937
X34.246 Y91.972
X34.509 Y92.01
X34.764 Y92.051
X35.013 Y92.094
X35.254 Y92.14
X35.49 Y92.187
X35.725 Y92.238
X35.958 Y92.292
X36.191 Y92.349
X36.423 Y92.409
X36.657 Y92.473
X36.893 Y92.541
X37.129 Y92.613
X37.367 Y92.689
X37.611 Y92.77
X37.86 Y92.857
X38.111 Y92.949
X38.368 Y93.046
X38.636 Y93.152
X38.899 Y93.261
X39.156 Y93.37
X39.407 Y93.482
X39.655 Y93.596
X39.899 Y93.713
X40.142 Y93.832
X40.376 Y93.952
X40.605 Y94.073
X40.83 Y94.196
X41.052 Y94.321
X41.271 Y94.449
X41.489 Y94.58
X41.707 Y94.715
X41.926 Y94.854
X42.146 Y94.999
X42.365 Y95.147
X42.58 Y95.297
X42.792 Y95.45
X43.003 Y95.606
X43.214 Y95.766
X43.425 Y95.93
X43.634 Y96.099
X43.845 Y96.273
X44.055 Y96.452
X44.258 Y96.629
X44.454 Y96.806
X44.648 Y96.984
X44.839 Y97.165
X45.028 Y97.35
X45.216 Y97.539
X45.403 Y97.731
X45.589 Y97.928
X45.777 Y98.133
X45.969 Y98.347
X46.161 Y98.568
X46.351 Y98.793
X46.53 Y99.01
X46.701 Y99.224
X46.865 Y99.435
X47.023 Y99.644
X47.177 Y99.853
X47.329 Y100.065
X47.477 Y100.28
X47.624 Y100.498
X47.77 Y100.72
X47.913 Y100.946
X48.053 Y101.174
X48.19 Y101.402
X48.323 Y101.633
X48.454 Y101.865
X48.582 Y102.102
X48.709 Y102.344
X48.836 Y102.593
X48.961 Y102.851
X49.086 Y103.113
X49.21 Y103.384
X49.327 Y103.651
X49.437 Y103.909
X49.542 Y104.165
X49.642 Y104.418
X49.737 Y104.671
X49.829 Y104.924
X49.917 Y105.18
X50.003 Y105.438
X50.086 Y105.701
X50.168 Y105.971
X50.247 Y106.249
X50.324 Y106.53
X50.398 Y106.818
X50.464 Y107.091
X50.525 Y107.359
X50.582 Y107.623
X50.634 Y107.884
X50.682 Y108.143
X50.726 Y108.402
X50.767 Y108.663
X50.805 Y108.925
X50.839 Y109.191
X50.871 Y109.462
X50.899 Y109.736
X50.923 Y110.009
X50.943 Y110.282
X50.96 Y110.556
X50.973 Y110.833
X50.982 Y111.115
X50.988 Y111.404
X50.989 Y111.694
X50.987 Y111.993
X50.98 Y112.297
X50.97 Y112.589
X50.957 Y112.869
X50.939 Y113.146
X50.918 Y113.419
X50.894 Y113.69
X50.866 Y113.961
X50.834 Y114.233
X50.798 Y114.508
X50.758 Y114.785
X50.714 Y115.057
X50.668 Y115.326
X50.617 Y115.593
X50.564 Y115.86
X50.506 Y116.127
X50.444 Y116.397
X50.377 Y116.669
X50.309 Y116.934
X50.237 Y117.194
X50.164 Y117.449
X50.087 Y117.7
X50.008 Y117.951
X49.924 Y118.201
X49.838 Y118.448
X49.746 Y118.702
X49.648 Y118.96
X49.546 Y119.217
X49.438 Y119.48
X49.322 Y119.752
X49.198 Y120.03
X49.104 Y120.234
X49.093 Y120.346
X49.12 Y120.456
X49.182 Y120.55
X49.272 Y120.618
X49.379 Y120.652
G3 X49.774 Y121.266 I-0.203 J0.565 F600
G1 X49.766 Y121.36 Z9.107
X49.759 Y121.451 Z9.129
X49.752 Y121.538 Z9.165
X49.745 Y121.618 Z9.215
X49.739 Y121.689 Z9.276
X49.734 Y121.75 Z9.347
X49.73 Y121.799 Z9.428
X49.727 Y121.835 Z9.515
X49.725 Y121.857 Z9.606
Y121.864 Z9.7
G0 Z20.1
X14.71 Y68.831
Z10.3
G1 Z9.7 F600
X14.716 Y68.827 Z9.606
X14.735 Y68.816 Z9.515
X14.766 Y68.798 Z9.428
X14.809 Y68.772 Z9.347
X14.861 Y68.741 Z9.276
X14.923 Y68.705 Z9.215
X14.992 Y68.664 Z9.165
X15.066 Y68.619 Z9.129
X15.145 Y68.572 Z9.107
X15.226 Y68.524 Z9.1
G3 X15.979 Y68.303 I0.809 J1.36
G1 X19.865 F1000
X20.26 Y68.323
X20.41 Y68.332
X20.559 Y68.349
X20.707 Y68.373
X20.854 Y68.404
X20.999 Y68.441
X21.143 Y68.484
X21.285 Y68.532
X21.425 Y68.587
X21.563 Y68.646
X21.698 Y68.71
X21.831 Y68.779
X21.962 Y68.853
X22.09 Y68.931
X22.216 Y69.012
X22.339 Y69.098
X22.46 Y69.187
X22.578 Y69.279
X22.694 Y69.375
X22.806 Y69.474
X22.917 Y69.576
X23.024 Y69.68
X23.129 Y69.787
X23.232 Y69.897
X23.332 Y70.008
X23.429 Y70.122
X23.524 Y70.239
X23.617 Y70.357
X23.707 Y70.477
X23.795 Y70.598
X23.88 Y70.721
X23.963 Y70.846
X24.044 Y70.973
X24.123 Y71.1
X24.199 Y71.23
X24.273 Y71.36
X24.346 Y71.491
X24.416 Y71.624
X24.484 Y71.758
X24.55 Y71.892
X24.614 Y72.028
X24.678 Y72.168
X24.741 Y72.31
X24.805 Y72.461
X24.868 Y72.615
X24.931 Y72.775
X24.995 Y72.945
X25.057 Y73.117
X25.12 Y73.3
X25.183 Y73.488
X25.245 Y73.685
X25.308 Y73.896
X25.369 Y74.109
X25.431 Y74.339
X25.492 Y74.577
X25.553 Y74.828
X25.615 Y75.1
X25.674 Y75.377
X25.735 Y75.683
X25.794 Y76.001
X25.853 Y76.345
X25.913 Y76.727
X25.969 Y77.119
X26.027 Y77.574
X26.082 Y78.046
X26.138 Y78.601
X26.19 Y79.198
X26.242 Y79.908
X26.293 Y80.76
X26.335 Y81.66
X26.366 Y82.56
X26.39 Y83.461
X26.408 Y84.362
X26.421 Y85.262
X26.43 Y86.163
X26.436 Y86.952
X26.474 Y87.057
X26.545 Y87.145
X26.641 Y87.203
X27.523 Y87.388
X28.424 Y87.402
X29.325 Y87.408
X30.226 Y87.414
X30.907 Y87.427
X31.47 Y87.446
X31.962 Y87.468
X32.423 Y87.496
X32.848 Y87.527
X33.256 Y87.563
X33.643 Y87.602
X34.013 Y87.645
X34.373 Y87.691
X34.725 Y87.742
X35.067 Y87.796
X35.401 Y87.853
X35.73 Y87.913
X36.055 Y87.978
X36.377 Y88.047
X36.698 Y88.12
X37.017 Y88.197
X37.335 Y88.279
X37.654 Y88.365
X37.973 Y88.457
X38.292 Y88.552
X38.609 Y88.653
X38.924 Y88.757
X39.238 Y88.866
X39.549 Y88.978
X39.858 Y89.095
X40.164 Y89.215
X40.467 Y89.339
X40.767 Y89.466
X41.063 Y89.597
X41.357 Y89.731
X41.648 Y89.868
X41.936 Y90.01
X42.222 Y90.155
X42.507 Y90.305
X42.789 Y90.458
X43.069 Y90.615
X43.347 Y90.775
X43.622 Y90.94
X43.896 Y91.108
X44.168 Y91.281
X44.438 Y91.458
X44.707 Y91.639
X44.974 Y91.824
X45.237 Y92.012
X45.498 Y92.204
X45.756 Y92.399
X46.074 Y92.647
X46.326 Y92.85
X46.575 Y93.056
X46.821 Y93.266
X47.066 Y93.48
X47.309 Y93.699
X47.552 Y93.923
X47.793 Y94.152
X48.031 Y94.385
X48.266 Y94.621
X48.497 Y94.859
X48.724 Y95.1
X48.947 Y95.343
X49.165 Y95.587
X49.38 Y95.834
X49.59 Y96.083
X49.797 Y96.335
X50.001 Y96.59
X50.201 Y96.847
X50.397 Y97.107
X50.59 Y97.369
X50.778 Y97.634
X50.964 Y97.901
X51.146 Y98.172
X51.324 Y98.445
X51.704 Y99.261
X51.733 Y99.349 F600
X51.749 Y99.441
X51.751 Y99.495 Z9.102
Z9.103
X51.738 Y99.569 Z9.114
X51.725 Y99.64 Z9.136
X51.712 Y99.709 Z9.166
X51.669 Y99.779 Z9.217
X51.631 Y99.841 Z9.281
X51.599 Y99.894 Z9.355
X51.565 Y99.926 Z9.434
X51.54 Y99.95 Z9.519
X51.525 Y99.964 Z9.608
X51.52 Y99.969 Z9.7
G0 Z20.1
X18.596 Y68.831
Z10.3
G1 Z9.7 F600
X18.602 Y68.827 Z9.606
X18.621 Y68.816 Z9.515
X18.652 Y68.798 Z9.428
X18.694 Y68.772 Z9.347
X18.747 Y68.741 Z9.276
X18.808 Y68.705 Z9.215
X18.877 Y68.664 Z9.165
X18.952 Y68.619 Z9.129
X19.031 Y68.572 Z9.107
X19.111 Y68.524 Z9.1
G3 X19.865 Y68.303 I0.809 J1.36
G1 X23.75 F1000
X24.288 Y68.33
X24.777 Y68.426
X25.319 Y68.617
X25.908 Y68.926
X26.54 Y69.384
X27.185 Y70.012
X27.738 Y70.724
X28.206 Y71.493
X28.602 Y72.303
X28.934 Y73.14
X29.212 Y73.997
X29.445 Y74.867
X29.639 Y75.747
X29.799 Y76.634
X29.932 Y77.525
X30.04 Y78.419
X30.129 Y79.316
X30.2 Y80.214
X30.257 Y81.113
X30.279 Y81.563
X30.322 Y81.667
X30.621 Y82.004
X31.347 Y82.537
X32.174 Y82.895
X33.034 Y83.163
X33.907 Y83.386
X34.785 Y83.588
X35.664 Y83.786
X36.541 Y83.991
X37.415 Y84.209
X38.284 Y84.445
X39.148 Y84.702
X40.004 Y84.981
X40.852 Y85.285
X41.691 Y85.614
X42.519 Y85.969
X43.336 Y86.349
X44.14 Y86.756
X44.931 Y87.187
X45.124 Y87.302
X45.898 Y87.765
X46.655 Y88.252
X46.84 Y88.381
G3 X47.037 Y89.084 I-0.36 J0.48 F600
G1 X47.002 Y89.171 Z9.107
X46.968 Y89.256 Z9.129
X46.936 Y89.337 Z9.165
X46.906 Y89.412 Z9.215
X46.879 Y89.478 Z9.276
X46.856 Y89.535 Z9.347
X46.838 Y89.58 Z9.428
X46.825 Y89.614 Z9.515
X46.817 Y89.634 Z9.606
X46.814 Y89.641 Z9.7
G0 Z20.1
X22.481 Y68.831
Z10.3
G1 Z9.7 F600
X22.488 Y68.827 Z9.606
X22.506 Y68.816 Z9.515
X22.537 Y68.798 Z9.428
X22.58 Y68.772 Z9.347
X22.632 Y68.741 Z9.276
X22.694 Y68.705 Z9.215
X22.763 Y68.664 Z9.165
X22.838 Y68.619 Z9.129
X22.916 Y68.572 Z9.107
X22.997 Y68.524 Z9.1
G3 X23.75 Y68.303 I0.809 J1.36
G1 X27.636 F1000
X28.139 Y68.328
X28.289 Y68.338
X28.438 Y68.354
X28.586 Y68.377
X28.733 Y68.407
X28.879 Y68.444
X29.023 Y68.486
X29.165 Y68.534
X29.305 Y68.587
X29.443 Y68.645
X29.58 Y68.708
X29.714 Y68.775
X29.845 Y68.847
X29.975 Y68.923
X30.102 Y69.003
X30.226 Y69.087
X30.348 Y69.174
X30.468 Y69.265
X30.585 Y69.358
X30.699 Y69.455
X30.812 Y69.554
X30.921 Y69.657
X31.029 Y69.762
X31.133 Y69.869
X31.236 Y69.979
X31.335 Y70.091
X31.433 Y70.204
X31.529 Y70.32
X31.622 Y70.438
X31.712 Y70.557
X31.801 Y70.678
X31.887 Y70.801
X31.971 Y70.925
X32.053 Y71.051
X32.133 Y71.178
X32.211 Y71.306
X32.287 Y71.435
X32.361 Y71.566
X32.433 Y71.698
X32.503 Y71.831
X32.575 Y71.972
X32.649 Y72.121
X32.717 Y72.263
X32.784 Y72.409
X32.852 Y72.563
X32.922 Y72.726
X32.994 Y72.901
X33.068 Y73.087
X33.137 Y73.271
X33.205 Y73.456
X33.274 Y73.654
X33.345 Y73.868
X33.419 Y74.1
X33.488 Y74.327
X33.556 Y74.561
X33.626 Y74.817
X33.699 Y75.099
X33.767 Y75.377
X33.835 Y75.67
X33.906 Y75.998
X33.974 Y76.339
X34.041 Y76.693
X34.111 Y77.098
X34.146 Y77.32
X34.333 Y77.73
X34.955 Y78.382
X35.73 Y78.842
X36.553 Y79.207
X37.397 Y79.522
X38.25 Y79.813
X39.105 Y80.096
X39.96 Y80.379
X40.387 Y80.525
X41.085 Y80.77
X41.733 Y81.007
X42.23 Y81.197
X42.782 Y81.416
X43.242 Y81.606
X43.743 Y81.822
X44.172 Y82.013
X44.649 Y82.233
X44.939 Y82.373
X45.469 Y82.635
X45.901 Y82.856
X46.296 Y83.065
X46.394 Y83.119
X46.505 Y83.138
X46.616 Y83.118
X46.714 Y83.062
X46.788 Y82.977
X46.829 Y82.872
X46.861 Y81.972
X46.822 Y81.547
X46.784 Y81.051
X46.746 Y80.451
X46.708 Y79.691
X46.676 Y78.791
X46.654 Y77.89
X46.639 Y76.989
X46.63 Y76.089
X46.623 Y75.188
X46.619 Y74.287
X46.615 Y72.485
X46.613 Y69.782
X46.614 Y60.774
X46.615 Y58.972
X46.631 Y8.409
Y7.508
X46.661 Y7.285
X46.687 Y7.061
X46.662 Y6.951
X46.542 Y6.761
X45.863 Y6.168
X45.041 Y5.8
X44.174 Y5.558
X43.287 Y5.395
X42.393 Y5.285
X41.496 Y5.209
X40.596 Y5.156
X39.696 Y5.12
X38.796 Y5.095
X37.895 Y5.077
X36.994 Y5.064
X36.093 Y5.055
X35.192 Y5.049
X34.292 Y5.044
X32.49 Y5.038
X29.787 Y5.033
X21.679 Y5.025
X11.769 Y5.017
X10.868 Y5.001
X9.971 Y4.92
X9.678 Y4.858
X9.489 Y4.782
X9.337 Y4.648
X9.237 Y4.471
X9.203 Y4.271
Y2.289
X9.198 Y2.084
X9.175 Y1.675
G3 X9.607 Y1.086 I0.6 J-0.013 F600
G1 X9.697 Y1.059 Z9.107
X9.785 Y1.034 Z9.129
X9.868 Y1.009 Z9.165
X9.945 Y0.987 Z9.215
X10.014 Y0.967 Z9.276
X10.073 Y0.95 Z9.347
X10.12 Y0.936 Z9.428
X10.155 Y0.926 Z9.515
X10.176 Y0.92 Z9.606
X10.183 Y0.918 Z9.7
G0 Z20.1
X2.44 Y56.331
Z10.3
G1 Z9.7 F600
X2.446 Y56.327 Z9.606
X2.465 Y56.316 Z9.515
X2.496 Y56.298 Z9.428
X2.538 Y56.272 Z9.347
X2.591 Y56.241 Z9.276
X2.653 Y56.205 Z9.215
X2.722 Y56.164 Z9.165
X2.796 Y56.119 Z9.129
X2.875 Y56.072 Z9.107
X2.956 Y56.024 Z9.1
G3 X3.709 Y55.803 I0.809 J1.36
G1 X4.732 F1000
X4.936 Y55.801
X5.345 Y55.782
X5.55 Y55.764
X5.959 Y55.675
X6.163 Y55.626
X6.368 Y55.565
X6.636 Y55.499
X7 Y55.463
X7.421 Y55.483
X7.912 Y55.578
X8.417 Y55.755
X8.991 Y56.054
X9.57 Y56.471
X10.191 Y57.071
X10.741 Y57.784
X11.128 Y58.446
X11.195 Y58.616
X11.207 Y58.798
X11.165 Y58.975
X11.072 Y59.131
X10.936 Y59.252
X10.77 Y59.327
X10.638 Y59.363
X10.458 Y59.421
X10.253 Y59.5
X10.049 Y59.603
X9.844 Y59.72
X9.762 Y59.773
X9.64 Y59.867
X9.435 Y60.032
X9.273 Y60.182
X9.067 Y60.386
X8.873 Y60.591
G3 X8.164 Y60.691 Z9.263 I-0.422 J-0.426 F600
G1 X8.091 Y60.644 Z9.282 F1000
X8.025 Y60.587 Z9.3
X7.98 Y60.536
X7.941 Y60.48
X7.908 Y60.419
X6.017 Y56.388
X5.992 Y56.325
X5.97 Y56.241 Z9.282
X5.96 Y56.154 Z9.263
G3 X6.368 Y55.565 Z9.1 I0.6 J-0.022 F600
G1 X6.661 Y55.477 F1000
X6.777 Y55.435
X6.981 Y55.343
X7.186 Y55.227
X7.39 Y55.097
X7.431 Y55.068
X7.595 Y54.939
X7.681 Y54.863
X7.799 Y54.756
X7.896 Y54.658
X8.012 Y54.548
X8.264 Y54.37
X8.582 Y54.208
X8.941 Y54.086
X9.388 Y54.003
X9.888 Y53.984
X10.437 Y54.042
X11.07 Y54.203
X11.714 Y54.472
X12.391 Y54.876
X12.973 Y55.349
X13.438 Y55.855
X13.807 Y56.395
X14.085 Y56.965
X14.27 Y57.54
X14.37 Y58.134
X14.377 Y58.49
X14.351 Y58.678
X14.268 Y58.849
X14.134 Y58.985
X13.965 Y59.073
X13.778 Y59.103
X12.503
X12.298 Y59.105
X11.889 Y59.112
X11.685 Y59.126
X11.276 Y59.195
X11.071 Y59.243
X10.77 Y59.327
G3 X10.12 Y59.06 Z9.259 I-0.14 J-0.583 F600
G1 X10.111 Y59.045 Z9.263
X10.019 Y58.897 Z9.3 F1000
X7.927 Y55.52
X7.835 Y55.373 Z9.263
G3 X7.896 Y54.658 Z9.1 I0.51 J-0.316 F600
G1 X8.285 Y54.249 F1000
X8.413 Y54.108
X8.461 Y54.045
X8.588 Y53.84
X8.711 Y53.636
X8.81 Y53.431
X8.822 Y53.405
X8.891 Y53.226
X8.946 Y53.087
X9.091 Y52.839
X9.303 Y52.573
X9.564 Y52.328
X9.914 Y52.084
X10.324 Y51.879
X10.813 Y51.717
X11.395 Y51.613
X12.026 Y51.594
X12.74 Y51.675
X13.502 Y51.875
X14.262 Y52.198
X15.032 Y52.666
X15.727 Y53.238
X16.341 Y53.898
X16.865 Y54.631
X17.291 Y55.424
X17.615 Y56.265
X17.805 Y57.061
X17.872 Y57.812
X17.834 Y58.494
X17.808 Y58.622
X17.734 Y58.813
X17.6 Y58.967
X17.422 Y59.068
X17.22 Y59.103
X13.778
G3 X13.341 Y58.891 Z9.206 I0.021 J-0.6 F600
G1 X13.167 Y58.686 Z9.263
X13.055 Y58.554 Z9.3 F1000
X9.238 Y54.049
X9.126 Y53.916 Z9.263
X9.01 Y53.78 Z9.225 F600
G3 X8.891 Y53.226 Z9.1 I0.458 J-0.388
G1 X8.958 Y53.022 F1000
X9.068 Y52.613
X9.12 Y52.408
X9.158 Y52.204
X9.185 Y51.999
X9.201 Y51.794
X9.202 Y51.59
X9.219 Y51.259
X9.28 Y50.953
X9.391 Y50.641
X9.576 Y50.291
X9.822 Y49.953
X10.158 Y49.609
X10.582 Y49.285
X11.094 Y49
X11.718 Y48.763
X12.428 Y48.604
X13.236 Y48.544
X14.135 Y48.606
X15.017 Y48.792
X15.865 Y49.095
X16.674 Y49.492
X17.436 Y49.973
X18.143 Y50.531
X18.796 Y51.151
X19.388 Y51.831
X19.914 Y52.561
X20.379 Y53.333
X20.771 Y54.144
X21.087 Y54.988
X21.324 Y55.857
X21.476 Y56.745
X21.527 Y57.645
X21.461 Y58.428
X21.412 Y58.639
X21.334 Y58.824
X21.2 Y58.973
X21.025 Y59.07
X20.827 Y59.103
X17.22
G3 X16.832 Y58.942 Z9.191 I0.021 J-0.6 F600
G1 X16.584 Y58.711 Z9.263
X16.457 Y58.593 Z9.3 F1000
X9.736 Y52.329
X9.608 Y52.211 Z9.263
X9.392 Y52.009 Z9.2 F600
G3 X9.202 Y51.59 Z9.1 I0.409 J-0.439
G1 X9.203 Y50.772 F1000
Y48.93
X9.224 Y48.505
X9.295 Y48.145
X9.435 Y47.748
X9.658 Y47.322
X9.957 Y46.909
X10.382 Y46.473
X10.884 Y46.088
X11.551 Y45.714
X12.297 Y45.428
X13.176 Y45.23
X14.074 Y45.153
X14.974 Y45.189
X15.864 Y45.327
X16.736 Y45.553
X17.584 Y45.858
X18.401 Y46.238
X19.184 Y46.683
X19.932 Y47.185
X20.639 Y47.744
X21.303 Y48.353
X21.925 Y49.005
X22.501 Y49.697
X23.029 Y50.427
X23.506 Y51.191
X23.934 Y51.984
X24.306 Y52.804
X24.621 Y53.648
X24.88 Y54.511
X25.077 Y55.39
X25.202 Y56.283
X25.255 Y57.182
X25.209 Y58.082
X25.107 Y58.615
X25.034 Y58.808
X24.9 Y58.965
X24.721 Y59.068
X24.518 Y59.103
X20.827
G3 X20.455 Y58.956 Z9.187 I0.021 J-0.6 F600
G1 X20.183 Y58.72 Z9.263
X20.052 Y58.606 Z9.3 F1000
X9.748 Y49.657
X9.617 Y49.543 Z9.263
X9.409 Y49.362 Z9.205 F600
G3 X9.203 Y48.93 Z9.1 I0.393 J-0.453
G1 Y45.862 F1000
X9.227 Y45.389
X9.236 Y45.239
X9.254 Y45.09
X9.28 Y44.942
X9.313 Y44.796
X9.353 Y44.652
X9.401 Y44.509
X9.455 Y44.369
X9.515 Y44.232
X9.581 Y44.097
X9.654 Y43.966
X9.731 Y43.837
X9.813 Y43.712
X9.9 Y43.589
X9.99 Y43.47
X10.085 Y43.354
X10.185 Y43.241
X10.288 Y43.132
X10.394 Y43.027
X10.504 Y42.925
X10.618 Y42.827
X10.734 Y42.732
X10.853 Y42.64
X10.974 Y42.552
X11.097 Y42.467
X11.223 Y42.385
X11.351 Y42.307
X11.482 Y42.233
X11.614 Y42.162
X11.748 Y42.094
X11.883 Y42.03
X12.02 Y41.969
X12.159 Y41.911
X12.298 Y41.856
X12.439 Y41.804
X12.581 Y41.755
X12.724 Y41.71
X12.868 Y41.667
X13.012 Y41.628
X13.158 Y41.592
X13.304 Y41.559
X13.451 Y41.528
X13.598 Y41.5
X13.746 Y41.475
X13.894 Y41.452
X14.043 Y41.432
X14.192 Y41.416
X14.342 Y41.401
X14.491 Y41.39
X14.641 Y41.381
X14.791 Y41.374
X14.941 Y41.37
X15.091 Y41.367
X15.241 Y41.368
X15.391 Y41.371
X15.54 Y41.376
X15.69 Y41.384
X15.84 Y41.393
X15.992 Y41.406
X16.149 Y41.42
X16.298 Y41.436
X16.447 Y41.454
X16.596 Y41.475
X16.744 Y41.497
X16.892 Y41.522
X17.047 Y41.55
X17.21 Y41.582
X17.381 Y41.618
X17.539 Y41.654
X17.685 Y41.688
X17.831 Y41.725
X17.984 Y41.767
X18.145 Y41.812
X18.313 Y41.862
X18.491 Y41.918
X18.67 Y41.976
X18.825 Y42.029
X18.979 Y42.084
X19.139 Y42.144
X19.309 Y42.21
X19.487 Y42.283
X19.677 Y42.362
X19.857 Y42.441
X20.012 Y42.511
X20.17 Y42.586
X20.336 Y42.667
X20.512 Y42.755
X20.697 Y42.852
X20.889 Y42.955
X21.051 Y43.045
X21.208 Y43.135
X21.373 Y43.233
X21.548 Y43.34
X21.734 Y43.457
X21.926 Y43.582
X22.086 Y43.689
X22.245 Y43.799
X22.412 Y43.918
X22.59 Y44.047
X22.78 Y44.19
X22.96 Y44.329
X23.113 Y44.451
X23.274 Y44.582
X23.444 Y44.725
X23.626 Y44.882
X23.812 Y45.048
X23.961 Y45.184
X24.112 Y45.325
X24.27 Y45.478
X24.439 Y45.645
X24.618 Y45.828
X24.768 Y45.985
X24.91 Y46.137
X25.059 Y46.302
X25.218 Y46.482
X25.387 Y46.68
X25.533 Y46.856
X25.667 Y47.021
X25.808 Y47.2
X25.958 Y47.396
X26.118 Y47.611
X26.251 Y47.796
X26.373 Y47.97
X26.502 Y48.158
X26.638 Y48.363
X26.782 Y48.588
X26.904 Y48.783
X27.013 Y48.964
X27.128 Y49.16
X27.249 Y49.373
X27.378 Y49.607
X27.487 Y49.811
X27.585 Y50.001
X27.687 Y50.207
X27.795 Y50.431
X27.909 Y50.676
X28.002 Y50.884
X28.085 Y51.078
X28.172 Y51.287
X28.263 Y51.515
X28.359 Y51.764
X28.438 Y51.979
X28.504 Y52.167
X28.572 Y52.368
X28.642 Y52.585
X28.714 Y52.82
X28.784 Y53.058
X28.837 Y53.248
X28.887 Y53.441
X28.939 Y53.648
X28.991 Y53.872
X29.044 Y54.114
X29.089 Y54.33
X29.122 Y54.505
X29.153 Y54.68
X29.183 Y54.865
X29.213 Y55.063
X29.241 Y55.274
X29.268 Y55.497
X29.288 Y55.686
X29.303 Y55.848
X29.315 Y55.999
X29.326 Y56.157
X29.335 Y56.324
X29.341 Y56.5
X29.345 Y56.662
X29.347 Y56.812
Y56.962
X29.344 Y57.112
X29.339 Y57.262
X29.331 Y57.412
X29.321 Y57.562
X29.308 Y57.711
X29.292 Y57.86
X29.274 Y58.009
X29.252 Y58.157
X29.227 Y58.305
X29.198 Y58.453
X29.167 Y58.599
X29.155 Y58.645
X29.077 Y58.828
X28.943 Y58.975
X28.769 Y59.07
X28.572 Y59.103
X24.518
X24.434 Y59.094 F600
X24.353 Y59.074
X24.288 Y59.039 Z9.105
X24.224 Y59.004 Z9.118
X24.162 Y58.97 Z9.141
X24.148 Y58.958 Z9.149
X24.089 Y58.908 Z9.189
X24.035 Y58.862 Z9.24
X23.988 Y58.821 Z9.301
X23.947 Y58.786 Z9.37
X23.915 Y58.758 Z9.446
X23.891 Y58.738 Z9.528
X23.877 Y58.726 Z9.613
X23.872 Y58.722 Z9.7
G0 Z20.1
X26.367 Y68.831
Z10.3
G1 Z9.7 F600
X26.373 Y68.827 Z9.606
X26.392 Y68.816 Z9.515
X26.423 Y68.798 Z9.428
X26.465 Y68.772 Z9.347
X26.518 Y68.741 Z9.276
X26.579 Y68.705 Z9.215
X26.648 Y68.664 Z9.165
X26.723 Y68.619 Z9.129
X26.802 Y68.572 Z9.107
X26.882 Y68.524 Z9.1
G3 X27.636 Y68.303 I0.809 J1.36
G1 X31.726 F1000
X32.257 Y68.33
X32.407 Y68.339
X32.556 Y68.356
X32.704 Y68.379
X32.851 Y68.409
X32.997 Y68.445
X33.141 Y68.486
X33.283 Y68.533
X33.424 Y68.586
X33.562 Y68.643
X33.699 Y68.705
X33.833 Y68.772
X33.965 Y68.843
X34.095 Y68.918
X34.223 Y68.997
X34.348 Y69.08
X34.471 Y69.166
X34.591 Y69.255
X34.709 Y69.348
X34.825 Y69.444
X34.938 Y69.542
X35.049 Y69.643
X35.157 Y69.747
X35.263 Y69.853
X35.367 Y69.961
X35.468 Y70.072
X35.567 Y70.185
X35.663 Y70.299
X35.758 Y70.416
X35.85 Y70.534
X35.94 Y70.654
X36.028 Y70.776
X36.114 Y70.899
X36.198 Y71.023
X36.28 Y71.149
X36.359 Y71.276
X36.437 Y71.404
X36.513 Y71.534
X36.587 Y71.664
X36.659 Y71.796
X36.732 Y71.932
X36.804 Y72.074
X36.877 Y72.22
X36.951 Y72.374
X37.023 Y72.531
X37.097 Y72.696
X37.17 Y72.867
X37.244 Y73.044
X37.41 Y73.463
X37.903 Y74.217
X38.607 Y74.779
X39.384 Y75.235
X40.194 Y75.63
X40.606 Y75.811
X41.54 Y76.205
X41.749 Y76.29
X41.861 Y76.295
X41.969 Y76.263
X42.06 Y76.196
X42.124 Y76.103
X42.356 Y75.233
X42.322 Y74.333
X42.299 Y73.432
X42.284 Y72.531
X42.273 Y71.63
X42.266 Y70.729
X42.262 Y69.829
X42.259 Y68.928
X42.255 Y67.126
X42.254 Y63.522
X42.26 Y41.901
X42.271 Y41.809 F600
X42.295 Y41.72
X42.332 Y41.656 Z9.105
X42.369 Y41.593 Z9.118
X42.404 Y41.532 Z9.141
X42.466 Y41.482 Z9.179
X42.522 Y41.436 Z9.229
X42.573 Y41.395 Z9.288
X42.626 Y41.375 Z9.359
X42.669 Y41.359 Z9.437
X42.7 Y41.347 Z9.521
X42.719 Y41.34 Z9.609
X42.725 Y41.337 Z9.7
G0 Z20.1
X30.457 Y68.831
Z10.3
G1 Z9.7 F600
X30.463 Y68.827 Z9.606
X30.482 Y68.816 Z9.515
X30.513 Y68.798 Z9.428
X30.555 Y68.772 Z9.347
X30.608 Y68.741 Z9.276
X30.669 Y68.705 Z9.215
X30.738 Y68.664 Z9.165
X30.813 Y68.619 Z9.129
X30.892 Y68.572 Z9.107
X30.973 Y68.524 Z9.1
G3 X31.726 Y68.303 I0.809 J1.36
G1 X37.657 F1000
X38.066 Y68.301
X38.27 Y68.293
X38.679 Y68.243
X38.884 Y68.201
X39.293 Y68.093
X39.497 Y68.034
X39.731 Y67.955
X39.906 Y67.877
X40.111 Y67.772
X40.315 Y67.651
X40.52 Y67.5
X40.7 Y67.342
X40.929 Y67.123
X41.133 Y66.922
X41.304 Y66.728
X41.468 Y66.523
X41.542 Y66.424
X41.747 Y66.059
X41.824 Y65.91
X41.89 Y65.705
X42.018 Y65.296
X42.067 Y65.091
X42.161 Y64.682
X42.178 Y64.478
X42.201 Y64.069
X42.203 Y63.864
Y63.455
X42.196 Y63.25
X42.175 Y62.841
X42.156 Y62.709
X42.048 Y62.227
X41.99 Y62.023
X41.865 Y61.614
X41.83 Y61.511
X41.782 Y61.409
X41.556 Y61
X41.542 Y60.981
X41.233 Y60.591
X41.133 Y60.484
X41.035 Y60.386
X40.609 Y59.977
X40.52 Y59.905
X40.403 Y59.811
X40.289 Y59.713
X40.179 Y59.611
X40.073 Y59.505
X39.972 Y59.395
X39.874 Y59.281
X39.779 Y59.164
X39.689 Y59.044
X39.603 Y58.922
X39.52 Y58.797
X39.44 Y58.67
X39.364 Y58.54
X39.291 Y58.409
X39.222 Y58.276
X39.155 Y58.142
X39.092 Y58.006
X39.031 Y57.869
X38.973 Y57.73
X38.918 Y57.591
X38.866 Y57.45
X38.816 Y57.309
X38.768 Y57.167
X38.723 Y57.024
X38.68 Y56.88
X38.639 Y56.736
X38.599 Y56.587
X38.559 Y56.431
X38.519 Y56.265
X38.479 Y56.09
X38.44 Y55.903
X38.401 Y55.704
X38.362 Y55.49
X38.323 Y55.26
X38.284 Y55.01
X38.245 Y54.736
X38.207 Y54.434
X38.169 Y54.097
X38.131 Y53.715
X38.093 Y53.275
X38.055 Y52.754
X38.018 Y52.114
X37.981 Y51.284
X37.954 Y50.384
X37.935 Y49.483
X37.923 Y48.582
X37.912 Y47.231
X37.909 Y46.555
X37.871 Y46.449
X37.8 Y46.362
X37.704 Y46.303
X37.594 Y46.28
X36.701 Y46.397
X36.54 Y46.471
X36.369 Y46.547
X36.185 Y46.625
X35.988 Y46.706
X35.776 Y46.79
X35.58 Y46.865
X35.41 Y46.926
X35.23 Y46.989
X35.037 Y47.054
X34.829 Y47.12
X34.605 Y47.188
X34.361 Y47.258
X34.195 Y47.304
X34.05 Y47.341
X33.904 Y47.377
X33.754 Y47.411
X33.596 Y47.445
X33.429 Y47.478
X33.252 Y47.511
X33.064 Y47.544
X32.756 Y47.591
X32.533 Y47.622
X32.292 Y47.651
X32.044 Y47.678
X31.886 Y47.693
X31.773 Y47.703
X31.671 Y47.749
X31.589 Y47.826
X31.538 Y47.927
X31.523 Y48.038
X31.709 Y48.92
X31.824 Y49.174
X31.937 Y49.432
X32.045 Y49.688
X32.149 Y49.945
X32.249 Y50.202
X32.346 Y50.462
X32.441 Y50.725
X32.531 Y50.99
X32.616 Y51.249
X32.696 Y51.506
X32.773 Y51.763
X32.846 Y52.021
X32.916 Y52.282
X32.981 Y52.541
X33.043 Y52.797
X33.099 Y53.05
X33.152 Y53.299
X33.2 Y53.545
X33.244 Y53.789
X33.285 Y54.03
X33.321 Y54.267
X33.354 Y54.499
X33.382 Y54.727
X33.407 Y54.95
X33.429 Y55.168
X33.447 Y55.382
X33.462 Y55.591
X33.473 Y55.794
X33.482 Y55.994
X33.488 Y56.189
X33.491 Y56.38
Y56.565
X33.489 Y56.746
X33.485 Y56.908
X33.479 Y57.058
X33.471 Y57.208
X33.461 Y57.357
X33.448 Y57.507
X33.433 Y57.656
X33.416 Y57.805
X33.395 Y57.954
X33.372 Y58.102
X33.346 Y58.25
X33.317 Y58.397
X33.285 Y58.543
X33.259 Y58.646
X33.18 Y58.829
X33.047 Y58.975
X32.872 Y59.07
X32.676 Y59.103
X28.572
X28.48 Y59.093 F600
X28.391 Y59.068
X28.327 Y59.031 Z9.105
X28.264 Y58.995 Z9.118
X28.203 Y58.959 Z9.141
X28.153 Y58.898 Z9.179
X28.108 Y58.841 Z9.229
X28.067 Y58.791 Z9.288
X28.046 Y58.738 Z9.359
X28.03 Y58.695 Z9.437
X28.018 Y58.664 Z9.521
X28.011 Y58.645 Z9.609
X28.009 Y58.638 Z9.7
G0 Z20.1
X41.856 Y60.226
Z10.3
G1 Z9.7 F600
X41.849 Z9.606
X41.827 Y60.224 Z9.515
X41.791 Y60.22 Z9.428
X41.742 Y60.216 Z9.347
X41.681 Y60.21 Z9.276
X41.61 Y60.203 Z9.215
X41.53 Y60.196 Z9.165
X41.444 Y60.188 Z9.129
X41.352 Y60.179 Z9.107
X41.259 Y60.17 Z9.1
G3 X40.52 Y59.905 I0.148 J-1.576
G1 X40.338 Y59.773 F1000
X40.111 Y59.636
X39.992 Y59.568
X39.906 Y59.529
X39.702 Y59.441
X39.473 Y59.363
X39.293 Y59.313
X38.884 Y59.203
X38.667 Y59.159
X38.475 Y59.128
X38.27 Y59.11
X38.066 Y59.105
X37.452 Y59.103
X32.676
X32.584 Y59.093 F600
X32.495 Y59.068
X32.431 Y59.031 Z9.105
X32.368 Y58.995 Z9.118
X32.307 Y58.959 Z9.141
X32.257 Y58.898 Z9.179
X32.212 Y58.841 Z9.229
X32.171 Y58.791 Z9.288
X32.151 Y58.738 Z9.359
X32.134 Y58.695 Z9.437
X32.122 Y58.664 Z9.521
X32.115 Y58.645 Z9.609
X32.113 Y58.638 Z9.7
G0 Z20.1
X9.618 Y46.474
Z9.863
G1 Z9.263 F600
X9.411 Y46.296 Z9.205
G3 X9.203 Y45.862 Z9.1 I0.391 J-0.455
G1 Y42.18 F1000
X9.22 Y41.834
X9.305 Y41.404
X9.469 Y40.938
X9.728 Y40.444
X10.099 Y39.932
X10.603 Y39.414
X11.257 Y38.912
X12.043 Y38.472
X12.881 Y38.142
X13.752 Y37.913
X13.864 Y37.895
X13.975 Y37.879
X14.421 Y37.819
X14.533 Y37.808
X14.646 Y37.799
X14.748 Y37.753
X14.83 Y37.675
X14.881 Y37.575
X14.998 Y36.681
X14.988 Y35.781
X14.949 Y34.881
X14.892 Y33.982
X14.875 Y33.081
X14.889 Y32.18
X14.924 Y31.28
X14.997 Y30.382
X15.106 Y29.488
X15.277 Y28.603
X15.493 Y27.728
X15.739 Y26.862
X16.048 Y26.016
X16.414 Y25.192
X16.818 Y24.387
X17.251 Y23.597
X17.726 Y22.831
X18.251 Y22.1
X18.816 Y21.398
X19.426 Y20.735
X20.075 Y20.111
X20.761 Y19.526
X21.475 Y18.977
X22.209 Y18.455
X22.973 Y17.977
X23.772 Y17.56
X24.592 Y17.189
X25.432 Y16.863
X26.288 Y16.58
X27.16 Y16.353
X28.042 Y16.172
X28.932 Y16.034
X29.83 Y15.961
X30.731 Y15.943
X31.631 Y15.986
X32.528 Y16.072
X33.421 Y16.187
X34.304 Y16.367
X35.174 Y16.602
X36.032 Y16.875
X36.872 Y17.202
X37.684 Y17.591
X38.475 Y18.022
X39.249 Y18.484
X40.005 Y18.974
X40.36 Y19.251
X40.534 Y19.394
X40.705 Y19.541
X41.383 Y20.133
X42.035 Y20.755
X42.341 Y21.086
X42.489 Y21.255
X42.563 Y21.341
G3 X42.577 Y22.071 I-0.469 J0.375 F600
G1 X42.522 Y22.147 Z9.107
X42.467 Y22.221 Z9.129
X42.416 Y22.291 Z9.165
X42.368 Y22.355 Z9.215
X42.326 Y22.413 Z9.276
X42.29 Y22.462 Z9.347
X42.26 Y22.502 Z9.428
X42.239 Y22.531 Z9.515
X42.226 Y22.549 Z9.606
X42.222 Y22.555 Z9.7
G0 Z20.1
X9.731 Y43.449
Z10.3
G1 Z9.7 F600
X9.727 Y43.443 Z9.606
X9.716 Y43.424 Z9.515
X9.697 Y43.393 Z9.428
X9.672 Y43.35 Z9.347
X9.641 Y43.298 Z9.276
X9.604 Y43.236 Z9.215
X9.563 Y43.167 Z9.165
X9.519 Y43.093 Z9.129
X9.472 Y43.014 Z9.107
X9.424 Y42.933 Z9.1
G3 X9.203 Y42.18 I1.36 J-0.809
G1 Y38.702 F1000
X9.221 Y38.348
X9.305 Y37.92
X9.476 Y37.433
X9.895 Y36.635
X10.244 Y35.805
X10.455 Y34.929
X10.596 Y34.039
X10.701 Y33.145
X10.793 Y32.248
X10.885 Y31.352
X10.991 Y30.458
X11.12 Y29.566
X11.276 Y28.679
X11.46 Y27.797
X11.679 Y26.923
X11.935 Y26.059
X12.228 Y25.207
X12.556 Y24.368
X12.918 Y23.543
X13.313 Y22.734
X13.744 Y21.942
X14.209 Y21.171
X14.708 Y20.42
X15.242 Y19.695
X15.811 Y18.996
X16.412 Y18.326
X17.044 Y17.684
X17.704 Y17.07
X18.388 Y16.484
X19.097 Y15.928
X19.832 Y15.408
X20.591 Y14.923
X21.372 Y14.473
X22.173 Y14.061
X22.992 Y13.686
X23.828 Y13.349
X24.678 Y13.052
X25.541 Y12.792
X26.414 Y12.569
X27.297 Y12.39
X28.187 Y12.254
X29.083 Y12.161
X29.983 Y12.112
X30.884 Y12.104
X31.784 Y12.133
X32.682 Y12.203
X33.576 Y12.315
X34.464 Y12.467
X35.345 Y12.657
X36.215 Y12.889
X37.073 Y13.164
X37.917 Y13.48
X38.745 Y13.835
X39.558 Y14.223
X40.355 Y14.644
X40.549 Y14.759
X40.645 Y14.817
X41.412 Y15.29
X41.783 Y15.545
X41.966 Y15.677
G3 X42.149 Y16.384 I-0.369 J0.473 F600
G1 X42.113 Y16.47 Z9.107
X42.077 Y16.554 Z9.129
X42.043 Y16.635 Z9.165
X42.012 Y16.708 Z9.215
X41.984 Y16.774 Z9.276
X41.96 Y16.831 Z9.347
X41.941 Y16.876 Z9.428
X41.927 Y16.909 Z9.515
X41.918 Y16.929 Z9.606
X41.915 Y16.936 Z9.7
G0 Z20.1
X9.731 Y39.971
Z10.3
G1 Z9.7 F600
X9.727 Y39.965 Z9.606
X9.716 Y39.946 Z9.515
X9.697 Y39.915 Z9.428
X9.672 Y39.873 Z9.347
X9.641 Y39.82 Z9.276
X9.604 Y39.759 Z9.215
X9.563 Y39.69 Z9.165
X9.519 Y39.615 Z9.129
X9.472 Y39.536 Z9.107
X9.424 Y39.456 Z9.1
G3 X9.203 Y38.702 I1.36 J-0.809
G1 Y24.996 F1000
X9.248 Y24.096
Y23.946
X9.252 Y23.796
X9.259 Y23.646
X9.27 Y23.497
X9.283 Y23.347
X9.3 Y23.198
X9.319 Y23.049
X9.341 Y22.901
X9.366 Y22.753
X9.393 Y22.606
X9.423 Y22.459
X9.455 Y22.312
X9.49 Y22.166
X9.527 Y22.021
X9.566 Y21.876
X9.607 Y21.732
X9.65 Y21.588
X9.695 Y21.445
X9.743 Y21.301
X9.795 Y21.15
X9.853 Y20.991
X9.915 Y20.825
X9.982 Y20.655
X10.046 Y20.5
X10.113 Y20.342
X10.187 Y20.175
X10.267 Y19.998
X10.356 Y19.812
X10.451 Y19.619
X10.537 Y19.449
X10.63 Y19.273
X10.731 Y19.086
X10.843 Y18.888
X10.966 Y18.675
X11.076 Y18.49
X11.192 Y18.302
X11.319 Y18.102
X11.46 Y17.887
X11.609 Y17.666
X11.741 Y17.476
X11.886 Y17.273
X12.046 Y17.055
X12.225 Y16.819
X12.379 Y16.621
X12.546 Y16.413
X12.731 Y16.188
X12.935 Y15.947
X13.112 Y15.744
X13.307 Y15.526
X13.527 Y15.287
X13.742 Y15.059
X13.941 Y14.854
X14.164 Y14.631
X14.414 Y14.387
X14.618 Y14.193
X14.839 Y13.99
X15.087 Y13.767
X15.331 Y13.554
X15.548 Y13.369
X15.791 Y13.169
X16.064 Y12.949
X16.291 Y12.772
X16.532 Y12.589
X16.803 Y12.389
X17.069 Y12.198
X17.307 Y12.032
X17.574 Y11.851
X17.87 Y11.656
X18.112 Y11.502
X18.375 Y11.339
X18.671 Y11.162
X18.934 Y11.01
X19.189 Y10.866
X19.475 Y10.709
X19.789 Y10.544
X20.044 Y10.413
X20.325 Y10.273
X20.642 Y10.122
X20.928 Y9.99
X21.208 Y9.866
X21.523 Y9.731
X21.842 Y9.599
X22.123 Y9.487
X22.438 Y9.367
X22.784 Y9.241
X23.056 Y9.146
X23.353 Y9.047
X23.686 Y8.94
X23.987 Y8.848
X24.271 Y8.766
X24.588 Y8.679
X24.926 Y8.591
X25.2 Y8.524
X25.502 Y8.454
X25.841 Y8.38
X26.141 Y8.319
X26.43 Y8.265
X26.752 Y8.209
X27.093 Y8.154
X27.375 Y8.113
X27.686 Y8.072
X28.035 Y8.03
X28.341 Y7.998
X28.652 Y7.97
X29.001 Y7.943
X29.337 Y7.922
X29.639 Y7.906
X29.975 Y7.894
X30.336 Y7.886
X30.628 Y7.884
X30.95 Y7.885
X31.312 Y7.892
X31.619 Y7.902
X31.93 Y7.916
X32.277 Y7.937
X32.614 Y7.961
X32.92 Y7.988
X33.26 Y8.022
X33.62 Y8.064
X33.91 Y8.101
X34.23 Y8.147
X34.589 Y8.203
X34.883 Y8.253
X35.18 Y8.308
X35.51 Y8.373
X35.838 Y8.443
X36.118 Y8.507
X36.425 Y8.581
X36.768 Y8.669
X37.05 Y8.745
X37.344 Y8.829
X37.67 Y8.927
X37.986 Y9.026
X38.275 Y9.122
X38.595 Y9.233
X38.934 Y9.355
X39.221 Y9.463
X39.541 Y9.588
X39.891 Y9.731
X40.164 Y9.847
X40.431 Y9.965
X40.714 Y10.094
X41.028 Y10.242
X41.345 Y10.398
X41.605 Y10.53
X41.878 Y10.672
X41.977 Y10.726
G3 X42.251 Y11.403 I-0.304 J0.517 F600
G1 X42.226 Y11.494 Z9.107
X42.201 Y11.582 Z9.129
X42.178 Y11.666 Z9.165
X42.157 Y11.743 Z9.215
X42.138 Y11.812 Z9.276
X42.121 Y11.871 Z9.347
X42.108 Y11.919 Z9.428
X42.099 Y11.953 Z9.515
X42.093 Y11.974 Z9.606
X42.091 Y11.982 Z9.7
G0 Z20.1
X9.731 Y26.265
Z10.3
G1 Z9.7 F600
X9.727 Y26.259 Z9.606
X9.716 Y26.24 Z9.515
X9.697 Y26.209 Z9.428
X9.672 Y26.167 Z9.347
X9.641 Y26.114 Z9.276
X9.604 Y26.053 Z9.215
X9.563 Y25.984 Z9.165
X9.519 Y25.909 Z9.129
X9.472 Y25.83 Z9.107
X9.424 Y25.749 Z9.1
G3 X9.203 Y24.996 I1.36 J-0.809
G1 Y17.222 F1000
X9.242 Y16.448
X9.251 Y16.298
X9.265 Y16.149
X9.284 Y16
X9.307 Y15.852
X9.334 Y15.704
X9.365 Y15.558
X9.399 Y15.412
X9.438 Y15.267
X9.479 Y15.123
X9.524 Y14.98
X9.573 Y14.838
X9.624 Y14.697
X9.678 Y14.557
X9.735 Y14.418
X9.795 Y14.28
X9.857 Y14.144
X9.922 Y14.009
X9.989 Y13.874
X10.058 Y13.741
X10.13 Y13.61
X10.203 Y13.479
X10.279 Y13.349
X10.357 Y13.221
X10.436 Y13.094
X10.518 Y12.968
X10.602 Y12.841
X10.692 Y12.709
X10.785 Y12.577
X10.884 Y12.441
X10.987 Y12.303
X11.095 Y12.162
X11.209 Y12.018
X11.327 Y11.872
X11.454 Y11.72
X11.584 Y11.568
X11.722 Y11.413
X11.865 Y11.254
X12.014 Y11.094
X12.094 Y11.011
X12.255 Y10.845
X12.424 Y10.676
X12.599 Y10.506
X12.782 Y10.332
X12.972 Y10.156
X13.168 Y9.98
X13.377 Y9.798
X13.592 Y9.615
X13.811 Y9.434
X14.038 Y9.251
X14.277 Y9.065
X14.518 Y8.882
X14.771 Y8.695
X15.028 Y8.511
X15.213 Y8.382
G3 X15.928 Y8.433 Z9.263 I0.323 J0.505 F600
G1 X15.99 Y8.494 Z9.282 F1000
X16.042 Y8.564 Z9.3
G3 X16.031 Y9.228 I-0.505 J0.324
G1 X10.296 Y17.542
G3 X9.823 Y17.801 I-0.494 J-0.341
G1 X9.736 Y17.798 Z9.282
X9.651 Y17.782 Z9.263
G3 X9.203 Y17.222 Z9.1 I0.152 J-0.581 F600
G1 Y11.29 F1000
X9.218 Y10.994
X9.231 Y10.882
X9.248 Y10.771
X9.287 Y10.549
X9.311 Y10.439
X9.298 Y10.327
X9.265 Y10.261
X9.231 Y10.176
X9.21 Y10.087
X9.203 Y9.995
G3 X9.651 Y9.436 Z9.263 I0.6 J0.021 F600
G1 X9.736 Y9.42 Z9.282 F1000
X9.823 Y9.416 Z9.3
G3 X10.402 Y10.037 I-0.02 J0.6
X9.891 Y11.304 I-1.999 J-0.07
G1 X9.769 Y11.428 Z9.263
X9.683 Y11.505 Z9.239 F600
G3 X9.203 Y11.29 Z9.1 I-0.187 J-0.225
G1 Y4.271 F1000
X9.213 Y4.179 F600
X9.238 Y4.089
X9.275 Y4.026 Z9.105
X9.311 Y3.963 Z9.118
X9.347 Y3.902 Z9.141
X9.408 Y3.852 Z9.179
X9.465 Y3.806 Z9.229
X9.515 Y3.765 Z9.288
X9.568 Y3.745 Z9.359
X9.611 Y3.729 Z9.437
X9.642 Y3.717 Z9.521
X9.661 Y3.709 Z9.609
X9.668 Y3.707 Z9.7
G0 Z20.1
X58.878 Y93.817
Z9.8
G1 Z9.2 F600
X58.871 Y93.819 Z9.106
X58.85 Y93.824 Z9.015
X58.815 Y93.833 Z8.928
X58.767 Y93.846 Z8.847
X58.708 Y93.861 Z8.776
X58.639 Y93.878 Z8.715
X58.561 Y93.898 Z8.665
X58.477 Y93.92 Z8.629
X58.388 Y93.943 Z8.607
X58.297 Y93.966 Z8.6
G3 X55.031 Y94.436 I-3.801 J-14.839
G1 X54.928 F1000
X54.78 Y94.463
X54.602 Y94.461
X54.37 Y94.425
X54.087 Y94.337
X53.76 Y94.181
X53.396 Y93.938
X53.002 Y93.583
X52.587 Y93.082
X52.158 Y92.381
X51.804 Y91.553
X51.55 Y90.689
X51.37 Y89.806
X51.245 Y88.914
X51.157 Y88.017
X51.097 Y87.118
X51.056 Y86.218
X51.028 Y85.318
X51.009 Y84.417
X50.996 Y83.516
X50.987 Y82.616
X50.981 Y81.715
X50.977 Y80.814
X50.973 Y79.012
X50.971 Y76.309
X50.972 Y68.201
X50.979 Y45.679
X50.993 Y2.774
X50.955 Y2.668
X50.814 Y2.493
X50.077 Y1.974
X49.233 Y1.659
X48.356 Y1.455
X47.465 Y1.321
X46.568 Y1.231
X45.669 Y1.171
X44.769 Y1.13
X43.869 Y1.102
X42.968 Y1.082
X42.068 Y1.069
X41.167 Y1.06
X40.266 Y1.053
X39.365 Y1.048
X37.563 Y1.042
X34.861 Y1.037
X25.852 Y1.029
X9.492 Y1.015
X9.305 Y0.985
X9.137 Y0.898
X9.004 Y0.763
X8.92 Y0.594
X8.874 Y0.448
X8.822 Y0.294
X8.701 Y0.038
X8.578 Y-0.166
X8.515 Y-0.268
X8.413 Y-0.387
X8.004 Y-0.849
X7.868 Y-0.984
X7.595 Y-1.24
X7.39 Y-1.394
X7.186 Y-1.526
X7.06 Y-1.598
X6.981 Y-1.641
X6.777 Y-1.732
X6.564 Y-1.803
X6.163 Y-1.923
X5.959 Y-1.978
X5.754 Y-2.03
X5.55 Y-2.065
X5.345 Y-2.079
X4.936 Y-2.097
X4.732 Y-2.1
X2.278
X2.073 Y-2.094
X1.664 Y-2.073
X1.46 Y-2.05
X1.255 Y-2.006
X1.051 Y-1.954
X0.846 Y-1.895
X0.437 Y-1.769
X0.233 Y-1.69
X0.04 Y-1.598
X-0.176 Y-1.47
X-0.288 Y-1.393
X-0.381 Y-1.323
X-0.548 Y-1.189
X-0.79 Y-0.959
X-0.968 Y-0.78
X-1.199 Y-0.54
X-1.403 Y-0.277
X-1.475 Y-0.166
X-1.598 Y0.038
X-1.608 Y0.056
X-1.695 Y0.243
X-1.771 Y0.448
X-1.899 Y0.857
X-1.957 Y1.061
X-2.012 Y1.266
X-2.051 Y1.47
X-2.072 Y1.675
X-2.096 Y2.084
X-2.1 Y2.289
Y51.181
X-2.098 Y51.794
X-2.082 Y51.999
X-2.055 Y52.204
X-2.017 Y52.415
X-1.91 Y52.817
X-1.855 Y53.022
X-1.788 Y53.226
X-1.707 Y53.431
X-1.608 Y53.639
X-1.489 Y53.84
X-1.403 Y53.981
X-1.356 Y54.045
X-1.199 Y54.232
X-1.183 Y54.249
X-0.64 Y54.883
X-0.213 Y55.558
X0.154 Y56.381
X0.418 Y57.242
X0.605 Y58.123
X0.736 Y59.015
X0.827 Y59.911
X0.889 Y60.81
X0.932 Y61.71
X0.962 Y62.61
X0.982 Y63.511
X0.995 Y64.412
X1.004 Y65.312
X1.011 Y66.213
X1.015 Y67.114
X1.019 Y68.916
X1.021 Y71.619
X1.02 Y78.826
X1.012 Y104.051
Y104.952
X1.041 Y105.175
X1.079 Y105.493
X1.118 Y105.85
X1.155 Y106.257
X1.193 Y106.733
X1.23 Y107.304
X1.268 Y108.022
X1.302 Y108.922
X1.324 Y109.823
X1.34 Y110.723
X1.35 Y111.624
X1.356 Y112.525
X1.36 Y113.426
X1.363 Y114.327
X1.366 Y116.129
X1.367 Y119.282
X1.404 Y119.388
X1.475 Y119.476
X2.242 Y119.948
X3.107 Y120.199
X3.995 Y120.353
X4.89 Y120.452
X5.789 Y120.515
X6.689 Y120.556
X7.589 Y120.583
X8.49 Y120.6
X9.391 Y120.612
X10.292 Y120.619
X11.192 Y120.623
X12.093 Y120.626
X13.895 Y120.629
X17.161
G3 X17.725 Y121.093 I-0.021 J0.6 F600
G1 X17.746 Y121.185 Z8.607
X17.767 Y121.274 Z8.629
X17.786 Y121.359 Z8.665
X17.804 Y121.437 Z8.715
X17.82 Y121.507 Z8.776
X17.834 Y121.566 Z8.847
X17.845 Y121.614 Z8.928
X17.853 Y121.649 Z9.015
X17.858 Y121.671 Z9.106
X17.86 Y121.678 Z9.2
G0 Z20.1
X-2.439 Y53.691
Z9.8
G1 Z9.2 F600
X-2.432 Y53.693 Z9.106
X-2.411 Y53.699 Z9.015
X-2.376 Y53.709 Z8.928
X-2.329 Y53.722 Z8.847
X-2.27 Y53.739 Z8.776
X-2.201 Y53.758 Z8.715
X-2.124 Y53.78 Z8.665
X-2.04 Y53.804 Z8.629
X-1.952 Y53.829 Z8.607
X-1.862 Y53.854 Z8.6
G3 X-1.183 Y54.249 I-0.431 J1.523
G1 X-0.79 Y54.663 F1000
X-0.579 Y54.863
X-0.381 Y55.029
X-0.329 Y55.068
X-0.176 Y55.171
X0.028 Y55.289
X0.233 Y55.396
X0.437 Y55.472
X0.846 Y55.598
X1.051 Y55.654
X1.408 Y55.753
X1.795 Y55.924
X2.221 Y56.191
X2.667 Y56.571
X3.135 Y57.102
X3.614 Y57.837
X3.992 Y58.655
X4.275 Y59.51
X4.484 Y60.386
X4.637 Y61.274
X4.748 Y62.168
X4.828 Y63.065
X4.885 Y63.964
X4.925 Y64.864
X4.954 Y65.765
X4.975 Y66.666
X4.989 Y67.566
X4.999 Y68.467
X5.006 Y69.368
X5.011 Y70.269
X5.014 Y71.17
X5.018 Y72.972
X5.02 Y75.674
X5.019 Y83.782
X5.013 Y102.701
X5.041 Y103.601
X5.086 Y104.501
X5.134 Y105.401
X5.18 Y106.301
X5.221 Y107.201
X5.255 Y108.101
X5.283 Y109.001
X5.304 Y109.902
X5.321 Y110.803
X5.334 Y111.703
X5.343 Y112.604
X5.35 Y113.505
X5.356 Y114.631
X5.394 Y114.737
X5.678 Y115.087
X6.402 Y115.623
X7.238 Y115.958
X8.112 Y116.176
X9.001 Y116.322
X9.897 Y116.421
X10.795 Y116.487
X11.695 Y116.533
X12.595 Y116.564
X13.046 Y116.574
X13.946 Y116.59
X14.284 Y116.595
X14.391 Y116.558
X14.479 Y116.489
