(adap1)
(T1 D=6 CR=0 - ZMIN=5 - flat end mill)
G90 G94
G17
G21
G28 G91 Z0
G90

(Adaptive1 2)
T1
S18000 M3
G17 G90 G94
G54
G0 X30.6 Y109.686
Z30.1
G0 Z20.1
Z10.6
G3 X32.752 Y111.572 Z10.489 I0.14 J2.011 F600
X30.851 Y113.707 Z10.378 I-2.01 J0.125
X28.733 Y111.791 Z10.267 I-0.109 J-2.009
X30.663 Y109.69 Z10.156 I2.008 J-0.093
X32.748 Y111.634 Z10.044 I0.078 J2.006
X30.789 Y113.702 Z9.933 I-2.005 J0.062
X28.739 Y111.729 Z9.822 I-0.046 J-2.004
X30.725 Y109.696 Z9.711 I2.002 J-0.031
X32.741 Y111.696 Z9.6 I0.015 J2
X28.74 Y111.696 I-2 J0
X32.741 Y111.696 I2 J0
G1 X32.743 Y111.809 F1300
X32.783 Y111.914
X33.338 Y112.57
X33.434 Y112.686
X33.517 Y112.811
X33.588 Y112.943
X33.647 Y113.081
X33.694 Y113.223
X33.73 Y113.369
X33.756 Y113.517
X33.77 Y113.666
X33.775 Y113.816
X33.77 Y113.966
X33.755 Y114.115
X33.731 Y114.263
X33.698 Y114.41
X33.657 Y114.554
X33.608 Y114.696
X33.552 Y114.835
X33.488 Y114.971
X33.417 Y115.103
X33.34 Y115.231
X33.257 Y115.356
X33.167 Y115.477
X33.072 Y115.593
X32.972 Y115.704
X32.867 Y115.811
X32.757 Y115.914
X32.643 Y116.011
X32.525 Y116.103
X32.403 Y116.191
X32.278 Y116.273
X32.149 Y116.35
X32.017 Y116.422
X31.883 Y116.488
X31.746 Y116.55
X31.607 Y116.606
X31.466 Y116.656
X31.323 Y116.702
X31.178 Y116.742
X31.032 Y116.777
X30.885 Y116.806
X30.737 Y116.83
X30.588 Y116.849
X30.439 Y116.863
X30.289 Y116.872
X30.139 Y116.875
X29.989 Y116.874
X29.839 Y116.867
X29.69 Y116.855
X29.541 Y116.839
X29.392 Y116.817
X29.245 Y116.791
X29.098 Y116.76
X28.952 Y116.725
X28.808 Y116.684
X28.665 Y116.64
X28.523 Y116.59
X28.383 Y116.537
X28.244 Y116.479
X28.108 Y116.417
X27.973 Y116.35
X27.841 Y116.28
X27.711 Y116.206
X27.583 Y116.127
X27.457 Y116.045
X27.334 Y115.96
X27.213 Y115.87
X27.096 Y115.777
X26.981 Y115.681
X26.868 Y115.582
X26.759 Y115.479
X26.653 Y115.373
X26.55 Y115.264
X26.45 Y115.152
X26.354 Y115.037
X26.26 Y114.92
X26.171 Y114.799
X26.084 Y114.677
X26.001 Y114.552
X25.922 Y114.424
X25.846 Y114.295
X25.774 Y114.163
X25.706 Y114.03
X25.642 Y113.894
X25.581 Y113.757
X25.524 Y113.618
X25.471 Y113.478
X25.422 Y113.336
X25.377 Y113.193
X25.336 Y113.049
X25.299 Y112.903
X25.266 Y112.757
X25.237 Y112.61
X25.213 Y112.462
X25.192 Y112.313
X25.175 Y112.164
X25.163 Y112.015
X25.154 Y111.865
X25.15 Y111.715
Y111.565
X25.153 Y111.415
X25.161 Y111.265
X25.173 Y111.116
X25.189 Y110.967
X25.21 Y110.818
X25.234 Y110.67
X25.262 Y110.523
X25.294 Y110.376
X25.33 Y110.231
X25.37 Y110.086
X25.414 Y109.943
X25.462 Y109.8
X25.514 Y109.66
X25.569 Y109.52
X25.628 Y109.382
X25.691 Y109.246
X25.758 Y109.112
X25.828 Y108.979
X25.901 Y108.849
X25.979 Y108.72
X26.059 Y108.593
X26.143 Y108.469
X26.23 Y108.347
X26.321 Y108.228
X26.415 Y108.11
X26.512 Y107.996
X26.611 Y107.884
X26.714 Y107.775
X26.82 Y107.668
X26.928 Y107.565
X27.04 Y107.464
X27.154 Y107.367
X27.27 Y107.272
X27.389 Y107.181
X27.511 Y107.093
X27.634 Y107.008
X27.76 Y106.927
X27.888 Y106.848
X28.019 Y106.774
X28.151 Y106.703
X28.285 Y106.635
X28.42 Y106.571
X28.558 Y106.511
X28.696 Y106.454
X28.837 Y106.401
X28.979 Y106.352
X29.122 Y106.307
X29.266 Y106.266
X29.411 Y106.228
X29.557 Y106.194
X29.704 Y106.165
X29.852 Y106.139
X30 Y106.117
X30.149 Y106.099
X30.299 Y106.085
X30.448 Y106.075
X30.598 Y106.069
X30.748 Y106.067
X30.898 Y106.069
X31.048 Y106.075
X31.198 Y106.085
X31.347 Y106.1
X31.496 Y106.118
X31.644 Y106.14
X31.792 Y106.165
X31.939 Y106.195
X32.085 Y106.229
X32.23 Y106.267
X32.375 Y106.308
X32.517 Y106.354
X32.659 Y106.403
X32.8 Y106.456
X32.938 Y106.512
X33.076 Y106.573
X33.211 Y106.637
X33.345 Y106.704
X33.477 Y106.775
X33.608 Y106.85
X33.736 Y106.928
X33.862 Y107.009
X33.985 Y107.094
X34.107 Y107.182
X34.226 Y107.273
X34.343 Y107.368
X34.457 Y107.465
X34.568 Y107.566
X34.677 Y107.669
X34.783 Y107.775
X35.063 Y108.07
X35.234 Y108.254
X35.379 Y108.415
X35.499 Y108.551
X35.614 Y108.687
X35.715 Y108.808
X35.809 Y108.924
X35.902 Y109.042
X35.993 Y109.162
X36.082 Y109.282
X36.169 Y109.404
X36.254 Y109.528
X36.338 Y109.652
X36.419 Y109.779
X36.498 Y109.906
X36.574 Y110.035
X36.649 Y110.165
X36.72 Y110.297
X36.79 Y110.43
X36.856 Y110.564
X36.92 Y110.7
X36.982 Y110.837
X37.04 Y110.975
X37.096 Y111.114
X37.149 Y111.255
X37.199 Y111.396
X37.246 Y111.539
X37.29 Y111.682
X37.331 Y111.826
X37.369 Y111.971
X37.404 Y112.117
X37.435 Y112.264
X37.464 Y112.411
X37.489 Y112.559
X37.511 Y112.708
X37.529 Y112.856
X37.545 Y113.006
X37.557 Y113.155
X37.566 Y113.305
X37.571 Y113.455
X37.573 Y113.605
X37.572 Y113.755
X37.568 Y113.905
X37.56 Y114.054
X37.549 Y114.204
X37.534 Y114.353
X37.516 Y114.502
X37.495 Y114.651
X37.471 Y114.799
X37.443 Y114.946
X37.413 Y115.093
X37.378 Y115.239
X37.341 Y115.384
X37.301 Y115.529
X37.257 Y115.672
X37.21 Y115.815
X37.16 Y115.956
X37.107 Y116.097
X37.051 Y116.236
X36.992 Y116.374
X36.93 Y116.51
X36.865 Y116.645
X36.797 Y116.779
X36.726 Y116.911
X36.653 Y117.042
X36.576 Y117.171
X36.497 Y117.298
X36.415 Y117.424
X36.331 Y117.548
X36.244 Y117.67
X36.154 Y117.79
X36.062 Y117.909
X35.967 Y118.025
X35.87 Y118.14
X35.77 Y118.252
X35.669 Y118.362
X35.565 Y118.47
X35.459 Y118.576
X35.35 Y118.68
X35.24 Y118.781
X35.127 Y118.88
X35.013 Y118.977
X34.896 Y119.072
X34.778 Y119.164
X34.657 Y119.253
X34.535 Y119.341
X34.412 Y119.426
X34.286 Y119.508
X34.159 Y119.588
X34.031 Y119.665
X33.901 Y119.74
X33.769 Y119.812
X33.636 Y119.881
X33.502 Y119.948
X33.366 Y120.012
X33.23 Y120.074
X33.092 Y120.133
X32.953 Y120.189
X32.813 Y120.243
X32.671 Y120.294
X32.529 Y120.342
X32.386 Y120.387
X32.243 Y120.43
X32.098 Y120.47
X31.953 Y120.507
X31.807 Y120.541
X31.66 Y120.573
X31.513 Y120.602
X31.365 Y120.628
X31.217 Y120.652
X31.068 Y120.672
X30.92 Y120.69
X30.77 Y120.705
X30.621 Y120.718
X30.471 Y120.728
X30.321 Y120.734
X30.171 Y120.739
X30.021 Y120.74
X29.871 Y120.739
X29.721 Y120.735
X29.572 Y120.728
X29.422 Y120.719
X29.272 Y120.707
X29.123 Y120.692
X28.974 Y120.674
X28.825 Y120.654
X28.677 Y120.632
X28.529 Y120.606
X28.382 Y120.578
X28.235 Y120.548
X28.089 Y120.514
X27.943 Y120.479
X27.798 Y120.44
X27.654 Y120.4
X27.51 Y120.356
X27.367 Y120.31
X27.225 Y120.262
X27.084 Y120.211
X26.291 Y119.785
X25.533 Y119.297
X24.82 Y118.747
X24.159 Y118.134
X23.558 Y117.463
X23.024 Y116.738
X22.562 Y115.965
X22.177 Y115.15
X21.873 Y114.302
X21.654 Y113.428
X21.522 Y112.537
X21.477 Y111.637
X21.521 Y110.737
X21.652 Y109.846
X21.87 Y108.972
X22.172 Y108.123
X22.556 Y107.308
X23.017 Y106.534
X23.551 Y105.809
X24.153 Y105.139
X24.818 Y104.53
X25.538 Y103.989
X26.307 Y103.521
X27.119 Y103.129
X27.964 Y102.818
X28.836 Y102.59
X29.725 Y102.448
X30.625 Y102.392
X31.525 Y102.424
X32.418 Y102.543
X33.295 Y102.747
X34.149 Y103.036
X34.97 Y103.406
X35.752 Y103.853
X36.491 Y104.368
X37.19 Y104.937
X37.847 Y105.553
X38.459 Y106.214
X39.024 Y106.916
X39.535 Y107.658
X39.989 Y108.436
X40.381 Y109.247
X40.708 Y110.087
X40.965 Y110.95
X41.151 Y111.832
X41.262 Y112.726
X41.297 Y113.626
X41.256 Y114.526
X41.139 Y115.419
X40.946 Y116.299
X40.68 Y117.16
X40.341 Y117.995
X39.934 Y118.798
X39.875 Y118.894
X39.815 Y118.989
X39.328 Y119.747
X38.779 Y120.462
X38.673 Y120.578
X38.687 Y120.568 Z9.604 F800
G3 X38.011 Y120.896 Z9.763 I-5.499 J-10.471
G1 X37.852 Y120.965 Z9.8 F1300
X37.753 Y121.007
G3 X37.482 Y121.053 I-0.232 J-0.553
G1 X27.504 Y120.401
G3 X27.242 Y120.321 I0.039 J-0.599
G1 X27.081 Y120.226
X26.933 Y120.135 Z9.763
G3 X26.373 Y119.764 Z9.621 I6.255 J-10.038 F600
G1 X26.351 Y119.754 Z9.615
X26.327 Y119.755 Z9.61
X26.306 Y119.766 Z9.605
X26.291 Y119.785 Z9.6
X26.236 Y119.887 F1300
X26.18 Y120.026
X26.103 Y120.155
X26.011 Y120.274
X25.908 Y120.382
X25.795 Y120.482
X25.676 Y120.572
X25.549 Y120.652
X25.417 Y120.724
X25.281 Y120.787
X25.141 Y120.842
X24.999 Y120.889
X24.854 Y120.928
X24.708 Y120.96
X24.56 Y120.984
X24.411 Y121.001
X24.261 Y121.012
X24.111 Y121.016
X23.961 Y121.013
X23.811 Y121.005
X23.662 Y120.991
X23.513 Y120.972
X23.365 Y120.947
X23.209 Y120.915
X23.111 Y120.882
X23.02 Y120.833
X22.939 Y120.768
X22.247 Y120.116
X22.115 Y119.99
X21.824 Y119.707
X21.707 Y119.59
X21.457 Y119.298
X21.298 Y119.076
X21.166 Y118.889
X21.093 Y118.781
X20.493 Y117.866
X20.275 Y117.534
X20.226 Y117.457
X20.071 Y117.18
X20 Y117.048
X19.866 Y116.75
X19.821 Y116.639
X19.521 Y115.82
X19.298 Y115.207
X19.096 Y114.593
X19.049 Y114.347
X18.982 Y113.979
X18.949 Y113.775
X18.805 Y112.548
X18.786 Y112.343
X18.74 Y111.729
X18.752 Y111.525
X18.781 Y111.116
X18.798 Y110.911
X18.941 Y109.684
X18.971 Y109.479
X19.08 Y108.866
X19.143 Y108.661
X19.277 Y108.252
X19.348 Y108.047
X19.662 Y107.188
X19.797 Y106.82
X19.866 Y106.645
X19.971 Y106.411
X20.074 Y106.206
X20.188 Y106.002
X20.275 Y105.86
X20.718 Y105.184
X21.121 Y104.57
X21.407 Y104.161
X21.502 Y104.042
X21.575 Y103.956
X21.707 Y103.803
X22.177 Y103.343
X23.138 Y102.437
X23.275 Y102.32
X23.547 Y102.095
X23.751 Y101.955
X24.16 Y101.697
X24.364 Y101.576
X25.387 Y100.986
X25.591 Y100.873
X25.796 Y100.769
X26.409 Y100.524
X26.534 Y100.479
X27.84 Y100.088
X27.904 Y100.07
X28.453 Y99.927
X28.658 Y99.88
X29.271 Y99.814
X29.476 Y99.797
X30.702 Y99.725
X30.907 Y99.722
X31.316 Y99.719
X31.52 Y99.722
X32.134 Y99.808
X32.338 Y99.841
X33.565 Y100.058
X33.628 Y100.07
X34.178 Y100.208
X34.383 Y100.266
X34.791 Y100.433
X34.996 Y100.517
X35.2 Y100.603
X36.018 Y100.956
X36.427 Y101.14
X36.632 Y101.254
X37.245 Y101.638
X38.267 Y102.399
X38.472 Y102.552
X38.676 Y102.71
X39.085 Y103.079
X39.146 Y103.138
X39.329 Y103.343
X39.505 Y103.547
X40.312 Y104.508
X40.36 Y104.57
X40.721 Y105.05
X40.818 Y105.184
X40.925 Y105.369
X41.256 Y106.002
X41.564 Y106.615
X41.664 Y106.82
X41.861 Y107.229
X41.947 Y107.413
X41.955 Y107.434
X42.152 Y108.049
X42.208 Y108.252
X42.498 Y109.479
X42.541 Y109.684
X42.621 Y110.093
X42.658 Y110.297
X42.688 Y110.911
X42.693 Y111.116
Y112.343
X42.685 Y112.548
X42.664 Y112.957
X42.65 Y113.161
X42.528 Y113.775
X42.483 Y113.979
X42.192 Y115.207
X42.152 Y115.349
X41.947 Y115.975
X41.929 Y116.025
X41.731 Y116.434
X41.632 Y116.639
X41.531 Y116.843
X41.222 Y117.457
X40.899 Y118.071
X40.771 Y118.275
X40.308 Y118.889
X39.45 Y119.911
X39.401 Y119.967
X39.333 Y120.029 F800
X39.255 Y120.08
X39.185 Y120.103 Z9.605
X39.116 Y120.126 Z9.618
X39.05 Y120.149 Z9.641
X38.965 Y120.155 Z9.682
X38.902 Y120.143 Z9.726
X38.844 Y120.132 Z9.778
X38.794 Y120.123 Z9.837
X38.752 Y120.115 Z9.902
X38.721 Y120.101 Z9.972
X38.698 Y120.091 Z10.046
X38.685 Y120.085 Z10.122
X38.68 Y120.082 Z10.2
G0 Z20.1
X30.6 Y109.686
Z10.1
G3 X32.752 Y111.572 Z9.989 I0.14 J2.011 F600
X30.851 Y113.707 Z9.878 I-2.01 J0.125
X28.733 Y111.791 Z9.767 I-0.109 J-2.009
X30.663 Y109.69 Z9.656 I2.008 J-0.093
X32.748 Y111.634 Z9.544 I0.078 J2.006
X30.789 Y113.702 Z9.433 I-2.005 J0.062
X28.739 Y111.729 Z9.322 I-0.046 J-2.004
X30.725 Y109.696 Z9.211 I2.002 J-0.031
X32.741 Y111.696 Z9.1 I0.015 J2
X28.74 Y111.696 I-2 J0
X32.741 Y111.696 I2 J0
G1 X32.743 Y111.809 F1300
X32.783 Y111.914
X33.338 Y112.57
X33.434 Y112.686
X33.517 Y112.811
X33.588 Y112.943
X33.647 Y113.081
X33.694 Y113.223
X33.73 Y113.369
X33.756 Y113.517
X33.77 Y113.666
X33.775 Y113.816
X33.77 Y113.966
X33.755 Y114.115
X33.731 Y114.263
X33.698 Y114.41
X33.657 Y114.554
X33.608 Y114.696
X33.552 Y114.835
X33.488 Y114.971
X33.417 Y115.103
X33.34 Y115.231
X33.257 Y115.356
X33.167 Y115.477
X33.072 Y115.593
X32.972 Y115.704
X32.867 Y115.811
X32.757 Y115.914
X32.643 Y116.011
X32.525 Y116.103
X32.403 Y116.191
X32.278 Y116.273
X32.149 Y116.35
X32.017 Y116.422
X31.883 Y116.488
X31.746 Y116.55
X31.607 Y116.606
X31.466 Y116.656
X31.323 Y116.702
X31.178 Y116.742
X31.032 Y116.777
X30.885 Y116.806
X30.737 Y116.83
X30.588 Y116.849
X30.439 Y116.863
X30.289 Y116.872
X30.139 Y116.875
X29.989 Y116.874
X29.839 Y116.867
X29.69 Y116.855
X29.541 Y116.839
X29.392 Y116.817
X29.245 Y116.791
X29.098 Y116.76
X28.952 Y116.725
X28.808 Y116.684
X28.665 Y116.64
X28.523 Y116.59
X28.383 Y116.537
X28.244 Y116.479
X28.108 Y116.417
X27.973 Y116.35
X27.841 Y116.28
X27.711 Y116.206
X27.583 Y116.127
X27.457 Y116.045
X27.334 Y115.96
X27.213 Y115.87
X27.096 Y115.777
X26.981 Y115.681
X26.868 Y115.582
X26.759 Y115.479
X26.653 Y115.373
X26.55 Y115.264
X26.45 Y115.152
X26.354 Y115.037
X26.26 Y114.92
X26.171 Y114.799
X26.084 Y114.677
X26.001 Y114.552
X25.922 Y114.424
X25.846 Y114.295
X25.774 Y114.163
X25.706 Y114.03
X25.642 Y113.894
X25.581 Y113.757
X25.524 Y113.618
X25.471 Y113.478
X25.422 Y113.336
X25.377 Y113.193
X25.336 Y113.049
X25.299 Y112.903
X25.266 Y112.757
X25.237 Y112.61
X25.213 Y112.462
X25.192 Y112.313
X25.175 Y112.164
X25.163 Y112.015
X25.154 Y111.865
X25.15 Y111.715
Y111.565
X25.153 Y111.415
X25.161 Y111.265
X25.173 Y111.116
X25.189 Y110.967
X25.21 Y110.818
X25.234 Y110.67
X25.262 Y110.523
X25.294 Y110.376
X25.33 Y110.231
X25.37 Y110.086
X25.414 Y109.943
X25.462 Y109.8
X25.514 Y109.66
X25.569 Y109.52
X25.628 Y109.382
X25.691 Y109.246
X25.758 Y109.112
X25.828 Y108.979
X25.901 Y108.849
X25.979 Y108.72
X26.059 Y108.593
X26.143 Y108.469
X26.23 Y108.347
X26.321 Y108.228
X26.415 Y108.11
X26.512 Y107.996
X26.611 Y107.884
X26.714 Y107.775
X26.82 Y107.668
X26.928 Y107.565
X27.04 Y107.464
X27.154 Y107.367
X27.27 Y107.272
X27.389 Y107.181
X27.511 Y107.093
X27.634 Y107.008
X27.76 Y106.927
X27.888 Y106.848
X28.019 Y106.774
X28.151 Y106.703
X28.285 Y106.635
X28.42 Y106.571
X28.558 Y106.511
X28.696 Y106.454
X28.837 Y106.401
X28.979 Y106.352
X29.122 Y106.307
X29.266 Y106.266
X29.411 Y106.228
X29.557 Y106.194
X29.704 Y106.165
X29.852 Y106.139
X30 Y106.117
X30.149 Y106.099
X30.299 Y106.085
X30.448 Y106.075
X30.598 Y106.069
X30.748 Y106.067
X30.898 Y106.069
X31.048 Y106.075
X31.198 Y106.085
X31.347 Y106.1
X31.496 Y106.118
X31.644 Y106.14
X31.792 Y106.165
X31.939 Y106.195
X32.085 Y106.229
X32.23 Y106.267
X32.375 Y106.308
X32.517 Y106.354
X32.659 Y106.403
X32.8 Y106.456
X32.938 Y106.512
X33.076 Y106.573
X33.211 Y106.637
X33.345 Y106.704
X33.477 Y106.775
X33.608 Y106.85
X33.736 Y106.928
X33.862 Y107.009
X33.985 Y107.094
X34.107 Y107.182
X34.226 Y107.273
X34.343 Y107.368
X34.457 Y107.465
X34.568 Y107.566
X34.677 Y107.669
X34.783 Y107.775
X35.063 Y108.07
X35.234 Y108.254
X35.379 Y108.415
X35.499 Y108.551
X35.614 Y108.687
X35.715 Y108.808
X35.809 Y108.924
X35.902 Y109.042
X35.993 Y109.162
X36.082 Y109.282
X36.169 Y109.404
X36.254 Y109.528
X36.338 Y109.652
X36.419 Y109.779
X36.498 Y109.906
X36.574 Y110.035
X36.649 Y110.165
X36.72 Y110.297
X36.79 Y110.43
X36.856 Y110.564
X36.92 Y110.7
X36.982 Y110.837
X37.04 Y110.975
X37.096 Y111.114
X37.149 Y111.255
X37.199 Y111.396
X37.246 Y111.539
X37.29 Y111.682
X37.331 Y111.826
X37.369 Y111.971
X37.404 Y112.117
X37.435 Y112.264
X37.464 Y112.411
X37.489 Y112.559
X37.511 Y112.708
X37.529 Y112.856
X37.545 Y113.006
X37.557 Y113.155
X37.566 Y113.305
X37.571 Y113.455
X37.573 Y113.605
X37.572 Y113.755
X37.568 Y113.905
X37.56 Y114.054
X37.549 Y114.204
X37.534 Y114.353
X37.516 Y114.502
X37.495 Y114.651
X37.471 Y114.799
X37.443 Y114.946
X37.413 Y115.093
X37.378 Y115.239
X37.341 Y115.384
X37.301 Y115.529
X37.257 Y115.672
X37.21 Y115.815
X37.16 Y115.956
X37.107 Y116.097
X37.051 Y116.236
X36.992 Y116.374
X36.93 Y116.51
X36.865 Y116.645
X36.797 Y116.779
X36.726 Y116.911
X36.653 Y117.042
X36.576 Y117.171
X36.497 Y117.298
X36.415 Y117.424
X36.331 Y117.548
X36.244 Y117.67
X36.154 Y117.79
X36.062 Y117.909
X35.967 Y118.025
X35.87 Y118.14
X35.77 Y118.252
X35.669 Y118.362
X35.565 Y118.47
X35.459 Y118.576
X35.35 Y118.68
X35.24 Y118.781
X35.127 Y118.88
X35.013 Y118.977
X34.896 Y119.072
X34.778 Y119.164
X34.657 Y119.253
X34.535 Y119.341
X34.412 Y119.426
X34.286 Y119.508
X34.159 Y119.588
X34.031 Y119.665
X33.901 Y119.74
X33.769 Y119.812
X33.636 Y119.881
X33.502 Y119.948
X33.366 Y120.012
X33.23 Y120.074
X33.092 Y120.133
X32.953 Y120.189
X32.813 Y120.243
X32.671 Y120.294
X32.529 Y120.342
X32.386 Y120.387
X32.243 Y120.43
X32.098 Y120.47
X31.953 Y120.507
X31.807 Y120.541
X31.66 Y120.573
X31.513 Y120.602
X31.365 Y120.628
X31.217 Y120.652
X31.068 Y120.672
X30.92 Y120.69
X30.77 Y120.705
X30.621 Y120.718
X30.471 Y120.728
X30.321 Y120.734
X30.171 Y120.739
X30.021 Y120.74
X29.871 Y120.739
X29.721 Y120.735
X29.572 Y120.728
X29.422 Y120.719
X29.272 Y120.707
X29.123 Y120.692
X28.974 Y120.674
X28.825 Y120.654
X28.677 Y120.632
X28.529 Y120.606
X28.382 Y120.578
X28.235 Y120.548
X28.089 Y120.514
X27.943 Y120.479
X27.798 Y120.44
X27.654 Y120.4
X27.51 Y120.356
X27.367 Y120.31
X27.225 Y120.262
X27.084 Y120.211
X26.291 Y119.785
X25.533 Y119.297
X24.82 Y118.747
X24.159 Y118.134
X23.558 Y117.463
X23.024 Y116.738
X22.562 Y115.965
X22.177 Y115.15
X21.873 Y114.302
X21.654 Y113.428
X21.522 Y112.537
X21.477 Y111.637
X21.521 Y110.737
X21.652 Y109.846
X21.87 Y108.972
X22.172 Y108.123
X22.556 Y107.308
X23.017 Y106.534
X23.551 Y105.809
X24.153 Y105.139
X24.818 Y104.53
X25.538 Y103.989
X26.307 Y103.521
X27.119 Y103.129
X27.964 Y102.818
X28.836 Y102.59
X29.725 Y102.448
X30.625 Y102.392
X31.525 Y102.424
X32.418 Y102.543
X33.295 Y102.747
X34.149 Y103.036
X34.97 Y103.406
X35.752 Y103.853
X36.491 Y104.368
X37.19 Y104.937
X37.847 Y105.553
X38.459 Y106.214
X39.024 Y106.916
X39.535 Y107.658
X39.989 Y108.436
X40.381 Y109.247
X40.708 Y110.087
X40.965 Y110.95
X41.151 Y111.832
X41.262 Y112.726
X41.297 Y113.626
X41.256 Y114.526
X41.139 Y115.419
X40.946 Y116.299
X40.68 Y117.16
X40.341 Y117.995
X39.934 Y118.798
X39.875 Y118.894
X39.815 Y118.989
X39.328 Y119.747
X38.779 Y120.462
X38.673 Y120.578
X38.687 Y120.568 Z9.104 F800
G3 X38.011 Y120.896 Z9.263 I-5.499 J-10.471
G1 X37.852 Y120.965 Z9.3 F1300
X37.753 Y121.007
G3 X37.482 Y121.053 I-0.232 J-0.553
G1 X27.504 Y120.401
G3 X27.242 Y120.321 I0.039 J-0.599
G1 X27.081 Y120.226
X26.933 Y120.135 Z9.263
G3 X26.373 Y119.764 Z9.121 I6.255 J-10.038 F600
G1 X26.351 Y119.754 Z9.115
X26.327 Y119.755 Z9.11
X26.306 Y119.766 Z9.105
X26.291 Y119.785 Z9.1
X26.236 Y119.887 F1300
X26.18 Y120.026
X26.103 Y120.155
X26.011 Y120.274
X25.908 Y120.382
X25.795 Y120.482
X25.676 Y120.572
X25.549 Y120.652
X25.417 Y120.724
X25.281 Y120.787
X25.141 Y120.842
X24.999 Y120.889
X24.854 Y120.928
X24.708 Y120.96
X24.56 Y120.984
X24.411 Y121.001
X24.261 Y121.012
X24.111 Y121.016
X23.961 Y121.013
X23.811 Y121.005
X23.662 Y120.991
X23.513 Y120.972
X23.365 Y120.947
X23.209 Y120.915
X23.111 Y120.882
X23.02 Y120.833
X22.939 Y120.768
X22.247 Y120.116
X22.115 Y119.99
X21.824 Y119.707
X21.707 Y119.59
X21.457 Y119.298
X21.298 Y119.076
X21.166 Y118.889
X21.093 Y118.781
X20.493 Y117.866
X20.275 Y117.534
X20.226 Y117.457
X20.071 Y117.18
X20 Y117.048
X19.866 Y116.75
X19.821 Y116.639
X19.521 Y115.82
X19.298 Y115.207
X19.096 Y114.593
X19.049 Y114.347
X18.982 Y113.979
X18.949 Y113.775
X18.805 Y112.548
X18.786 Y112.343
X18.74 Y111.729
X18.752 Y111.525
X18.781 Y111.116
X18.798 Y110.911
X18.941 Y109.684
X18.971 Y109.479
X19.08 Y108.866
X19.143 Y108.661
X19.277 Y108.252
X19.348 Y108.047
X19.662 Y107.188
X19.797 Y106.82
X19.866 Y106.645
X19.971 Y106.411
X20.074 Y106.206
X20.188 Y106.002
X20.275 Y105.86
X20.718 Y105.184
X21.121 Y104.57
X21.407 Y104.161
X21.502 Y104.042
X21.575 Y103.956
X21.707 Y103.803
X22.177 Y103.343
X23.138 Y102.437
X23.275 Y102.32
X23.547 Y102.095
X23.751 Y101.955
X24.16 Y101.697
X24.364 Y101.576
X25.387 Y100.986
X25.591 Y100.873
X25.796 Y100.769
X26.409 Y100.524
X26.534 Y100.479
X27.84 Y100.088
X27.904 Y100.07
X28.453 Y99.927
X28.658 Y99.88
X29.271 Y99.814
X29.476 Y99.797
X30.702 Y99.725
X30.907 Y99.722
X31.316 Y99.719
X31.52 Y99.722
X32.134 Y99.808
X32.338 Y99.841
X33.565 Y100.058
X33.628 Y100.07
X34.178 Y100.208
X34.383 Y100.266
X34.791 Y100.433
X34.996 Y100.517
X35.2 Y100.603
X36.018 Y100.956
X36.427 Y101.14
X36.632 Y101.254
X37.245 Y101.638
X38.267 Y102.399
X38.472 Y102.552
X38.676 Y102.71
X39.085 Y103.079
X39.146 Y103.138
X39.329 Y103.343
X39.505 Y103.547
X40.312 Y104.508
X40.36 Y104.57
X40.721 Y105.05
X40.818 Y105.184
X40.925 Y105.369
X41.256 Y106.002
X41.564 Y106.615
X41.664 Y106.82
X41.861 Y107.229
X41.947 Y107.413
X41.955 Y107.434
X42.152 Y108.049
X42.208 Y108.252
X42.498 Y109.479
X42.541 Y109.684
X42.621 Y110.093
X42.658 Y110.297
X42.688 Y110.911
X42.693 Y111.116
Y112.343
X42.685 Y112.548
X42.664 Y112.957
X42.65 Y113.161
X42.528 Y113.775
X42.483 Y113.979
X42.192 Y115.207
X42.152 Y115.349
X41.947 Y115.975
X41.929 Y116.025
X41.731 Y116.434
X41.632 Y116.639
X41.531 Y116.843
X41.222 Y117.457
X40.899 Y118.071
X40.771 Y118.275
X40.308 Y118.889
X39.45 Y119.911
X39.401 Y119.967
X39.333 Y120.029 F800
X39.255 Y120.08
X39.185 Y120.103 Z9.105
X39.116 Y120.126 Z9.118
X39.05 Y120.149 Z9.141
X38.965 Y120.155 Z9.182
X38.902 Y120.143 Z9.226
X38.844 Y120.132 Z9.278
X38.794 Y120.123 Z9.337
X38.752 Y120.115 Z9.402
X38.721 Y120.101 Z9.472
X38.698 Y120.091 Z9.546
X38.685 Y120.085 Z9.622
X38.68 Y120.082 Z9.7
G0 Z20.1
X30.6 Y109.686
Z9.6
G3 X32.752 Y111.572 Z9.489 I0.14 J2.011 F600
X30.851 Y113.707 Z9.378 I-2.01 J0.125
X28.733 Y111.791 Z9.267 I-0.109 J-2.009
X30.663 Y109.69 Z9.156 I2.008 J-0.093
X32.748 Y111.634 Z9.044 I0.078 J2.006
X30.789 Y113.702 Z8.933 I-2.005 J0.062
X28.739 Y111.729 Z8.822 I-0.046 J-2.004
X30.725 Y109.696 Z8.711 I2.002 J-0.031
X32.741 Y111.696 Z8.6 I0.015 J2
X28.74 Y111.696 I-2 J0
X32.741 Y111.696 I2 J0
G1 X32.743 Y111.809 F1300
X32.783 Y111.914
X33.338 Y112.57
X33.434 Y112.686
X33.517 Y112.811
X33.588 Y112.943
X33.647 Y113.081
X33.694 Y113.223
X33.73 Y113.369
X33.756 Y113.517
X33.77 Y113.666
X33.775 Y113.816
X33.77 Y113.966
X33.755 Y114.115
X33.731 Y114.263
X33.698 Y114.41
X33.657 Y114.554
X33.608 Y114.696
X33.552 Y114.835
X33.488 Y114.971
X33.417 Y115.103
X33.34 Y115.231
X33.257 Y115.356
X33.167 Y115.477
X33.072 Y115.593
X32.972 Y115.704
X32.867 Y115.811
X32.757 Y115.914
X32.643 Y116.011
X32.525 Y116.103
X32.403 Y116.191
X32.278 Y116.273
X32.149 Y116.35
X32.017 Y116.422
X31.883 Y116.488
X31.746 Y116.55
X31.607 Y116.606
X31.466 Y116.656
X31.323 Y116.702
X31.178 Y116.742
X31.032 Y116.777
X30.885 Y116.806
X30.737 Y116.83
X30.588 Y116.849
X30.439 Y116.863
X30.289 Y116.872
X30.139 Y116.875
X29.989 Y116.874
X29.839 Y116.867
X29.69 Y116.855
X29.541 Y116.839
X29.392 Y116.817
X29.245 Y116.791
X29.098 Y116.76
X28.952 Y116.725
X28.808 Y116.684
X28.665 Y116.64
X28.523 Y116.59
X28.383 Y116.537
X28.244 Y116.479
X28.108 Y116.417
X27.973 Y116.35
X27.841 Y116.28
X27.711 Y116.206
X27.583 Y116.127
X27.457 Y116.045
X27.334 Y115.96
X27.213 Y115.87
X27.096 Y115.777
X26.981 Y115.681
X26.868 Y115.582
X26.759 Y115.479
X26.653 Y115.373
X26.55 Y115.264
X26.45 Y115.152
X26.354 Y115.037
X26.26 Y114.92
X26.171 Y114.799
X26.084 Y114.677
X26.001 Y114.552
X25.922 Y114.424
X25.846 Y114.295
X25.774 Y114.163
X25.706 Y114.03
X25.642 Y113.894
X25.581 Y113.757
X25.524 Y113.618
X25.471 Y113.478
X25.422 Y113.336
X25.377 Y113.193
X25.336 Y113.049
X25.299 Y112.903
X25.266 Y112.757
X25.237 Y112.61
X25.213 Y112.462
X25.192 Y112.313
X25.175 Y112.164
X25.163 Y112.015
X25.154 Y111.865
X25.15 Y111.715
Y111.565
X25.153 Y111.415
X25.161 Y111.265
X25.173 Y111.116
X25.189 Y110.967
X25.21 Y110.818
X25.234 Y110.67
X25.262 Y110.523
X25.294 Y110.376
X25.33 Y110.231
X25.37 Y110.086
X25.414 Y109.943
X25.462 Y109.8
X25.514 Y109.66
X25.569 Y109.52
X25.628 Y109.382
X25.691 Y109.246
X25.758 Y109.112
X25.828 Y108.979
X25.901 Y108.849
X25.979 Y108.72
X26.059 Y108.593
X26.143 Y108.469
X26.23 Y108.347
X26.321 Y108.228
X26.415 Y108.11
X26.512 Y107.996
X26.611 Y107.884
X26.714 Y107.775
X26.82 Y107.668
X26.928 Y107.565
X27.04 Y107.464
X27.154 Y107.367
X27.27 Y107.272
X27.389 Y107.181
X27.511 Y107.093
X27.634 Y107.008
X27.76 Y106.927
X27.888 Y106.848
X28.019 Y106.774
X28.151 Y106.703
X28.285 Y106.635
X28.42 Y106.571
X28.558 Y106.511
X28.696 Y106.454
X28.837 Y106.401
X28.979 Y106.352
X29.122 Y106.307
X29.266 Y106.266
X29.411 Y106.228
X29.557 Y106.194
X29.704 Y106.165
X29.852 Y106.139
X30 Y106.117
X30.149 Y106.099
X30.299 Y106.085
X30.448 Y106.075
X30.598 Y106.069
X30.748 Y106.067
X30.898 Y106.069
X31.048 Y106.075
X31.198 Y106.085
X31.347 Y106.1
X31.496 Y106.118
X31.644 Y106.14
X31.792 Y106.165
X31.939 Y106.195
X32.085 Y106.229
X32.23 Y106.267
X32.375 Y106.308
X32.517 Y106.354
X32.659 Y106.403
X32.8 Y106.456
X32.938 Y106.512
X33.076 Y106.573
X33.211 Y106.637
X33.345 Y106.704
X33.477 Y106.775
X33.608 Y106.85
X33.736 Y106.928
X33.862 Y107.009
X33.985 Y107.094
X34.107 Y107.182
X34.226 Y107.273
X34.343 Y107.368
X34.457 Y107.465
X34.568 Y107.566
X34.677 Y107.669
X34.783 Y107.775
X35.063 Y108.07
X35.234 Y108.254
X35.379 Y108.415
X35.499 Y108.551
X35.614 Y108.687
X35.715 Y108.808
X35.809 Y108.924
X35.902 Y109.042
X35.993 Y109.162
X36.082 Y109.282
X36.169 Y109.404
X36.254 Y109.528
X36.338 Y109.652
X36.419 Y109.779
X36.498 Y109.906
X36.574 Y110.035
X36.649 Y110.165
X36.72 Y110.297
X36.79 Y110.43
X36.856 Y110.564
X36.92 Y110.7
X36.982 Y110.837
X37.04 Y110.975
X37.096 Y111.114
X37.149 Y111.255
X37.199 Y111.396
X37.246 Y111.539
X37.29 Y111.682
X37.331 Y111.826
X37.369 Y111.971
X37.404 Y112.117
X37.435 Y112.264
X37.464 Y112.411
X37.489 Y112.559
X37.511 Y112.708
X37.529 Y112.856
X37.545 Y113.006
X37.557 Y113.155
X37.566 Y113.305
X37.571 Y113.455
X37.573 Y113.605
X37.572 Y113.755
X37.568 Y113.905
X37.56 Y114.054
X37.549 Y114.204
X37.534 Y114.353
X37.516 Y114.502
X37.495 Y114.651
X37.471 Y114.799
X37.443 Y114.946
X37.413 Y115.093
X37.378 Y115.239
X37.341 Y115.384
X37.301 Y115.529
X37.257 Y115.672
X37.21 Y115.815
X37.16 Y115.956
X37.107 Y116.097
X37.051 Y116.236
X36.992 Y116.374
X36.93 Y116.51
X36.865 Y116.645
X36.797 Y116.779
X36.726 Y116.911
X36.653 Y117.042
X36.576 Y117.171
X36.497 Y117.298
X36.415 Y117.424
X36.331 Y117.548
X36.244 Y117.67
X36.154 Y117.79
X36.062 Y117.909
X35.967 Y118.025
X35.87 Y118.14
X35.77 Y118.252
X35.669 Y118.362
X35.565 Y118.47
X35.459 Y118.576
X35.35 Y118.68
X35.24 Y118.781
X35.127 Y118.88
X35.013 Y118.977
X34.896 Y119.072
X34.778 Y119.164
X34.657 Y119.253
X34.535 Y119.341
X34.412 Y119.426
X34.286 Y119.508
X34.159 Y119.588
X34.031 Y119.665
X33.901 Y119.74
X33.769 Y119.812
X33.636 Y119.881
X33.502 Y119.948
X33.366 Y120.012
X33.23 Y120.074
X33.092 Y120.133
X32.953 Y120.189
X32.813 Y120.243
X32.671 Y120.294
X32.529 Y120.342
X32.386 Y120.387
X32.243 Y120.43
X32.098 Y120.47
X31.953 Y120.507
X31.807 Y120.541
X31.66 Y120.573
X31.513 Y120.602
X31.365 Y120.628
X31.217 Y120.652
X31.068 Y120.672
X30.92 Y120.69
X30.77 Y120.705
X30.621 Y120.718
X30.471 Y120.728
X30.321 Y120.734
X30.171 Y120.739
X30.021 Y120.74
X29.871 Y120.739
X29.721 Y120.735
X29.572 Y120.728
X29.422 Y120.719
X29.272 Y120.707
X29.123 Y120.692
X28.974 Y120.674
X28.825 Y120.654
X28.677 Y120.632
X28.529 Y120.606
X28.382 Y120.578
X28.235 Y120.548
X28.089 Y120.514
X27.943 Y120.479
X27.798 Y120.44
X27.654 Y120.4
X27.51 Y120.356
X27.367 Y120.31
X27.225 Y120.262
X27.084 Y120.211
X26.291 Y119.785
X25.533 Y119.297
X24.82 Y118.747
X24.159 Y118.134
X23.558 Y117.463
X23.024 Y116.738
X22.562 Y115.965
X22.177 Y115.15
X21.873 Y114.302
X21.654 Y113.428
X21.522 Y112.537
X21.477 Y111.637
X21.521 Y110.737
X21.652 Y109.846
X21.87 Y108.972
X22.172 Y108.123
X22.556 Y107.308
X23.017 Y106.534
X23.551 Y105.809
X24.153 Y105.139
X24.818 Y104.53
X25.538 Y103.989
X26.307 Y103.521
X27.119 Y103.129
X27.964 Y102.818
X28.836 Y102.59
X29.725 Y102.448
X30.625 Y102.392
X31.525 Y102.424
X32.418 Y102.543
X33.295 Y102.747
X34.149 Y103.036
X34.97 Y103.406
X35.752 Y103.853
X36.491 Y104.368
X37.19 Y104.937
X37.847 Y105.553
X38.459 Y106.214
X39.024 Y106.916
X39.535 Y107.658
X39.989 Y108.436
X40.381 Y109.247
X40.708 Y110.087
X40.965 Y110.95
X41.151 Y111.832
X41.262 Y112.726
X41.297 Y113.626
X41.256 Y114.526
X41.139 Y115.419
X40.946 Y116.299
X40.68 Y117.16
X40.341 Y117.995
X39.934 Y118.798
X39.875 Y118.894
X39.815 Y118.989
X39.328 Y119.747
X38.779 Y120.462
X38.673 Y120.578
X38.687 Y120.568 Z8.604 F800
G3 X38.011 Y120.896 Z8.763 I-5.499 J-10.471
G1 X37.852 Y120.965 Z8.8 F1300
X37.753 Y121.007
G3 X37.482 Y121.053 I-0.232 J-0.553
G1 X27.504 Y120.401
G3 X27.242 Y120.321 I0.039 J-0.599
G1 X27.081 Y120.226
X26.933 Y120.135 Z8.763
G3 X26.373 Y119.764 Z8.621 I6.255 J-10.038 F600
G1 X26.351 Y119.754 Z8.615
X26.327 Y119.755 Z8.61
X26.306 Y119.766 Z8.605
X26.291 Y119.785 Z8.6
X26.236 Y119.887 F1300
X26.18 Y120.026
X26.103 Y120.155
X26.011 Y120.274
X25.908 Y120.382
X25.795 Y120.482
X25.676 Y120.572
X25.549 Y120.652
X25.417 Y120.724
X25.281 Y120.787
X25.141 Y120.842
X24.999 Y120.889
X24.854 Y120.928
X24.708 Y120.96
X24.56 Y120.984
X24.411 Y121.001
X24.261 Y121.012
X24.111 Y121.016
X23.961 Y121.013
X23.811 Y121.005
X23.662 Y120.991
X23.513 Y120.972
X23.365 Y120.947
X23.209 Y120.915
X23.111 Y120.882
X23.02 Y120.833
X22.939 Y120.768
X22.247 Y120.116
X22.115 Y119.99
X21.824 Y119.707
X21.707 Y119.59
X21.457 Y119.298
X21.298 Y119.076
X21.166 Y118.889
X21.093 Y118.781
X20.493 Y117.866
X20.275 Y117.534
X20.226 Y117.457
X20.071 Y117.18
X20 Y117.048
X19.866 Y116.75
X19.821 Y116.639
X19.521 Y115.82
X19.298 Y115.207
X19.096 Y114.593
X19.049 Y114.347
X18.982 Y113.979
X18.949 Y113.775
X18.805 Y112.548
X18.786 Y112.343
X18.74 Y111.729
X18.752 Y111.525
X18.781 Y111.116
X18.798 Y110.911
X18.941 Y109.684
X18.971 Y109.479
X19.08 Y108.866
X19.143 Y108.661
X19.277 Y108.252
X19.348 Y108.047
X19.662 Y107.188
X19.797 Y106.82
X19.866 Y106.645
X19.971 Y106.411
X20.074 Y106.206
X20.188 Y106.002
X20.275 Y105.86
X20.718 Y105.184
X21.121 Y104.57
X21.407 Y104.161
X21.502 Y104.042
X21.575 Y103.956
X21.707 Y103.803
X22.177 Y103.343
X23.138 Y102.437
X23.275 Y102.32
X23.547 Y102.095
X23.751 Y101.955
X24.16 Y101.697
X24.364 Y101.576
X25.387 Y100.986
X25.591 Y100.873
X25.796 Y100.769
X26.409 Y100.524
X26.534 Y100.479
X27.84 Y100.088
X27.904 Y100.07
X28.453 Y99.927
X28.658 Y99.88
X29.271 Y99.814
X29.476 Y99.797
X30.702 Y99.725
X30.907 Y99.722
X31.316 Y99.719
X31.52 Y99.722
X32.134 Y99.808
X32.338 Y99.841
X33.565 Y100.058
X33.628 Y100.07
X34.178 Y100.208
X34.383 Y100.266
X34.791 Y100.433
X34.996 Y100.517
X35.2 Y100.603
X36.018 Y100.956
X36.427 Y101.14
X36.632 Y101.254
X37.245 Y101.638
X38.267 Y102.399
X38.472 Y102.552
X38.676 Y102.71
X39.085 Y103.079
X39.146 Y103.138
X39.329 Y103.343
X39.505 Y103.547
X40.312 Y104.508
X40.36 Y104.57
X40.721 Y105.05
X40.818 Y105.184
X40.925 Y105.369
X41.256 Y106.002
X41.564 Y106.615
X41.664 Y106.82
X41.861 Y107.229
X41.947 Y107.413
X41.955 Y107.434
X42.152 Y108.049
X42.208 Y108.252
X42.498 Y109.479
X42.541 Y109.684
X42.621 Y110.093
X42.658 Y110.297
X42.688 Y110.911
X42.693 Y111.116
Y112.343
X42.685 Y112.548
X42.664 Y112.957
X42.65 Y113.161
X42.528 Y113.775
X42.483 Y113.979
X42.192 Y115.207
X42.152 Y115.349
X41.947 Y115.975
X41.929 Y116.025
X41.731 Y116.434
X41.632 Y116.639
X41.531 Y116.843
X41.222 Y117.457
X40.899 Y118.071
X40.771 Y118.275
X40.308 Y118.889
X39.45 Y119.911
X39.401 Y119.967
X39.333 Y120.029 F800
X39.255 Y120.08
X39.185 Y120.103 Z8.605
X39.116 Y120.126 Z8.618
X39.05 Y120.149 Z8.641
X38.965 Y120.155 Z8.682
X38.902 Y120.143 Z8.726
X38.844 Y120.132 Z8.778
X38.794 Y120.123 Z8.837
X38.752 Y120.115 Z8.902
X38.721 Y120.101 Z8.972
X38.698 Y120.091 Z9.046
X38.685 Y120.085 Z9.122
X38.68 Y120.082 Z9.2
G0 Z20.1
X30.6 Y109.686
Z9.1
G3 X32.752 Y111.572 Z8.989 I0.14 J2.011 F600
X30.851 Y113.707 Z8.878 I-2.01 J0.125
X28.733 Y111.791 Z8.767 I-0.109 J-2.009
X30.663 Y109.69 Z8.656 I2.008 J-0.093
X32.748 Y111.634 Z8.544 I0.078 J2.006
X30.789 Y113.702 Z8.433 I-2.005 J0.062
X28.739 Y111.729 Z8.322 I-0.046 J-2.004
X30.725 Y109.696 Z8.211 I2.002 J-0.031
X32.741 Y111.696 Z8.1 I0.015 J2
X28.74 Y111.696 I-2 J0
X32.741 Y111.696 I2 J0
G1 X32.743 Y111.809 F1300
X32.783 Y111.914
X33.338 Y112.57
X33.434 Y112.686
X33.517 Y112.811
X33.588 Y112.943
X33.647 Y113.081
X33.694 Y113.223
X33.73 Y113.369
X33.756 Y113.517
X33.77 Y113.666
X33.775 Y113.816
X33.77 Y113.966
X33.755 Y114.115
X33.731 Y114.263
X33.698 Y114.41
X33.657 Y114.554
X33.608 Y114.696
X33.552 Y114.835
X33.488 Y114.971
X33.417 Y115.103
X33.34 Y115.231
X33.257 Y115.356
X33.167 Y115.477
X33.072 Y115.593
X32.972 Y115.704
X32.867 Y115.811
X32.757 Y115.914
X32.643 Y116.011
X32.525 Y116.103
X32.403 Y116.191
X32.278 Y116.273
X32.149 Y116.35
X32.017 Y116.422
X31.883 Y116.488
X31.746 Y116.55
X31.607 Y116.606
X31.466 Y116.656
X31.323 Y116.702
X31.178 Y116.742
X31.032 Y116.777
X30.885 Y116.806
X30.737 Y116.83
X30.588 Y116.849
X30.439 Y116.863
X30.289 Y116.872
X30.139 Y116.875
X29.989 Y116.874
X29.839 Y116.867
X29.69 Y116.855
X29.541 Y116.839
X29.392 Y116.817
X29.245 Y116.791
X29.098 Y116.76
X28.952 Y116.725
X28.808 Y116.684
X28.665 Y116.64
X28.523 Y116.59
X28.383 Y116.537
X28.244 Y116.479
X28.108 Y116.417
X27.973 Y116.35
X27.841 Y116.28
X27.711 Y116.206
X27.583 Y116.127
X27.457 Y116.045
X27.334 Y115.96
X27.213 Y115.87
X27.096 Y115.777
X26.981 Y115.681
X26.868 Y115.582
X26.759 Y115.479
X26.653 Y115.373
X26.55 Y115.264
X26.45 Y115.152
X26.354 Y115.037
X26.26 Y114.92
X26.171 Y114.799
X26.084 Y114.677
X26.001 Y114.552
X25.922 Y114.424
X25.846 Y114.295
X25.774 Y114.163
X25.706 Y114.03
X25.642 Y113.894
X25.581 Y113.757
X25.524 Y113.618
X25.471 Y113.478
X25.422 Y113.336
X25.377 Y113.193
X25.336 Y113.049
X25.299 Y112.903
X25.266 Y112.757
X25.237 Y112.61
X25.213 Y112.462
X25.192 Y112.313
X25.175 Y112.164
X25.163 Y112.015
X25.154 Y111.865
X25.15 Y111.715
Y111.565
X25.153 Y111.415
X25.161 Y111.265
X25.173 Y111.116
X25.189 Y110.967
X25.21 Y110.818
X25.234 Y110.67
X25.262 Y110.523
X25.294 Y110.376
X25.33 Y110.231
X25.37 Y110.086
X25.414 Y109.943
X25.462 Y109.8
X25.514 Y109.66
X25.569 Y109.52
X25.628 Y109.382
X25.691 Y109.246
X25.758 Y109.112
X25.828 Y108.979
X25.901 Y108.849
X25.979 Y108.72
X26.059 Y108.593
X26.143 Y108.469
X26.23 Y108.347
X26.321 Y108.228
X26.415 Y108.11
X26.512 Y107.996
X26.611 Y107.884
X26.714 Y107.775
X26.82 Y107.668
X26.928 Y107.565
X27.04 Y107.464
X27.154 Y107.367
X27.27 Y107.272
X27.389 Y107.181
X27.511 Y107.093
X27.634 Y107.008
X27.76 Y106.927
X27.888 Y106.848
X28.019 Y106.774
X28.151 Y106.703
X28.285 Y106.635
X28.42 Y106.571
X28.558 Y106.511
X28.696 Y106.454
X28.837 Y106.401
X28.979 Y106.352
X29.122 Y106.307
X29.266 Y106.266
X29.411 Y106.228
X29.557 Y106.194
X29.704 Y106.165
X29.852 Y106.139
X30 Y106.117
X30.149 Y106.099
X30.299 Y106.085
X30.448 Y106.075
X30.598 Y106.069
X30.748 Y106.067
X30.898 Y106.069
X31.048 Y106.075
X31.198 Y106.085
X31.347 Y106.1
X31.496 Y106.118
X31.644 Y106.14
X31.792 Y106.165
X31.939 Y106.195
X32.085 Y106.229
X32.23 Y106.267
X32.375 Y106.308
X32.517 Y106.354
X32.659 Y106.403
X32.8 Y106.456
X32.938 Y106.512
X33.076 Y106.573
X33.211 Y106.637
X33.345 Y106.704
X33.477 Y106.775
X33.608 Y106.85
X33.736 Y106.928
X33.862 Y107.009
X33.985 Y107.094
X34.107 Y107.182
X34.226 Y107.273
X34.343 Y107.368
X34.457 Y107.465
X34.568 Y107.566
X34.677 Y107.669
X34.783 Y107.775
X35.063 Y108.07
X35.234 Y108.254
X35.379 Y108.415
X35.499 Y108.551
X35.614 Y108.687
X35.715 Y108.808
X35.809 Y108.924
X35.902 Y109.042
X35.993 Y109.162
X36.082 Y109.282
X36.169 Y109.404
X36.254 Y109.528
X36.338 Y109.652
X36.419 Y109.779
X36.498 Y109.906
X36.574 Y110.035
X36.649 Y110.165
X36.72 Y110.297
X36.79 Y110.43
X36.856 Y110.564
X36.92 Y110.7
X36.982 Y110.837
X37.04 Y110.975
X37.096 Y111.114
X37.149 Y111.255
X37.199 Y111.396
X37.246 Y111.539
X37.29 Y111.682
X37.331 Y111.826
X37.369 Y111.971
X37.404 Y112.117
X37.435 Y112.264
X37.464 Y112.411
X37.489 Y112.559
X37.511 Y112.708
X37.529 Y112.856
X37.545 Y113.006
X37.557 Y113.155
X37.566 Y113.305
X37.571 Y113.455
X37.573 Y113.605
X37.572 Y113.755
X37.568 Y113.905
X37.56 Y114.054
X37.549 Y114.204
X37.534 Y114.353
X37.516 Y114.502
X37.495 Y114.651
X37.471 Y114.799
X37.443 Y114.946
X37.413 Y115.093
X37.378 Y115.239
X37.341 Y115.384
X37.301 Y115.529
X37.257 Y115.672
X37.21 Y115.815
X37.16 Y115.956
X37.107 Y116.097
X37.051 Y116.236
X36.992 Y116.374
X36.93 Y116.51
X36.865 Y116.645
X36.797 Y116.779
X36.726 Y116.911
X36.653 Y117.042
X36.576 Y117.171
X36.497 Y117.298
X36.415 Y117.424
X36.331 Y117.548
X36.244 Y117.67
X36.154 Y117.79
X36.062 Y117.909
X35.967 Y118.025
X35.87 Y118.14
X35.77 Y118.252
X35.669 Y118.362
X35.565 Y118.47
X35.459 Y118.576
X35.35 Y118.68
X35.24 Y118.781
X35.127 Y118.88
X35.013 Y118.977
X34.896 Y119.072
X34.778 Y119.164
X34.657 Y119.253
X34.535 Y119.341
X34.412 Y119.426
X34.286 Y119.508
X34.159 Y119.588
X34.031 Y119.665
X33.901 Y119.74
X33.769 Y119.812
X33.636 Y119.881
X33.502 Y119.948
X33.366 Y120.012
X33.23 Y120.074
X33.092 Y120.133
X32.953 Y120.189
X32.813 Y120.243
X32.671 Y120.294
X32.529 Y120.342
X32.386 Y120.387
X32.243 Y120.43
X32.098 Y120.47
X31.953 Y120.507
X31.807 Y120.541
X31.66 Y120.573
X31.513 Y120.602
X31.365 Y120.628
X31.217 Y120.652
X31.068 Y120.672
X30.92 Y120.69
X30.77 Y120.705
X30.621 Y120.718
X30.471 Y120.728
X30.321 Y120.734
X30.171 Y120.739
X30.021 Y120.74
X29.871 Y120.739
X29.721 Y120.735
X29.572 Y120.728
X29.422 Y120.719
X29.272 Y120.707
X29.123 Y120.692
X28.974 Y120.674
X28.825 Y120.654
X28.677 Y120.632
X28.529 Y120.606
X28.382 Y120.578
X28.235 Y120.548
X28.089 Y120.514
X27.943 Y120.479
X27.798 Y120.44
X27.654 Y120.4
X27.51 Y120.356
X27.367 Y120.31
X27.225 Y120.262
X27.084 Y120.211
X26.291 Y119.785
X25.533 Y119.297
X24.82 Y118.747
X24.159 Y118.134
X23.558 Y117.463
X23.024 Y116.738
X22.562 Y115.965
X22.177 Y115.15
X21.873 Y114.302
X21.654 Y113.428
X21.522 Y112.537
X21.477 Y111.637
X21.521 Y110.737
X21.652 Y109.846
X21.87 Y108.972
X22.172 Y108.123
X22.556 Y107.308
X23.017 Y106.534
X23.551 Y105.809
X24.153 Y105.139
X24.818 Y104.53
X25.538 Y103.989
X26.307 Y103.521
X27.119 Y103.129
X27.964 Y102.818
X28.836 Y102.59
X29.725 Y102.448
X30.625 Y102.392
X31.525 Y102.424
X32.418 Y102.543
X33.295 Y102.747
X34.149 Y103.036
X34.97 Y103.406
X35.752 Y103.853
X36.491 Y104.368
X37.19 Y104.937
X37.847 Y105.553
X38.459 Y106.214
X39.024 Y106.916
X39.535 Y107.658
X39.989 Y108.436
X40.381 Y109.247
X40.708 Y110.087
X40.965 Y110.95
X41.151 Y111.832
X41.262 Y112.726
X41.297 Y113.626
X41.256 Y114.526
X41.139 Y115.419
X40.946 Y116.299
X40.68 Y117.16
X40.341 Y117.995
X39.934 Y118.798
X39.875 Y118.894
X39.815 Y118.989
X39.328 Y119.747
X38.779 Y120.462
X38.673 Y120.578
X38.687 Y120.568 Z8.104 F800
G3 X38.011 Y120.896 Z8.263 I-5.499 J-10.471
G1 X37.852 Y120.965 Z8.3 F1300
X37.753 Y121.007
G3 X37.482 Y121.053 I-0.232 J-0.553
G1 X27.504 Y120.401
G3 X27.242 Y120.321 I0.039 J-0.599
G1 X27.081 Y120.226
X26.933 Y120.135 Z8.263
G3 X26.373 Y119.764 Z8.121 I6.255 J-10.038 F600
G1 X26.351 Y119.754 Z8.115
X26.327 Y119.755 Z8.11
X26.306 Y119.766 Z8.105
X26.291 Y119.785 Z8.1
X26.236 Y119.887 F1300
X26.18 Y120.026
X26.103 Y120.155
X26.011 Y120.274
X25.908 Y120.382
X25.795 Y120.482
X25.676 Y120.572
X25.549 Y120.652
X25.417 Y120.724
X25.281 Y120.787
X25.141 Y120.842
X24.999 Y120.889
X24.854 Y120.928
X24.708 Y120.96
X24.56 Y120.984
X24.411 Y121.001
X24.261 Y121.012
X24.111 Y121.016
X23.961 Y121.013
X23.811 Y121.005
X23.662 Y120.991
X23.513 Y120.972
X23.365 Y120.947
X23.209 Y120.915
X23.111 Y120.882
X23.02 Y120.833
X22.939 Y120.768
X22.247 Y120.116
X22.115 Y119.99
X21.824 Y119.707
X21.707 Y119.59
X21.457 Y119.298
X21.298 Y119.076
X21.166 Y118.889
X21.093 Y118.781
X20.493 Y117.866
X20.275 Y117.534
X20.226 Y117.457
X20.071 Y117.18
X20 Y117.048
X19.866 Y116.75
X19.821 Y116.639
X19.521 Y115.82
X19.298 Y115.207
X19.096 Y114.593
X19.049 Y114.347
X18.982 Y113.979
X18.949 Y113.775
X18.805 Y112.548
X18.786 Y112.343
X18.74 Y111.729
X18.752 Y111.525
X18.781 Y111.116
X18.798 Y110.911
X18.941 Y109.684
X18.971 Y109.479
X19.08 Y108.866
X19.143 Y108.661
X19.277 Y108.252
X19.348 Y108.047
X19.662 Y107.188
X19.797 Y106.82
X19.866 Y106.645
X19.971 Y106.411
X20.074 Y106.206
X20.188 Y106.002
X20.275 Y105.86
X20.718 Y105.184
X21.121 Y104.57
X21.407 Y104.161
X21.502 Y104.042
X21.575 Y103.956
X21.707 Y103.803
X22.177 Y103.343
X23.138 Y102.437
X23.275 Y102.32
X23.547 Y102.095
X23.751 Y101.955
X24.16 Y101.697
X24.364 Y101.576
X25.387 Y100.986
X25.591 Y100.873
X25.796 Y100.769
X26.409 Y100.524
X26.534 Y100.479
X27.84 Y100.088
X27.904 Y100.07
X28.453 Y99.927
X28.658 Y99.88
X29.271 Y99.814
X29.476 Y99.797
X30.702 Y99.725
X30.907 Y99.722
X31.316 Y99.719
X31.52 Y99.722
X32.134 Y99.808
X32.338 Y99.841
X33.565 Y100.058
X33.628 Y100.07
X34.178 Y100.208
X34.383 Y100.266
X34.791 Y100.433
X34.996 Y100.517
X35.2 Y100.603
X36.018 Y100.956
X36.427 Y101.14
X36.632 Y101.254
X37.245 Y101.638
X38.267 Y102.399
X38.472 Y102.552
X38.676 Y102.71
X39.085 Y103.079
X39.146 Y103.138
X39.329 Y103.343
X39.505 Y103.547
X40.312 Y104.508
X40.36 Y104.57
X40.721 Y105.05
X40.818 Y105.184
X40.925 Y105.369
X41.256 Y106.002
X41.564 Y106.615
X41.664 Y106.82
X41.861 Y107.229
X41.947 Y107.413
X41.955 Y107.434
X42.152 Y108.049
X42.208 Y108.252
X42.498 Y109.479
X42.541 Y109.684
X42.621 Y110.093
X42.658 Y110.297
X42.688 Y110.911
X42.693 Y111.116
Y112.343
X42.685 Y112.548
X42.664 Y112.957
X42.65 Y113.161
X42.528 Y113.775
X42.483 Y113.979
X42.192 Y115.207
X42.152 Y115.349
X41.947 Y115.975
X41.929 Y116.025
X41.731 Y116.434
X41.632 Y116.639
X41.531 Y116.843
X41.222 Y117.457
X40.899 Y118.071
X40.771 Y118.275
X40.308 Y118.889
X39.45 Y119.911
X39.401 Y119.967
X39.333 Y120.029 F800
X39.255 Y120.08
X39.185 Y120.103 Z8.105
X39.116 Y120.126 Z8.118
X39.05 Y120.149 Z8.141
X38.965 Y120.155 Z8.182
X38.902 Y120.143 Z8.226
X38.844 Y120.132 Z8.278
X38.794 Y120.123 Z8.337
X38.752 Y120.115 Z8.402
X38.721 Y120.101 Z8.472
X38.698 Y120.091 Z8.546
X38.685 Y120.085 Z8.622
X38.68 Y120.082 Z8.7
G0 Z20.1
X30.6 Y109.686
Z8.6
G3 X32.752 Y111.572 Z8.489 I0.14 J2.011 F600
X30.851 Y113.707 Z8.378 I-2.01 J0.125
X28.733 Y111.791 Z8.267 I-0.109 J-2.009
X30.663 Y109.69 Z8.156 I2.008 J-0.093
X32.748 Y111.634 Z8.044 I0.078 J2.006
X30.789 Y113.702 Z7.933 I-2.005 J0.062
X28.739 Y111.729 Z7.822 I-0.046 J-2.004
X30.725 Y109.696 Z7.711 I2.002 J-0.031
X32.741 Y111.696 Z7.6 I0.015 J2
X28.74 Y111.696 I-2 J0
X32.741 Y111.696 I2 J0
G1 X32.743 Y111.809 F1300
X32.783 Y111.914
X33.338 Y112.57
X33.434 Y112.686
X33.517 Y112.811
X33.588 Y112.943
X33.647 Y113.081
X33.694 Y113.223
X33.73 Y113.369
X33.756 Y113.517
X33.77 Y113.666
X33.775 Y113.816
X33.77 Y113.966
X33.755 Y114.115
X33.731 Y114.263
X33.698 Y114.41
X33.657 Y114.554
X33.608 Y114.696
X33.552 Y114.835
X33.488 Y114.971
X33.417 Y115.103
X33.34 Y115.231
X33.257 Y115.356
X33.167 Y115.477
X33.072 Y115.593
X32.972 Y115.704
X32.867 Y115.811
X32.757 Y115.914
X32.643 Y116.011
X32.525 Y116.103
X32.403 Y116.191
X32.278 Y116.273
X32.149 Y116.35
X32.017 Y116.422
X31.883 Y116.488
X31.746 Y116.55
X31.607 Y116.606
X31.466 Y116.656
X31.323 Y116.702
X31.178 Y116.742
X31.032 Y116.777
X30.885 Y116.806
X30.737 Y116.83
X30.588 Y116.849
X30.439 Y116.863
X30.289 Y116.872
X30.139 Y116.875
X29.989 Y116.874
X29.839 Y116.867
X29.69 Y116.855
X29.541 Y116.839
X29.392 Y116.817
X29.245 Y116.791
X29.098 Y116.76
X28.952 Y116.725
X28.808 Y116.684
X28.665 Y116.64
X28.523 Y116.59
X28.383 Y116.537
X28.244 Y116.479
X28.108 Y116.417
X27.973 Y116.35
X27.841 Y116.28
X27.711 Y116.206
X27.583 Y116.127
X27.457 Y116.045
X27.334 Y115.96
X27.213 Y115.87
X27.096 Y115.777
X26.981 Y115.681
X26.868 Y115.582
X26.759 Y115.479
X26.653 Y115.373
X26.55 Y115.264
X26.45 Y115.152
X26.354 Y115.037
X26.26 Y114.92
X26.171 Y114.799
X26.084 Y114.677
X26.001 Y114.552
X25.922 Y114.424
X25.846 Y114.295
X25.774 Y114.163
X25.706 Y114.03
X25.642 Y113.894
X25.581 Y113.757
X25.524 Y113.618
X25.471 Y113.478
X25.422 Y113.336
X25.377 Y113.193
X25.336 Y113.049
X25.299 Y112.903
X25.266 Y112.757
X25.237 Y112.61
X25.213 Y112.462
X25.192 Y112.313
X25.175 Y112.164
X25.163 Y112.015
X25.154 Y111.865
X25.15 Y111.715
Y111.565
X25.153 Y111.415
X25.161 Y111.265
X25.173 Y111.116
X25.189 Y110.967
X25.21 Y110.818
X25.234 Y110.67
X25.262 Y110.523
X25.294 Y110.376
X25.33 Y110.231
X25.37 Y110.086
X25.414 Y109.943
X25.462 Y109.8
X25.514 Y109.66
X25.569 Y109.52
X25.628 Y109.382
X25.691 Y109.246
X25.758 Y109.112
X25.828 Y108.979
X25.901 Y108.849
X25.979 Y108.72
X26.059 Y108.593
X26.143 Y108.469
X26.23 Y108.347
X26.321 Y108.228
X26.415 Y108.11
X26.512 Y107.996
X26.611 Y107.884
X26.714 Y107.775
X26.82 Y107.668
X26.928 Y107.565
X27.04 Y107.464
X27.154 Y107.367
X27.27 Y107.272
X27.389 Y107.181
X27.511 Y107.093
X27.634 Y107.008
X27.76 Y106.927
X27.888 Y106.848
X28.019 Y106.774
X28.151 Y106.703
X28.285 Y106.635
X28.42 Y106.571
X28.558 Y106.511
X28.696 Y106.454
X28.837 Y106.401
X28.979 Y106.352
X29.122 Y106.307
X29.266 Y106.266
X29.411 Y106.228
X29.557 Y106.194
X29.704 Y106.165
X29.852 Y106.139
X30 Y106.117
X30.149 Y106.099
X30.299 Y106.085
X30.448 Y106.075
X30.598 Y106.069
X30.748 Y106.067
X30.898 Y106.069
X31.048 Y106.075
X31.198 Y106.085
X31.347 Y106.1
X31.496 Y106.118
X31.644 Y106.14
X31.792 Y106.165
X31.939 Y106.195
X32.085 Y106.229
X32.23 Y106.267
X32.375 Y106.308
X32.517 Y106.354
X32.659 Y106.403
X32.8 Y106.456
X32.938 Y106.512
X33.076 Y106.573
X33.211 Y106.637
X33.345 Y106.704
X33.477 Y106.775
X33.608 Y106.85
X33.736 Y106.928
X33.862 Y107.009
X33.985 Y107.094
X34.107 Y107.182
X34.226 Y107.273
X34.343 Y107.368
X34.457 Y107.465
X34.568 Y107.566
X34.677 Y107.669
X34.783 Y107.775
X35.063 Y108.07
X35.234 Y108.254
X35.379 Y108.415
X35.499 Y108.551
X35.614 Y108.687
X35.715 Y108.808
X35.809 Y108.924
X35.902 Y109.042
X35.993 Y109.162
X36.082 Y109.282
X36.169 Y109.404
X36.254 Y109.528
X36.338 Y109.652
X36.419 Y109.779
X36.498 Y109.906
X36.574 Y110.035
X36.649 Y110.165
X36.72 Y110.297
X36.79 Y110.43
X36.856 Y110.564
X36.92 Y110.7
X36.982 Y110.837
X37.04 Y110.975
X37.096 Y111.114
X37.149 Y111.255
X37.199 Y111.396
X37.246 Y111.539
X37.29 Y111.682
X37.331 Y111.826
X37.369 Y111.971
X37.404 Y112.117
X37.435 Y112.264
X37.464 Y112.411
X37.489 Y112.559
X37.511 Y112.708
X37.529 Y112.856
X37.545 Y113.006
X37.557 Y113.155
X37.566 Y113.305
X37.571 Y113.455
X37.573 Y113.605
X37.572 Y113.755
X37.568 Y113.905
X37.56 Y114.054
X37.549 Y114.204
X37.534 Y114.353
X37.516 Y114.502
X37.495 Y114.651
X37.471 Y114.799
X37.443 Y114.946
X37.413 Y115.093
X37.378 Y115.239
X37.341 Y115.384
X37.301 Y115.529
X37.257 Y115.672
X37.21 Y115.815
X37.16 Y115.956
X37.107 Y116.097
X37.051 Y116.236
X36.992 Y116.374
X36.93 Y116.51
X36.865 Y116.645
X36.797 Y116.779
X36.726 Y116.911
X36.653 Y117.042
X36.576 Y117.171
X36.497 Y117.298
X36.415 Y117.424
X36.331 Y117.548
X36.244 Y117.67
X36.154 Y117.79
X36.062 Y117.909
X35.967 Y118.025
X35.87 Y118.14
X35.77 Y118.252
X35.669 Y118.362
X35.565 Y118.47
X35.459 Y118.576
X35.35 Y118.68
X35.24 Y118.781
X35.127 Y118.88
X35.013 Y118.977
X34.896 Y119.072
X34.778 Y119.164
X34.657 Y119.253
X34.535 Y119.341
X34.412 Y119.426
X34.286 Y119.508
X34.159 Y119.588
X34.031 Y119.665
X33.901 Y119.74
X33.769 Y119.812
X33.636 Y119.881
X33.502 Y119.948
X33.366 Y120.012
X33.23 Y120.074
X33.092 Y120.133
X32.953 Y120.189
X32.813 Y120.243
X32.671 Y120.294
X32.529 Y120.342
X32.386 Y120.387
X32.243 Y120.43
X32.098 Y120.47
X31.953 Y120.507
X31.807 Y120.541
X31.66 Y120.573
X31.513 Y120.602
X31.365 Y120.628
X31.217 Y120.652
X31.068 Y120.672
X30.92 Y120.69
X30.77 Y120.705
X30.621 Y120.718
X30.471 Y120.728
X30.321 Y120.734
X30.171 Y120.739
X30.021 Y120.74
X29.871 Y120.739
X29.721 Y120.735
X29.572 Y120.728
X29.422 Y120.719
X29.272 Y120.707
X29.123 Y120.692
X28.974 Y120.674
X28.825 Y120.654
X28.677 Y120.632
X28.529 Y120.606
X28.382 Y120.578
X28.235 Y120.548
X28.089 Y120.514
X27.943 Y120.479
X27.798 Y120.44
X27.654 Y120.4
X27.51 Y120.356
X27.367 Y120.31
X27.225 Y120.262
X27.084 Y120.211
X26.291 Y119.785
X25.533 Y119.297
X24.82 Y118.747
X24.159 Y118.134
X23.558 Y117.463
X23.024 Y116.738
X22.562 Y115.965
X22.177 Y115.15
X21.873 Y114.302
X21.654 Y113.428
X21.522 Y112.537
X21.477 Y111.637
X21.521 Y110.737
X21.652 Y109.846
X21.87 Y108.972
X22.172 Y108.123
X22.556 Y107.308
X23.017 Y106.534
X23.551 Y105.809
X24.153 Y105.139
X24.818 Y104.53
X25.538 Y103.989
X26.307 Y103.521
X27.119 Y103.129
X27.964 Y102.818
X28.836 Y102.59
X29.725 Y102.448
X30.625 Y102.392
X31.525 Y102.424
X32.418 Y102.543
X33.295 Y102.747
X34.149 Y103.036
X34.97 Y103.406
X35.752 Y103.853
X36.491 Y104.368
X37.19 Y104.937
X37.847 Y105.553
X38.459 Y106.214
X39.024 Y106.916
X39.535 Y107.658
X39.989 Y108.436
X40.381 Y109.247
X40.708 Y110.087
X40.965 Y110.95
X41.151 Y111.832
X41.262 Y112.726
X41.297 Y113.626
X41.256 Y114.526
X41.139 Y115.419
X40.946 Y116.299
X40.68 Y117.16
X40.341 Y117.995
X39.934 Y118.798
X39.875 Y118.894
X39.815 Y118.989
X39.328 Y119.747
X38.779 Y120.462
X38.673 Y120.578
X38.687 Y120.568 Z7.604 F800
G3 X38.011 Y120.896 Z7.763 I-5.499 J-10.471
G1 X37.852 Y120.965 Z7.8 F1300
X37.753 Y121.007
G3 X37.482 Y121.053 I-0.232 J-0.553
G1 X27.504 Y120.401
G3 X27.242 Y120.321 I0.039 J-0.599
G1 X27.081 Y120.226
X26.933 Y120.135 Z7.763
G3 X26.373 Y119.764 Z7.621 I6.255 J-10.038 F600
G1 X26.351 Y119.754 Z7.615
X26.327 Y119.755 Z7.61
X26.306 Y119.766 Z7.605
X26.291 Y119.785 Z7.6
X26.236 Y119.887 F1300
X26.18 Y120.026
X26.103 Y120.155
X26.011 Y120.274
X25.908 Y120.382
X25.795 Y120.482
X25.676 Y120.572
X25.549 Y120.652
X25.417 Y120.724
X25.281 Y120.787
X25.141 Y120.842
X24.999 Y120.889
X24.854 Y120.928
X24.708 Y120.96
X24.56 Y120.984
X24.411 Y121.001
X24.261 Y121.012
X24.111 Y121.016
X23.961 Y121.013
X23.811 Y121.005
X23.662 Y120.991
X23.513 Y120.972
X23.365 Y120.947
X23.209 Y120.915
X23.111 Y120.882
X23.02 Y120.833
X22.939 Y120.768
X22.247 Y120.116
X22.115 Y119.99
X21.824 Y119.707
X21.707 Y119.59
X21.457 Y119.298
X21.298 Y119.076
X21.166 Y118.889
X21.093 Y118.781
X20.493 Y117.866
X20.275 Y117.534
X20.226 Y117.457
X20.071 Y117.18
X20 Y117.048
X19.866 Y116.75
X19.821 Y116.639
X19.521 Y115.82
X19.298 Y115.207
X19.096 Y114.593
X19.049 Y114.347
X18.982 Y113.979
X18.949 Y113.775
X18.805 Y112.548
X18.786 Y112.343
X18.74 Y111.729
X18.752 Y111.525
X18.781 Y111.116
X18.798 Y110.911
X18.941 Y109.684
X18.971 Y109.479
X19.08 Y108.866
X19.143 Y108.661
X19.277 Y108.252
X19.348 Y108.047
X19.662 Y107.188
X19.797 Y106.82
X19.866 Y106.645
X19.971 Y106.411
X20.074 Y106.206
X20.188 Y106.002
X20.275 Y105.86
X20.718 Y105.184
X21.121 Y104.57
X21.407 Y104.161
X21.502 Y104.042
X21.575 Y103.956
X21.707 Y103.803
X22.177 Y103.343
X23.138 Y102.437
X23.275 Y102.32
X23.547 Y102.095
X23.751 Y101.955
X24.16 Y101.697
X24.364 Y101.576
X25.387 Y100.986
X25.591 Y100.873
X25.796 Y100.769
X26.409 Y100.524
X26.534 Y100.479
X27.84 Y100.088
X27.904 Y100.07
X28.453 Y99.927
X28.658 Y99.88
X29.271 Y99.814
X29.476 Y99.797
X30.702 Y99.725
X30.907 Y99.722
X31.316 Y99.719
X31.52 Y99.722
X32.134 Y99.808
X32.338 Y99.841
X33.565 Y100.058
X33.628 Y100.07
X34.178 Y100.208
X34.383 Y100.266
X34.791 Y100.433
X34.996 Y100.517
X35.2 Y100.603
X36.018 Y100.956
X36.427 Y101.14
X36.632 Y101.254
X37.245 Y101.638
X38.267 Y102.399
X38.472 Y102.552
X38.676 Y102.71
X39.085 Y103.079
X39.146 Y103.138
X39.329 Y103.343
X39.505 Y103.547
X40.312 Y104.508
X40.36 Y104.57
X40.721 Y105.05
X40.818 Y105.184
X40.925 Y105.369
X41.256 Y106.002
X41.564 Y106.615
X41.664 Y106.82
X41.861 Y107.229
X41.947 Y107.413
X41.955 Y107.434
X42.152 Y108.049
X42.208 Y108.252
X42.498 Y109.479
X42.541 Y109.684
X42.621 Y110.093
X42.658 Y110.297
X42.688 Y110.911
X42.693 Y111.116
Y112.343
X42.685 Y112.548
X42.664 Y112.957
X42.65 Y113.161
X42.528 Y113.775
X42.483 Y113.979
X42.192 Y115.207
X42.152 Y115.349
X41.947 Y115.975
X41.929 Y116.025
X41.731 Y116.434
X41.632 Y116.639
X41.531 Y116.843
X41.222 Y117.457
X40.899 Y118.071
X40.771 Y118.275
X40.308 Y118.889
X39.45 Y119.911
X39.401 Y119.967
X39.333 Y120.029 F800
X39.255 Y120.08
X39.185 Y120.103 Z7.605
X39.116 Y120.126 Z7.618
X39.05 Y120.149 Z7.641
X38.965 Y120.155 Z7.682
X38.902 Y120.143 Z7.726
X38.844 Y120.132 Z7.778
X38.794 Y120.123 Z7.837
X38.752 Y120.115 Z7.902
X38.721 Y120.101 Z7.972
X38.698 Y120.091 Z8.046
X38.685 Y120.085 Z8.122
X38.68 Y120.082 Z8.2
G0 Z20.1
X30.6 Y109.686
Z8.1
G3 X32.752 Y111.572 Z7.989 I0.14 J2.011 F600
X30.851 Y113.707 Z7.878 I-2.01 J0.125
X28.733 Y111.791 Z7.767 I-0.109 J-2.009
X30.663 Y109.69 Z7.656 I2.008 J-0.093
X32.748 Y111.634 Z7.544 I0.078 J2.006
X30.789 Y113.702 Z7.433 I-2.005 J0.062
X28.739 Y111.729 Z7.322 I-0.046 J-2.004
X30.725 Y109.696 Z7.211 I2.002 J-0.031
X32.741 Y111.696 Z7.1 I0.015 J2
X28.74 Y111.696 I-2 J0
X32.741 Y111.696 I2 J0
G1 X32.743 Y111.809 F1300
X32.783 Y111.914
X33.338 Y112.57
X33.434 Y112.686
X33.517 Y112.811
X33.588 Y112.943
X33.647 Y113.081
X33.694 Y113.223
X33.73 Y113.369
X33.756 Y113.517
X33.77 Y113.666
X33.775 Y113.816
X33.77 Y113.966
X33.755 Y114.115
X33.731 Y114.263
X33.698 Y114.41
X33.657 Y114.554
X33.608 Y114.696
X33.552 Y114.835
X33.488 Y114.971
X33.417 Y115.103
X33.34 Y115.231
X33.257 Y115.356
X33.167 Y115.477
X33.072 Y115.593
X32.972 Y115.704
X32.867 Y115.811
X32.757 Y115.914
X32.643 Y116.011
X32.525 Y116.103
X32.403 Y116.191
X32.278 Y116.273
X32.149 Y116.35
X32.017 Y116.422
X31.883 Y116.488
X31.746 Y116.55
X31.607 Y116.606
X31.466 Y116.656
X31.323 Y116.702
X31.178 Y116.742
X31.032 Y116.777
X30.885 Y116.806
X30.737 Y116.83
X30.588 Y116.849
X30.439 Y116.863
X30.289 Y116.872
X30.139 Y116.875
X29.989 Y116.874
X29.839 Y116.867
X29.69 Y116.855
X29.541 Y116.839
X29.392 Y116.817
X29.245 Y116.791
X29.098 Y116.76
X28.952 Y116.725
X28.808 Y116.684
X28.665 Y116.64
X28.523 Y116.59
X28.383 Y116.537
X28.244 Y116.479
X28.108 Y116.417
X27.973 Y116.35
X27.841 Y116.28
X27.711 Y116.206
X27.583 Y116.127
X27.457 Y116.045
X27.334 Y115.96
X27.213 Y115.87
X27.096 Y115.777
X26.981 Y115.681
X26.868 Y115.582
X26.759 Y115.479
X26.653 Y115.373
X26.55 Y115.264
X26.45 Y115.152
X26.354 Y115.037
X26.26 Y114.92
X26.171 Y114.799
X26.084 Y114.677
X26.001 Y114.552
X25.922 Y114.424
X25.846 Y114.295
X25.774 Y114.163
X25.706 Y114.03
X25.642 Y113.894
X25.581 Y113.757
X25.524 Y113.618
X25.471 Y113.478
X25.422 Y113.336
X25.377 Y113.193
X25.336 Y113.049
X25.299 Y112.903
X25.266 Y112.757
X25.237 Y112.61
X25.213 Y112.462
X25.192 Y112.313
X25.175 Y112.164
X25.163 Y112.015
X25.154 Y111.865
X25.15 Y111.715
Y111.565
X25.153 Y111.415
X25.161 Y111.265
X25.173 Y111.116
X25.189 Y110.967
X25.21 Y110.818
X25.234 Y110.67
X25.262 Y110.523
X25.294 Y110.376
X25.33 Y110.231
X25.37 Y110.086
X25.414 Y109.943
X25.462 Y109.8
X25.514 Y109.66
X25.569 Y109.52
X25.628 Y109.382
X25.691 Y109.246
X25.758 Y109.112
X25.828 Y108.979
X25.901 Y108.849
X25.979 Y108.72
X26.059 Y108.593
X26.143 Y108.469
X26.23 Y108.347
X26.321 Y108.228
X26.415 Y108.11
X26.512 Y107.996
X26.611 Y107.884
X26.714 Y107.775
X26.82 Y107.668
X26.928 Y107.565
X27.04 Y107.464
X27.154 Y107.367
X27.27 Y107.272
X27.389 Y107.181
X27.511 Y107.093
X27.634 Y107.008
X27.76 Y106.927
X27.888 Y106.848
X28.019 Y106.774
X28.151 Y106.703
X28.285 Y106.635
X28.42 Y106.571
X28.558 Y106.511
X28.696 Y106.454
X28.837 Y106.401
X28.979 Y106.352
X29.122 Y106.307
X29.266 Y106.266
X29.411 Y106.228
X29.557 Y106.194
X29.704 Y106.165
X29.852 Y106.139
X30 Y106.117
X30.149 Y106.099
X30.299 Y106.085
X30.448 Y106.075
X30.598 Y106.069
X30.748 Y106.067
X30.898 Y106.069
X31.048 Y106.075
X31.198 Y106.085
X31.347 Y106.1
X31.496 Y106.118
X31.644 Y106.14
X31.792 Y106.165
X31.939 Y106.195
X32.085 Y106.229
X32.23 Y106.267
X32.375 Y106.308
X32.517 Y106.354
X32.659 Y106.403
X32.8 Y106.456
X32.938 Y106.512
X33.076 Y106.573
X33.211 Y106.637
X33.345 Y106.704
X33.477 Y106.775
X33.608 Y106.85
X33.736 Y106.928
X33.862 Y107.009
X33.985 Y107.094
X34.107 Y107.182
X34.226 Y107.273
X34.343 Y107.368
X34.457 Y107.465
X34.568 Y107.566
X34.677 Y107.669
X34.783 Y107.775
X35.063 Y108.07
X35.234 Y108.254
X35.379 Y108.415
X35.499 Y108.551
X35.614 Y108.687
X35.715 Y108.808
X35.809 Y108.924
X35.902 Y109.042
X35.993 Y109.162
X36.082 Y109.282
X36.169 Y109.404
X36.254 Y109.528
X36.338 Y109.652
X36.419 Y109.779
X36.498 Y109.906
X36.574 Y110.035
X36.649 Y110.165
X36.72 Y110.297
X36.79 Y110.43
X36.856 Y110.564
X36.92 Y110.7
X36.982 Y110.837
X37.04 Y110.975
X37.096 Y111.114
X37.149 Y111.255
X37.199 Y111.396
X37.246 Y111.539
X37.29 Y111.682
X37.331 Y111.826
X37.369 Y111.971
X37.404 Y112.117
X37.435 Y112.264
X37.464 Y112.411
X37.489 Y112.559
X37.511 Y112.708
X37.529 Y112.856
X37.545 Y113.006
X37.557 Y113.155
X37.566 Y113.305
X37.571 Y113.455
X37.573 Y113.605
X37.572 Y113.755
X37.568 Y113.905
X37.56 Y114.054
X37.549 Y114.204
X37.534 Y114.353
X37.516 Y114.502
X37.495 Y114.651
X37.471 Y114.799
X37.443 Y114.946
X37.413 Y115.093
X37.378 Y115.239
X37.341 Y115.384
X37.301 Y115.529
X37.257 Y115.672
X37.21 Y115.815
X37.16 Y115.956
X37.107 Y116.097
X37.051 Y116.236
X36.992 Y116.374
X36.93 Y116.51
X36.865 Y116.645
X36.797 Y116.779
X36.726 Y116.911
X36.653 Y117.042
X36.576 Y117.171
X36.497 Y117.298
X36.415 Y117.424
X36.331 Y117.548
X36.244 Y117.67
X36.154 Y117.79
X36.062 Y117.909
X35.967 Y118.025
X35.87 Y118.14
X35.77 Y118.252
X35.669 Y118.362
X35.565 Y118.47
X35.459 Y118.576
X35.35 Y118.68
X35.24 Y118.781
X35.127 Y118.88
X35.013 Y118.977
X34.896 Y119.072
X34.778 Y119.164
X34.657 Y119.253
X34.535 Y119.341
X34.412 Y119.426
X34.286 Y119.508
X34.159 Y119.588
X34.031 Y119.665
X33.901 Y119.74
X33.769 Y119.812
X33.636 Y119.881
X33.502 Y119.948
X33.366 Y120.012
X33.23 Y120.074
X33.092 Y120.133
X32.953 Y120.189
X32.813 Y120.243
X32.671 Y120.294
X32.529 Y120.342
X32.386 Y120.387
X32.243 Y120.43
X32.098 Y120.47
X31.953 Y120.507
X31.807 Y120.541
X31.66 Y120.573
X31.513 Y120.602
X31.365 Y120.628
X31.217 Y120.652
X31.068 Y120.672
X30.92 Y120.69
X30.77 Y120.705
X30.621 Y120.718
X30.471 Y120.728
X30.321 Y120.734
X30.171 Y120.739
X30.021 Y120.74
X29.871 Y120.739
X29.721 Y120.735
X29.572 Y120.728
X29.422 Y120.719
X29.272 Y120.707
X29.123 Y120.692
X28.974 Y120.674
X28.825 Y120.654
X28.677 Y120.632
X28.529 Y120.606
X28.382 Y120.578
X28.235 Y120.548
X28.089 Y120.514
X27.943 Y120.479
X27.798 Y120.44
X27.654 Y120.4
X27.51 Y120.356
X27.367 Y120.31
X27.225 Y120.262
X27.084 Y120.211
X26.291 Y119.785
X25.533 Y119.297
X24.82 Y118.747
X24.159 Y118.134
X23.558 Y117.463
X23.024 Y116.738
X22.562 Y115.965
X22.177 Y115.15
X21.873 Y114.302
X21.654 Y113.428
X21.522 Y112.537
X21.477 Y111.637
X21.521 Y110.737
X21.652 Y109.846
X21.87 Y108.972
X22.172 Y108.123
X22.556 Y107.308
X23.017 Y106.534
X23.551 Y105.809
X24.153 Y105.139
X24.818 Y104.53
X25.538 Y103.989
X26.307 Y103.521
X27.119 Y103.129
X27.964 Y102.818
X28.836 Y102.59
X29.725 Y102.448
X30.625 Y102.392
X31.525 Y102.424
X32.418 Y102.543
X33.295 Y102.747
X34.149 Y103.036
X34.97 Y103.406
X35.752 Y103.853
X36.491 Y104.368
X37.19 Y104.937
X37.847 Y105.553
X38.459 Y106.214
X39.024 Y106.916
X39.535 Y107.658
X39.989 Y108.436
X40.381 Y109.247
X40.708 Y110.087
X40.965 Y110.95
X41.151 Y111.832
X41.262 Y112.726
X41.297 Y113.626
X41.256 Y114.526
X41.139 Y115.419
X40.946 Y116.299
X40.68 Y117.16
X40.341 Y117.995
X39.934 Y118.798
X39.875 Y118.894
X39.815 Y118.989
X39.328 Y119.747
X38.779 Y120.462
X38.673 Y120.578
X38.687 Y120.568 Z7.104 F800
G3 X38.011 Y120.896 Z7.263 I-5.499 J-10.471
G1 X37.852 Y120.965 Z7.3 F1300
X37.753 Y121.007
G3 X37.482 Y121.053 I-0.232 J-0.553
G1 X27.504 Y120.401
G3 X27.242 Y120.321 I0.039 J-0.599
G1 X27.081 Y120.226
X26.933 Y120.135 Z7.263
G3 X26.373 Y119.764 Z7.121 I6.255 J-10.038 F600
G1 X26.351 Y119.754 Z7.115
X26.327 Y119.755 Z7.11
X26.306 Y119.766 Z7.105
X26.291 Y119.785 Z7.1
X26.236 Y119.887 F1300
X26.18 Y120.026
X26.103 Y120.155
X26.011 Y120.274
X25.908 Y120.382
X25.795 Y120.482
X25.676 Y120.572
X25.549 Y120.652
X25.417 Y120.724
X25.281 Y120.787
X25.141 Y120.842
X24.999 Y120.889
X24.854 Y120.928
X24.708 Y120.96
X24.56 Y120.984
X24.411 Y121.001
X24.261 Y121.012
X24.111 Y121.016
X23.961 Y121.013
X23.811 Y121.005
X23.662 Y120.991
X23.513 Y120.972
X23.365 Y120.947
X23.209 Y120.915
X23.111 Y120.882
X23.02 Y120.833
X22.939 Y120.768
X22.247 Y120.116
X22.115 Y119.99
X21.824 Y119.707
X21.707 Y119.59
X21.457 Y119.298
X21.298 Y119.076
X21.166 Y118.889
X21.093 Y118.781
X20.493 Y117.866
X20.275 Y117.534
X20.226 Y117.457
X20.071 Y117.18
X20 Y117.048
X19.866 Y116.75
X19.821 Y116.639
X19.521 Y115.82
X19.298 Y115.207
X19.096 Y114.593
X19.049 Y114.347
X18.982 Y113.979
X18.949 Y113.775
X18.805 Y112.548
X18.786 Y112.343
X18.74 Y111.729
X18.752 Y111.525
X18.781 Y111.116
X18.798 Y110.911
X18.941 Y109.684
X18.971 Y109.479
X19.08 Y108.866
X19.143 Y108.661
X19.277 Y108.252
X19.348 Y108.047
X19.662 Y107.188
X19.797 Y106.82
X19.866 Y106.645
X19.971 Y106.411
X20.074 Y106.206
X20.188 Y106.002
X20.275 Y105.86
X20.718 Y105.184
X21.121 Y104.57
X21.407 Y104.161
X21.502 Y104.042
X21.575 Y103.956
X21.707 Y103.803
X22.177 Y103.343
X23.138 Y102.437
X23.275 Y102.32
X23.547 Y102.095
X23.751 Y101.955
X24.16 Y101.697
X24.364 Y101.576
X25.387 Y100.986
X25.591 Y100.873
X25.796 Y100.769
X26.409 Y100.524
X26.534 Y100.479
X27.84 Y100.088
X27.904 Y100.07
X28.453 Y99.927
X28.658 Y99.88
X29.271 Y99.814
X29.476 Y99.797
X30.702 Y99.725
X30.907 Y99.722
X31.316 Y99.719
X31.52 Y99.722
X32.134 Y99.808
X32.338 Y99.841
X33.565 Y100.058
X33.628 Y100.07
X34.178 Y100.208
X34.383 Y100.266
X34.791 Y100.433
X34.996 Y100.517
X35.2 Y100.603
X36.018 Y100.956
X36.427 Y101.14
X36.632 Y101.254
X37.245 Y101.638
X38.267 Y102.399
X38.472 Y102.552
X38.676 Y102.71
X39.085 Y103.079
X39.146 Y103.138
X39.329 Y103.343
X39.505 Y103.547
X40.312 Y104.508
X40.36 Y104.57
X40.721 Y105.05
X40.818 Y105.184
X40.925 Y105.369
X41.256 Y106.002
X41.564 Y106.615
X41.664 Y106.82
X41.861 Y107.229
X41.947 Y107.413
X41.955 Y107.434
X42.152 Y108.049
X42.208 Y108.252
X42.498 Y109.479
X42.541 Y109.684
X42.621 Y110.093
X42.658 Y110.297
X42.688 Y110.911
X42.693 Y111.116
Y112.343
X42.685 Y112.548
X42.664 Y112.957
X42.65 Y113.161
X42.528 Y113.775
X42.483 Y113.979
X42.192 Y115.207
X42.152 Y115.349
X41.947 Y115.975
X41.929 Y116.025
X41.731 Y116.434
X41.632 Y116.639
X41.531 Y116.843
X41.222 Y117.457
X40.899 Y118.071
X40.771 Y118.275
X40.308 Y118.889
X39.45 Y119.911
X39.401 Y119.967
X39.333 Y120.029 F800
X39.255 Y120.08
X39.185 Y120.103 Z7.105
X39.116 Y120.126 Z7.118
X39.05 Y120.149 Z7.141
X38.965 Y120.155 Z7.182
X38.902 Y120.143 Z7.226
X38.844 Y120.132 Z7.278
X38.794 Y120.123 Z7.337
X38.752 Y120.115 Z7.402
X38.721 Y120.101 Z7.472
X38.698 Y120.091 Z7.546
X38.685 Y120.085 Z7.622
X38.68 Y120.082 Z7.7
G0 Z20.1
X30.6 Y109.686
Z7.6
G3 X32.752 Y111.572 Z7.489 I0.14 J2.011 F600
X30.851 Y113.707 Z7.378 I-2.01 J0.125
X28.733 Y111.791 Z7.267 I-0.109 J-2.009
X30.663 Y109.69 Z7.156 I2.008 J-0.093
X32.748 Y111.634 Z7.044 I0.078 J2.006
X30.789 Y113.702 Z6.933 I-2.005 J0.062
X28.739 Y111.729 Z6.822 I-0.046 J-2.004
X30.725 Y109.696 Z6.711 I2.002 J-0.031
X32.741 Y111.696 Z6.6 I0.015 J2
X28.74 Y111.696 I-2 J0
X32.741 Y111.696 I2 J0
G1 X32.743 Y111.809 F1300
X32.783 Y111.914
X33.338 Y112.57
X33.434 Y112.686
X33.517 Y112.811
X33.588 Y112.943
X33.647 Y113.081
X33.694 Y113.223
X33.73 Y113.369
X33.756 Y113.517
X33.77 Y113.666
X33.775 Y113.816
X33.77 Y113.966
X33.755 Y114.115
X33.731 Y114.263
X33.698 Y114.41
X33.657 Y114.554
X33.608 Y114.696
X33.552 Y114.835
X33.488 Y114.971
X33.417 Y115.103
X33.34 Y115.231
X33.257 Y115.356
X33.167 Y115.477
X33.072 Y115.593
X32.972 Y115.704
X32.867 Y115.811
X32.757 Y115.914
X32.643 Y116.011
X32.525 Y116.103
X32.403 Y116.191
X32.278 Y116.273
X32.149 Y116.35
X32.017 Y116.422
X31.883 Y116.488
X31.746 Y116.55
X31.607 Y116.606
X31.466 Y116.656
X31.323 Y116.702
X31.178 Y116.742
X31.032 Y116.777
X30.885 Y116.806
X30.737 Y116.83
X30.588 Y116.849
X30.439 Y116.863
X30.289 Y116.872
X30.139 Y116.875
X29.989 Y116.874
X29.839 Y116.867
X29.69 Y116.855
X29.541 Y116.839
X29.392 Y116.817
X29.245 Y116.791
X29.098 Y116.76
X28.952 Y116.725
X28.808 Y116.684
X28.665 Y116.64
X28.523 Y116.59
X28.383 Y116.537
X28.244 Y116.479
X28.108 Y116.417
X27.973 Y116.35
X27.841 Y116.28
X27.711 Y116.206
X27.583 Y116.127
X27.457 Y116.045
X27.334 Y115.96
X27.213 Y115.87
X27.096 Y115.777
X26.981 Y115.681
X26.868 Y115.582
X26.759 Y115.479
X26.653 Y115.373
X26.55 Y115.264
X26.45 Y115.152
X26.354 Y115.037
X26.26 Y114.92
X26.171 Y114.799
X26.084 Y114.677
X26.001 Y114.552
X25.922 Y114.424
X25.846 Y114.295
X25.774 Y114.163
X25.706 Y114.03
X25.642 Y113.894
X25.581 Y113.757
X25.524 Y113.618
X25.471 Y113.478
X25.422 Y113.336
X25.377 Y113.193
X25.336 Y113.049
X25.299 Y112.903
X25.266 Y112.757
X25.237 Y112.61
X25.213 Y112.462
X25.192 Y112.313
X25.175 Y112.164
X25.163 Y112.015
X25.154 Y111.865
X25.15 Y111.715
Y111.565
X25.153 Y111.415
X25.161 Y111.265
X25.173 Y111.116
X25.189 Y110.967
X25.21 Y110.818
X25.234 Y110.67
X25.262 Y110.523
X25.294 Y110.376
X25.33 Y110.231
X25.37 Y110.086
X25.414 Y109.943
X25.462 Y109.8
X25.514 Y109.66
X25.569 Y109.52
X25.628 Y109.382
X25.691 Y109.246
X25.758 Y109.112
X25.828 Y108.979
X25.901 Y108.849
X25.979 Y108.72
X26.059 Y108.593
X26.143 Y108.469
X26.23 Y108.347
X26.321 Y108.228
X26.415 Y108.11
X26.512 Y107.996
X26.611 Y107.884
X26.714 Y107.775
X26.82 Y107.668
X26.928 Y107.565
X27.04 Y107.464
X27.154 Y107.367
X27.27 Y107.272
X27.389 Y107.181
X27.511 Y107.093
X27.634 Y107.008
X27.76 Y106.927
X27.888 Y106.848
X28.019 Y106.774
X28.151 Y106.703
X28.285 Y106.635
X28.42 Y106.571
X28.558 Y106.511
X28.696 Y106.454
X28.837 Y106.401
X28.979 Y106.352
X29.122 Y106.307
X29.266 Y106.266
X29.411 Y106.228
X29.557 Y106.194
X29.704 Y106.165
X29.852 Y106.139
X30 Y106.117
X30.149 Y106.099
X30.299 Y106.085
X30.448 Y106.075
X30.598 Y106.069
X30.748 Y106.067
X30.898 Y106.069
X31.048 Y106.075
X31.198 Y106.085
X31.347 Y106.1
X31.496 Y106.118
X31.644 Y106.14
X31.792 Y106.165
X31.939 Y106.195
X32.085 Y106.229
X32.23 Y106.267
X32.375 Y106.308
X32.517 Y106.354
X32.659 Y106.403
X32.8 Y106.456
X32.938 Y106.512
X33.076 Y106.573
X33.211 Y106.637
X33.345 Y106.704
X33.477 Y106.775
X33.608 Y106.85
X33.736 Y106.928
X33.862 Y107.009
X33.985 Y107.094
X34.107 Y107.182
X34.226 Y107.273
X34.343 Y107.368
X34.457 Y107.465
X34.568 Y107.566
X34.677 Y107.669
X34.783 Y107.775
X35.063 Y108.07
X35.234 Y108.254
X35.379 Y108.415
X35.499 Y108.551
X35.614 Y108.687
X35.715 Y108.808
X35.809 Y108.924
X35.902 Y109.042
X35.993 Y109.162
X36.082 Y109.282
X36.169 Y109.404
X36.254 Y109.528
X36.338 Y109.652
X36.419 Y109.779
X36.498 Y109.906
X36.574 Y110.035
X36.649 Y110.165
X36.72 Y110.297
X36.79 Y110.43
X36.856 Y110.564
X36.92 Y110.7
X36.982 Y110.837
X37.04 Y110.975
X37.096 Y111.114
X37.149 Y111.255
X37.199 Y111.396
X37.246 Y111.539
X37.29 Y111.682
X37.331 Y111.826
X37.369 Y111.971
X37.404 Y112.117
X37.435 Y112.264
X37.464 Y112.411
X37.489 Y112.559
X37.511 Y112.708
X37.529 Y112.856
X37.545 Y113.006
X37.557 Y113.155
X37.566 Y113.305
X37.571 Y113.455
X37.573 Y113.605
X37.572 Y113.755
X37.568 Y113.905
X37.56 Y114.054
X37.549 Y114.204
X37.534 Y114.353
X37.516 Y114.502
X37.495 Y114.651
X37.471 Y114.799
X37.443 Y114.946
X37.413 Y115.093
X37.378 Y115.239
X37.341 Y115.384
X37.301 Y115.529
X37.257 Y115.672
X37.21 Y115.815
X37.16 Y115.956
X37.107 Y116.097
X37.051 Y116.236
X36.992 Y116.374
X36.93 Y116.51
X36.865 Y116.645
X36.797 Y116.779
X36.726 Y116.911
X36.653 Y117.042
X36.576 Y117.171
X36.497 Y117.298
X36.415 Y117.424
X36.331 Y117.548
X36.244 Y117.67
X36.154 Y117.79
X36.062 Y117.909
X35.967 Y118.025
X35.87 Y118.14
X35.77 Y118.252
X35.669 Y118.362
X35.565 Y118.47
X35.459 Y118.576
X35.35 Y118.68
X35.24 Y118.781
X35.127 Y118.88
X35.013 Y118.977
X34.896 Y119.072
X34.778 Y119.164
X34.657 Y119.253
X34.535 Y119.341
X34.412 Y119.426
X34.286 Y119.508
X34.159 Y119.588
X34.031 Y119.665
X33.901 Y119.74
X33.769 Y119.812
X33.636 Y119.881
X33.502 Y119.948
X33.366 Y120.012
X33.23 Y120.074
X33.092 Y120.133
X32.953 Y120.189
X32.813 Y120.243
X32.671 Y120.294
X32.529 Y120.342
X32.386 Y120.387
X32.243 Y120.43
X32.098 Y120.47
X31.953 Y120.507
X31.807 Y120.541
X31.66 Y120.573
X31.513 Y120.602
X31.365 Y120.628
X31.217 Y120.652
X31.068 Y120.672
X30.92 Y120.69
X30.77 Y120.705
X30.621 Y120.718
X30.471 Y120.728
X30.321 Y120.734
X30.171 Y120.739
X30.021 Y120.74
X29.871 Y120.739
X29.721 Y120.735
X29.572 Y120.728
X29.422 Y120.719
X29.272 Y120.707
X29.123 Y120.692
X28.974 Y120.674
X28.825 Y120.654
X28.677 Y120.632
X28.529 Y120.606
X28.382 Y120.578
X28.235 Y120.548
X28.089 Y120.514
X27.943 Y120.479
X27.798 Y120.44
X27.654 Y120.4
X27.51 Y120.356
X27.367 Y120.31
X27.225 Y120.262
X27.084 Y120.211
X26.291 Y119.785
X25.533 Y119.297
X24.82 Y118.747
X24.159 Y118.134
X23.558 Y117.463
X23.024 Y116.738
X22.562 Y115.965
X22.177 Y115.15
X21.873 Y114.302
X21.654 Y113.428
X21.522 Y112.537
X21.477 Y111.637
X21.521 Y110.737
X21.652 Y109.846
X21.87 Y108.972
X22.172 Y108.123
X22.556 Y107.308
X23.017 Y106.534
X23.551 Y105.809
X24.153 Y105.139
X24.818 Y104.53
X25.538 Y103.989
X26.307 Y103.521
X27.119 Y103.129
X27.964 Y102.818
X28.836 Y102.59
X29.725 Y102.448
X30.625 Y102.392
X31.525 Y102.424
X32.418 Y102.543
X33.295 Y102.747
X34.149 Y103.036
X34.97 Y103.406
X35.752 Y103.853
X36.491 Y104.368
X37.19 Y104.937
X37.847 Y105.553
X38.459 Y106.214
X39.024 Y106.916
X39.535 Y107.658
X39.989 Y108.436
X40.381 Y109.247
X40.708 Y110.087
X40.965 Y110.95
X41.151 Y111.832
X41.262 Y112.726
X41.297 Y113.626
X41.256 Y114.526
X41.139 Y115.419
X40.946 Y116.299
X40.68 Y117.16
X40.341 Y117.995
X39.934 Y118.798
X39.875 Y118.894
X39.815 Y118.989
X39.328 Y119.747
X38.779 Y120.462
X38.673 Y120.578
X38.687 Y120.568 Z6.604 F800
G3 X38.011 Y120.896 Z6.763 I-5.499 J-10.471
G1 X37.852 Y120.965 Z6.8 F1300
X37.753 Y121.007
G3 X37.482 Y121.053 I-0.232 J-0.553
G1 X27.504 Y120.401
G3 X27.242 Y120.321 I0.039 J-0.599
G1 X27.081 Y120.226
X26.933 Y120.135 Z6.763
G3 X26.373 Y119.764 Z6.621 I6.255 J-10.038 F600
G1 X26.351 Y119.754 Z6.615
X26.327 Y119.755 Z6.61
X26.306 Y119.766 Z6.605
X26.291 Y119.785 Z6.6
X26.236 Y119.887 F1300
X26.18 Y120.026
X26.103 Y120.155
X26.011 Y120.274
X25.908 Y120.382
X25.795 Y120.482
X25.676 Y120.572
X25.549 Y120.652
X25.417 Y120.724
X25.281 Y120.787
X25.141 Y120.842
X24.999 Y120.889
X24.854 Y120.928
X24.708 Y120.96
X24.56 Y120.984
X24.411 Y121.001
X24.261 Y121.012
X24.111 Y121.016
X23.961 Y121.013
X23.811 Y121.005
X23.662 Y120.991
X23.513 Y120.972
X23.365 Y120.947
X23.209 Y120.915
X23.111 Y120.882
X23.02 Y120.833
X22.939 Y120.768
X22.247 Y120.116
X22.115 Y119.99
X21.824 Y119.707
X21.707 Y119.59
X21.457 Y119.298
X21.298 Y119.076
X21.166 Y118.889
X21.093 Y118.781
X20.493 Y117.866
X20.275 Y117.534
X20.226 Y117.457
X20.071 Y117.18
X20 Y117.048
X19.866 Y116.75
X19.821 Y116.639
X19.521 Y115.82
X19.298 Y115.207
X19.096 Y114.593
X19.049 Y114.347
X18.982 Y113.979
X18.949 Y113.775
X18.805 Y112.548
X18.786 Y112.343
X18.74 Y111.729
X18.752 Y111.525
X18.781 Y111.116
X18.798 Y110.911
X18.941 Y109.684
X18.971 Y109.479
X19.08 Y108.866
X19.143 Y108.661
X19.277 Y108.252
X19.348 Y108.047
X19.662 Y107.188
X19.797 Y106.82
X19.866 Y106.645
X19.971 Y106.411
X20.074 Y106.206
X20.188 Y106.002
X20.275 Y105.86
X20.718 Y105.184
X21.121 Y104.57
X21.407 Y104.161
X21.502 Y104.042
X21.575 Y103.956
X21.707 Y103.803
X22.177 Y103.343
X23.138 Y102.437
X23.275 Y102.32
X23.547 Y102.095
X23.751 Y101.955
X24.16 Y101.697
X24.364 Y101.576
X25.387 Y100.986
X25.591 Y100.873
X25.796 Y100.769
X26.409 Y100.524
X26.534 Y100.479
X27.84 Y100.088
X27.904 Y100.07
X28.453 Y99.927
X28.658 Y99.88
X29.271 Y99.814
X29.476 Y99.797
X30.702 Y99.725
X30.907 Y99.722
X31.316 Y99.719
X31.52 Y99.722
X32.134 Y99.808
X32.338 Y99.841
X33.565 Y100.058
X33.628 Y100.07
X34.178 Y100.208
X34.383 Y100.266
X34.791 Y100.433
X34.996 Y100.517
X35.2 Y100.603
X36.018 Y100.956
X36.427 Y101.14
X36.632 Y101.254
X37.245 Y101.638
X38.267 Y102.399
X38.472 Y102.552
X38.676 Y102.71
X39.085 Y103.079
X39.146 Y103.138
X39.329 Y103.343
X39.505 Y103.547
X40.312 Y104.508
X40.36 Y104.57
X40.721 Y105.05
X40.818 Y105.184
X40.925 Y105.369
X41.256 Y106.002
X41.564 Y106.615
X41.664 Y106.82
X41.861 Y107.229
X41.947 Y107.413
X41.955 Y107.434
X42.152 Y108.049
X42.208 Y108.252
X42.498 Y109.479
X42.541 Y109.684
X42.621 Y110.093
X42.658 Y110.297
X42.688 Y110.911
X42.693 Y111.116
Y112.343
X42.685 Y112.548
X42.664 Y112.957
X42.65 Y113.161
X42.528 Y113.775
X42.483 Y113.979
X42.192 Y115.207
X42.152 Y115.349
X41.947 Y115.975
X41.929 Y116.025
X41.731 Y116.434
X41.632 Y116.639
X41.531 Y116.843
X41.222 Y117.457
X40.899 Y118.071
X40.771 Y118.275
X40.308 Y118.889
X39.45 Y119.911
X39.401 Y119.967
X39.333 Y120.029 F800
X39.255 Y120.08
X39.185 Y120.103 Z6.605
X39.116 Y120.126 Z6.618
X39.05 Y120.149 Z6.641
X38.965 Y120.155 Z6.682
X38.902 Y120.143 Z6.726
X38.844 Y120.132 Z6.778
X38.794 Y120.123 Z6.837
X38.752 Y120.115 Z6.902
X38.721 Y120.101 Z6.972
X38.698 Y120.091 Z7.046
X38.685 Y120.085 Z7.122
X38.68 Y120.082 Z7.2
G0 Z20.1
X30.6 Y109.686
Z7.1
G3 X32.752 Y111.572 Z6.989 I0.14 J2.011 F600
X30.851 Y113.707 Z6.878 I-2.01 J0.125
X28.733 Y111.791 Z6.767 I-0.109 J-2.009
X30.663 Y109.69 Z6.656 I2.008 J-0.093
X32.748 Y111.634 Z6.544 I0.078 J2.006
X30.789 Y113.702 Z6.433 I-2.005 J0.062
X28.739 Y111.729 Z6.322 I-0.046 J-2.004
X30.725 Y109.696 Z6.211 I2.002 J-0.031
X32.741 Y111.696 Z6.1 I0.015 J2
X28.74 Y111.696 I-2 J0
X32.741 Y111.696 I2 J0
G1 X32.743 Y111.809 F1300
X32.783 Y111.914
X33.338 Y112.57
X33.434 Y112.686
X33.517 Y112.811
X33.588 Y112.943
X33.647 Y113.081
X33.694 Y113.223
X33.73 Y113.369
X33.756 Y113.517
X33.77 Y113.666
X33.775 Y113.816
X33.77 Y113.966
X33.755 Y114.115
X33.731 Y114.263
X33.698 Y114.41
X33.657 Y114.554
X33.608 Y114.696
X33.552 Y114.835
X33.488 Y114.971
X33.417 Y115.103
X33.34 Y115.231
X33.257 Y115.356
X33.167 Y115.477
X33.072 Y115.593
X32.972 Y115.704
X32.867 Y115.811
X32.757 Y115.914
X32.643 Y116.011
X32.525 Y116.103
X32.403 Y116.191
X32.278 Y116.273
X32.149 Y116.35
X32.017 Y116.422
X31.883 Y116.488
X31.746 Y116.55
X31.607 Y116.606
X31.466 Y116.656
X31.323 Y116.702
X31.178 Y116.742
X31.032 Y116.777
X30.885 Y116.806
X30.737 Y116.83
X30.588 Y116.849
X30.439 Y116.863
X30.289 Y116.872
X30.139 Y116.875
X29.989 Y116.874
X29.839 Y116.867
X29.69 Y116.855
X29.541 Y116.839
X29.392 Y116.817
X29.245 Y116.791
X29.098 Y116.76
X28.952 Y116.725
X28.808 Y116.684
X28.665 Y116.64
X28.523 Y116.59
X28.383 Y116.537
X28.244 Y116.479
X28.108 Y116.417
X27.973 Y116.35
X27.841 Y116.28
X27.711 Y116.206
X27.583 Y116.127
X27.457 Y116.045
X27.334 Y115.96
X27.213 Y115.87
X27.096 Y115.777
X26.981 Y115.681
X26.868 Y115.582
X26.759 Y115.479
X26.653 Y115.373
X26.55 Y115.264
X26.45 Y115.152
X26.354 Y115.037
X26.26 Y114.92
X26.171 Y114.799
X26.084 Y114.677
X26.001 Y114.552
X25.922 Y114.424
X25.846 Y114.295
X25.774 Y114.163
X25.706 Y114.03
X25.642 Y113.894
X25.581 Y113.757
X25.524 Y113.618
X25.471 Y113.478
X25.422 Y113.336
X25.377 Y113.193
X25.336 Y113.049
X25.299 Y112.903
X25.266 Y112.757
X25.237 Y112.61
X25.213 Y112.462
X25.192 Y112.313
X25.175 Y112.164
X25.163 Y112.015
X25.154 Y111.865
X25.15 Y111.715
Y111.565
X25.153 Y111.415
X25.161 Y111.265
X25.173 Y111.116
X25.189 Y110.967
X25.21 Y110.818
X25.234 Y110.67
X25.262 Y110.523
X25.294 Y110.376
X25.33 Y110.231
X25.37 Y110.086
X25.414 Y109.943
X25.462 Y109.8
X25.514 Y109.66
X25.569 Y109.52
X25.628 Y109.382
X25.691 Y109.246
X25.758 Y109.112
X25.828 Y108.979
X25.901 Y108.849
X25.979 Y108.72
X26.059 Y108.593
X26.143 Y108.469
X26.23 Y108.347
X26.321 Y108.228
X26.415 Y108.11
X26.512 Y107.996
X26.611 Y107.884
X26.714 Y107.775
X26.82 Y107.668
X26.928 Y107.565
X27.04 Y107.464
X27.154 Y107.367
X27.27 Y107.272
X27.389 Y107.181
X27.511 Y107.093
X27.634 Y107.008
X27.76 Y106.927
X27.888 Y106.848
X28.019 Y106.774
X28.151 Y106.703
X28.285 Y106.635
X28.42 Y106.571
X28.558 Y106.511
X28.696 Y106.454
X28.837 Y106.401
X28.979 Y106.352
X29.122 Y106.307
X29.266 Y106.266
X29.411 Y106.228
X29.557 Y106.194
X29.704 Y106.165
X29.852 Y106.139
X30 Y106.117
X30.149 Y106.099
X30.299 Y106.085
X30.448 Y106.075
X30.598 Y106.069
X30.748 Y106.067
X30.898 Y106.069
X31.048 Y106.075
X31.198 Y106.085
X31.347 Y106.1
X31.496 Y106.118
X31.644 Y106.14
X31.792 Y106.165
X31.939 Y106.195
X32.085 Y106.229
X32.23 Y106.267
X32.375 Y106.308
X32.517 Y106.354
X32.659 Y106.403
X32.8 Y106.456
X32.938 Y106.512
X33.076 Y106.573
X33.211 Y106.637
X33.345 Y106.704
X33.477 Y106.775
X33.608 Y106.85
X33.736 Y106.928
X33.862 Y107.009
X33.985 Y107.094
X34.107 Y107.182
X34.226 Y107.273
X34.343 Y107.368
X34.457 Y107.465
X34.568 Y107.566
X34.677 Y107.669
X34.783 Y107.775
X35.063 Y108.07
X35.234 Y108.254
X35.379 Y108.415
X35.499 Y108.551
X35.614 Y108.687
X35.715 Y108.808
X35.809 Y108.924
X35.902 Y109.042
X35.993 Y109.162
X36.082 Y109.282
X36.169 Y109.404
X36.254 Y109.528
X36.338 Y109.652
X36.419 Y109.779
X36.498 Y109.906
X36.574 Y110.035
X36.649 Y110.165
X36.72 Y110.297
X36.79 Y110.43
X36.856 Y110.564
X36.92 Y110.7
X36.982 Y110.837
X37.04 Y110.975
X37.096 Y111.114
X37.149 Y111.255
X37.199 Y111.396
X37.246 Y111.539
X37.29 Y111.682
X37.331 Y111.826
X37.369 Y111.971
X37.404 Y112.117
X37.435 Y112.264
X37.464 Y112.411
X37.489 Y112.559
X37.511 Y112.708
X37.529 Y112.856
X37.545 Y113.006
X37.557 Y113.155
X37.566 Y113.305
X37.571 Y113.455
X37.573 Y113.605
X37.572 Y113.755
X37.568 Y113.905
X37.56 Y114.054
X37.549 Y114.204
X37.534 Y114.353
X37.516 Y114.502
X37.495 Y114.651
X37.471 Y114.799
X37.443 Y114.946
X37.413 Y115.093
X37.378 Y115.239
X37.341 Y115.384
X37.301 Y115.529
X37.257 Y115.672
X37.21 Y115.815
X37.16 Y115.956
X37.107 Y116.097
X37.051 Y116.236
X36.992 Y116.374
X36.93 Y116.51
X36.865 Y116.645
X36.797 Y116.779
X36.726 Y116.911
X36.653 Y117.042
X36.576 Y117.171
X36.497 Y117.298
X36.415 Y117.424
X36.331 Y117.548
X36.244 Y117.67
X36.154 Y117.79
X36.062 Y117.909
X35.967 Y118.025
X35.87 Y118.14
X35.77 Y118.252
X35.669 Y118.362
X35.565 Y118.47
X35.459 Y118.576
X35.35 Y118.68
X35.24 Y118.781
X35.127 Y118.88
X35.013 Y118.977
X34.896 Y119.072
X34.778 Y119.164
X34.657 Y119.253
X34.535 Y119.341
X34.412 Y119.426
X34.286 Y119.508
X34.159 Y119.588
X34.031 Y119.665
X33.901 Y119.74
X33.769 Y119.812
X33.636 Y119.881
X33.502 Y119.948
X33.366 Y120.012
X33.23 Y120.074
X33.092 Y120.133
X32.953 Y120.189
X32.813 Y120.243
X32.671 Y120.294
X32.529 Y120.342
X32.386 Y120.387
X32.243 Y120.43
X32.098 Y120.47
X31.953 Y120.507
X31.807 Y120.541
X31.66 Y120.573
X31.513 Y120.602
X31.365 Y120.628
X31.217 Y120.652
X31.068 Y120.672
X30.92 Y120.69
X30.77 Y120.705
X30.621 Y120.718
X30.471 Y120.728
X30.321 Y120.734
X30.171 Y120.739
X30.021 Y120.74
X29.871 Y120.739
X29.721 Y120.735
X29.572 Y120.728
X29.422 Y120.719
X29.272 Y120.707
X29.123 Y120.692
X28.974 Y120.674
X28.825 Y120.654
X28.677 Y120.632
X28.529 Y120.606
X28.382 Y120.578
X28.235 Y120.548
X28.089 Y120.514
X27.943 Y120.479
X27.798 Y120.44
X27.654 Y120.4
X27.51 Y120.356
X27.367 Y120.31
X27.225 Y120.262
X27.084 Y120.211
X26.291 Y119.785
X25.533 Y119.297
X24.82 Y118.747
X24.159 Y118.134
X23.558 Y117.463
X23.024 Y116.738
X22.562 Y115.965
X22.177 Y115.15
X21.873 Y114.302
X21.654 Y113.428
X21.522 Y112.537
X21.477 Y111.637
X21.521 Y110.737
X21.652 Y109.846
X21.87 Y108.972
X22.172 Y108.123
X22.556 Y107.308
X23.017 Y106.534
X23.551 Y105.809
X24.153 Y105.139
X24.818 Y104.53
X25.538 Y103.989
X26.307 Y103.521
X27.119 Y103.129
X27.964 Y102.818
X28.836 Y102.59
X29.725 Y102.448
X30.625 Y102.392
X31.525 Y102.424
X32.418 Y102.543
X33.295 Y102.747
X34.149 Y103.036
X34.97 Y103.406
X35.752 Y103.853
X36.491 Y104.368
X37.19 Y104.937
X37.847 Y105.553
X38.459 Y106.214
X39.024 Y106.916
X39.535 Y107.658
X39.989 Y108.436
X40.381 Y109.247
X40.708 Y110.087
X40.965 Y110.95
X41.151 Y111.832
X41.262 Y112.726
X41.297 Y113.626
X41.256 Y114.526
X41.139 Y115.419
X40.946 Y116.299
X40.68 Y117.16
X40.341 Y117.995
X39.934 Y118.798
X39.875 Y118.894
X39.815 Y118.989
X39.328 Y119.747
X38.779 Y120.462
X38.673 Y120.578
X38.687 Y120.568 Z6.104 F800
G3 X38.011 Y120.896 Z6.263 I-5.499 J-10.471
G1 X37.852 Y120.965 Z6.3 F1300
X37.753 Y121.007
G3 X37.482 Y121.053 I-0.232 J-0.553
G1 X27.504 Y120.401
G3 X27.242 Y120.321 I0.039 J-0.599
G1 X27.081 Y120.226
X26.933 Y120.135 Z6.263
G3 X26.373 Y119.764 Z6.121 I6.255 J-10.038 F600
G1 X26.351 Y119.754 Z6.115
X26.327 Y119.755 Z6.11
X26.306 Y119.766 Z6.105
X26.291 Y119.785 Z6.1
X26.236 Y119.887 F1300
X26.18 Y120.026
X26.103 Y120.155
X26.011 Y120.274
X25.908 Y120.382
X25.795 Y120.482
X25.676 Y120.572
X25.549 Y120.652
X25.417 Y120.724
X25.281 Y120.787
X25.141 Y120.842
X24.999 Y120.889
X24.854 Y120.928
X24.708 Y120.96
X24.56 Y120.984
X24.411 Y121.001
X24.261 Y121.012
X24.111 Y121.016
X23.961 Y121.013
X23.811 Y121.005
X23.662 Y120.991
X23.513 Y120.972
X23.365 Y120.947
X23.209 Y120.915
X23.111 Y120.882
X23.02 Y120.833
X22.939 Y120.768
X22.247 Y120.116
X22.115 Y119.99
X21.824 Y119.707
X21.707 Y119.59
X21.457 Y119.298
X21.298 Y119.076
X21.166 Y118.889
X21.093 Y118.781
X20.493 Y117.866
X20.275 Y117.534
X20.226 Y117.457
X20.071 Y117.18
X20 Y117.048
X19.866 Y116.75
X19.821 Y116.639
X19.521 Y115.82
X19.298 Y115.207
X19.096 Y114.593
X19.049 Y114.347
X18.982 Y113.979
X18.949 Y113.775
X18.805 Y112.548
X18.786 Y112.343
X18.74 Y111.729
X18.752 Y111.525
X18.781 Y111.116
X18.798 Y110.911
X18.941 Y109.684
X18.971 Y109.479
X19.08 Y108.866
X19.143 Y108.661
X19.277 Y108.252
X19.348 Y108.047
X19.662 Y107.188
X19.797 Y106.82
X19.866 Y106.645
X19.971 Y106.411
X20.074 Y106.206
X20.188 Y106.002
X20.275 Y105.86
X20.718 Y105.184
X21.121 Y104.57
X21.407 Y104.161
X21.502 Y104.042
X21.575 Y103.956
X21.707 Y103.803
X22.177 Y103.343
X23.138 Y102.437
X23.275 Y102.32
X23.547 Y102.095
X23.751 Y101.955
X24.16 Y101.697
X24.364 Y101.576
X25.387 Y100.986
X25.591 Y100.873
X25.796 Y100.769
X26.409 Y100.524
X26.534 Y100.479
X27.84 Y100.088
X27.904 Y100.07
X28.453 Y99.927
X28.658 Y99.88
X29.271 Y99.814
X29.476 Y99.797
X30.702 Y99.725
X30.907 Y99.722
X31.316 Y99.719
X31.52 Y99.722
X32.134 Y99.808
X32.338 Y99.841
X33.565 Y100.058
X33.628 Y100.07
X34.178 Y100.208
X34.383 Y100.266
X34.791 Y100.433
X34.996 Y100.517
X35.2 Y100.603
X36.018 Y100.956
X36.427 Y101.14
X36.632 Y101.254
X37.245 Y101.638
X38.267 Y102.399
X38.472 Y102.552
X38.676 Y102.71
X39.085 Y103.079
X39.146 Y103.138
X39.329 Y103.343
X39.505 Y103.547
X40.312 Y104.508
X40.36 Y104.57
X40.721 Y105.05
X40.818 Y105.184
X40.925 Y105.369
X41.256 Y106.002
X41.564 Y106.615
X41.664 Y106.82
X41.861 Y107.229
X41.947 Y107.413
X41.955 Y107.434
X42.152 Y108.049
X42.208 Y108.252
X42.498 Y109.479
X42.541 Y109.684
X42.621 Y110.093
X42.658 Y110.297
X42.688 Y110.911
X42.693 Y111.116
Y112.343
X42.685 Y112.548
X42.664 Y112.957
X42.65 Y113.161
X42.528 Y113.775
X42.483 Y113.979
X42.192 Y115.207
X42.152 Y115.349
X41.947 Y115.975
X41.929 Y116.025
X41.731 Y116.434
X41.632 Y116.639
X41.531 Y116.843
X41.222 Y117.457
X40.899 Y118.071
X40.771 Y118.275
X40.308 Y118.889
X39.45 Y119.911
X39.401 Y119.967
X39.333 Y120.029 F800
X39.255 Y120.08
X39.185 Y120.103 Z6.105
X39.116 Y120.126 Z6.118
X39.05 Y120.149 Z6.141
X38.965 Y120.155 Z6.182
X38.902 Y120.143 Z6.226
X38.844 Y120.132 Z6.278
X38.794 Y120.123 Z6.337
X38.752 Y120.115 Z6.402
X38.721 Y120.101 Z6.472
X38.698 Y120.091 Z6.546
X38.685 Y120.085 Z6.622
X38.68 Y120.082 Z6.7
G0 Z20.1
X30.6 Y109.686
Z6.6
G3 X32.752 Y111.572 Z6.489 I0.14 J2.011 F600
X30.851 Y113.707 Z6.378 I-2.01 J0.125
X28.733 Y111.791 Z6.267 I-0.109 J-2.009
X30.663 Y109.69 Z6.156 I2.008 J-0.093
X32.748 Y111.634 Z6.044 I0.078 J2.006
X30.789 Y113.702 Z5.933 I-2.005 J0.062
X28.739 Y111.729 Z5.822 I-0.046 J-2.004
X30.725 Y109.696 Z5.711 I2.002 J-0.031
X32.741 Y111.696 Z5.6 I0.015 J2
X28.74 Y111.696 I-2 J0
X32.741 Y111.696 I2 J0
G1 X32.743 Y111.809 F1300
X32.783 Y111.914
X33.338 Y112.57
X33.434 Y112.686
X33.517 Y112.811
X33.588 Y112.943
X33.647 Y113.081
X33.694 Y113.223
X33.73 Y113.369
X33.756 Y113.517
X33.77 Y113.666
X33.775 Y113.816
X33.77 Y113.966
X33.755 Y114.115
X33.731 Y114.263
X33.698 Y114.41
X33.657 Y114.554
X33.608 Y114.696
X33.552 Y114.835
X33.488 Y114.971
X33.417 Y115.103
X33.34 Y115.231
X33.257 Y115.356
X33.167 Y115.477
X33.072 Y115.593
X32.972 Y115.704
X32.867 Y115.811
X32.757 Y115.914
X32.643 Y116.011
X32.525 Y116.103
X32.403 Y116.191
X32.278 Y116.273
X32.149 Y116.35
X32.017 Y116.422
X31.883 Y116.488
X31.746 Y116.55
X31.607 Y116.606
X31.466 Y116.656
X31.323 Y116.702
X31.178 Y116.742
X31.032 Y116.777
X30.885 Y116.806
X30.737 Y116.83
X30.588 Y116.849
X30.439 Y116.863
X30.289 Y116.872
X30.139 Y116.875
X29.989 Y116.874
X29.839 Y116.867
X29.69 Y116.855
X29.541 Y116.839
X29.392 Y116.817
X29.245 Y116.791
X29.098 Y116.76
X28.952 Y116.725
X28.808 Y116.684
X28.665 Y116.64
X28.523 Y116.59
X28.383 Y116.537
X28.244 Y116.479
X28.108 Y116.417
X27.973 Y116.35
X27.841 Y116.28
X27.711 Y116.206
X27.583 Y116.127
X27.457 Y116.045
X27.334 Y115.96
X27.213 Y115.87
X27.096 Y115.777
X26.981 Y115.681
X26.868 Y115.582
X26.759 Y115.479
X26.653 Y115.373
X26.55 Y115.264
X26.45 Y115.152
X26.354 Y115.037
X26.26 Y114.92
X26.171 Y114.799
X26.084 Y114.677
X26.001 Y114.552
X25.922 Y114.424
X25.846 Y114.295
X25.774 Y114.163
X25.706 Y114.03
X25.642 Y113.894
X25.581 Y113.757
X25.524 Y113.618
X25.471 Y113.478
X25.422 Y113.336
X25.377 Y113.193
X25.336 Y113.049
X25.299 Y112.903
X25.266 Y112.757
X25.237 Y112.61
X25.213 Y112.462
X25.192 Y112.313
X25.175 Y112.164
X25.163 Y112.015
X25.154 Y111.865
X25.15 Y111.715
Y111.565
X25.153 Y111.415
X25.161 Y111.265
X25.173 Y111.116
X25.189 Y110.967
X25.21 Y110.818
X25.234 Y110.67
X25.262 Y110.523
X25.294 Y110.376
X25.33 Y110.231
X25.37 Y110.086
X25.414 Y109.943
X25.462 Y109.8
X25.514 Y109.66
X25.569 Y109.52
X25.628 Y109.382
X25.691 Y109.246
X25.758 Y109.112
X25.828 Y108.979
X25.901 Y108.849
X25.979 Y108.72
X26.059 Y108.593
X26.143 Y108.469
X26.23 Y108.347
X26.321 Y108.228
X26.415 Y108.11
X26.512 Y107.996
X26.611 Y107.884
X26.714 Y107.775
X26.82 Y107.668
X26.928 Y107.565
X27.04 Y107.464
X27.154 Y107.367
X27.27 Y107.272
X27.389 Y107.181
X27.511 Y107.093
X27.634 Y107.008
X27.76 Y106.927
X27.888 Y106.848
X28.019 Y106.774
X28.151 Y106.703
X28.285 Y106.635
X28.42 Y106.571
X28.558 Y106.511
X28.696 Y106.454
X28.837 Y106.401
X28.979 Y106.352
X29.122 Y106.307
X29.266 Y106.266
X29.411 Y106.228
X29.557 Y106.194
X29.704 Y106.165
X29.852 Y106.139
X30 Y106.117
X30.149 Y106.099
X30.299 Y106.085
X30.448 Y106.075
X30.598 Y106.069
X30.748 Y106.067
X30.898 Y106.069
X31.048 Y106.075
X31.198 Y106.085
X31.347 Y106.1
X31.496 Y106.118
X31.644 Y106.14
X31.792 Y106.165
X31.939 Y106.195
X32.085 Y106.229
X32.23 Y106.267
X32.375 Y106.308
X32.517 Y106.354
X32.659 Y106.403
X32.8 Y106.456
X32.938 Y106.512
X33.076 Y106.573
X33.211 Y106.637
X33.345 Y106.704
X33.477 Y106.775
X33.608 Y106.85
X33.736 Y106.928
X33.862 Y107.009
X33.985 Y107.094
X34.107 Y107.182
X34.226 Y107.273
X34.343 Y107.368
X34.457 Y107.465
X34.568 Y107.566
X34.677 Y107.669
X34.783 Y107.775
X35.063 Y108.07
X35.234 Y108.254
X35.379 Y108.415
X35.499 Y108.551
X35.614 Y108.687
X35.715 Y108.808
X35.809 Y108.924
X35.902 Y109.042
X35.993 Y109.162
X36.082 Y109.282
X36.169 Y109.404
X36.254 Y109.528
X36.338 Y109.652
X36.419 Y109.779
X36.498 Y109.906
X36.574 Y110.035
X36.649 Y110.165
X36.72 Y110.297
X36.79 Y110.43
X36.856 Y110.564
X36.92 Y110.7
X36.982 Y110.837
X37.04 Y110.975
X37.096 Y111.114
X37.149 Y111.255
X37.199 Y111.396
X37.246 Y111.539
X37.29 Y111.682
X37.331 Y111.826
X37.369 Y111.971
X37.404 Y112.117
X37.435 Y112.264
X37.464 Y112.411
X37.489 Y112.559
X37.511 Y112.708
X37.529 Y112.856
X37.545 Y113.006
X37.557 Y113.155
X37.566 Y113.305
X37.571 Y113.455
X37.573 Y113.605
X37.572 Y113.755
X37.568 Y113.905
X37.56 Y114.054
X37.549 Y114.204
X37.534 Y114.353
X37.516 Y114.502
X37.495 Y114.651
X37.471 Y114.799
X37.443 Y114.946
X37.413 Y115.093
X37.378 Y115.239
X37.341 Y115.384
X37.301 Y115.529
X37.257 Y115.672
X37.21 Y115.815
X37.16 Y115.956
X37.107 Y116.097
X37.051 Y116.236
X36.992 Y116.374
X36.93 Y116.51
X36.865 Y116.645
X36.797 Y116.779
X36.726 Y116.911
X36.653 Y117.042
X36.576 Y117.171
X36.497 Y117.298
X36.415 Y117.424
X36.331 Y117.548
X36.244 Y117.67
X36.154 Y117.79
X36.062 Y117.909
X35.967 Y118.025
X35.87 Y118.14
X35.77 Y118.252
X35.669 Y118.362
X35.565 Y118.47
X35.459 Y118.576
X35.35 Y118.68
X35.24 Y118.781
X35.127 Y118.88
X35.013 Y118.977
X34.896 Y119.072
X34.778 Y119.164
X34.657 Y119.253
X34.535 Y119.341
X34.412 Y119.426
X34.286 Y119.508
X34.159 Y119.588
X34.031 Y119.665
X33.901 Y119.74
X33.769 Y119.812
X33.636 Y119.881
X33.502 Y119.948
X33.366 Y120.012
X33.23 Y120.074
X33.092 Y120.133
X32.953 Y120.189
X32.813 Y120.243
X32.671 Y120.294
X32.529 Y120.342
X32.386 Y120.387
X32.243 Y120.43
X32.098 Y120.47
X31.953 Y120.507
X31.807 Y120.541
X31.66 Y120.573
X31.513 Y120.602
X31.365 Y120.628
X31.217 Y120.652
X31.068 Y120.672
X30.92 Y120.69
X30.77 Y120.705
X30.621 Y120.718
X30.471 Y120.728
X30.321 Y120.734
X30.171 Y120.739
X30.021 Y120.74
X29.871 Y120.739
X29.721 Y120.735
X29.572 Y120.728
X29.422 Y120.719
X29.272 Y120.707
X29.123 Y120.692
X28.974 Y120.674
X28.825 Y120.654
X28.677 Y120.632
X28.529 Y120.606
X28.382 Y120.578
X28.235 Y120.548
X28.089 Y120.514
X27.943 Y120.479
X27.798 Y120.44
X27.654 Y120.4
X27.51 Y120.356
X27.367 Y120.31
X27.225 Y120.262
X27.084 Y120.211
X26.291 Y119.785
X25.533 Y119.297
X24.82 Y118.747
X24.159 Y118.134
X23.558 Y117.463
X23.024 Y116.738
X22.562 Y115.965
X22.177 Y115.15
X21.873 Y114.302
X21.654 Y113.428
X21.522 Y112.537
X21.477 Y111.637
X21.521 Y110.737
X21.652 Y109.846
X21.87 Y108.972
X22.172 Y108.123
X22.556 Y107.308
X23.017 Y106.534
X23.551 Y105.809
X24.153 Y105.139
X24.818 Y104.53
X25.538 Y103.989
X26.307 Y103.521
X27.119 Y103.129
X27.964 Y102.818
X28.836 Y102.59
X29.725 Y102.448
X30.625 Y102.392
X31.525 Y102.424
X32.418 Y102.543
X33.295 Y102.747
X34.149 Y103.036
X34.97 Y103.406
X35.752 Y103.853
X36.491 Y104.368
X37.19 Y104.937
X37.847 Y105.553
X38.459 Y106.214
X39.024 Y106.916
X39.535 Y107.658
X39.989 Y108.436
X40.381 Y109.247
X40.708 Y110.087
X40.965 Y110.95
X41.151 Y111.832
X41.262 Y112.726
X41.297 Y113.626
X41.256 Y114.526
X41.139 Y115.419
X40.946 Y116.299
X40.68 Y117.16
X40.341 Y117.995
X39.934 Y118.798
X39.875 Y118.894
X39.815 Y118.989
X39.328 Y119.747
X38.779 Y120.462
X38.673 Y120.578
X38.687 Y120.568 Z5.604 F800
G3 X38.011 Y120.896 Z5.763 I-5.499 J-10.471
G1 X37.852 Y120.965 Z5.8 F1300
X37.753 Y121.007
G3 X37.482 Y121.053 I-0.232 J-0.553
G1 X27.504 Y120.401
G3 X27.242 Y120.321 I0.039 J-0.599
G1 X27.081 Y120.226
X26.933 Y120.135 Z5.763
G3 X26.373 Y119.764 Z5.621 I6.255 J-10.038 F600
G1 X26.351 Y119.754 Z5.615
X26.327 Y119.755 Z5.61
X26.306 Y119.766 Z5.605
X26.291 Y119.785 Z5.6
X26.236 Y119.887 F1300
X26.18 Y120.026
X26.103 Y120.155
X26.011 Y120.274
X25.908 Y120.382
X25.795 Y120.482
X25.676 Y120.572
X25.549 Y120.652
X25.417 Y120.724
X25.281 Y120.787
X25.141 Y120.842
X24.999 Y120.889
X24.854 Y120.928
X24.708 Y120.96
X24.56 Y120.984
X24.411 Y121.001
X24.261 Y121.012
X24.111 Y121.016
X23.961 Y121.013
X23.811 Y121.005
X23.662 Y120.991
X23.513 Y120.972
X23.365 Y120.947
X23.209 Y120.915
X23.111 Y120.882
X23.02 Y120.833
X22.939 Y120.768
X22.247 Y120.116
X22.115 Y119.99
X21.824 Y119.707
X21.707 Y119.59
X21.457 Y119.298
X21.298 Y119.076
X21.166 Y118.889
X21.093 Y118.781
X20.493 Y117.866
X20.275 Y117.534
X20.226 Y117.457
X20.071 Y117.18
X20 Y117.048
X19.866 Y116.75
X19.821 Y116.639
X19.521 Y115.82
X19.298 Y115.207
X19.096 Y114.593
X19.049 Y114.347
X18.982 Y113.979
X18.949 Y113.775
X18.805 Y112.548
X18.786 Y112.343
X18.74 Y111.729
X18.752 Y111.525
X18.781 Y111.116
X18.798 Y110.911
X18.941 Y109.684
X18.971 Y109.479
X19.08 Y108.866
X19.143 Y108.661
X19.277 Y108.252
X19.348 Y108.047
X19.662 Y107.188
X19.797 Y106.82
X19.866 Y106.645
X19.971 Y106.411
X20.074 Y106.206
X20.188 Y106.002
X20.275 Y105.86
X20.718 Y105.184
X21.121 Y104.57
X21.407 Y104.161
X21.502 Y104.042
X21.575 Y103.956
X21.707 Y103.803
X22.177 Y103.343
X23.138 Y102.437
X23.275 Y102.32
X23.547 Y102.095
X23.751 Y101.955
X24.16 Y101.697
X24.364 Y101.576
X25.387 Y100.986
X25.591 Y100.873
X25.796 Y100.769
X26.409 Y100.524
X26.534 Y100.479
X27.84 Y100.088
X27.904 Y100.07
X28.453 Y99.927
X28.658 Y99.88
X29.271 Y99.814
X29.476 Y99.797
X30.702 Y99.725
X30.907 Y99.722
X31.316 Y99.719
X31.52 Y99.722
X32.134 Y99.808
X32.338 Y99.841
X33.565 Y100.058
X33.628 Y100.07
X34.178 Y100.208
X34.383 Y100.266
X34.791 Y100.433
X34.996 Y100.517
X35.2 Y100.603
X36.018 Y100.956
X36.427 Y101.14
X36.632 Y101.254
X37.245 Y101.638
X38.267 Y102.399
X38.472 Y102.552
X38.676 Y102.71
X39.085 Y103.079
X39.146 Y103.138
X39.329 Y103.343
X39.505 Y103.547
X40.312 Y104.508
X40.36 Y104.57
X40.721 Y105.05
X40.818 Y105.184
X40.925 Y105.369
X41.256 Y106.002
X41.564 Y106.615
X41.664 Y106.82
X41.861 Y107.229
X41.947 Y107.413
X41.955 Y107.434
X42.152 Y108.049
X42.208 Y108.252
X42.498 Y109.479
X42.541 Y109.684
X42.621 Y110.093
X42.658 Y110.297
X42.688 Y110.911
X42.693 Y111.116
Y112.343
X42.685 Y112.548
X42.664 Y112.957
X42.65 Y113.161
X42.528 Y113.775
X42.483 Y113.979
X42.192 Y115.207
X42.152 Y115.349
X41.947 Y115.975
X41.929 Y116.025
X41.731 Y116.434
X41.632 Y116.639
X41.531 Y116.843
X41.222 Y117.457
X40.899 Y118.071
X40.771 Y118.275
X40.308 Y118.889
X39.45 Y119.911
X39.401 Y119.967
X39.333 Y120.029 F800
X39.255 Y120.08
X39.185 Y120.103 Z5.605
X39.116 Y120.126 Z5.618
X39.05 Y120.149 Z5.641
X38.965 Y120.155 Z5.682
X38.902 Y120.143 Z5.726
X38.844 Y120.132 Z5.778
X38.794 Y120.123 Z5.837
X38.752 Y120.115 Z5.902
X38.721 Y120.101 Z5.972
X38.698 Y120.091 Z6.046
X38.685 Y120.085 Z6.122
X38.68 Y120.082 Z6.2
G0 Z20.1
X30.6 Y109.686
Z6.1
G3 X32.752 Y111.572 Z5.989 I0.14 J2.011 F600
X30.851 Y113.707 Z5.878 I-2.01 J0.125
X28.733 Y111.791 Z5.767 I-0.109 J-2.009
X30.663 Y109.69 Z5.656 I2.008 J-0.093
X32.748 Y111.634 Z5.544 I0.078 J2.006
X30.789 Y113.702 Z5.433 I-2.005 J0.062
X28.739 Y111.729 Z5.322 I-0.046 J-2.004
X30.725 Y109.696 Z5.211 I2.002 J-0.031
X32.741 Y111.696 Z5.1 I0.015 J2
X28.74 Y111.696 I-2 J0
X32.741 Y111.696 I2 J0
G1 X32.743 Y111.809 F1300
X32.783 Y111.914
X33.338 Y112.57
X33.434 Y112.686
X33.517 Y112.811
X33.588 Y112.943
X33.647 Y113.081
X33.694 Y113.223
X33.73 Y113.369
X33.756 Y113.517
X33.77 Y113.666
X33.775 Y113.816
X33.77 Y113.966
X33.755 Y114.115
X33.731 Y114.263
X33.698 Y114.41
X33.657 Y114.554
X33.608 Y114.696
X33.552 Y114.835
X33.488 Y114.971
X33.417 Y115.103
X33.34 Y115.231
X33.257 Y115.356
X33.167 Y115.477
X33.072 Y115.593
X32.972 Y115.704
X32.867 Y115.811
X32.757 Y115.914
X32.643 Y116.011
X32.525 Y116.103
X32.403 Y116.191
X32.278 Y116.273
X32.149 Y116.35
X32.017 Y116.422
X31.883 Y116.488
X31.746 Y116.55
X31.607 Y116.606
X31.466 Y116.656
X31.323 Y116.702
X31.178 Y116.742
X31.032 Y116.777
X30.885 Y116.806
X30.737 Y116.83
X30.588 Y116.849
X30.439 Y116.863
X30.289 Y116.872
X30.139 Y116.875
X29.989 Y116.874
X29.839 Y116.867
X29.69 Y116.855
X29.541 Y116.839
X29.392 Y116.817
X29.245 Y116.791
X29.098 Y116.76
X28.952 Y116.725
X28.808 Y116.684
X28.665 Y116.64
X28.523 Y116.59
X28.383 Y116.537
X28.244 Y116.479
X28.108 Y116.417
X27.973 Y116.35
X27.841 Y116.28
X27.711 Y116.206
X27.583 Y116.127
X27.457 Y116.045
X27.334 Y115.96
X27.213 Y115.87
X27.096 Y115.777
X26.981 Y115.681
X26.868 Y115.582
X26.759 Y115.479
X26.653 Y115.373
X26.55 Y115.264
X26.45 Y115.152
X26.354 Y115.037
X26.26 Y114.92
X26.171 Y114.799
X26.084 Y114.677
X26.001 Y114.552
X25.922 Y114.424
X25.846 Y114.295
X25.774 Y114.163
X25.706 Y114.03
X25.642 Y113.894
X25.581 Y113.757
X25.524 Y113.618
X25.471 Y113.478
X25.422 Y113.336
X25.377 Y113.193
X25.336 Y113.049
X25.299 Y112.903
X25.266 Y112.757
X25.237 Y112.61
X25.213 Y112.462
X25.192 Y112.313
X25.175 Y112.164
X25.163 Y112.015
X25.154 Y111.865
X25.15 Y111.715
Y111.565
X25.153 Y111.415
X25.161 Y111.265
X25.173 Y111.116
X25.189 Y110.967
X25.21 Y110.818
X25.234 Y110.67
X25.262 Y110.523
X25.294 Y110.376
X25.33 Y110.231
X25.37 Y110.086
X25.414 Y109.943
X25.462 Y109.8
X25.514 Y109.66
X25.569 Y109.52
X25.628 Y109.382
X25.691 Y109.246
X25.758 Y109.112
X25.828 Y108.979
X25.901 Y108.849
X25.979 Y108.72
X26.059 Y108.593
X26.143 Y108.469
X26.23 Y108.347
X26.321 Y108.228
X26.415 Y108.11
X26.512 Y107.996
X26.611 Y107.884
X26.714 Y107.775
X26.82 Y107.668
X26.928 Y107.565
X27.04 Y107.464
X27.154 Y107.367
X27.27 Y107.272
X27.389 Y107.181
X27.511 Y107.093
X27.634 Y107.008
X27.76 Y106.927
X27.888 Y106.848
X28.019 Y106.774
X28.151 Y106.703
X28.285 Y106.635
X28.42 Y106.571
X28.558 Y106.511
X28.696 Y106.454
X28.837 Y106.401
X28.979 Y106.352
X29.122 Y106.307
X29.266 Y106.266
X29.411 Y106.228
X29.557 Y106.194
X29.704 Y106.165
X29.852 Y106.139
X30 Y106.117
X30.149 Y106.099
X30.299 Y106.085
X30.448 Y106.075
X30.598 Y106.069
X30.748 Y106.067
X30.898 Y106.069
X31.048 Y106.075
X31.198 Y106.085
X31.347 Y106.1
X31.496 Y106.118
X31.644 Y106.14
X31.792 Y106.165
X31.939 Y106.195
X32.085 Y106.229
X32.23 Y106.267
X32.375 Y106.308
X32.517 Y106.354
X32.659 Y106.403
X32.8 Y106.456
X32.938 Y106.512
X33.076 Y106.573
X33.211 Y106.637
X33.345 Y106.704
X33.477 Y106.775
X33.608 Y106.85
X33.736 Y106.928
X33.862 Y107.009
X33.985 Y107.094
X34.107 Y107.182
X34.226 Y107.273
X34.343 Y107.368
X34.457 Y107.465
X34.568 Y107.566
X34.677 Y107.669
X34.783 Y107.775
X35.063 Y108.07
X35.234 Y108.254
X35.379 Y108.415
X35.499 Y108.551
X35.614 Y108.687
X35.715 Y108.808
X35.809 Y108.924
X35.902 Y109.042
X35.993 Y109.162
X36.082 Y109.282
X36.169 Y109.404
X36.254 Y109.528
X36.338 Y109.652
X36.419 Y109.779
X36.498 Y109.906
X36.574 Y110.035
X36.649 Y110.165
X36.72 Y110.297
X36.79 Y110.43
X36.856 Y110.564
X36.92 Y110.7
X36.982 Y110.837
X37.04 Y110.975
X37.096 Y111.114
X37.149 Y111.255
X37.199 Y111.396
X37.246 Y111.539
X37.29 Y111.682
X37.331 Y111.826
X37.369 Y111.971
X37.404 Y112.117
X37.435 Y112.264
X37.464 Y112.411
X37.489 Y112.559
X37.511 Y112.708
X37.529 Y112.856
X37.545 Y113.006
X37.557 Y113.155
X37.566 Y113.305
X37.571 Y113.455
X37.573 Y113.605
X37.572 Y113.755
X37.568 Y113.905
X37.56 Y114.054
X37.549 Y114.204
X37.534 Y114.353
X37.516 Y114.502
X37.495 Y114.651
X37.471 Y114.799
X37.443 Y114.946
X37.413 Y115.093
X37.378 Y115.239
X37.341 Y115.384
X37.301 Y115.529
X37.257 Y115.672
X37.21 Y115.815
X37.16 Y115.956
X37.107 Y116.097
X37.051 Y116.236
X36.992 Y116.374
X36.93 Y116.51
X36.865 Y116.645
X36.797 Y116.779
X36.726 Y116.911
X36.653 Y117.042
X36.576 Y117.171
X36.497 Y117.298
X36.415 Y117.424
X36.331 Y117.548
X36.244 Y117.67
X36.154 Y117.79
X36.062 Y117.909
X35.967 Y118.025
X35.87 Y118.14
X35.77 Y118.252
X35.669 Y118.362
X35.565 Y118.47
X35.459 Y118.576
X35.35 Y118.68
X35.24 Y118.781
X35.127 Y118.88
X35.013 Y118.977
X34.896 Y119.072
X34.778 Y119.164
X34.657 Y119.253
X34.535 Y119.341
X34.412 Y119.426
X34.286 Y119.508
X34.159 Y119.588
X34.031 Y119.665
X33.901 Y119.74
X33.769 Y119.812
X33.636 Y119.881
X33.502 Y119.948
X33.366 Y120.012
X33.23 Y120.074
X33.092 Y120.133
X32.953 Y120.189
X32.813 Y120.243
X32.671 Y120.294
X32.529 Y120.342
X32.386 Y120.387
X32.243 Y120.43
X32.098 Y120.47
X31.953 Y120.507
X31.807 Y120.541
X31.66 Y120.573
X31.513 Y120.602
X31.365 Y120.628
X31.217 Y120.652
X31.068 Y120.672
X30.92 Y120.69
X30.77 Y120.705
X30.621 Y120.718
X30.471 Y120.728
X30.321 Y120.734
X30.171 Y120.739
X30.021 Y120.74
X29.871 Y120.739
X29.721 Y120.735
X29.572 Y120.728
X29.422 Y120.719
X29.272 Y120.707
X29.123 Y120.692
X28.974 Y120.674
X28.825 Y120.654
X28.677 Y120.632
X28.529 Y120.606
X28.382 Y120.578
X28.235 Y120.548
X28.089 Y120.514
X27.943 Y120.479
X27.798 Y120.44
X27.654 Y120.4
X27.51 Y120.356
X27.367 Y120.31
X27.225 Y120.262
X27.084 Y120.211
X26.291 Y119.785
X25.533 Y119.297
X24.82 Y118.747
X24.159 Y118.134
X23.558 Y117.463
X23.024 Y116.738
X22.562 Y115.965
X22.177 Y115.15
X21.873 Y114.302
X21.654 Y113.428
X21.522 Y112.537
X21.477 Y111.637
X21.521 Y110.737
X21.652 Y109.846
X21.87 Y108.972
X22.172 Y108.123
X22.556 Y107.308
X23.017 Y106.534
X23.551 Y105.809
X24.153 Y105.139
X24.818 Y104.53
X25.538 Y103.989
X26.307 Y103.521
X27.119 Y103.129
X27.964 Y102.818
X28.836 Y102.59
X29.725 Y102.448
X30.625 Y102.392
X31.525 Y102.424
X32.418 Y102.543
X33.295 Y102.747
X34.149 Y103.036
X34.97 Y103.406
X35.752 Y103.853
X36.491 Y104.368
X37.19 Y104.937
X37.847 Y105.553
X38.459 Y106.214
X39.024 Y106.916
X39.535 Y107.658
X39.989 Y108.436
X40.381 Y109.247
X40.708 Y110.087
X40.965 Y110.95
X41.151 Y111.832
X41.262 Y112.726
X41.297 Y113.626
X41.256 Y114.526
X41.139 Y115.419
X40.946 Y116.299
X40.68 Y117.16
X40.341 Y117.995
X39.934 Y118.798
X39.875 Y118.894
X39.815 Y118.989
X39.328 Y119.747
X38.779 Y120.462
X38.673 Y120.578
X38.687 Y120.568 Z5.104 F800
G3 X38.011 Y120.896 Z5.263 I-5.499 J-10.471
G1 X37.852 Y120.965 Z5.3 F1300
X37.753 Y121.007
G3 X37.482 Y121.053 I-0.232 J-0.553
G1 X27.504 Y120.401
G3 X27.242 Y120.321 I0.039 J-0.599
G1 X27.081 Y120.226
X26.933 Y120.135 Z5.263
G3 X26.373 Y119.764 Z5.121 I6.255 J-10.038 F600
G1 X26.351 Y119.754 Z5.115
X26.327 Y119.755 Z5.11
X26.306 Y119.766 Z5.105
X26.291 Y119.785 Z5.1
X26.236 Y119.887 F1300
X26.18 Y120.026
X26.103 Y120.155
X26.011 Y120.274
X25.908 Y120.382
X25.795 Y120.482
X25.676 Y120.572
X25.549 Y120.652
X25.417 Y120.724
X25.281 Y120.787
X25.141 Y120.842
X24.999 Y120.889
X24.854 Y120.928
X24.708 Y120.96
X24.56 Y120.984
X24.411 Y121.001
X24.261 Y121.012
X24.111 Y121.016
X23.961 Y121.013
X23.811 Y121.005
X23.662 Y120.991
X23.513 Y120.972
X23.365 Y120.947
X23.209 Y120.915
X23.111 Y120.882
X23.02 Y120.833
X22.939 Y120.768
X22.247 Y120.116
X22.115 Y119.99
X21.824 Y119.707
X21.707 Y119.59
X21.457 Y119.298
X21.298 Y119.076
X21.166 Y118.889
X21.093 Y118.781
X20.493 Y117.866
X20.275 Y117.534
X20.226 Y117.457
X20.071 Y117.18
X20 Y117.048
X19.866 Y116.75
X19.821 Y116.639
X19.521 Y115.82
X19.298 Y115.207
X19.096 Y114.593
X19.049 Y114.347
X18.982 Y113.979
X18.949 Y113.775
X18.805 Y112.548
X18.786 Y112.343
X18.74 Y111.729
X18.752 Y111.525
X18.781 Y111.116
X18.798 Y110.911
X18.941 Y109.684
X18.971 Y109.479
X19.08 Y108.866
X19.143 Y108.661
X19.277 Y108.252
X19.348 Y108.047
X19.662 Y107.188
X19.797 Y106.82
X19.866 Y106.645
X19.971 Y106.411
X20.074 Y106.206
X20.188 Y106.002
X20.275 Y105.86
X20.718 Y105.184
X21.121 Y104.57
X21.407 Y104.161
X21.502 Y104.042
X21.575 Y103.956
X21.707 Y103.803
X22.177 Y103.343
X23.138 Y102.437
