(bore1)
(T6 D=3.175 CR=0 - ZMIN=2.5 - flat end mill)
G90 G94
G17
G21
G28 G91 Z0
G90

(Bore1 4)
T6
(18 Flat-45 degree helix)
S18000 M3
G17 G90 G94
G54
G0 X22.346 Y5.662
Z28.1
G0 Z9.8
G1 Z8.118 F500
G18 G2 X22.663 Z7.8 I0.317 K0
G1 X22.822
G17 G3 X23.139 Y5.979 I0 J0.318
X21.814 Y5.979 Z7.721 I-0.663 J0
X23.139 Y5.979 Z7.643 I0.663 J0
X21.814 Y5.979 Z7.564 I-0.663 J0
X23.139 Y5.979 Z7.486 I0.663 J0
X21.814 Y5.979 Z7.407 I-0.663 J0
X23.139 Y5.979 Z7.329 I0.663 J0
X21.814 Y5.979 Z7.25 I-0.663 J0
X23.139 Y5.979 Z7.171 I0.663 J0
X21.814 Y5.979 Z7.093 I-0.663 J0
X23.139 Y5.979 Z7.014 I0.663 J0
X21.814 Y5.979 Z6.936 I-0.663 J0
X23.139 Y5.979 Z6.857 I0.663 J0
X21.814 Y5.979 Z6.779 I-0.663 J0
X23.139 Y5.979 Z6.7 I0.663 J0
X21.814 Y5.979 Z6.621 I-0.663 J0
X23.139 Y5.979 Z6.543 I0.663 J0
X21.814 Y5.979 Z6.464 I-0.663 J0
X23.139 Y5.979 Z6.386 I0.663 J0
X21.814 Y5.979 Z6.307 I-0.663 J0
X23.139 Y5.979 Z6.229 I0.663 J0
X21.814 Y5.979 Z6.15 I-0.663 J0
X23.139 Y5.979 Z6.071 I0.663 J0
X21.814 Y5.979 Z5.993 I-0.663 J0
X23.139 Y5.979 Z5.914 I0.663 J0
X21.814 Y5.979 Z5.836 I-0.663 J0
X23.139 Y5.979 Z5.757 I0.663 J0
X21.814 Y5.979 Z5.679 I-0.663 J0
X23.139 Y5.979 Z5.6 I0.663 J0
X21.814 Y5.979 Z5.521 I-0.663 J0
X23.139 Y5.979 Z5.443 I0.663 J0
X21.814 Y5.979 Z5.364 I-0.663 J0
X23.139 Y5.979 Z5.286 I0.663 J0
X21.814 Y5.979 Z5.207 I-0.663 J0
X23.139 Y5.979 Z5.129 I0.663 J0
X21.814 Y5.979 Z5.05 I-0.663 J0
X23.139 Y5.979 Z4.971 I0.663 J0
X21.814 Y5.979 Z4.893 I-0.663 J0
X23.139 Y5.979 Z4.814 I0.663 J0
X21.814 Y5.979 Z4.736 I-0.663 J0
X23.139 Y5.979 Z4.657 I0.663 J0
X21.814 Y5.979 Z4.579 I-0.663 J0
X23.139 Y5.979 Z4.5 I0.663 J0
X21.814 Y5.979 Z4.421 I-0.663 J0
X23.139 Y5.979 Z4.343 I0.663 J0
X21.814 Y5.979 Z4.264 I-0.663 J0
X23.139 Y5.979 Z4.186 I0.663 J0
X21.814 Y5.979 Z4.107 I-0.663 J0
X23.139 Y5.979 Z4.029 I0.663 J0
X21.814 Y5.979 Z3.95 I-0.663 J0
X23.139 Y5.979 Z3.871 I0.663 J0
X21.814 Y5.979 Z3.793 I-0.663 J0
X23.139 Y5.979 Z3.714 I0.663 J0
X21.814 Y5.979 Z3.636 I-0.663 J0
X23.139 Y5.979 Z3.557 I0.663 J0
X21.814 Y5.979 Z3.479 I-0.663 J0
X23.139 Y5.979 Z3.4 I0.663 J0
X21.814 Y5.979 Z3.321 I-0.663 J0
X23.139 Y5.979 Z3.243 I0.663 J0
X21.814 Y5.979 Z3.164 I-0.663 J0
X23.139 Y5.979 Z3.086 I0.663 J0
X21.814 Y5.979 Z3.007 I-0.663 J0
X23.139 Y5.979 Z2.929 I0.663 J0
X21.814 Y5.979 Z2.85 I-0.663 J0
X23.139 Y5.979 Z2.771 I0.663 J0
X21.814 Y5.979 Z2.693 I-0.663 J0
X23.139 Y5.979 Z2.614 I0.663 J0
X21.814 Y5.979 Z2.536 I-0.663 J0
X22.382 Y5.324 Z2.5 I0.663 J0
X22.572 Y6.635 I0.095 J0.656
X22.382 Y5.324 I-0.095 J-0.656
X22.742 Y5.592 I0.045 J0.314
G1 X22.764 Y5.75
X22.775 Y5.819 Z2.508
X22.784 Y5.886 Z2.531
X22.793 Y5.945 Z2.569
X22.8 Y5.995 Z2.62
X22.805 Y6.033 Z2.68
X22.809 Y6.056 Z2.747
X22.81 Y6.064 Z2.818
G0 Z18.1
Z28.1
X23.346 Y5.662
Z9.8
G1 Z8.118 F500
G18 G2 X23.663 Z7.8 I0.317 K0
G1 X23.822
G17 G3 X24.139 Y5.979 I0 J0.318
X20.814 Y5.979 Z7.687 I-1.663 J0
X24.139 Y5.979 Z7.573 I1.663 J0
X20.814 Y5.979 Z7.46 I-1.663 J0
X24.139 Y5.979 Z7.346 I1.663 J0
X20.814 Y5.979 Z7.233 I-1.663 J0
X24.139 Y5.979 Z7.119 I1.663 J0
X20.814 Y5.979 Z7.006 I-1.663 J0
X24.139 Y5.979 Z6.892 I1.663 J0
X20.814 Y5.979 Z6.779 I-1.663 J0
X24.139 Y5.979 Z6.665 I1.663 J0
X20.814 Y5.979 Z6.552 I-1.663 J0
X24.139 Y5.979 Z6.438 I1.663 J0
X20.814 Y5.979 Z6.325 I-1.663 J0
X24.139 Y5.979 Z6.211 I1.663 J0
X20.814 Y5.979 Z6.098 I-1.663 J0
X24.139 Y5.979 Z5.984 I1.663 J0
X20.814 Y5.979 Z5.871 I-1.663 J0
X24.139 Y5.979 Z5.757 I1.663 J0
X20.814 Y5.979 Z5.644 I-1.663 J0
X24.139 Y5.979 Z5.53 I1.663 J0
X20.814 Y5.979 Z5.417 I-1.663 J0
X24.139 Y5.979 Z5.303 I1.663 J0
X20.814 Y5.979 Z5.19 I-1.663 J0
X24.139 Y5.979 Z5.076 I1.663 J0
X20.814 Y5.979 Z4.963 I-1.663 J0
X24.139 Y5.979 Z4.849 I1.663 J0
X20.814 Y5.979 Z4.736 I-1.663 J0
X24.139 Y5.979 Z4.622 I1.663 J0
X20.814 Y5.979 Z4.509 I-1.663 J0
X24.139 Y5.979 Z4.395 I1.663 J0
X20.814 Y5.979 Z4.282 I-1.663 J0
X24.139 Y5.979 Z4.168 I1.663 J0
X20.814 Y5.979 Z4.055 I-1.663 J0
X24.139 Y5.979 Z3.941 I1.663 J0
X20.814 Y5.979 Z3.828 I-1.663 J0
X24.139 Y5.979 Z3.714 I1.663 J0
X20.814 Y5.979 Z3.601 I-1.663 J0
X24.139 Y5.979 Z3.487 I1.663 J0
X20.814 Y5.979 Z3.374 I-1.663 J0
X24.139 Y5.979 Z3.26 I1.663 J0
X20.814 Y5.979 Z3.147 I-1.663 J0
X24.139 Y5.979 Z3.033 I1.663 J0
X20.814 Y5.979 Z2.92 I-1.663 J0
X24.139 Y5.979 Z2.806 I1.663 J0
X20.814 Y5.979 Z2.693 I-1.663 J0
X24.139 Y5.979 Z2.579 I1.663 J0
X21.503 Y7.327 Z2.5 I-1.663 J0
X23.45 Y4.632 I0.973 J-1.348
X21.503 Y7.327 I-0.973 J1.348
X21.432 Y6.884 I0.186 J-0.257
G1 X21.525 Y6.755
X21.566 Y6.698 Z2.508
X21.606 Y6.643 Z2.531
X21.641 Y6.595 Z2.569
X21.67 Y6.554 Z2.62
X21.692 Y6.523 Z2.68
X21.706 Y6.504 Z2.747
X21.711 Y6.498 Z2.818
G0 Z18.1
X22.346 Y95.662
Z7
G1 Z5.318 F500
G18 G2 X22.663 Z5 I0.317 K0
G1 X22.822
G17 G3 X23.139 Y95.979 I0 J0.318
X21.814 Y95.979 Z4.921 I-0.663 J0
X23.139 Y95.979 Z4.843 I0.663 J0
X21.814 Y95.979 Z4.764 I-0.663 J0
X23.139 Y95.979 Z4.686 I0.663 J0
X21.814 Y95.979 Z4.607 I-0.663 J0
X23.139 Y95.979 Z4.529 I0.663 J0
X21.814 Y95.979 Z4.45 I-0.663 J0
X23.139 Y95.979 Z4.371 I0.663 J0
X21.814 Y95.979 Z4.293 I-0.663 J0
X23.139 Y95.979 Z4.214 I0.663 J0
X21.814 Y95.979 Z4.136 I-0.663 J0
X23.139 Y95.979 Z4.057 I0.663 J0
X21.814 Y95.979 Z3.979 I-0.663 J0
X23.139 Y95.979 Z3.9 I0.663 J0
X21.814 Y95.979 Z3.821 I-0.663 J0
X23.139 Y95.979 Z3.743 I0.663 J0
X21.814 Y95.979 Z3.664 I-0.663 J0
X23.139 Y95.979 Z3.586 I0.663 J0
X21.814 Y95.979 Z3.507 I-0.663 J0
X23.139 Y95.979 Z3.429 I0.663 J0
X21.814 Y95.979 Z3.35 I-0.663 J0
X23.139 Y95.979 Z3.271 I0.663 J0
X21.814 Y95.979 Z3.193 I-0.663 J0
X23.139 Y95.979 Z3.114 I0.663 J0
X21.814 Y95.979 Z3.036 I-0.663 J0
X23.139 Y95.979 Z2.957 I0.663 J0
X21.814 Y95.979 Z2.879 I-0.663 J0
X23.139 Y95.979 Z2.8 I0.663 J0
X21.814 Y95.979 Z2.721 I-0.663 J0
X23.139 Y95.979 Z2.643 I0.663 J0
X21.814 Y95.979 Z2.564 I-0.663 J0
X23.034 Y95.621 Z2.5 I0.663 J0
X21.92 Y96.338 I-0.557 J0.358
X23.034 Y95.621 I0.557 J-0.358
X22.939 Y96.06 I-0.267 J0.172
G1 X22.805 Y96.146
X22.746 Y96.184 Z2.508
X22.689 Y96.22 Z2.531
X22.639 Y96.253 Z2.569
X22.597 Y96.28 Z2.62
X22.565 Y96.3 Z2.68
X22.545 Y96.313 Z2.747
X22.538 Y96.317 Z2.818
G0 Z18.1
X23.346 Y95.662
Z7
G1 Z5.318 F500
G18 G2 X23.663 Z5 I0.317 K0
G1 X23.822
G17 G3 X24.139 Y95.979 I0 J0.318
X20.814 Y95.979 Z4.887 I-1.663 J0
X24.139 Y95.979 Z4.773 I1.663 J0
X20.814 Y95.979 Z4.66 I-1.663 J0
X24.139 Y95.979 Z4.546 I1.663 J0
X20.814 Y95.979 Z4.433 I-1.663 J0
X24.139 Y95.979 Z4.319 I1.663 J0
X20.814 Y95.979 Z4.206 I-1.663 J0
X24.139 Y95.979 Z4.092 I1.663 J0
X20.814 Y95.979 Z3.979 I-1.663 J0
X24.139 Y95.979 Z3.865 I1.663 J0
X20.814 Y95.979 Z3.752 I-1.663 J0
X24.139 Y95.979 Z3.638 I1.663 J0
X20.814 Y95.979 Z3.525 I-1.663 J0
X24.139 Y95.979 Z3.411 I1.663 J0
X20.814 Y95.979 Z3.298 I-1.663 J0
X24.139 Y95.979 Z3.184 I1.663 J0
X20.814 Y95.979 Z3.071 I-1.663 J0
X24.139 Y95.979 Z2.957 I1.663 J0
X20.814 Y95.979 Z2.844 I-1.663 J0
X24.139 Y95.979 Z2.73 I1.663 J0
X20.814 Y95.979 Z2.617 I-1.663 J0
X22.55 Y94.318 Z2.558 I1.663 J0
X24.133 Y96.125 Z2.5 I-0.073 J1.661
X20.821 Y95.834 I-1.656 J-0.145
X24.133 Y96.125 I1.656 J0.145
X23.789 Y96.413 I-0.316 J-0.028
G1 X23.631 Y96.399
X23.56 Y96.393 Z2.508
X23.494 Y96.387 Z2.531
X23.434 Y96.382 Z2.569
X23.384 Y96.378 Z2.62
X23.346 Y96.374 Z2.68
X23.322 Y96.372 Z2.747
X23.315 Z2.818
G0 Z28.1
G28 G91 Z0
G90
G28 G91 X0 Y0
G90
M5
M30
