(bore2)
(T6 D=3.175 CR=0 - ZMIN=0 - flat end mill)
G90 G94
G17
G21
G28 G91 Z0
G90

(Bore1 5)
T6
(18 Flat-45 degree helix)
S18000 M3
G17 G90 G94
G54
G0 X19.317 Y112.869
Z28.1
G0 Z7
G1 Z5.318 F500
G19 G3 Y113.186 Z5 J0.317 K0
G1 Y113.345
G17 G3 X19 Y113.662 I-0.317 J0
X19 Y112.338 Z4.921 I0 J-0.662
X19 Y113.662 Z4.843 I0 J0.662
X19 Y112.338 Z4.764 I0 J-0.662
X19 Y113.662 Z4.686 I0 J0.662
X19 Y112.338 Z4.607 I0 J-0.662
X19 Y113.662 Z4.529 I0 J0.662
X19 Y112.338 Z4.45 I0 J-0.662
X19 Y113.662 Z4.371 I0 J0.662
X19 Y112.338 Z4.293 I0 J-0.662
X19 Y113.662 Z4.214 I0 J0.662
X19 Y112.338 Z4.136 I0 J-0.662
X19 Y113.662 Z4.057 I0 J0.662
X19 Y112.338 Z3.979 I0 J-0.662
X19 Y113.662 Z3.9 I0 J0.662
X19 Y112.338 Z3.821 I0 J-0.662
X19 Y113.662 Z3.743 I0 J0.662
X19 Y112.338 Z3.664 I0 J-0.662
X19 Y113.662 Z3.586 I0 J0.662
X19 Y112.338 Z3.507 I0 J-0.662
X19 Y113.662 Z3.429 I0 J0.662
X19 Y112.338 Z3.35 I0 J-0.662
X19 Y113.662 Z3.271 I0 J0.662
X19 Y112.338 Z3.193 I0 J-0.662
X19 Y113.662 Z3.114 I0 J0.662
X19 Y112.338 Z3.036 I0 J-0.662
X19 Y113.662 Z2.957 I0 J0.662
X19 Y112.338 Z2.879 I0 J-0.662
X19 Y113.662 Z2.8 I0 J0.662
X19 Y112.338 Z2.721 I0 J-0.662
X19 Y113.662 Z2.643 I0 J0.662
X19 Y112.338 Z2.564 I0 J-0.662
X19 Y113.662 Z2.486 I0 J0.662
X19 Y112.338 Z2.407 I0 J-0.662
X19 Y113.662 Z2.329 I0 J0.662
X19 Y112.338 Z2.25 I0 J-0.662
X19 Y113.662 Z2.171 I0 J0.662
X19 Y112.338 Z2.093 I0 J-0.662
X19 Y113.662 Z2.014 I0 J0.662
X19 Y112.338 Z1.936 I0 J-0.662
X19 Y113.662 Z1.857 I0 J0.662
X19 Y112.338 Z1.779 I0 J-0.662
X19 Y113.662 Z1.7 I0 J0.662
X19 Y112.338 Z1.621 I0 J-0.662
X19 Y113.662 Z1.543 I0 J0.662
X19 Y112.338 Z1.464 I0 J-0.662
X19 Y113.662 Z1.386 I0 J0.662
X19 Y112.338 Z1.307 I0 J-0.662
X19 Y113.662 Z1.229 I0 J0.662
X19 Y112.338 Z1.15 I0 J-0.662
X19 Y113.662 Z1.071 I0 J0.662
X19 Y112.338 Z0.993 I0 J-0.662
X19 Y113.662 Z0.914 I0 J0.662
X19 Y112.338 Z0.836 I0 J-0.662
X19 Y113.662 Z0.757 I0 J0.662
X19 Y112.338 Z0.679 I0 J-0.662
X19 Y113.662 Z0.6 I0 J0.662
X19 Y112.338 Z0.521 I0 J-0.662
X19 Y113.662 Z0.443 I0 J0.662
X19 Y112.338 Z0.364 I0 J-0.662
X19 Y113.662 Z0.286 I0 J0.662
X19 Y112.338 Z0.207 I0 J-0.662
X19 Y113.663 Z0.129 I0 J0.662
X19 Y112.337 Z0.05 I0 J-0.663
X19.603 Y113.275 Z0 I0 J0.663
X18.397 Y112.725 I-0.603 J-0.275
X19.603 Y113.275 I0.603 J0.275
X19.182 Y113.432 I-0.289 J-0.132
G1 X19.038 Y113.366
X18.974 Y113.337 Z0.008
X18.912 Y113.309 Z0.031
X18.858 Y113.284 Z0.069
X18.812 Y113.263 Z0.12
X18.778 Y113.248 Z0.18
X18.756 Y113.238 Z0.247
X18.749 Y113.234 Z0.317
G0 Z18.1
X22.477 Y95.979
Z4.182
G1 Z2.5 F500
X22.533 Y96.036
X22.526 Y96.064
X22.505 Y96.084
X22.477 Y96.092
X22.435 Y96.084 Z2.493
X22.4 Y96.061 Z2.486
X22.375 Y96.027 Z2.479
X22.365 Y95.986 Z2.472
X22.37 Y95.945 Z2.464
X22.39 Y95.908 Z2.457
X22.423 Y95.881 Z2.45
X22.463 Y95.868 Z2.443
X22.505 Y95.87 Z2.436
X22.543 Y95.888 Z2.429
X22.572 Y95.919 Z2.422
X22.587 Y95.958 Z2.415
Y96 Z2.407
X22.572 Y96.04 Z2.4
X22.543 Y96.07 Z2.393
X22.505 Y96.088 Z2.386
X22.463 Y96.091 Z2.379
X22.423 Y96.078 Z2.372
X22.39 Y96.051 Z2.365
X22.37 Y96.014 Z2.358
X22.365 Y95.972 Z2.35
X22.375 Y95.932 Z2.343
X22.4 Y95.897 Z2.336
X22.435 Y95.875 Z2.329
X22.477 Y95.867 Z2.322
X22.518 Y95.875 Z2.315
X22.554 Y95.897 Z2.308
X22.579 Y95.931 Z2.301
X22.589 Y95.972 Z2.293
X22.584 Y96.014 Z2.286
X22.564 Y96.051 Z2.279
X22.531 Y96.078 Z2.272
X22.491 Y96.091 Z2.265
X22.449 Y96.088 Z2.258
X22.411 Y96.071 Z2.251
X22.382 Y96.04 Z2.244
X22.366 Y96.001 Z2.236
Y95.959 Z2.229
X22.382 Y95.919 Z2.222
X22.411 Y95.889 Z2.215
X22.449 Y95.87 Z2.208
X22.491 Y95.868 Z2.201
X22.531 Y95.881 Z2.194
X22.563 Y95.907 Z2.187
X22.584 Y95.944 Z2.179
X22.589 Y95.986 Z2.172
X22.579 Y96.027 Z2.165
X22.554 Y96.061 Z2.158
X22.519 Y96.084 Z2.151
X22.477 Y96.092 Z2.144
X22.436 Y96.084 Z2.137
X22.4 Y96.062 Z2.13
X22.375 Y96.028 Z2.123
X22.365 Y95.987 Z2.115
X22.37 Y95.945 Z2.108
X22.39 Y95.908 Z2.101
X22.422 Y95.881 Z2.094
X22.462 Y95.868 Z2.087
X22.504 Y95.87 Z2.08
X22.543 Y95.888 Z2.073
X22.572 Y95.919 Z2.066
X22.587 Y95.958 Z2.058
Y96 Z2.051
X22.572 Y96.039 Z2.044
X22.543 Y96.07 Z2.037
X22.505 Y96.088 Z2.03
X22.463 Y96.091 Z2.023
X22.423 Y96.078 Z2.016
X22.391 Y96.051 Z2.009
X22.37 Y96.015 Z2.001
X22.365 Y95.973 Z1.994
X22.375 Y95.932 Z1.987
X22.399 Y95.898 Z1.98
X22.435 Y95.875 Z1.973
X22.476 Y95.867 Z1.966
X22.518 Y95.875 Z1.959
X22.553 Y95.897 Z1.952
X22.578 Y95.931 Z1.944
X22.589 Y95.972 Z1.937
X22.584 Y96.014 Z1.93
X22.564 Y96.051 Z1.923
X22.532 Y96.078 Z1.916
X22.492 Y96.091 Z1.909
X22.45 Y96.088 Z1.902
X22.411 Y96.071 Z1.895
X22.382 Y96.04 Z1.887
X22.367 Y96.001 Z1.88
X22.366 Y95.959 Z1.873
X22.382 Y95.92 Z1.866
X22.41 Y95.889 Z1.859
X22.448 Y95.871 Z1.852
X22.49 Y95.868 Z1.845
X22.53 Y95.88 Z1.838
X22.563 Y95.907 Z1.83
X22.584 Y95.944 Z1.823
X22.589 Y95.986 Z1.816
X22.579 Y96.027 Z1.809
X22.554 Y96.061 Z1.802
X22.519 Y96.084 Z1.795
X22.478 Y96.092 Z1.788
X22.436 Y96.084 Z1.781
X22.4 Y96.062 Z1.774
X22.375 Y96.028 Z1.766
X22.365 Y95.987 Z1.759
X22.37 Y95.945 Z1.752
X22.39 Y95.908 Z1.745
X22.422 Y95.881 Z1.738
X22.462 Y95.868 Z1.731
X22.504 Y95.87 Z1.724
X22.542 Y95.888 Z1.717
X22.571 Y95.918 Z1.709
X22.587 Y95.957 Z1.702
X22.588 Y96 Z1.695
X22.572 Y96.039 Z1.688
X22.544 Y96.07 Z1.681
X22.506 Y96.088 Z1.674
X22.464 Y96.091 Z1.667
X22.424 Y96.078 Z1.66
X22.391 Y96.052 Z1.652
X22.37 Y96.015 Z1.645
X22.365 Y95.973 Z1.638
X22.375 Y95.932 Z1.631
X22.399 Y95.898 Z1.624
X22.435 Y95.875 Z1.617
X22.476 Y95.867 Z1.61
X22.517 Y95.874 Z1.603
X22.553 Y95.897 Z1.595
X22.578 Y95.931 Z1.588
X22.589 Y95.971 Z1.581
X22.584 Y96.013 Z1.574
X22.564 Y96.05 Z1.567
X22.532 Y96.077 Z1.56
X22.492 Y96.091 Z1.553
X22.45 Y96.089 Z1.546
X22.412 Y96.071 Z1.538
X22.382 Y96.041 Z1.531
X22.367 Y96.001 Z1.524
X22.366 Y95.959 Z1.517
X22.381 Y95.92 Z1.51
X22.41 Y95.889 Z1.503
X22.448 Y95.871 Z1.496
X22.49 Y95.868 Z1.489
X22.53 Y95.88 Z1.481
X22.563 Y95.907 Z1.474
X22.584 Y95.943 Z1.467
X22.589 Y95.985 Z1.46
X22.579 Y96.026 Z1.453
X22.555 Y96.061 Z1.446
X22.519 Y96.083 Z1.439
X22.478 Y96.092 Z1.432
X22.437 Y96.084 Z1.425
X22.401 Y96.062 Z1.417
X22.376 Y96.028 Z1.41
X22.365 Y95.988 Z1.403
X22.37 Y95.946 Z1.396
X22.389 Y95.909 Z1.389
X22.422 Y95.881 Z1.382
X22.462 Y95.868 Z1.375
X22.504 Y95.87 Z1.368
X22.542 Y95.888 Z1.36
X22.571 Y95.918 Z1.353
X22.587 Y95.957 Z1.346
X22.588 Y95.999 Z1.339
X22.573 Y96.039 Z1.332
X22.544 Y96.07 Z1.325
X22.506 Y96.088 Z1.318
X22.464 Y96.091 Z1.311
X22.424 Y96.079 Z1.303
X22.391 Y96.052 Z1.296
X22.37 Y96.015 Z1.289
X22.365 Y95.974 Z1.282
X22.375 Y95.933 Z1.275
X22.399 Y95.898 Z1.268
X22.434 Y95.875 Z1.261
X22.476 Y95.867 Z1.254
X22.517 Y95.874 Z1.246
X22.553 Y95.896 Z1.239
X22.578 Y95.93 Z1.232
X22.589 Y95.971 Z1.225
X22.584 Y96.013 Z1.218
X22.564 Y96.05 Z1.211
X22.532 Y96.077 Z1.204
X22.492 Y96.091 Z1.197
X22.45 Y96.089 Z1.189
X22.412 Y96.071 Z1.182
X22.383 Y96.041 Z1.175
X22.367 Y96.002 Z1.168
X22.366 Y95.96 Z1.161
X22.381 Y95.92 Z1.154
X22.41 Y95.889 Z1.147
X22.447 Y95.871 Z1.14
X22.489 Y95.868 Z1.132
X22.53 Y95.88 Z1.125
X22.563 Y95.906 Z1.118
X22.583 Y95.943 Z1.111
X22.589 Y95.985 Z1.104
X22.579 Y96.026 Z1.097
X22.555 Y96.06 Z1.09
X22.52 Y96.083 Z1.083
X22.478 Y96.092 Z1.075
X22.437 Y96.085 Z1.068
X22.401 Y96.062 Z1.061
X22.376 Y96.029 Z1.054
X22.365 Y95.988 Z1.047
X22.369 Y95.946 Z1.04
X22.389 Y95.909 Z1.033
X22.421 Y95.882 Z1.026
X22.461 Y95.868 Z1.019
X22.503 Y95.87 Z1.011
X22.542 Y95.887 Z1.004
X22.571 Y95.918 Z0.997
X22.587 Y95.957 Z0.99
X22.588 Y95.999 Z0.983
X22.573 Y96.038 Z0.976
X22.544 Y96.069 Z0.969
X22.507 Y96.088 Z0.962
X22.464 Y96.091 Z0.954
X22.424 Y96.079 Z0.947
X22.391 Y96.052 Z0.94
X22.37 Y96.016 Z0.933
X22.365 Y95.974 Z0.926
X22.374 Y95.933 Z0.919
X22.399 Y95.899 Z0.912
X22.434 Y95.875 Z0.905
X22.475 Y95.867 Z0.897
X22.517 Y95.874 Z0.89
X22.553 Y95.896 Z0.883
X22.578 Y95.93 Z0.876
X22.589 Y95.97 Z0.869
X22.584 Y96.012 Z0.862
X22.565 Y96.05 Z0.855
X22.533 Y96.077 Z0.848
X22.493 Y96.091 Z0.84
X22.451 Y96.089 Z0.833
X22.412 Y96.071 Z0.826
X22.383 Y96.041 Z0.819
X22.367 Y96.002 Z0.812
X22.366 Y95.96 Z0.805
X22.381 Y95.921 Z0.798
X22.409 Y95.889 Z0.791
X22.447 Y95.871 Z0.783
X22.489 Y95.868 Z0.776
X22.529 Y95.88 Z0.769
X22.562 Y95.906 Z0.762
X22.583 Y95.943 Z0.755
X22.589 Y95.984 Z0.748
X22.58 Y96.025 Z0.741
X22.555 Y96.06 Z0.734
X22.52 Y96.083 Z0.726
X22.479 Y96.092 Z0.719
X22.437 Y96.085 Z0.712
X22.401 Y96.063 Z0.705
X22.376 Y96.029 Z0.698
X22.365 Y95.988 Z0.691
X22.369 Y95.947 Z0.684
X22.389 Y95.909 Z0.677
X22.421 Y95.882 Z0.67
X22.461 Y95.868 Z0.662
X22.503 Y95.87 Z0.655
X22.541 Y95.887 Z0.648
X22.571 Y95.917 Z0.641
X22.587 Y95.956 Z0.634
X22.588 Y95.998 Z0.627
X22.573 Y96.038 Z0.62
X22.545 Y96.069 Z0.613
X22.507 Y96.088 Z0.605
X22.465 Y96.091 Z0.598
X22.425 Y96.079 Z0.591
X22.392 Y96.053 Z0.584
X22.371 Y96.016 Z0.577
X22.365 Y95.974 Z0.57
X22.374 Y95.933 Z0.563
X22.398 Y95.899 Z0.556
X22.433 Y95.876 Z0.548
X22.475 Y95.867 Z0.541
X22.516 Y95.874 Z0.534
X22.552 Y95.896 Z0.527
X22.578 Y95.929 Z0.52
X22.589 Y95.97 Z0.513
X22.585 Y96.012 Z0.506
X22.565 Y96.049 Z0.499
X22.533 Y96.077 Z0.491
X22.493 Y96.091 Z0.484
X22.451 Y96.089 Z0.477
X22.413 Y96.072 Z0.47
X22.383 Y96.042 Z0.463
X22.367 Y96.003 Z0.456
X22.366 Y95.961 Z0.449
X22.381 Y95.921 Z0.442
X22.409 Y95.89 Z0.434
X22.447 Y95.871 Z0.427
X22.489 Y95.867 Z0.42
X22.529 Y95.88 Z0.413
X22.562 Y95.906 Z0.406
X22.583 Y95.942 Z0.399
X22.589 Y95.984 Z0.392
X22.58 Y96.025 Z0.385
X22.556 Y96.06 Z0.377
X22.52 Y96.083 Z0.37
X22.479 Y96.092 Z0.363
X22.438 Y96.085 Z0.356
X22.402 Y96.063 Z0.349
X22.376 Y96.029 Z0.342
X22.365 Y95.989 Z0.335
X22.369 Y95.947 Z0.328
X22.389 Y95.91 Z0.321
X22.421 Y95.882 Z0.313
X22.46 Y95.868 Z0.306
X22.502 Y95.87 Z0.299
X22.541 Y95.887 Z0.292
X22.571 Y95.917 Z0.285
X22.587 Y95.956 Z0.278
X22.588 Y95.998 Z0.271
X22.573 Y96.038 Z0.264
X22.545 Y96.069 Z0.256
X22.507 Y96.088 Z0.249
X22.465 Y96.091 Z0.242
X22.425 Y96.079 Z0.235
X22.392 Y96.053 Z0.228
X22.371 Y96.017 Z0.221
X22.364 Y95.975 Z0.214
X22.374 Y95.934 Z0.207
X22.398 Y95.899 Z0.199
X22.433 Y95.876 Z0.192
X22.474 Y95.867 Z0.185
X22.516 Y95.874 Z0.178
X22.552 Y95.896 Z0.171
X22.578 Y95.929 Z0.164
X22.589 Y95.97 Z0.157
X22.585 Y96.012 Z0.15
X22.565 Y96.049 Z0.142
X22.533 Y96.077 Z0.135
X22.494 Y96.091 Z0.128
X22.451 Y96.089 Z0.121
X22.413 Y96.072 Z0.114
X22.383 Y96.042 Z0.107
X22.367 Y96.003 Z0.1
X22.366 Y95.961 Z0.093
X22.38 Y95.921 Z0.085
X22.409 Y95.89 Z0.078
X22.446 Y95.871 Z0.071
X22.488 Y95.867 Z0.064
X22.529 Y95.879 Z0.057
X22.562 Y95.906 Z0.05
X22.583 Y95.942 Z0.043
X22.589 Y95.984 Z0.036
X22.58 Y96.025 Z0.028
X22.556 Y96.059 Z0.021
X22.521 Y96.083 Z0.014
X22.48 Y96.092 Z0.007
X22.438 Y96.085 Z0
G3 X22.516 Y95.874 I0.039 J-0.106
X22.438 Y96.085 I-0.039 J0.106
G1 X22.414 Y96.068
X22.402 Y96.042
X22.405 Y96.013
X22.477 Y95.979
G0 Z18.1
X43.318 Y88.869
Z7
G1 Z5.318 F500
G19 G3 Y89.186 Z5 J0.317 K0
G1 Y89.345
G17 G3 X43 Y89.662 I-0.318 J0
X43 Y88.338 Z4.921 I0 J-0.662
X43 Y89.662 Z4.843 I0 J0.662
X43 Y88.338 Z4.764 I0 J-0.662
X43 Y89.662 Z4.686 I0 J0.662
X43 Y88.338 Z4.607 I0 J-0.662
X43 Y89.662 Z4.529 I0 J0.662
X43 Y88.338 Z4.45 I0 J-0.662
X43 Y89.662 Z4.371 I0 J0.662
X43 Y88.338 Z4.293 I0 J-0.662
X43 Y89.662 Z4.214 I0 J0.662
X43 Y88.338 Z4.136 I0 J-0.662
X43 Y89.662 Z4.057 I0 J0.662
X43 Y88.338 Z3.979 I0 J-0.662
X43 Y89.662 Z3.9 I0 J0.662
X43 Y88.338 Z3.821 I0 J-0.662
X43 Y89.662 Z3.743 I0 J0.662
X43 Y88.338 Z3.664 I0 J-0.662
X43 Y89.662 Z3.586 I0 J0.662
X43 Y88.338 Z3.507 I0 J-0.662
X43 Y89.662 Z3.429 I0 J0.662
X43 Y88.338 Z3.35 I0 J-0.662
X43 Y89.662 Z3.271 I0 J0.662
X43 Y88.338 Z3.193 I0 J-0.662
X43 Y89.662 Z3.114 I0 J0.662
X43 Y88.338 Z3.036 I0 J-0.662
X43 Y89.662 Z2.957 I0 J0.662
X43 Y88.338 Z2.879 I0 J-0.662
X43 Y89.662 Z2.8 I0 J0.662
X43 Y88.338 Z2.721 I0 J-0.662
X43 Y89.663 Z2.643 I0 J0.662
X43 Y88.337 Z2.564 I0 J-0.663
X43 Y89.663 Z2.486 I0 J0.663
X43 Y88.337 Z2.407 I0 J-0.663
X43 Y89.663 Z2.329 I0 J0.663
X43 Y88.337 Z2.25 I0 J-0.663
X43 Y89.663 Z2.171 I0 J0.663
X43 Y88.337 Z2.093 I0 J-0.663
X43 Y89.663 Z2.014 I0 J0.663
X43 Y88.337 Z1.936 I0 J-0.663
X43 Y89.663 Z1.857 I0 J0.663
X43 Y88.337 Z1.779 I0 J-0.663
X43 Y89.663 Z1.7 I0 J0.663
X43 Y88.337 Z1.621 I0 J-0.663
X43 Y89.663 Z1.543 I0 J0.663
X43 Y88.337 Z1.464 I0 J-0.663
X43 Y89.663 Z1.386 I0 J0.663
X43 Y88.337 Z1.307 I0 J-0.663
X43 Y89.663 Z1.229 I0 J0.663
X43 Y88.337 Z1.15 I0 J-0.663
X43 Y89.663 Z1.071 I0 J0.663
X43 Y88.337 Z0.993 I0 J-0.663
X43 Y89.663 Z0.914 I0 J0.663
X43 Y88.337 Z0.836 I0 J-0.663
X43 Y89.663 Z0.757 I0 J0.663
X43 Y88.337 Z0.679 I0 J-0.663
X43 Y89.663 Z0.6 I0 J0.663
X43 Y88.337 Z0.521 I0 J-0.663
X43 Y89.663 Z0.443 I0 J0.663
X43 Y88.337 Z0.364 I0 J-0.663
X43 Y89.663 Z0.286 I0 J0.663
X43 Y88.337 Z0.207 I0 J-0.663
X43 Y89.663 Z0.129 I0 J0.663
X43 Y88.337 Z0.05 I0 J-0.663
X43.603 Y89.275 Z0 I0 J0.663
X42.397 Y88.725 I-0.603 J-0.275
X43.603 Y89.275 I0.603 J0.275
X43.182 Y89.432 I-0.289 J-0.132
G1 X43.038 Y89.366
X42.974 Y89.337 Z0.008
X42.912 Y89.309 Z0.031
X42.858 Y89.284 Z0.069
X42.812 Y89.263 Z0.12
X42.778 Y89.248 Z0.18
X42.756 Y89.238 Z0.247
X42.749 Y89.234 Z0.317
G0 Z18.1
X30.603 Y52.203
Z9.483
G1 Z7.8 F500
X30.659 Y52.259
X30.652 Y52.287
X30.631 Y52.308
X30.603 Y52.316
X30.561 Y52.308 Z7.793
X30.526 Y52.285 Z7.786
X30.501 Y52.251 Z7.779
X30.491 Y52.21 Z7.771
X30.496 Y52.168 Z7.764
X30.516 Y52.131 Z7.757
X30.549 Y52.104 Z7.75
X30.589 Y52.091 Z7.743
X30.631 Y52.094 Z7.736
X30.67 Y52.112 Z7.729
X30.698 Y52.143 Z7.722
X30.714 Y52.183 Z7.714
X30.713 Y52.225 Z7.707
X30.697 Y52.264 Z7.7
X30.668 Y52.295 Z7.693
X30.63 Y52.312 Z7.686
X30.587 Y52.314 Z7.679
X30.547 Y52.301 Z7.672
X30.515 Y52.274 Z7.664
X30.495 Y52.236 Z7.657
X30.491 Y52.194 Z7.65
X30.502 Y52.154 Z7.643
X30.527 Y52.12 Z7.636
X30.563 Y52.098 Z7.629
X30.605 Y52.091 Z7.622
X30.646 Y52.099 Z7.614
X30.681 Y52.122 Z7.607
X30.706 Y52.157 Z7.6
X30.715 Y52.198 Z7.593
X30.709 Y52.24 Z7.586
X30.688 Y52.276 Z7.579
X30.655 Y52.303 Z7.572
X30.615 Y52.315 Z7.565
X30.572 Y52.311 Z7.557
X30.535 Y52.292 Z7.55
X30.506 Y52.261 Z7.543
X30.492 Y52.221 Z7.536
X30.493 Y52.179 Z7.529
X30.509 Y52.14 Z7.522
X30.539 Y52.11 Z7.515
X30.578 Y52.093 Z7.507
X30.62 Y52.092 Z7.5
X30.66 Y52.106 Z7.493
X30.692 Y52.134 Z7.486
X30.711 Y52.171 Z7.479
X30.715 Y52.213 Z7.472
X30.703 Y52.254 Z7.465
X30.677 Y52.287 Z7.457
X30.641 Y52.309 Z7.45
X30.599 Y52.315 Z7.443
X30.558 Y52.306 Z7.436
X30.523 Y52.282 Z7.429
X30.499 Y52.247 Z7.422
X30.49 Y52.206 Z7.415
X30.497 Y52.164 Z7.408
X30.519 Y52.128 Z7.4
X30.552 Y52.102 Z7.393
X30.593 Y52.091 Z7.386
X30.635 Y52.095 Z7.379
X30.673 Y52.115 Z7.372
X30.7 Y52.147 Z7.365
X30.714 Y52.186 Z7.358
X30.712 Y52.229 Z7.35
X30.695 Y52.267 Z7.343
X30.665 Y52.297 Z7.336
X30.626 Y52.313 Z7.329
X30.584 Y52.314 Z7.322
X30.544 Y52.299 Z7.315
X30.513 Y52.271 Z7.308
X30.494 Y52.233 Z7.3
X30.491 Y52.191 Z7.293
X30.503 Y52.15 Z7.286
X30.53 Y52.117 Z7.279
X30.567 Y52.097 Z7.272
X30.608 Y52.091 Z7.265
X30.649 Y52.101 Z7.258
X30.684 Y52.125 Z7.251
X30.707 Y52.16 Z7.243
X30.715 Y52.202 Z7.236
X30.708 Y52.243 Z7.229
X30.686 Y52.279 Z7.222
X30.652 Y52.304 Z7.215
X30.611 Y52.315 Z7.208
X30.569 Y52.31 Z7.201
X30.532 Y52.29 Z7.193
X30.505 Y52.258 Z7.186
X30.491 Y52.218 Z7.179
X30.494 Y52.176 Z7.172
X30.512 Y52.137 Z7.165
X30.542 Y52.108 Z7.158
X30.581 Y52.093 Z7.151
X30.624 Y52.092 Z7.143
X30.663 Y52.108 Z7.136
X30.694 Y52.137 Z7.129
X30.712 Y52.175 Z7.122
X30.714 Y52.217 Z7.115
X30.701 Y52.257 Z7.108
X30.674 Y52.29 Z7.101
X30.637 Y52.31 Z7.094
X30.595 Y52.315 Z7.086
X30.555 Y52.305 Z7.079
X30.52 Y52.28 Z7.072
X30.498 Y52.244 Z7.065
X30.49 Y52.202 Z7.058
X30.499 Y52.161 Z7.051
X30.521 Y52.125 Z7.044
X30.556 Y52.101 Z7.036
X30.597 Y52.091 Z7.029
X30.639 Y52.096 Z7.022
X30.675 Y52.117 Z7.015
X30.702 Y52.15 Z7.008
X30.715 Y52.19 Z7.001
X30.711 Y52.232 Z6.994
X30.693 Y52.27 Z6.986
X30.662 Y52.299 Z6.979
X30.622 Y52.314 Z6.972
X30.58 Y52.313 Z6.965
X30.541 Y52.297 Z6.958
X30.511 Y52.268 Z6.951
X30.493 Y52.229 Z6.944
X30.491 Y52.187 Z6.937
X30.505 Y52.147 Z6.929
X30.533 Y52.115 Z6.922
X30.57 Y52.095 Z6.915
X30.612 Y52.091 Z6.908
X30.653 Y52.102 Z6.901
X30.686 Y52.128 Z6.894
X30.708 Y52.164 Z6.887
X30.715 Y52.206 Z6.879
X30.706 Y52.247 Z6.872
X30.683 Y52.282 Z6.865
X30.648 Y52.306 Z6.858
X30.607 Y52.315 Z6.851
X30.565 Y52.309 Z6.844
X30.529 Y52.288 Z6.837
X30.503 Y52.255 Z6.829
X30.491 Y52.214 Z6.822
X30.495 Y52.172 Z6.815
X30.514 Y52.134 Z6.808
X30.545 Y52.106 Z6.801
X30.585 Y52.092 Z6.794
X30.627 Y52.093 Z6.787
X30.666 Y52.11 Z6.78
X30.696 Y52.14 Z6.772
X30.713 Y52.179 Z6.765
X30.714 Y52.221 Z6.758
X30.7 Y52.261 Z6.751
X30.671 Y52.292 Z6.744
X30.634 Y52.311 Z6.737
X30.592 Y52.315 Z6.73
X30.551 Y52.303 Z6.722
X30.518 Y52.277 Z6.715
X30.497 Y52.24 Z6.708
X30.49 Y52.199 Z6.701
X30.5 Y52.157 Z6.694
X30.524 Y52.123 Z6.687
X30.559 Y52.099 Z6.68
X30.6 Y52.091 Z6.672
X30.642 Y52.098 Z6.665
X30.678 Y52.119 Z6.658
X30.704 Y52.153 Z6.651
X30.715 Y52.194 Z6.644
X30.71 Y52.236 Z6.637
X30.691 Y52.273 Z6.63
X30.659 Y52.301 Z6.623
X30.619 Y52.314 Z6.615
X30.577 Y52.312 Z6.608
X30.538 Y52.295 Z6.601
X30.509 Y52.265 Z6.594
X30.493 Y52.226 Z6.587
X30.492 Y52.183 Z6.58
X30.507 Y52.144 Z6.573
X30.536 Y52.113 Z6.565
X30.574 Y52.094 Z6.558
X30.616 Y52.091 Z6.551
X30.656 Y52.104 Z6.544
X30.689 Y52.131 Z6.537
X30.71 Y52.167 Z6.53
X30.715 Y52.209 Z6.523
X30.705 Y52.25 Z6.515
X30.68 Y52.285 Z6.508
X30.645 Y52.307 Z6.501
X30.603 Y52.316 Z6.494
X30.562 Y52.308 Z6.487
X30.526 Y52.285 Z6.48
X30.501 Y52.251 Z6.473
X30.491 Y52.21 Z6.466
X30.496 Y52.168 Z6.458
X30.516 Y52.131 Z6.451
X30.549 Y52.104 Z6.444
X30.589 Y52.091 Z6.437
X30.631 Y52.094 Z6.43
X30.669 Y52.112 Z6.423
X30.698 Y52.143 Z6.416
X30.713 Y52.182 Z6.408
Y52.225 Z6.401
X30.698 Y52.264 Z6.394
X30.669 Y52.294 Z6.387
X30.63 Y52.312 Z6.38
X30.588 Y52.315 Z6.373
X30.548 Y52.301 Z6.366
X30.516 Y52.274 Z6.358
X30.496 Y52.237 Z6.351
X30.491 Y52.195 Z6.344
X30.502 Y52.154 Z6.337
X30.527 Y52.12 Z6.33
X30.563 Y52.098 Z6.323
X30.604 Y52.091 Z6.316
X30.646 Y52.099 Z6.309
X30.681 Y52.122 Z6.301
X30.705 Y52.157 Z6.294
X30.715 Y52.198 Z6.287
X30.709 Y52.239 Z6.28
X30.688 Y52.276 Z6.273
X30.655 Y52.302 Z6.266
X30.615 Y52.315 Z6.259
X30.573 Y52.311 Z6.251
X30.535 Y52.293 Z6.244
X30.507 Y52.261 Z6.237
X30.492 Y52.222 Z6.23
X30.493 Y52.18 Z6.223
X30.509 Y52.141 Z6.216
X30.539 Y52.111 Z6.209
X30.577 Y52.093 Z6.201
X30.62 Y52.092 Z6.194
X30.659 Y52.106 Z6.187
X30.691 Y52.133 Z6.18
X30.711 Y52.171 Z6.173
X30.715 Y52.213 Z6.166
X30.703 Y52.254 Z6.159
X30.678 Y52.287 Z6.152
X30.641 Y52.309 Z6.144
X30.6 Y52.315 Z6.137
X30.558 Y52.306 Z6.13
X30.523 Y52.283 Z6.123
X30.5 Y52.248 Z6.116
X30.49 Y52.207 Z6.109
X30.497 Y52.165 Z6.102
X30.519 Y52.129 Z6.094
X30.552 Y52.103 Z6.087
X30.593 Y52.091 Z6.08
X30.635 Y52.095 Z6.073
X30.672 Y52.114 Z6.066
X30.7 Y52.146 Z6.059
X30.714 Y52.186 Z6.052
X30.713 Y52.228 Z6.044
X30.696 Y52.267 Z6.037
X30.665 Y52.296 Z6.03
X30.627 Y52.313 Z6.023
X30.584 Y52.314 Z6.016
X30.545 Y52.299 Z6.009
X30.513 Y52.271 Z6.002
X30.495 Y52.233 Z5.995
X30.491 Y52.191 Z5.987
X30.503 Y52.151 Z5.98
X30.529 Y52.118 Z5.973
X30.566 Y52.097 Z5.966
X30.608 Y52.091 Z5.959
X30.649 Y52.1 Z5.952
X30.684 Y52.125 Z5.945
X30.707 Y52.16 Z5.937
X30.715 Y52.201 Z5.93
X30.708 Y52.243 Z5.923
X30.686 Y52.279 Z5.916
X30.652 Y52.304 Z5.909
X30.611 Y52.315 Z5.902
X30.569 Y52.31 Z5.895
X30.532 Y52.291 Z5.887
X30.505 Y52.258 Z5.88
X30.491 Y52.218 Z5.873
X30.494 Y52.176 Z5.866
X30.511 Y52.138 Z5.859
X30.542 Y52.109 Z5.852
X30.581 Y52.093 Z5.845
X30.623 Y52.092 Z5.838
X30.663 Y52.108 Z5.83
X30.694 Y52.136 Z5.823
X30.712 Y52.175 Z5.816
X30.715 Y52.217 Z5.809
X30.702 Y52.257 Z5.802
X30.675 Y52.289 Z5.795
X30.638 Y52.31 Z5.788
X30.596 Y52.315 Z5.78
X30.555 Y52.305 Z5.773
X30.521 Y52.28 Z5.766
X30.498 Y52.244 Z5.759
X30.49 Y52.203 Z5.752
X30.498 Y52.161 Z5.745
X30.521 Y52.126 Z5.738
X30.555 Y52.101 Z5.73
X30.596 Y52.091 Z5.723
X30.638 Y52.096 Z5.716
X30.675 Y52.117 Z5.709
X30.702 Y52.149 Z5.702
X30.715 Y52.19 Z5.695
X30.712 Y52.232 Z5.688
X30.693 Y52.27 Z5.681
X30.662 Y52.299 Z5.673
X30.623 Y52.314 Z5.666
X30.581 Y52.313 Z5.659
X30.542 Y52.297 Z5.652
X30.511 Y52.268 Z5.645
X30.494 Y52.23 Z5.638
X30.491 Y52.188 Z5.631
X30.505 Y52.148 Z5.623
X30.532 Y52.115 Z5.616
X30.57 Y52.096 Z5.609
X30.612 Y52.091 Z5.602
X30.652 Y52.102 Z5.595
X30.686 Y52.127 Z5.588
X30.708 Y52.163 Z5.581
X30.715 Y52.205 Z5.573
X30.707 Y52.246 Z5.566
X30.683 Y52.282 Z5.559
X30.649 Y52.306 Z5.552
X30.608 Y52.315 Z5.545
X30.566 Y52.309 Z5.538
X30.529 Y52.288 Z5.531
X30.503 Y52.255 Z5.524
X30.491 Y52.215 Z5.516
X30.495 Y52.172 Z5.509
X30.513 Y52.135 Z5.502
X30.545 Y52.107 Z5.495
X30.585 Y52.092 Z5.488
X30.627 Y52.093 Z5.481
X30.666 Y52.11 Z5.474
X30.696 Y52.139 Z5.466
X30.713 Y52.178 Z5.459
X30.714 Y52.22 Z5.452
X30.7 Y52.26 Z5.445
X30.672 Y52.292 Z5.438
X30.634 Y52.311 Z5.431
X30.592 Y52.315 Z5.424
X30.552 Y52.303 Z5.416
X30.518 Y52.277 Z5.409
X30.497 Y52.241 Z5.402
X30.49 Y52.199 Z5.395
X30.5 Y52.158 Z5.388
X30.524 Y52.123 Z5.381
X30.559 Y52.1 Z5.374
X30.6 Y52.091 Z5.367
X30.642 Y52.097 Z5.359
X30.678 Y52.119 Z5.352
X30.703 Y52.153 Z5.345
X30.715 Y52.193 Z5.338
X30.711 Y52.235 Z5.331
X30.691 Y52.273 Z5.324
X30.659 Y52.3 Z5.317
X30.619 Y52.314 Z5.309
X30.577 Y52.313 Z5.302
X30.539 Y52.295 Z5.295
X30.509 Y52.265 Z5.288
X30.493 Y52.226 Z5.281
X30.492 Y52.184 Z5.274
X30.507 Y52.144 Z5.267
X30.535 Y52.113 Z5.259
X30.573 Y52.094 Z5.252
X30.615 Y52.091 Z5.245
X30.656 Y52.104 Z5.238
X30.689 Y52.13 Z5.231
X30.709 Y52.167 Z5.224
X30.715 Y52.209 Z5.217
X30.705 Y52.25 Z5.21
X30.681 Y52.284 Z5.202
X30.645 Y52.307 Z5.195
X30.604 Y52.316 Z5.188
X30.562 Y52.308 Z5.181
X30.527 Y52.286 Z5.174
X30.501 Y52.252 Z5.167
X30.491 Y52.211 Z5.16
X30.496 Y52.169 Z5.152
X30.516 Y52.132 Z5.145
X30.548 Y52.105 Z5.138
X30.588 Y52.091 Z5.131
X30.63 Y52.094 Z5.124
X30.669 Y52.112 Z5.117
X30.698 Y52.143 Z5.11
X30.713 Y52.182 Z5.102
Y52.224 Z5.095
X30.698 Y52.263 Z5.088
X30.669 Y52.294 Z5.081
X30.631 Y52.312 Z5.074
X30.589 Y52.315 Z5.067
X30.548 Y52.301 Z5.06
X30.516 Y52.274 Z5.053
X30.496 Y52.237 Z5.045
X30.491 Y52.195 Z5.038
X30.501 Y52.155 Z5.031
X30.526 Y52.121 Z5.024
X30.562 Y52.098 Z5.017
X30.604 Y52.091 Z5.01
X30.645 Y52.099 Z5.003
X30.681 Y52.122 Z4.995
X30.705 Y52.156 Z4.988
X30.715 Y52.197 Z4.981
X30.709 Y52.239 Z4.974
X30.689 Y52.276 Z4.967
X30.656 Y52.302 Z4.96
X30.616 Y52.315 Z4.953
X30.573 Y52.312 Z4.945
X30.535 Y52.293 Z4.938
X30.507 Y52.262 Z4.931
X30.492 Y52.222 Z4.924
X30.493 Y52.18 Z4.917
X30.509 Y52.141 Z4.91
X30.538 Y52.111 Z4.903
X30.577 Y52.094 Z4.896
X30.619 Y52.092 Z4.888
X30.659 Y52.105 Z4.881
X30.691 Y52.133 Z4.874
X30.711 Y52.17 Z4.867
X30.715 Y52.212 Z4.86
X30.704 Y52.253 Z4.853
X30.678 Y52.287 Z4.846
X30.642 Y52.309 Z4.838
X30.6 Y52.315 Z4.831
X30.559 Y52.307 Z4.824
X30.524 Y52.283 Z4.817
X30.5 Y52.248 Z4.81
X30.49 Y52.207 Z4.803
X30.497 Y52.165 Z4.796
X30.518 Y52.129 Z4.788
X30.551 Y52.103 Z4.781
X30.592 Y52.091 Z4.774
X30.634 Y52.095 Z4.767
X30.672 Y52.114 Z4.76
X30.7 Y52.146 Z4.753
X30.714 Y52.185 Z4.746
X30.713 Y52.228 Z4.739
X30.696 Y52.266 Z4.731
X30.666 Y52.296 Z4.724
X30.627 Y52.313 Z4.717
X30.585 Y52.314 Z4.71
X30.545 Y52.3 Z4.703
X30.514 Y52.272 Z4.696
X30.495 Y52.234 Z4.689
X30.491 Y52.192 Z4.681
X30.503 Y52.151 Z4.674
X30.529 Y52.118 Z4.667
X30.566 Y52.097 Z4.66
X30.607 Y52.091 Z4.653
X30.648 Y52.1 Z4.646
X30.683 Y52.124 Z4.639
X30.707 Y52.159 Z4.631
X30.715 Y52.201 Z4.624
X30.708 Y52.242 Z4.617
X30.686 Y52.278 Z4.61
X30.653 Y52.304 Z4.603
X30.612 Y52.315 Z4.596
X30.57 Y52.311 Z4.589
X30.533 Y52.291 Z4.582
X30.505 Y52.259 Z4.574
X30.491 Y52.219 Z4.567
X30.494 Y52.177 Z4.56
X30.511 Y52.138 Z4.553
X30.541 Y52.109 Z4.546
X30.58 Y52.093 Z4.539
X30.623 Y52.092 Z4.532
X30.662 Y52.107 Z4.524
X30.693 Y52.136 Z4.517
X30.712 Y52.174 Z4.51
X30.715 Y52.216 Z4.503
X30.702 Y52.256 Z4.496
X30.675 Y52.289 Z4.489
X30.638 Y52.31 Z4.482
X30.596 Y52.315 Z4.474
X30.556 Y52.305 Z4.467
X30.521 Y52.28 Z4.46
X30.498 Y52.245 Z4.453
X30.49 Y52.203 Z4.446
X30.498 Y52.162 Z4.439
X30.521 Y52.126 Z4.432
X30.555 Y52.101 Z4.425
X30.596 Y52.091 Z4.417
X30.638 Y52.096 Z4.41
X30.675 Y52.116 Z4.403
X30.701 Y52.149 Z4.396
X30.714 Y52.189 Z4.389
X30.712 Y52.231 Z4.382
X30.694 Y52.269 Z4.375
X30.663 Y52.298 Z4.367
X30.623 Y52.314 Z4.36
X30.581 Y52.313 Z4.353
X30.542 Y52.298 Z4.346
X30.511 Y52.269 Z4.339
X30.494 Y52.23 Z4.332
X30.491 Y52.188 Z4.325
X30.505 Y52.148 Z4.317
X30.532 Y52.116 Z4.31
X30.569 Y52.096 Z4.303
X30.611 Y52.091 Z4.296
X30.652 Y52.102 Z4.289
X30.686 Y52.127 Z4.282
X30.708 Y52.163 Z4.275
X30.715 Y52.204 Z4.268
X30.707 Y52.246 Z4.26
X30.684 Y52.281 Z4.253
X30.649 Y52.306 Z4.246
X30.608 Y52.315 Z4.239
X30.566 Y52.309 Z4.232
X30.53 Y52.288 Z4.225
X30.503 Y52.255 Z4.218
X30.491 Y52.215 Z4.21
X30.494 Y52.173 Z4.203
X30.513 Y52.135 Z4.196
X30.544 Y52.107 Z4.189
X30.584 Y52.092 Z4.182
X30.626 Y52.093 Z4.175
X30.665 Y52.109 Z4.168
X30.695 Y52.139 Z4.16
X30.712 Y52.178 Z4.153
X30.714 Y52.22 Z4.146
X30.7 Y52.26 Z4.139
X30.672 Y52.291 Z4.132
X30.635 Y52.311 Z4.125
X30.593 Y52.315 Z4.118
X30.552 Y52.303 Z4.111
X30.519 Y52.278 Z4.103
X30.497 Y52.241 Z4.096
X30.49 Y52.2 Z4.089
X30.5 Y52.158 Z4.082
X30.523 Y52.124 Z4.075
X30.558 Y52.1 Z4.068
X30.599 Y52.091 Z4.061
X30.641 Y52.097 Z4.053
X30.677 Y52.119 Z4.046
X30.703 Y52.152 Z4.039
X30.715 Y52.193 Z4.032
X30.711 Y52.235 Z4.025
X30.691 Y52.272 Z4.018
X30.66 Y52.3 Z4.011
X30.62 Y52.314 Z4.003
X30.578 Y52.313 Z3.996
X30.539 Y52.296 Z3.989
X30.509 Y52.266 Z3.982
X30.493 Y52.227 Z3.975
X30.492 Y52.184 Z3.968
X30.507 Y52.145 Z3.961
X30.535 Y52.113 Z3.954
X30.573 Y52.095 Z3.946
X30.615 Y52.091 Z3.939
X30.655 Y52.103 Z3.932
X30.688 Y52.13 Z3.925
X30.709 Y52.166 Z3.918
X30.715 Y52.208 Z3.911
X30.705 Y52.249 Z3.904
X30.681 Y52.284 Z3.896
X30.646 Y52.307 Z3.889
X30.604 Y52.316 Z3.882
X30.563 Y52.308 Z3.875
X30.527 Y52.286 Z3.868
X30.502 Y52.252 Z3.861
X30.491 Y52.211 Z3.854
X30.495 Y52.169 Z3.846
X30.515 Y52.132 Z3.839
X30.548 Y52.105 Z3.832
X30.588 Y52.092 Z3.825
X30.63 Y52.094 Z3.818
X30.668 Y52.111 Z3.811
X30.697 Y52.142 Z3.804
X30.713 Y52.181 Z3.797
Y52.223 Z3.789
X30.698 Y52.263 Z3.782
X30.669 Y52.294 Z3.775
X30.631 Y52.312 Z3.768
X30.589 Y52.315 Z3.761
X30.549 Y52.302 Z3.754
X30.516 Y52.275 Z3.747
X30.496 Y52.238 Z3.739
X30.491 Y52.196 Z3.732
X30.501 Y52.155 Z3.725
X30.526 Y52.121 Z3.718
X30.562 Y52.098 Z3.711
X30.603 Y52.091 Z3.704
X30.645 Y52.099 Z3.697
X30.68 Y52.121 Z3.689
X30.705 Y52.156 Z3.682
X30.715 Y52.197 Z3.675
X30.71 Y52.238 Z3.668
X30.689 Y52.275 Z3.661
X30.656 Y52.302 Z3.654
X30.616 Y52.315 Z3.647
X30.574 Y52.312 Z3.64
X30.536 Y52.293 Z3.632
X30.507 Y52.262 Z3.625
X30.492 Y52.223 Z3.618
X30.493 Y52.181 Z3.611
X30.509 Y52.142 Z3.604
X30.538 Y52.111 Z3.597
X30.576 Y52.094 Z3.59
X30.618 Y52.092 Z3.582
X30.658 Y52.105 Z3.575
X30.691 Y52.133 Z3.568
X30.71 Y52.17 Z3.561
X30.715 Y52.212 Z3.554
X30.704 Y52.253 Z3.547
X30.678 Y52.286 Z3.54
X30.642 Y52.308 Z3.532
X30.601 Y52.315 Z3.525
X30.559 Y52.307 Z3.518
X30.524 Y52.283 Z3.511
X30.5 Y52.249 Z3.504
X30.49 Y52.208 Z3.497
X30.497 Y52.166 Z3.49
X30.518 Y52.129 Z3.483
X30.551 Y52.103 Z3.475
X30.591 Y52.091 Z3.468
X30.634 Y52.095 Z3.461
X30.671 Y52.114 Z3.454
X30.699 Y52.145 Z3.447
X30.714 Y52.185 Z3.44
X30.713 Y52.227 Z3.433
X30.696 Y52.266 Z3.425
X30.666 Y52.296 Z3.418
X30.628 Y52.313 Z3.411
X30.585 Y52.314 Z3.404
X30.546 Y52.3 Z3.397
X30.514 Y52.272 Z3.39
X30.495 Y52.234 Z3.383
X30.491 Y52.192 Z3.375
X30.503 Y52.152 Z3.368
X30.529 Y52.118 Z3.361
X30.565 Y52.097 Z3.354
X30.607 Y52.091 Z3.347
X30.648 Y52.1 Z3.34
X30.683 Y52.124 Z3.333
X30.706 Y52.159 Z3.326
X30.715 Y52.2 Z3.318
X30.708 Y52.242 Z3.311
X30.687 Y52.278 Z3.304
X30.653 Y52.304 Z3.297
X30.612 Y52.315 Z3.29
X30.57 Y52.311 Z3.283
X30.533 Y52.291 Z3.276
X30.505 Y52.259 Z3.268
X30.492 Y52.219 Z3.261
X30.493 Y52.177 Z3.254
X30.511 Y52.139 Z3.247
X30.541 Y52.109 Z3.24
X30.58 Y52.093 Z3.233
X30.622 Y52.092 Z3.226
X30.662 Y52.107 Z3.218
X30.693 Y52.136 Z3.211
X30.711 Y52.173 Z3.204
X30.715 Y52.216 Z3.197
X30.702 Y52.256 Z3.19
X30.676 Y52.289 Z3.183
X30.639 Y52.31 Z3.176
X30.597 Y52.315 Z3.169
X30.556 Y52.305 Z3.161
X30.522 Y52.281 Z3.154
X30.499 Y52.245 Z3.147
X30.49 Y52.204 Z3.14
X30.498 Y52.162 Z3.133
X30.52 Y52.127 Z3.126
X30.554 Y52.102 Z3.119
X30.595 Y52.091 Z3.111
X30.637 Y52.096 Z3.104
X30.674 Y52.116 Z3.097
X30.701 Y52.148 Z3.09
X30.714 Y52.189 Z3.083
X30.712 Y52.231 Z3.076
X30.694 Y52.269 Z3.069
X30.663 Y52.298 Z3.061
X30.624 Y52.314 Z3.054
X30.582 Z3.047
X30.542 Y52.298 Z3.04
X30.512 Y52.269 Z3.033
X30.494 Y52.231 Z3.026
X30.491 Y52.189 Z3.019
X30.504 Y52.148 Z3.012
X30.532 Y52.116 Z3.004
X30.569 Y52.096 Z2.997
X30.611 Y52.091 Z2.99
X30.651 Y52.102 Z2.983
X30.685 Y52.127 Z2.976
X30.708 Y52.162 Z2.969
X30.715 Y52.204 Z2.962
X30.707 Y52.245 Z2.954
X30.684 Y52.281 Z2.947
X30.65 Y52.305 Z2.94
X30.609 Y52.315 Z2.933
X30.567 Y52.31 Z2.926
X30.53 Y52.289 Z2.919
X30.504 Y52.256 Z2.912
X30.491 Y52.216 Z2.904
X30.494 Y52.174 Z2.897
X30.513 Y52.136 Z2.89
X30.544 Y52.107 Z2.883
X30.584 Y52.092 Z2.876
X30.626 Y52.093 Z2.869
X30.665 Y52.109 Z2.862
X30.695 Y52.139 Z2.855
X30.712 Y52.177 Z2.847
X30.714 Y52.219 Z2.84
X30.7 Y52.259 Z2.833
X30.673 Y52.291 Z2.826
X30.635 Y52.311 Z2.819
X30.593 Y52.315 Z2.812
X30.553 Y52.304 Z2.805
X30.519 Y52.278 Z2.797
X30.497 Y52.242 Z2.79
X30.49 Y52.2 Z2.783
X30.499 Y52.159 Z2.776
X30.523 Y52.124 Z2.769
X30.558 Y52.1 Z2.762
X30.599 Y52.091 Z2.755
X30.641 Y52.097 Z2.747
X30.677 Y52.118 Z2.74
X30.703 Y52.152 Z2.733
X30.715 Y52.192 Z2.726
X30.711 Y52.234 Z2.719
X30.692 Y52.272 Z2.712
X30.66 Y52.3 Z2.705
X30.62 Y52.314 Z2.698
X30.578 Y52.313 Z2.69
X30.539 Y52.296 Z2.683
X30.51 Y52.266 Z2.676
X30.493 Y52.227 Z2.669
X30.492 Y52.185 Z2.662
X30.506 Y52.145 Z2.655
X30.534 Y52.114 Z2.648
X30.572 Y52.095 Z2.64
X30.614 Y52.091 Z2.633
X30.655 Y52.103 Z2.626
X30.688 Y52.129 Z2.619
X30.709 Y52.166 Z2.612
X30.715 Y52.208 Z2.605
X30.706 Y52.249 Z2.598
X30.682 Y52.283 Z2.59
X30.646 Y52.307 Z2.583
X30.605 Y52.315 Z2.576
X30.563 Y52.308 Z2.569
X30.527 Y52.286 Z2.562
X30.502 Y52.253 Z2.555
X30.491 Y52.212 Z2.548
X30.495 Y52.17 Z2.541
X30.515 Y52.133 Z2.533
X30.547 Y52.105 Z2.526
X30.587 Y52.092 Z2.519
X30.629 Y52.094 Z2.512
X30.668 Y52.111 Z2.505
X30.697 Y52.142 Z2.498
X30.713 Y52.181 Z2.491
X30.714 Y52.223 Z2.483
X30.698 Y52.262 Z2.476
X30.67 Y52.293 Z2.469
X30.632 Y52.312 Z2.462
X30.59 Y52.315 Z2.455
X30.549 Y52.302 Z2.448
X30.517 Y52.275 Z2.441
X30.496 Y52.238 Z2.433
X30.491 Y52.197 Z2.426
X30.501 Y52.156 Z2.419
X30.526 Y52.121 Z2.412
X30.561 Y52.099 Z2.405
X30.603 Y52.091 Z2.398
X30.644 Y52.098 Z2.391
X30.68 Y52.121 Z2.384
X30.705 Y52.155 Z2.376
X30.715 Y52.196 Z2.369
X30.71 Y52.238 Z2.362
X30.689 Y52.275 Z2.355
X30.657 Y52.302 Z2.348
X30.617 Y52.315 Z2.341
X30.574 Y52.312 Z2.334
X30.536 Y52.294 Z2.326
X30.508 Y52.263 Z2.319
X30.492 Y52.223 Z2.312
Y52.181 Z2.305
X30.508 Y52.142 Z2.298
X30.537 Y52.112 Z2.291
X30.576 Y52.094 Z2.284
X30.618 Y52.092 Z2.276
X30.658 Y52.105 Z2.269
X30.69 Y52.132 Z2.262
X30.71 Y52.169 Z2.255
X30.715 Y52.211 Z2.248
X30.704 Y52.252 Z2.241
X30.679 Y52.286 Z2.234
X30.643 Y52.308 Z2.227
X30.601 Y52.316 Z2.219
X30.56 Y52.307 Z2.212
X30.525 Y52.284 Z2.205
X30.5 Y52.249 Z2.198
X30.49 Y52.208 Z2.191
X30.496 Y52.166 Z2.184
X30.517 Y52.13 Z2.177
X30.551 Y52.103 Z2.169
X30.591 Y52.091 Z2.162
X30.633 Y52.095 Z2.155
X30.671 Y52.113 Z2.148
X30.699 Y52.145 Z2.141
X30.714 Y52.184 Z2.134
X30.713 Y52.227 Z2.127
X30.696 Y52.265 Z2.119
X30.667 Y52.296 Z2.112
X30.628 Y52.313 Z2.105
X30.586 Y52.314 Z2.098
X30.546 Y52.3 Z2.091
X30.514 Y52.272 Z2.084
X30.495 Y52.235 Z2.077
X30.491 Y52.193 Z2.07
X30.502 Y52.152 Z2.062
X30.528 Y52.119 Z2.055
X30.565 Y52.097 Z2.048
X30.606 Y52.091 Z2.041
X30.648 Y52.1 Z2.034
X30.682 Y52.124 Z2.027
X30.706 Y52.158 Z2.02
X30.715 Y52.2 Z2.012
X30.709 Y52.241 Z2.005
X30.687 Y52.278 Z1.998
X30.654 Y52.303 Z1.991
X30.613 Y52.315 Z1.984
X30.571 Y52.311 Z1.977
X30.533 Y52.292 Z1.97
X30.506 Y52.26 Z1.962
X30.492 Y52.22 Z1.955
X30.493 Y52.178 Z1.948
X30.51 Y52.139 Z1.941
X30.54 Y52.109 Z1.934
X30.579 Y52.093 Z1.927
X30.622 Y52.092 Z1.92
X30.661 Y52.107 Z1.913
X30.693 Y52.135 Z1.905
X30.711 Y52.173 Z1.898
X30.715 Y52.215 Z1.891
X30.702 Y52.255 Z1.884
X30.676 Y52.288 Z1.877
X30.639 Y52.309 Z1.87
X30.598 Y52.315 Z1.863
X30.556 Y52.306 Z1.855
X30.522 Y52.281 Z1.848
X30.499 Y52.246 Z1.841
X30.49 Y52.204 Z1.834
X30.498 Y52.163 Z1.827
X30.52 Y52.127 Z1.82
X30.554 Y52.102 Z1.813
X30.595 Y52.091 Z1.805
X30.637 Y52.096 Z1.798
X30.674 Y52.116 Z1.791
X30.701 Y52.148 Z1.784
X30.714 Y52.188 Z1.777
X30.712 Y52.23 Z1.77
X30.694 Y52.269 Z1.763
X30.664 Y52.298 Z1.756
X30.625 Y52.313 Z1.748
X30.582 Y52.314 Z1.741
X30.543 Y52.298 Z1.734
X30.512 Y52.269 Z1.727
X30.494 Y52.231 Z1.72
X30.491 Y52.189 Z1.713
X30.504 Y52.149 Z1.706
X30.531 Y52.116 Z1.698
X30.568 Y52.096 Z1.691
X30.61 Y52.091 Z1.684
X30.651 Y52.101 Z1.677
X30.685 Y52.126 Z1.67
X30.708 Y52.162 Z1.663
X30.715 Y52.203 Z1.656
X30.707 Y52.245 Z1.648
X30.684 Y52.28 Z1.641
X30.65 Y52.305 Z1.634
X30.609 Y52.315 Z1.627
X30.567 Y52.31 Z1.62
X30.531 Y52.289 Z1.613
X30.504 Y52.256 Z1.606
X30.491 Y52.216 Z1.599
X30.494 Y52.174 Z1.591
X30.513 Y52.136 Z1.584
X30.544 Y52.107 Z1.577
X30.583 Y52.092 Z1.57
X30.625 Y52.093 Z1.563
X30.664 Y52.109 Z1.556
X30.695 Y52.138 Z1.549
X30.712 Y52.177 Z1.541
X30.714 Y52.219 Z1.534
X30.701 Y52.259 Z1.527
X30.673 Y52.291 Z1.52
X30.636 Y52.311 Z1.513
X30.594 Y52.315 Z1.506
X30.553 Y52.304 Z1.499
X30.519 Y52.278 Z1.491
X30.497 Y52.242 Z1.484
X30.49 Y52.201 Z1.477
X30.499 Y52.159 Z1.47
X30.522 Y52.124 Z1.463
X30.557 Y52.1 Z1.456
X30.598 Y52.091 Z1.449
X30.64 Y52.097 Z1.442
X30.677 Y52.118 Z1.434
X30.703 Y52.151 Z1.427
X30.715 Y52.192 Z1.42
X30.711 Y52.234 Z1.413
X30.692 Y52.272 Z1.406
X30.661 Y52.3 Z1.399
X30.621 Y52.314 Z1.392
X30.579 Y52.313 Z1.384
X30.54 Y52.296 Z1.377
X30.51 Y52.266 Z1.37
X30.493 Y52.228 Z1.363
X30.492 Y52.185 Z1.356
X30.506 Y52.146 Z1.349
X30.534 Y52.114 Z1.342
X30.572 Y52.095 Z1.334
X30.614 Y52.091 Z1.327
X30.654 Y52.103 Z1.32
X30.688 Y52.129 Z1.313
X30.709 Y52.165 Z1.306
X30.715 Y52.207 Z1.299
X30.706 Y52.248 Z1.292
X30.682 Y52.283 Z1.285
X30.647 Y52.307 Z1.277
X30.606 Y52.315 Z1.27
X30.564 Y52.309 Z1.263
X30.528 Y52.287 Z1.256
X30.502 Y52.253 Z1.249
X30.491 Y52.212 Z1.242
X30.495 Y52.17 Z1.235
X30.515 Y52.133 Z1.227
X30.547 Y52.105 Z1.22
X30.587 Y52.092 Z1.213
X30.629 Y52.094 Z1.206
X30.667 Y52.111 Z1.199
X30.697 Y52.141 Z1.192
X30.713 Y52.18 Z1.185
X30.714 Y52.222 Z1.177
X30.699 Y52.262 Z1.17
X30.67 Y52.293 Z1.163
X30.632 Y52.312 Z1.156
X30.59 Y52.315 Z1.149
X30.55 Y52.302 Z1.142
X30.517 Y52.276 Z1.135
X30.496 Y52.239 Z1.128
X30.491 Y52.197 Z1.12
X30.501 Y52.156 Z1.113
X30.525 Y52.122 Z1.106
X30.561 Y52.099 Z1.099
X30.602 Y52.091 Z1.092
X30.644 Y52.098 Z1.085
X30.679 Y52.121 Z1.078
X30.704 Y52.155 Z1.07
X30.715 Y52.195 Z1.063
X30.71 Y52.237 Z1.056
X30.69 Y52.274 Z1.049
X30.657 Y52.301 Z1.042
X30.617 Y52.315 Z1.035
X30.575 Y52.312 Z1.028
X30.537 Y52.294 Z1.02
X30.508 Y52.263 Z1.013
X30.492 Y52.224 Z1.006
Y52.182 Z0.999
X30.508 Y52.143 Z0.992
X30.537 Y52.112 Z0.985
X30.575 Y52.094 Z0.978
X30.617 Y52.091 Z0.971
X30.658 Y52.105 Z0.963
X30.69 Y52.132 Z0.956
X30.71 Y52.169 Z0.949
X30.715 Y52.211 Z0.942
X30.704 Y52.252 Z0.935
X30.679 Y52.286 Z0.928
X30.643 Y52.308 Z0.921
X30.602 Y52.316 Z0.913
X30.56 Y52.307 Z0.906
X30.525 Y52.284 Z0.899
X30.501 Y52.25 Z0.892
X30.49 Y52.209 Z0.885
X30.496 Y52.167 Z0.878
X30.517 Y52.13 Z0.871
X30.55 Y52.104 Z0.863
X30.59 Y52.091 Z0.856
X30.632 Y52.094 Z0.849
X30.67 Y52.113 Z0.842
X30.699 Y52.144 Z0.835
X30.714 Y52.184 Z0.828
X30.713 Y52.226 Z0.821
X30.697 Y52.265 Z0.814
X30.667 Y52.295 Z0.806
X30.629 Y52.313 Z0.799
X30.586 Y52.314 Z0.792
X30.547 Y52.3 Z0.785
X30.515 Y52.273 Z0.778
X30.495 Y52.235 Z0.771
X30.491 Y52.193 Z0.764
X30.502 Y52.153 Z0.756
X30.528 Y52.119 Z0.749
X30.564 Y52.097 Z0.742
X30.606 Y52.091 Z0.735
X30.647 Y52.1 Z0.728
X30.682 Y52.123 Z0.721
X30.706 Y52.158 Z0.714
X30.715 Y52.199 Z0.706
X30.709 Y52.241 Z0.699
X30.687 Y52.277 Z0.692
X30.654 Y52.303 Z0.685
X30.613 Y52.315 Z0.678
X30.571 Y52.311 Z0.671
X30.534 Y52.292 Z0.664
X30.506 Y52.26 Z0.657
X30.492 Y52.22 Z0.649
X30.493 Y52.178 Z0.642
X30.51 Y52.139 Z0.635
X30.54 Y52.11 Z0.628
X30.579 Y52.093 Z0.621
X30.621 Y52.092 Z0.614
X30.661 Y52.107 Z0.607
X30.692 Y52.135 Z0.599
X30.711 Y52.172 Z0.592
X30.715 Y52.215 Z0.585
X30.703 Y52.255 Z0.578
X30.676 Y52.288 Z0.571
X30.64 Y52.309 Z0.564
X30.598 Y52.315 Z0.557
X30.557 Y52.306 Z0.549
X30.522 Y52.282 Z0.542
X30.499 Y52.246 Z0.535
X30.49 Y52.205 Z0.528
X30.498 Y52.163 Z0.521
X30.52 Y52.127 Z0.514
X30.553 Y52.102 Z0.507
X30.594 Y52.091 Z0.5
X30.636 Y52.096 Z0.492
X30.673 Y52.115 Z0.485
X30.701 Y52.148 Z0.478
X30.714 Y52.188 Z0.471
X30.712 Y52.23 Z0.464
X30.695 Y52.268 Z0.457
X30.664 Y52.297 Z0.45
X30.625 Y52.313 Z0.442
X30.583 Y52.314 Z0.435
X30.543 Y52.299 Z0.428
X30.512 Y52.27 Z0.421
X30.494 Y52.232 Z0.414
X30.491 Y52.19 Z0.407
X30.504 Y52.149 Z0.4
X30.531 Y52.117 Z0.392
X30.568 Y52.096 Z0.385
X30.609 Y52.091 Z0.378
X30.65 Y52.101 Z0.371
X30.685 Y52.126 Z0.364
X30.707 Y52.161 Z0.357
X30.715 Y52.203 Z0.35
X30.707 Y52.244 Z0.343
X30.685 Y52.28 Z0.335
X30.651 Y52.305 Z0.328
X30.61 Y52.315 Z0.321
X30.568 Y52.31 Z0.314
X30.531 Y52.29 Z0.307
X30.504 Y52.257 Z0.3
X30.491 Y52.217 Z0.293
X30.494 Y52.175 Z0.285
X30.512 Y52.136 Z0.278
X30.543 Y52.108 Z0.271
X30.582 Y52.092 Z0.264
X30.625 Y52.093 Z0.257
X30.664 Y52.109 Z0.25
X30.694 Y52.138 Z0.243
X30.712 Y52.176 Z0.235
X30.714 Y52.218 Z0.228
X30.701 Y52.258 Z0.221
X30.674 Y52.29 Z0.214
X30.636 Y52.31 Z0.207
X30.594 Y52.315 Z0.2
X30.554 Y52.304 Z0.193
X30.52 Y52.279 Z0.186
X30.498 Y52.243 Z0.178
X30.49 Y52.201 Z0.171
X30.499 Y52.16 Z0.164
X30.522 Y52.125 Z0.157
X30.557 Y52.1 Z0.15
X30.598 Y52.091 Z0.143
X30.64 Y52.097 Z0.136
X30.676 Y52.118 Z0.128
X30.702 Y52.151 Z0.121
X30.715 Y52.191 Z0.114
X30.711 Y52.233 Z0.107
X30.692 Y52.271 Z0.1
X30.661 Y52.299 Z0.093
X30.621 Y52.314 Z0.086
X30.579 Y52.313 Z0.078
X30.54 Y52.297 Z0.071
X30.51 Y52.267 Z0.064
X30.493 Y52.228 Z0.057
X30.492 Y52.186 Z0.05
X30.506 Y52.146 Z0.043
X30.534 Y52.114 Z0.036
X30.571 Y52.095 Z0.029
X30.613 Y52.091 Z0.021
X30.654 Y52.103 Z0.014
X30.687 Y52.129 Z0.007
X30.709 Y52.165 Z0
G3 X30.497 Y52.241 I-0.106 J0.038
X30.709 Y52.165 I0.106 J-0.038
G1 X30.711 Y52.194
X30.699 Y52.22
X30.675 Y52.237
X30.603 Y52.203
G0 Z18.1
X14.603
Z9.483
G1 Z7.8 F500
X14.659 Y52.259
X14.652 Y52.287
X14.631 Y52.308
X14.603 Y52.316
X14.561 Y52.308 Z7.793
X14.526 Y52.285 Z7.786
X14.501 Y52.251 Z7.779
X14.491 Y52.21 Z7.771
X14.496 Y52.168 Z7.764
X14.516 Y52.131 Z7.757
X14.549 Y52.104 Z7.75
X14.589 Y52.091 Z7.743
X14.631 Y52.094 Z7.736
X14.67 Y52.112 Z7.729
X14.698 Y52.143 Z7.722
X14.714 Y52.183 Z7.714
X14.713 Y52.225 Z7.707
X14.697 Y52.264 Z7.7
X14.668 Y52.295 Z7.693
X14.63 Y52.312 Z7.686
X14.588 Y52.314 Z7.679
X14.547 Y52.301 Z7.672
X14.515 Y52.274 Z7.664
X14.495 Y52.236 Z7.657
X14.491 Y52.194 Z7.65
X14.502 Y52.154 Z7.643
X14.527 Y52.12 Z7.636
X14.563 Y52.098 Z7.629
X14.605 Y52.091 Z7.622
X14.646 Y52.099 Z7.614
X14.681 Y52.122 Z7.607
X14.706 Y52.157 Z7.6
X14.715 Y52.198 Z7.593
X14.709 Y52.24 Z7.586
X14.688 Y52.276 Z7.579
X14.655 Y52.303 Z7.572
X14.615 Y52.315 Z7.565
X14.572 Y52.311 Z7.557
X14.535 Y52.292 Z7.55
X14.506 Y52.261 Z7.543
X14.492 Y52.221 Z7.536
X14.493 Y52.179 Z7.529
X14.509 Y52.14 Z7.522
X14.539 Y52.11 Z7.515
X14.578 Y52.093 Z7.507
X14.62 Y52.092 Z7.5
X14.66 Y52.106 Z7.493
X14.692 Y52.134 Z7.486
X14.711 Y52.171 Z7.479
X14.715 Y52.213 Z7.472
X14.703 Y52.254 Z7.465
X14.677 Y52.287 Z7.457
X14.641 Y52.309 Z7.45
X14.599 Y52.315 Z7.443
X14.558 Y52.306 Z7.436
X14.523 Y52.282 Z7.429
X14.499 Y52.247 Z7.422
X14.49 Y52.206 Z7.415
X14.497 Y52.164 Z7.408
X14.519 Y52.128 Z7.4
X14.552 Y52.102 Z7.393
X14.593 Y52.091 Z7.386
X14.635 Y52.095 Z7.379
X14.673 Y52.115 Z7.372
X14.7 Y52.147 Z7.365
X14.714 Y52.186 Z7.358
X14.712 Y52.229 Z7.35
X14.695 Y52.267 Z7.343
X14.665 Y52.297 Z7.336
X14.626 Y52.313 Z7.329
X14.584 Y52.314 Z7.322
X14.544 Y52.299 Z7.315
X14.513 Y52.271 Z7.308
X14.494 Y52.233 Z7.3
X14.491 Y52.191 Z7.293
X14.503 Y52.15 Z7.286
X14.53 Y52.117 Z7.279
X14.567 Y52.097 Z7.272
X14.608 Y52.091 Z7.265
X14.649 Y52.101 Z7.258
X14.684 Y52.125 Z7.251
X14.707 Y52.16 Z7.243
X14.715 Y52.202 Z7.236
X14.708 Y52.243 Z7.229
X14.686 Y52.279 Z7.222
X14.652 Y52.304 Z7.215
X14.611 Y52.315 Z7.208
X14.569 Y52.31 Z7.201
X14.532 Y52.29 Z7.193
X14.505 Y52.258 Z7.186
X14.491 Y52.218 Z7.179
X14.494 Y52.176 Z7.172
X14.512 Y52.137 Z7.165
X14.542 Y52.108 Z7.158
X14.581 Y52.093 Z7.151
X14.624 Y52.092 Z7.143
X14.663 Y52.108 Z7.136
X14.694 Y52.137 Z7.129
X14.712 Y52.175 Z7.122
X14.714 Y52.217 Z7.115
X14.701 Y52.257 Z7.108
X14.674 Y52.29 Z7.101
X14.637 Y52.31 Z7.094
X14.595 Y52.315 Z7.086
X14.555 Y52.305 Z7.079
X14.52 Y52.28 Z7.072
X14.498 Y52.244 Z7.065
X14.49 Y52.202 Z7.058
X14.499 Y52.161 Z7.051
X14.521 Y52.125 Z7.044
X14.556 Y52.101 Z7.036
X14.597 Y52.091 Z7.029
X14.639 Y52.096 Z7.022
X14.675 Y52.117 Z7.015
X14.702 Y52.15 Z7.008
X14.715 Y52.19 Z7.001
X14.711 Y52.232 Z6.994
X14.693 Y52.27 Z6.986
X14.662 Y52.299 Z6.979
X14.622 Y52.314 Z6.972
X14.58 Y52.313 Z6.965
X14.541 Y52.297 Z6.958
X14.511 Y52.268 Z6.951
X14.493 Y52.229 Z6.944
X14.491 Y52.187 Z6.937
X14.505 Y52.147 Z6.929
X14.533 Y52.115 Z6.922
X14.57 Y52.095 Z6.915
X14.612 Y52.091 Z6.908
X14.653 Y52.102 Z6.901
X14.686 Y52.128 Z6.894
X14.708 Y52.164 Z6.887
X14.715 Y52.206 Z6.879
X14.706 Y52.247 Z6.872
X14.683 Y52.282 Z6.865
X14.648 Y52.306 Z6.858
X14.607 Y52.315 Z6.851
X14.565 Y52.309 Z6.844
X14.529 Y52.288 Z6.837
X14.503 Y52.255 Z6.829
X14.491 Y52.214 Z6.822
X14.495 Y52.172 Z6.815
X14.514 Y52.134 Z6.808
X14.545 Y52.106 Z6.801
X14.585 Y52.092 Z6.794
X14.627 Y52.093 Z6.787
X14.666 Y52.11 Z6.78
X14.696 Y52.14 Z6.772
X14.713 Y52.179 Z6.765
X14.714 Y52.221 Z6.758
X14.7 Y52.261 Z6.751
X14.671 Y52.292 Z6.744
X14.634 Y52.311 Z6.737
X14.592 Y52.315 Z6.73
X14.551 Y52.303 Z6.722
X14.518 Y52.277 Z6.715
X14.497 Y52.24 Z6.708
X14.49 Y52.199 Z6.701
X14.5 Y52.157 Z6.694
X14.524 Y52.123 Z6.687
X14.559 Y52.099 Z6.68
X14.6 Y52.091 Z6.672
X14.642 Y52.098 Z6.665
X14.678 Y52.119 Z6.658
X14.704 Y52.153 Z6.651
X14.715 Y52.194 Z6.644
X14.71 Y52.236 Z6.637
X14.691 Y52.273 Z6.63
X14.659 Y52.301 Z6.623
X14.619 Y52.314 Z6.615
X14.577 Y52.312 Z6.608
X14.538 Y52.295 Z6.601
X14.509 Y52.265 Z6.594
X14.493 Y52.226 Z6.587
X14.492 Y52.183 Z6.58
X14.507 Y52.144 Z6.573
X14.536 Y52.113 Z6.565
X14.574 Y52.094 Z6.558
X14.616 Y52.091 Z6.551
X14.656 Y52.104 Z6.544
X14.689 Y52.131 Z6.537
X14.71 Y52.167 Z6.53
X14.715 Y52.209 Z6.523
X14.705 Y52.25 Z6.515
X14.68 Y52.285 Z6.508
X14.645 Y52.307 Z6.501
X14.603 Y52.316 Z6.494
X14.562 Y52.308 Z6.487
X14.526 Y52.285 Z6.48
X14.501 Y52.251 Z6.473
X14.491 Y52.21 Z6.466
X14.496 Y52.168 Z6.458
X14.516 Y52.131 Z6.451
X14.549 Y52.104 Z6.444
X14.589 Y52.091 Z6.437
X14.631 Y52.094 Z6.43
X14.669 Y52.112 Z6.423
X14.698 Y52.143 Z6.416
X14.713 Y52.182 Z6.408
Y52.225 Z6.401
X14.698 Y52.264 Z6.394
X14.669 Y52.294 Z6.387
X14.63 Y52.312 Z6.38
X14.588 Y52.315 Z6.373
X14.548 Y52.301 Z6.366
X14.516 Y52.274 Z6.358
X14.496 Y52.237 Z6.351
X14.491 Y52.195 Z6.344
X14.502 Y52.154 Z6.337
X14.527 Y52.12 Z6.33
X14.563 Y52.098 Z6.323
X14.604 Y52.091 Z6.316
X14.646 Y52.099 Z6.309
X14.681 Y52.122 Z6.301
X14.705 Y52.157 Z6.294
X14.715 Y52.198 Z6.287
X14.709 Y52.239 Z6.28
X14.688 Y52.276 Z6.273
X14.655 Y52.302 Z6.266
X14.615 Y52.315 Z6.259
X14.573 Y52.311 Z6.251
X14.535 Y52.293 Z6.244
X14.507 Y52.261 Z6.237
X14.492 Y52.222 Z6.23
X14.493 Y52.18 Z6.223
X14.509 Y52.141 Z6.216
X14.539 Y52.111 Z6.209
X14.577 Y52.093 Z6.201
X14.62 Y52.092 Z6.194
X14.659 Y52.106 Z6.187
X14.691 Y52.133 Z6.18
X14.711 Y52.171 Z6.173
X14.715 Y52.213 Z6.166
X14.703 Y52.254 Z6.159
X14.678 Y52.287 Z6.152
X14.641 Y52.309 Z6.144
X14.6 Y52.315 Z6.137
X14.558 Y52.306 Z6.13
X14.523 Y52.283 Z6.123
X14.5 Y52.248 Z6.116
X14.49 Y52.207 Z6.109
X14.497 Y52.165 Z6.102
X14.519 Y52.129 Z6.094
X14.552 Y52.103 Z6.087
X14.593 Y52.091 Z6.08
X14.635 Y52.095 Z6.073
X14.672 Y52.114 Z6.066
X14.7 Y52.146 Z6.059
X14.714 Y52.186 Z6.052
X14.713 Y52.228 Z6.044
X14.696 Y52.267 Z6.037
X14.665 Y52.296 Z6.03
X14.627 Y52.313 Z6.023
X14.584 Y52.314 Z6.016
X14.545 Y52.299 Z6.009
X14.513 Y52.271 Z6.002
X14.495 Y52.233 Z5.995
X14.491 Y52.191 Z5.987
X14.503 Y52.151 Z5.98
X14.529 Y52.118 Z5.973
X14.566 Y52.097 Z5.966
X14.608 Y52.091 Z5.959
X14.649 Y52.1 Z5.952
X14.684 Y52.125 Z5.945
X14.707 Y52.16 Z5.937
X14.715 Y52.201 Z5.93
X14.708 Y52.243 Z5.923
X14.686 Y52.279 Z5.916
X14.652 Y52.304 Z5.909
X14.611 Y52.315 Z5.902
X14.569 Y52.31 Z5.895
X14.532 Y52.291 Z5.887
X14.505 Y52.258 Z5.88
X14.491 Y52.218 Z5.873
X14.494 Y52.176 Z5.866
X14.511 Y52.138 Z5.859
X14.542 Y52.109 Z5.852
X14.581 Y52.093 Z5.845
X14.623 Y52.092 Z5.838
X14.663 Y52.108 Z5.83
X14.694 Y52.136 Z5.823
X14.712 Y52.175 Z5.816
X14.715 Y52.217 Z5.809
X14.702 Y52.257 Z5.802
X14.675 Y52.289 Z5.795
X14.638 Y52.31 Z5.788
X14.596 Y52.315 Z5.78
X14.555 Y52.305 Z5.773
X14.521 Y52.28 Z5.766
X14.498 Y52.244 Z5.759
X14.49 Y52.203 Z5.752
X14.498 Y52.161 Z5.745
X14.521 Y52.126 Z5.738
X14.555 Y52.101 Z5.73
X14.596 Y52.091 Z5.723
X14.638 Y52.096 Z5.716
X14.675 Y52.117 Z5.709
X14.702 Y52.149 Z5.702
X14.715 Y52.19 Z5.695
X14.712 Y52.232 Z5.688
X14.693 Y52.27 Z5.681
X14.662 Y52.299 Z5.673
X14.623 Y52.314 Z5.666
X14.581 Y52.313 Z5.659
X14.542 Y52.297 Z5.652
X14.511 Y52.268 Z5.645
X14.494 Y52.23 Z5.638
X14.491 Y52.188 Z5.631
X14.505 Y52.148 Z5.623
X14.532 Y52.115 Z5.616
X14.57 Y52.096 Z5.609
X14.612 Y52.091 Z5.602
X14.652 Y52.102 Z5.595
X14.686 Y52.127 Z5.588
X14.708 Y52.163 Z5.581
X14.715 Y52.205 Z5.573
X14.707 Y52.246 Z5.566
X14.683 Y52.282 Z5.559
X14.649 Y52.306 Z5.552
X14.608 Y52.315 Z5.545
X14.566 Y52.309 Z5.538
X14.529 Y52.288 Z5.531
X14.503 Y52.255 Z5.524
X14.491 Y52.215 Z5.516
X14.495 Y52.172 Z5.509
X14.513 Y52.135 Z5.502
X14.545 Y52.107 Z5.495
X14.585 Y52.092 Z5.488
X14.627 Y52.093 Z5.481
X14.666 Y52.11 Z5.474
X14.696 Y52.139 Z5.466
X14.713 Y52.178 Z5.459
X14.714 Y52.22 Z5.452
X14.7 Y52.26 Z5.445
X14.672 Y52.292 Z5.438
X14.634 Y52.311 Z5.431
X14.592 Y52.315 Z5.424
X14.552 Y52.303 Z5.416
X14.518 Y52.277 Z5.409
X14.497 Y52.241 Z5.402
X14.49 Y52.199 Z5.395
X14.5 Y52.158 Z5.388
X14.524 Y52.123 Z5.381
X14.559 Y52.1 Z5.374
X14.6 Y52.091 Z5.367
X14.642 Y52.097 Z5.359
X14.678 Y52.119 Z5.352
X14.703 Y52.153 Z5.345
X14.715 Y52.193 Z5.338
X14.711 Y52.235 Z5.331
X14.691 Y52.273 Z5.324
X14.659 Y52.3 Z5.317
X14.619 Y52.314 Z5.309
X14.577 Y52.313 Z5.302
X14.539 Y52.295 Z5.295
X14.509 Y52.265 Z5.288
X14.493 Y52.226 Z5.281
X14.492 Y52.184 Z5.274
X14.507 Y52.144 Z5.267
X14.535 Y52.113 Z5.259
X14.573 Y52.094 Z5.252
X14.615 Y52.091 Z5.245
X14.656 Y52.104 Z5.238
X14.689 Y52.13 Z5.231
X14.709 Y52.167 Z5.224
X14.715 Y52.209 Z5.217
X14.705 Y52.25 Z5.21
X14.681 Y52.284 Z5.202
X14.645 Y52.307 Z5.195
X14.604 Y52.316 Z5.188
X14.562 Y52.308 Z5.181
X14.527 Y52.286 Z5.174
X14.501 Y52.252 Z5.167
X14.491 Y52.211 Z5.16
X14.496 Y52.169 Z5.152
X14.516 Y52.132 Z5.145
X14.548 Y52.105 Z5.138
X14.588 Y52.091 Z5.131
X14.63 Y52.094 Z5.124
X14.669 Y52.112 Z5.117
X14.698 Y52.143 Z5.11
X14.713 Y52.182 Z5.102
Y52.224 Z5.095
X14.698 Y52.263 Z5.088
X14.669 Y52.294 Z5.081
X14.631 Y52.312 Z5.074
X14.589 Y52.315 Z5.067
X14.548 Y52.301 Z5.06
X14.516 Y52.274 Z5.053
X14.496 Y52.237 Z5.045
X14.491 Y52.195 Z5.038
X14.501 Y52.155 Z5.031
X14.526 Y52.121 Z5.024
X14.562 Y52.098 Z5.017
X14.604 Y52.091 Z5.01
X14.645 Y52.099 Z5.003
X14.681 Y52.122 Z4.995
X14.705 Y52.156 Z4.988
X14.715 Y52.197 Z4.981
X14.709 Y52.239 Z4.974
X14.689 Y52.276 Z4.967
X14.656 Y52.302 Z4.96
X14.616 Y52.315 Z4.953
X14.573 Y52.312 Z4.945
X14.535 Y52.293 Z4.938
X14.507 Y52.262 Z4.931
X14.492 Y52.222 Z4.924
X14.493 Y52.18 Z4.917
X14.509 Y52.141 Z4.91
X14.538 Y52.111 Z4.903
X14.577 Y52.094 Z4.896
X14.619 Y52.092 Z4.888
X14.659 Y52.105 Z4.881
X14.691 Y52.133 Z4.874
X14.711 Y52.17 Z4.867
X14.715 Y52.212 Z4.86
X14.704 Y52.253 Z4.853
X14.678 Y52.287 Z4.846
X14.642 Y52.309 Z4.838
X14.6 Y52.315 Z4.831
X14.559 Y52.307 Z4.824
X14.524 Y52.283 Z4.817
X14.5 Y52.248 Z4.81
X14.49 Y52.207 Z4.803
X14.497 Y52.165 Z4.796
X14.518 Y52.129 Z4.788
X14.551 Y52.103 Z4.781
X14.592 Y52.091 Z4.774
X14.634 Y52.095 Z4.767
X14.672 Y52.114 Z4.76
X14.7 Y52.146 Z4.753
X14.714 Y52.185 Z4.746
X14.713 Y52.228 Z4.739
X14.696 Y52.266 Z4.731
X14.666 Y52.296 Z4.724
X14.627 Y52.313 Z4.717
X14.585 Y52.314 Z4.71
X14.545 Y52.3 Z4.703
X14.514 Y52.272 Z4.696
X14.495 Y52.234 Z4.689
X14.491 Y52.192 Z4.681
X14.503 Y52.151 Z4.674
X14.529 Y52.118 Z4.667
X14.566 Y52.097 Z4.66
X14.607 Y52.091 Z4.653
X14.648 Y52.1 Z4.646
X14.683 Y52.124 Z4.639
X14.707 Y52.159 Z4.631
X14.715 Y52.201 Z4.624
X14.708 Y52.242 Z4.617
X14.686 Y52.278 Z4.61
X14.653 Y52.304 Z4.603
X14.612 Y52.315 Z4.596
X14.57 Y52.311 Z4.589
X14.533 Y52.291 Z4.582
X14.505 Y52.259 Z4.574
X14.491 Y52.219 Z4.567
X14.494 Y52.177 Z4.56
X14.511 Y52.138 Z4.553
X14.541 Y52.109 Z4.546
X14.58 Y52.093 Z4.539
X14.623 Y52.092 Z4.532
X14.662 Y52.107 Z4.524
X14.693 Y52.136 Z4.517
X14.712 Y52.174 Z4.51
X14.715 Y52.216 Z4.503
X14.702 Y52.256 Z4.496
X14.675 Y52.289 Z4.489
X14.638 Y52.31 Z4.482
X14.596 Y52.315 Z4.474
X14.556 Y52.305 Z4.467
X14.521 Y52.28 Z4.46
X14.498 Y52.245 Z4.453
X14.49 Y52.203 Z4.446
X14.498 Y52.162 Z4.439
X14.521 Y52.126 Z4.432
X14.555 Y52.101 Z4.425
X14.596 Y52.091 Z4.417
X14.638 Y52.096 Z4.41
X14.675 Y52.116 Z4.403
X14.701 Y52.149 Z4.396
X14.714 Y52.189 Z4.389
X14.712 Y52.231 Z4.382
X14.694 Y52.269 Z4.375
X14.663 Y52.298 Z4.367
X14.623 Y52.314 Z4.36
X14.581 Y52.313 Z4.353
X14.542 Y52.298 Z4.346
X14.511 Y52.269 Z4.339
X14.494 Y52.23 Z4.332
X14.491 Y52.188 Z4.325
X14.505 Y52.148 Z4.317
X14.532 Y52.116 Z4.31
X14.569 Y52.096 Z4.303
X14.611 Y52.091 Z4.296
X14.652 Y52.102 Z4.289
X14.686 Y52.127 Z4.282
X14.708 Y52.163 Z4.275
X14.715 Y52.204 Z4.268
X14.707 Y52.246 Z4.26
X14.684 Y52.281 Z4.253
X14.649 Y52.306 Z4.246
X14.608 Y52.315 Z4.239
X14.566 Y52.309 Z4.232
X14.53 Y52.288 Z4.225
X14.503 Y52.255 Z4.218
X14.491 Y52.215 Z4.21
X14.494 Y52.173 Z4.203
X14.513 Y52.135 Z4.196
X14.544 Y52.107 Z4.189
X14.584 Y52.092 Z4.182
X14.626 Y52.093 Z4.175
X14.665 Y52.109 Z4.168
X14.695 Y52.139 Z4.16
X14.712 Y52.178 Z4.153
X14.714 Y52.22 Z4.146
X14.7 Y52.26 Z4.139
X14.672 Y52.291 Z4.132
X14.635 Y52.311 Z4.125
X14.593 Y52.315 Z4.118
X14.552 Y52.303 Z4.111
X14.519 Y52.278 Z4.103
X14.497 Y52.241 Z4.096
X14.49 Y52.2 Z4.089
X14.5 Y52.158 Z4.082
X14.523 Y52.124 Z4.075
X14.558 Y52.1 Z4.068
X14.599 Y52.091 Z4.061
X14.641 Y52.097 Z4.053
X14.677 Y52.119 Z4.046
X14.703 Y52.152 Z4.039
X14.715 Y52.193 Z4.032
X14.711 Y52.235 Z4.025
X14.691 Y52.272 Z4.018
X14.66 Y52.3 Z4.011
X14.62 Y52.314 Z4.003
X14.578 Y52.313 Z3.996
X14.539 Y52.296 Z3.989
X14.509 Y52.266 Z3.982
X14.493 Y52.227 Z3.975
X14.492 Y52.184 Z3.968
X14.507 Y52.145 Z3.961
X14.535 Y52.113 Z3.954
X14.573 Y52.095 Z3.946
X14.615 Y52.091 Z3.939
X14.655 Y52.103 Z3.932
X14.688 Y52.13 Z3.925
X14.709 Y52.166 Z3.918
X14.715 Y52.208 Z3.911
X14.705 Y52.249 Z3.904
X14.681 Y52.284 Z3.896
X14.646 Y52.307 Z3.889
X14.604 Y52.316 Z3.882
X14.563 Y52.308 Z3.875
X14.527 Y52.286 Z3.868
X14.502 Y52.252 Z3.861
X14.491 Y52.211 Z3.854
X14.495 Y52.169 Z3.846
X14.515 Y52.132 Z3.839
X14.548 Y52.105 Z3.832
X14.588 Y52.092 Z3.825
X14.63 Y52.094 Z3.818
X14.668 Y52.111 Z3.811
X14.697 Y52.142 Z3.804
X14.713 Y52.181 Z3.797
Y52.223 Z3.789
X14.698 Y52.263 Z3.782
X14.669 Y52.294 Z3.775
X14.631 Y52.312 Z3.768
X14.589 Y52.315 Z3.761
X14.549 Y52.302 Z3.754
X14.516 Y52.275 Z3.747
X14.496 Y52.238 Z3.739
X14.491 Y52.196 Z3.732
X14.501 Y52.155 Z3.725
X14.526 Y52.121 Z3.718
X14.562 Y52.098 Z3.711
X14.603 Y52.091 Z3.704
X14.645 Y52.099 Z3.697
X14.68 Y52.121 Z3.689
X14.705 Y52.156 Z3.682
X14.715 Y52.197 Z3.675
X14.71 Y52.238 Z3.668
X14.689 Y52.275 Z3.661
X14.656 Y52.302 Z3.654
X14.616 Y52.315 Z3.647
X14.574 Y52.312 Z3.64
X14.536 Y52.293 Z3.632
X14.507 Y52.262 Z3.625
X14.492 Y52.223 Z3.618
X14.493 Y52.181 Z3.611
X14.509 Y52.142 Z3.604
X14.538 Y52.111 Z3.597
X14.576 Y52.094 Z3.59
X14.618 Y52.092 Z3.582
X14.658 Y52.105 Z3.575
X14.691 Y52.133 Z3.568
X14.71 Y52.17 Z3.561
X14.715 Y52.212 Z3.554
X14.704 Y52.253 Z3.547
X14.678 Y52.286 Z3.54
X14.642 Y52.308 Z3.532
X14.601 Y52.315 Z3.525
X14.559 Y52.307 Z3.518
X14.524 Y52.283 Z3.511
X14.5 Y52.249 Z3.504
X14.49 Y52.208 Z3.497
X14.497 Y52.166 Z3.49
X14.518 Y52.129 Z3.483
X14.551 Y52.103 Z3.475
X14.591 Y52.091 Z3.468
X14.634 Y52.095 Z3.461
X14.671 Y52.114 Z3.454
X14.699 Y52.145 Z3.447
X14.714 Y52.185 Z3.44
X14.713 Y52.227 Z3.433
X14.696 Y52.266 Z3.425
X14.666 Y52.296 Z3.418
X14.628 Y52.313 Z3.411
X14.585 Y52.314 Z3.404
X14.546 Y52.3 Z3.397
X14.514 Y52.272 Z3.39
X14.495 Y52.234 Z3.383
X14.491 Y52.192 Z3.375
X14.503 Y52.152 Z3.368
X14.529 Y52.118 Z3.361
X14.565 Y52.097 Z3.354
X14.607 Y52.091 Z3.347
X14.648 Y52.1 Z3.34
X14.683 Y52.124 Z3.333
X14.706 Y52.159 Z3.326
X14.715 Y52.2 Z3.318
X14.708 Y52.242 Z3.311
X14.687 Y52.278 Z3.304
X14.653 Y52.304 Z3.297
X14.612 Y52.315 Z3.29
X14.57 Y52.311 Z3.283
X14.533 Y52.291 Z3.276
X14.505 Y52.259 Z3.268
X14.492 Y52.219 Z3.261
X14.493 Y52.177 Z3.254
X14.511 Y52.139 Z3.247
X14.541 Y52.109 Z3.24
X14.58 Y52.093 Z3.233
X14.622 Y52.092 Z3.226
X14.662 Y52.107 Z3.218
X14.693 Y52.136 Z3.211
X14.711 Y52.173 Z3.204
X14.715 Y52.216 Z3.197
X14.702 Y52.256 Z3.19
X14.676 Y52.289 Z3.183
X14.639 Y52.31 Z3.176
X14.597 Y52.315 Z3.169
X14.556 Y52.305 Z3.161
X14.522 Y52.281 Z3.154
X14.499 Y52.245 Z3.147
X14.49 Y52.204 Z3.14
X14.498 Y52.162 Z3.133
X14.52 Y52.127 Z3.126
X14.554 Y52.102 Z3.119
X14.595 Y52.091 Z3.111
X14.637 Y52.096 Z3.104
X14.674 Y52.116 Z3.097
X14.701 Y52.148 Z3.09
X14.714 Y52.189 Z3.083
X14.712 Y52.231 Z3.076
X14.694 Y52.269 Z3.069
X14.663 Y52.298 Z3.061
X14.624 Y52.314 Z3.054
X14.582 Z3.047
X14.542 Y52.298 Z3.04
X14.512 Y52.269 Z3.033
X14.494 Y52.231 Z3.026
X14.491 Y52.189 Z3.019
X14.504 Y52.148 Z3.012
X14.532 Y52.116 Z3.004
X14.569 Y52.096 Z2.997
X14.611 Y52.091 Z2.99
X14.651 Y52.102 Z2.983
X14.685 Y52.127 Z2.976
X14.708 Y52.162 Z2.969
X14.715 Y52.204 Z2.962
X14.707 Y52.245 Z2.954
X14.684 Y52.281 Z2.947
X14.65 Y52.305 Z2.94
X14.609 Y52.315 Z2.933
X14.567 Y52.31 Z2.926
X14.53 Y52.289 Z2.919
X14.504 Y52.256 Z2.912
X14.491 Y52.216 Z2.904
X14.494 Y52.174 Z2.897
X14.513 Y52.136 Z2.89
X14.544 Y52.107 Z2.883
X14.584 Y52.092 Z2.876
X14.626 Y52.093 Z2.869
X14.665 Y52.109 Z2.862
X14.695 Y52.139 Z2.855
X14.712 Y52.177 Z2.847
X14.714 Y52.219 Z2.84
X14.7 Y52.259 Z2.833
X14.673 Y52.291 Z2.826
X14.635 Y52.311 Z2.819
X14.593 Y52.315 Z2.812
X14.553 Y52.304 Z2.805
X14.519 Y52.278 Z2.797
X14.497 Y52.242 Z2.79
X14.49 Y52.2 Z2.783
X14.499 Y52.159 Z2.776
X14.523 Y52.124 Z2.769
X14.558 Y52.1 Z2.762
X14.599 Y52.091 Z2.755
X14.641 Y52.097 Z2.747
X14.677 Y52.118 Z2.74
X14.703 Y52.152 Z2.733
X14.715 Y52.192 Z2.726
X14.711 Y52.234 Z2.719
X14.692 Y52.272 Z2.712
X14.66 Y52.3 Z2.705
X14.62 Y52.314 Z2.698
X14.578 Y52.313 Z2.69
X14.539 Y52.296 Z2.683
X14.51 Y52.266 Z2.676
X14.493 Y52.227 Z2.669
X14.492 Y52.185 Z2.662
X14.506 Y52.145 Z2.655
X14.534 Y52.114 Z2.648
X14.572 Y52.095 Z2.64
X14.614 Y52.091 Z2.633
X14.655 Y52.103 Z2.626
X14.688 Y52.129 Z2.619
X14.709 Y52.166 Z2.612
X14.715 Y52.208 Z2.605
X14.706 Y52.249 Z2.598
X14.682 Y52.283 Z2.59
X14.646 Y52.307 Z2.583
X14.605 Y52.315 Z2.576
X14.563 Y52.308 Z2.569
X14.527 Y52.286 Z2.562
X14.502 Y52.253 Z2.555
X14.491 Y52.212 Z2.548
X14.495 Y52.17 Z2.541
X14.515 Y52.133 Z2.533
X14.547 Y52.105 Z2.526
X14.587 Y52.092 Z2.519
X14.629 Y52.094 Z2.512
X14.668 Y52.111 Z2.505
X14.697 Y52.142 Z2.498
X14.713 Y52.181 Z2.491
X14.714 Y52.223 Z2.483
X14.698 Y52.262 Z2.476
X14.67 Y52.293 Z2.469
X14.632 Y52.312 Z2.462
X14.59 Y52.315 Z2.455
X14.549 Y52.302 Z2.448
X14.517 Y52.275 Z2.441
X14.496 Y52.238 Z2.433
X14.491 Y52.197 Z2.426
X14.501 Y52.156 Z2.419
X14.526 Y52.121 Z2.412
X14.561 Y52.099 Z2.405
X14.603 Y52.091 Z2.398
X14.644 Y52.098 Z2.391
X14.68 Y52.121 Z2.384
X14.705 Y52.155 Z2.376
X14.715 Y52.196 Z2.369
X14.71 Y52.238 Z2.362
X14.689 Y52.275 Z2.355
X14.657 Y52.302 Z2.348
X14.617 Y52.315 Z2.341
X14.574 Y52.312 Z2.334
X14.536 Y52.294 Z2.326
X14.508 Y52.263 Z2.319
X14.492 Y52.223 Z2.312
Y52.181 Z2.305
X14.508 Y52.142 Z2.298
X14.537 Y52.112 Z2.291
X14.576 Y52.094 Z2.284
X14.618 Y52.092 Z2.276
X14.658 Y52.105 Z2.269
X14.69 Y52.132 Z2.262
X14.71 Y52.169 Z2.255
X14.715 Y52.211 Z2.248
X14.704 Y52.252 Z2.241
X14.679 Y52.286 Z2.234
X14.643 Y52.308 Z2.227
X14.601 Y52.316 Z2.219
X14.56 Y52.307 Z2.212
X14.525 Y52.284 Z2.205
X14.5 Y52.249 Z2.198
X14.49 Y52.208 Z2.191
X14.496 Y52.166 Z2.184
X14.517 Y52.13 Z2.177
X14.551 Y52.103 Z2.169
X14.591 Y52.091 Z2.162
X14.633 Y52.095 Z2.155
X14.671 Y52.113 Z2.148
X14.699 Y52.145 Z2.141
X14.714 Y52.184 Z2.134
X14.713 Y52.227 Z2.127
X14.696 Y52.265 Z2.119
X14.667 Y52.296 Z2.112
X14.628 Y52.313 Z2.105
X14.586 Y52.314 Z2.098
X14.546 Y52.3 Z2.091
X14.514 Y52.272 Z2.084
X14.495 Y52.235 Z2.077
X14.491 Y52.193 Z2.07
X14.502 Y52.152 Z2.062
X14.528 Y52.119 Z2.055
X14.565 Y52.097 Z2.048
X14.606 Y52.091 Z2.041
X14.648 Y52.1 Z2.034
X14.682 Y52.124 Z2.027
X14.706 Y52.158 Z2.02
X14.715 Y52.2 Z2.012
X14.709 Y52.241 Z2.005
X14.687 Y52.278 Z1.998
X14.654 Y52.303 Z1.991
X14.613 Y52.315 Z1.984
X14.571 Y52.311 Z1.977
X14.533 Y52.292 Z1.97
X14.506 Y52.26 Z1.962
X14.492 Y52.22 Z1.955
X14.493 Y52.178 Z1.948
X14.51 Y52.139 Z1.941
X14.54 Y52.109 Z1.934
X14.579 Y52.093 Z1.927
X14.622 Y52.092 Z1.92
X14.661 Y52.107 Z1.913
X14.693 Y52.135 Z1.905
X14.711 Y52.173 Z1.898
X14.715 Y52.215 Z1.891
X14.702 Y52.255 Z1.884
X14.676 Y52.288 Z1.877
X14.639 Y52.309 Z1.87
X14.598 Y52.315 Z1.863
X14.556 Y52.306 Z1.855
X14.522 Y52.281 Z1.848
X14.499 Y52.246 Z1.841
X14.49 Y52.204 Z1.834
X14.498 Y52.163 Z1.827
X14.52 Y52.127 Z1.82
X14.554 Y52.102 Z1.813
X14.595 Y52.091 Z1.805
X14.637 Y52.096 Z1.798
X14.674 Y52.116 Z1.791
X14.701 Y52.148 Z1.784
X14.714 Y52.188 Z1.777
X14.712 Y52.23 Z1.77
X14.694 Y52.269 Z1.763
X14.664 Y52.298 Z1.756
X14.625 Y52.313 Z1.748
X14.582 Y52.314 Z1.741
X14.543 Y52.298 Z1.734
X14.512 Y52.269 Z1.727
X14.494 Y52.231 Z1.72
X14.491 Y52.189 Z1.713
X14.504 Y52.149 Z1.706
X14.531 Y52.116 Z1.698
X14.568 Y52.096 Z1.691
X14.61 Y52.091 Z1.684
X14.651 Y52.101 Z1.677
X14.685 Y52.126 Z1.67
X14.708 Y52.162 Z1.663
X14.715 Y52.203 Z1.656
X14.707 Y52.245 Z1.648
X14.684 Y52.28 Z1.641
X14.65 Y52.305 Z1.634
X14.609 Y52.315 Z1.627
X14.567 Y52.31 Z1.62
X14.531 Y52.289 Z1.613
X14.504 Y52.256 Z1.606
X14.491 Y52.216 Z1.599
X14.494 Y52.174 Z1.591
X14.513 Y52.136 Z1.584
X14.544 Y52.107 Z1.577
X14.583 Y52.092 Z1.57
X14.625 Y52.093 Z1.563
X14.664 Y52.109 Z1.556
X14.695 Y52.138 Z1.549
X14.712 Y52.177 Z1.541
X14.714 Y52.219 Z1.534
X14.701 Y52.259 Z1.527
X14.673 Y52.291 Z1.52
X14.636 Y52.311 Z1.513
X14.594 Y52.315 Z1.506
X14.553 Y52.304 Z1.499
X14.519 Y52.278 Z1.491
X14.497 Y52.242 Z1.484
X14.49 Y52.201 Z1.477
X14.499 Y52.159 Z1.47
X14.522 Y52.124 Z1.463
X14.557 Y52.1 Z1.456
X14.598 Y52.091 Z1.449
X14.64 Y52.097 Z1.442
X14.677 Y52.118 Z1.434
X14.703 Y52.151 Z1.427
X14.715 Y52.192 Z1.42
X14.711 Y52.234 Z1.413
X14.692 Y52.272 Z1.406
X14.661 Y52.3 Z1.399
X14.621 Y52.314 Z1.392
X14.579 Y52.313 Z1.384
X14.54 Y52.296 Z1.377
X14.51 Y52.266 Z1.37
X14.493 Y52.228 Z1.363
X14.492 Y52.185 Z1.356
X14.506 Y52.146 Z1.349
X14.534 Y52.114 Z1.342
X14.572 Y52.095 Z1.334
X14.614 Y52.091 Z1.327
X14.654 Y52.103 Z1.32
X14.688 Y52.129 Z1.313
X14.709 Y52.165 Z1.306
X14.715 Y52.207 Z1.299
X14.706 Y52.248 Z1.292
X14.682 Y52.283 Z1.285
X14.647 Y52.307 Z1.277
X14.606 Y52.315 Z1.27
X14.564 Y52.309 Z1.263
X14.528 Y52.287 Z1.256
X14.502 Y52.253 Z1.249
X14.491 Y52.212 Z1.242
X14.495 Y52.17 Z1.235
X14.515 Y52.133 Z1.227
X14.547 Y52.105 Z1.22
X14.587 Y52.092 Z1.213
X14.629 Y52.094 Z1.206
X14.667 Y52.111 Z1.199
X14.697 Y52.141 Z1.192
X14.713 Y52.18 Z1.185
X14.714 Y52.222 Z1.177
X14.699 Y52.262 Z1.17
X14.67 Y52.293 Z1.163
X14.632 Y52.312 Z1.156
X14.59 Y52.315 Z1.149
X14.55 Y52.302 Z1.142
X14.517 Y52.276 Z1.135
X14.496 Y52.239 Z1.128
X14.491 Y52.197 Z1.12
X14.501 Y52.156 Z1.113
X14.525 Y52.122 Z1.106
X14.561 Y52.099 Z1.099
X14.602 Y52.091 Z1.092
X14.644 Y52.098 Z1.085
X14.679 Y52.121 Z1.078
X14.704 Y52.155 Z1.07
X14.715 Y52.195 Z1.063
X14.71 Y52.237 Z1.056
X14.69 Y52.274 Z1.049
X14.657 Y52.301 Z1.042
X14.617 Y52.315 Z1.035
X14.575 Y52.312 Z1.028
X14.537 Y52.294 Z1.02
X14.508 Y52.263 Z1.013
X14.492 Y52.224 Z1.006
Y52.182 Z0.999
X14.508 Y52.143 Z0.992
X14.537 Y52.112 Z0.985
X14.575 Y52.094 Z0.978
X14.617 Y52.091 Z0.971
X14.658 Y52.105 Z0.963
X14.69 Y52.132 Z0.956
X14.71 Y52.169 Z0.949
X14.715 Y52.211 Z0.942
X14.704 Y52.252 Z0.935
X14.679 Y52.286 Z0.928
X14.643 Y52.308 Z0.921
X14.602 Y52.316 Z0.913
X14.56 Y52.307 Z0.906
X14.525 Y52.284 Z0.899
X14.501 Y52.25 Z0.892
X14.49 Y52.209 Z0.885
X14.496 Y52.167 Z0.878
X14.517 Y52.13 Z0.871
X14.55 Y52.104 Z0.863
X14.59 Y52.091 Z0.856
X14.632 Y52.094 Z0.849
X14.67 Y52.113 Z0.842
X14.699 Y52.144 Z0.835
X14.714 Y52.184 Z0.828
X14.713 Y52.226 Z0.821
X14.697 Y52.265 Z0.814
X14.667 Y52.295 Z0.806
X14.629 Y52.313 Z0.799
X14.586 Y52.314 Z0.792
X14.547 Y52.3 Z0.785
X14.515 Y52.273 Z0.778
X14.495 Y52.235 Z0.771
X14.491 Y52.193 Z0.764
X14.502 Y52.153 Z0.756
X14.528 Y52.119 Z0.749
X14.564 Y52.097 Z0.742
X14.606 Y52.091 Z0.735
X14.647 Y52.1 Z0.728
X14.682 Y52.123 Z0.721
X14.706 Y52.158 Z0.714
X14.715 Y52.199 Z0.706
X14.709 Y52.241 Z0.699
X14.687 Y52.277 Z0.692
X14.654 Y52.303 Z0.685
X14.613 Y52.315 Z0.678
X14.571 Y52.311 Z0.671
X14.534 Y52.292 Z0.664
X14.506 Y52.26 Z0.657
X14.492 Y52.22 Z0.649
X14.493 Y52.178 Z0.642
X14.51 Y52.139 Z0.635
X14.54 Y52.11 Z0.628
X14.579 Y52.093 Z0.621
X14.621 Y52.092 Z0.614
X14.661 Y52.107 Z0.607
X14.692 Y52.135 Z0.599
X14.711 Y52.172 Z0.592
X14.715 Y52.215 Z0.585
X14.703 Y52.255 Z0.578
X14.676 Y52.288 Z0.571
X14.64 Y52.309 Z0.564
X14.598 Y52.315 Z0.557
X14.557 Y52.306 Z0.549
X14.522 Y52.282 Z0.542
X14.499 Y52.246 Z0.535
X14.49 Y52.205 Z0.528
X14.498 Y52.163 Z0.521
X14.52 Y52.127 Z0.514
X14.553 Y52.102 Z0.507
X14.594 Y52.091 Z0.5
X14.636 Y52.096 Z0.492
X14.673 Y52.115 Z0.485
X14.701 Y52.148 Z0.478
X14.714 Y52.188 Z0.471
X14.712 Y52.23 Z0.464
X14.695 Y52.268 Z0.457
X14.664 Y52.297 Z0.45
X14.625 Y52.313 Z0.442
X14.583 Y52.314 Z0.435
X14.543 Y52.299 Z0.428
X14.512 Y52.27 Z0.421
X14.494 Y52.232 Z0.414
X14.491 Y52.19 Z0.407
X14.504 Y52.149 Z0.4
X14.531 Y52.117 Z0.392
X14.568 Y52.096 Z0.385
X14.609 Y52.091 Z0.378
X14.65 Y52.101 Z0.371
X14.685 Y52.126 Z0.364
X14.707 Y52.161 Z0.357
X14.715 Y52.203 Z0.35
X14.707 Y52.244 Z0.343
X14.685 Y52.28 Z0.335
X14.651 Y52.305 Z0.328
X14.61 Y52.315 Z0.321
X14.568 Y52.31 Z0.314
X14.531 Y52.29 Z0.307
X14.504 Y52.257 Z0.3
X14.491 Y52.217 Z0.293
X14.494 Y52.175 Z0.285
X14.512 Y52.136 Z0.278
X14.543 Y52.108 Z0.271
X14.582 Y52.092 Z0.264
X14.625 Y52.093 Z0.257
X14.664 Y52.109 Z0.25
X14.694 Y52.138 Z0.243
X14.712 Y52.176 Z0.235
X14.714 Y52.218 Z0.228
X14.701 Y52.258 Z0.221
X14.674 Y52.29 Z0.214
X14.636 Y52.31 Z0.207
X14.594 Y52.315 Z0.2
X14.554 Y52.304 Z0.193
X14.52 Y52.279 Z0.186
X14.498 Y52.243 Z0.178
X14.49 Y52.201 Z0.171
X14.499 Y52.16 Z0.164
X14.522 Y52.125 Z0.157
X14.557 Y52.1 Z0.15
X14.598 Y52.091 Z0.143
X14.64 Y52.097 Z0.136
X14.676 Y52.118 Z0.128
X14.702 Y52.151 Z0.121
X14.715 Y52.191 Z0.114
X14.711 Y52.233 Z0.107
X14.692 Y52.271 Z0.1
X14.661 Y52.299 Z0.093
X14.621 Y52.314 Z0.086
X14.579 Y52.313 Z0.078
X14.54 Y52.297 Z0.071
X14.51 Y52.267 Z0.064
X14.493 Y52.228 Z0.057
X14.492 Y52.186 Z0.05
X14.506 Y52.146 Z0.043
X14.534 Y52.114 Z0.036
X14.571 Y52.095 Z0.029
X14.613 Y52.091 Z0.021
X14.654 Y52.103 Z0.014
X14.687 Y52.129 Z0.007
X14.709 Y52.165 Z0
G3 X14.497 Y52.241 I-0.106 J0.038
X14.709 Y52.165 I0.106 J-0.038
G1 X14.711 Y52.194
X14.699 Y52.22
X14.675 Y52.237
X14.603 Y52.203
G0 Z18.1
Y12.203
Z9.483
G1 Z7.8 F500
X14.659 Y12.259
X14.652 Y12.287
X14.631 Y12.308
X14.603 Y12.316
X14.561 Y12.308 Z7.793
X14.526 Y12.285 Z7.786
X14.501 Y12.251 Z7.779
X14.491 Y12.21 Z7.771
X14.496 Y12.168 Z7.764
X14.516 Y12.131 Z7.757
X14.549 Y12.104 Z7.75
X14.589 Y12.091 Z7.743
X14.631 Y12.094 Z7.736
X14.67 Y12.112 Z7.729
X14.698 Y12.143 Z7.722
X14.714 Y12.183 Z7.714
X14.713 Y12.225 Z7.707
X14.697 Y12.264 Z7.7
X14.668 Y12.295 Z7.693
X14.63 Y12.312 Z7.686
X14.588 Y12.314 Z7.679
X14.547 Y12.301 Z7.672
X14.515 Y12.274 Z7.664
X14.495 Y12.236 Z7.657
X14.491 Y12.194 Z7.65
X14.502 Y12.154 Z7.643
X14.527 Y12.12 Z7.636
X14.563 Y12.098 Z7.629
X14.605 Y12.091 Z7.622
X14.646 Y12.099 Z7.614
X14.681 Y12.122 Z7.607
X14.706 Y12.157 Z7.6
X14.715 Y12.198 Z7.593
X14.709 Y12.24 Z7.586
X14.688 Y12.276 Z7.579
X14.655 Y12.303 Z7.572
X14.615 Y12.315 Z7.565
X14.572 Y12.311 Z7.557
X14.535 Y12.292 Z7.55
X14.506 Y12.261 Z7.543
X14.492 Y12.221 Z7.536
X14.493 Y12.179 Z7.529
X14.509 Y12.14 Z7.522
X14.539 Y12.11 Z7.515
X14.578 Y12.093 Z7.507
X14.62 Y12.092 Z7.5
X14.66 Y12.106 Z7.493
X14.692 Y12.134 Z7.486
X14.711 Y12.171 Z7.479
X14.715 Y12.213 Z7.472
X14.703 Y12.254 Z7.465
X14.677 Y12.287 Z7.457
X14.641 Y12.309 Z7.45
X14.599 Y12.315 Z7.443
X14.558 Y12.306 Z7.436
X14.523 Y12.282 Z7.429
X14.499 Y12.247 Z7.422
X14.49 Y12.206 Z7.415
X14.497 Y12.164 Z7.408
X14.519 Y12.128 Z7.4
X14.552 Y12.102 Z7.393
X14.593 Y12.091 Z7.386
X14.635 Y12.095 Z7.379
X14.673 Y12.115 Z7.372
X14.7 Y12.147 Z7.365
X14.714 Y12.186 Z7.358
X14.712 Y12.229 Z7.35
X14.695 Y12.267 Z7.343
X14.665 Y12.297 Z7.336
X14.626 Y12.313 Z7.329
X14.584 Y12.314 Z7.322
X14.544 Y12.299 Z7.315
X14.513 Y12.271 Z7.308
X14.494 Y12.233 Z7.3
X14.491 Y12.191 Z7.293
X14.503 Y12.15 Z7.286
X14.53 Y12.117 Z7.279
X14.567 Y12.097 Z7.272
X14.608 Y12.091 Z7.265
X14.649 Y12.101 Z7.258
X14.684 Y12.125 Z7.251
X14.707 Y12.16 Z7.243
X14.715 Y12.202 Z7.236
X14.708 Y12.243 Z7.229
X14.686 Y12.279 Z7.222
X14.652 Y12.304 Z7.215
X14.611 Y12.315 Z7.208
X14.569 Y12.31 Z7.201
X14.532 Y12.29 Z7.193
X14.505 Y12.258 Z7.186
X14.491 Y12.218 Z7.179
X14.494 Y12.176 Z7.172
X14.512 Y12.137 Z7.165
X14.542 Y12.108 Z7.158
X14.581 Y12.093 Z7.151
X14.624 Y12.092 Z7.143
X14.663 Y12.108 Z7.136
X14.694 Y12.137 Z7.129
X14.712 Y12.175 Z7.122
X14.714 Y12.217 Z7.115
X14.701 Y12.257 Z7.108
X14.674 Y12.29 Z7.101
X14.637 Y12.31 Z7.094
X14.595 Y12.315 Z7.086
X14.555 Y12.305 Z7.079
X14.52 Y12.28 Z7.072
X14.498 Y12.244 Z7.065
X14.49 Y12.202 Z7.058
X14.499 Y12.161 Z7.051
X14.521 Y12.125 Z7.044
X14.556 Y12.101 Z7.036
X14.597 Y12.091 Z7.029
X14.639 Y12.096 Z7.022
X14.675 Y12.117 Z7.015
X14.702 Y12.15 Z7.008
X14.715 Y12.19 Z7.001
X14.711 Y12.232 Z6.994
X14.693 Y12.27 Z6.986
X14.662 Y12.299 Z6.979
X14.622 Y12.314 Z6.972
X14.58 Y12.313 Z6.965
X14.541 Y12.297 Z6.958
X14.511 Y12.268 Z6.951
X14.493 Y12.229 Z6.944
X14.491 Y12.187 Z6.937
X14.505 Y12.147 Z6.929
X14.533 Y12.115 Z6.922
X14.57 Y12.095 Z6.915
X14.612 Y12.091 Z6.908
X14.653 Y12.102 Z6.901
X14.686 Y12.128 Z6.894
X14.708 Y12.164 Z6.887
X14.715 Y12.206 Z6.879
X14.706 Y12.247 Z6.872
X14.683 Y12.282 Z6.865
X14.648 Y12.306 Z6.858
X14.607 Y12.315 Z6.851
X14.565 Y12.309 Z6.844
X14.529 Y12.288 Z6.837
X14.503 Y12.255 Z6.829
X14.491 Y12.214 Z6.822
X14.495 Y12.172 Z6.815
X14.514 Y12.134 Z6.808
X14.545 Y12.106 Z6.801
X14.585 Y12.092 Z6.794
X14.627 Y12.093 Z6.787
X14.666 Y12.11 Z6.78
X14.696 Y12.14 Z6.772
X14.713 Y12.179 Z6.765
X14.714 Y12.221 Z6.758
X14.7 Y12.261 Z6.751
X14.671 Y12.292 Z6.744
X14.634 Y12.311 Z6.737
X14.592 Y12.315 Z6.73
X14.551 Y12.303 Z6.722
X14.518 Y12.277 Z6.715
X14.497 Y12.24 Z6.708
X14.49 Y12.199 Z6.701
X14.5 Y12.157 Z6.694
X14.524 Y12.123 Z6.687
X14.559 Y12.099 Z6.68
X14.6 Y12.091 Z6.672
X14.642 Y12.098 Z6.665
X14.678 Y12.119 Z6.658
X14.704 Y12.153 Z6.651
X14.715 Y12.194 Z6.644
X14.71 Y12.236 Z6.637
X14.691 Y12.273 Z6.63
X14.659 Y12.301 Z6.623
X14.619 Y12.314 Z6.615
X14.577 Y12.312 Z6.608
X14.538 Y12.295 Z6.601
X14.509 Y12.265 Z6.594
X14.493 Y12.226 Z6.587
X14.492 Y12.183 Z6.58
X14.507 Y12.144 Z6.573
X14.536 Y12.113 Z6.565
X14.574 Y12.094 Z6.558
X14.616 Y12.091 Z6.551
X14.656 Y12.104 Z6.544
X14.689 Y12.131 Z6.537
X14.71 Y12.167 Z6.53
X14.715 Y12.209 Z6.523
X14.705 Y12.25 Z6.515
X14.68 Y12.285 Z6.508
X14.645 Y12.307 Z6.501
X14.603 Y12.316 Z6.494
X14.562 Y12.308 Z6.487
X14.526 Y12.285 Z6.48
X14.501 Y12.251 Z6.473
X14.491 Y12.21 Z6.466
X14.496 Y12.168 Z6.458
X14.516 Y12.131 Z6.451
X14.549 Y12.104 Z6.444
X14.589 Y12.091 Z6.437
X14.631 Y12.094 Z6.43
X14.669 Y12.112 Z6.423
X14.698 Y12.143 Z6.416
X14.713 Y12.182 Z6.408
Y12.225 Z6.401
X14.698 Y12.264 Z6.394
X14.669 Y12.294 Z6.387
X14.63 Y12.312 Z6.38
X14.588 Y12.315 Z6.373
X14.548 Y12.301 Z6.366
X14.516 Y12.274 Z6.358
X14.496 Y12.237 Z6.351
X14.491 Y12.195 Z6.344
X14.502 Y12.154 Z6.337
X14.527 Y12.12 Z6.33
X14.563 Y12.098 Z6.323
X14.604 Y12.091 Z6.316
X14.646 Y12.099 Z6.309
X14.681 Y12.122 Z6.301
X14.705 Y12.157 Z6.294
X14.715 Y12.198 Z6.287
X14.709 Y12.239 Z6.28
X14.688 Y12.276 Z6.273
X14.655 Y12.302 Z6.266
X14.615 Y12.315 Z6.259
X14.573 Y12.311 Z6.251
X14.535 Y12.293 Z6.244
X14.507 Y12.261 Z6.237
X14.492 Y12.222 Z6.23
X14.493 Y12.18 Z6.223
X14.509 Y12.141 Z6.216
X14.539 Y12.111 Z6.209
X14.577 Y12.093 Z6.201
X14.62 Y12.092 Z6.194
X14.659 Y12.106 Z6.187
X14.691 Y12.133 Z6.18
X14.711 Y12.171 Z6.173
X14.715 Y12.213 Z6.166
X14.703 Y12.254 Z6.159
X14.678 Y12.287 Z6.152
X14.641 Y12.309 Z6.144
X14.6 Y12.315 Z6.137
X14.558 Y12.306 Z6.13
X14.523 Y12.283 Z6.123
X14.5 Y12.248 Z6.116
X14.49 Y12.207 Z6.109
X14.497 Y12.165 Z6.102
X14.519 Y12.129 Z6.094
X14.552 Y12.103 Z6.087
X14.593 Y12.091 Z6.08
X14.635 Y12.095 Z6.073
X14.672 Y12.114 Z6.066
X14.7 Y12.146 Z6.059
X14.714 Y12.186 Z6.052
X14.713 Y12.228 Z6.044
X14.696 Y12.267 Z6.037
X14.665 Y12.296 Z6.03
X14.627 Y12.313 Z6.023
X14.584 Y12.314 Z6.016
X14.545 Y12.299 Z6.009
X14.513 Y12.271 Z6.002
X14.495 Y12.233 Z5.995
X14.491 Y12.191 Z5.987
X14.503 Y12.151 Z5.98
X14.529 Y12.118 Z5.973
X14.566 Y12.097 Z5.966
X14.608 Y12.091 Z5.959
X14.649 Y12.1 Z5.952
X14.684 Y12.125 Z5.945
X14.707 Y12.16 Z5.937
X14.715 Y12.201 Z5.93
X14.708 Y12.243 Z5.923
X14.686 Y12.279 Z5.916
X14.652 Y12.304 Z5.909
X14.611 Y12.315 Z5.902
X14.569 Y12.31 Z5.895
X14.532 Y12.291 Z5.887
X14.505 Y12.258 Z5.88
X14.491 Y12.218 Z5.873
X14.494 Y12.176 Z5.866
X14.511 Y12.138 Z5.859
X14.542 Y12.109 Z5.852
X14.581 Y12.093 Z5.845
X14.623 Y12.092 Z5.838
X14.663 Y12.108 Z5.83
X14.694 Y12.136 Z5.823
X14.712 Y12.175 Z5.816
X14.715 Y12.217 Z5.809
X14.702 Y12.257 Z5.802
X14.675 Y12.289 Z5.795
X14.638 Y12.31 Z5.788
X14.596 Y12.315 Z5.78
X14.555 Y12.305 Z5.773
X14.521 Y12.28 Z5.766
X14.498 Y12.244 Z5.759
X14.49 Y12.203 Z5.752
X14.498 Y12.161 Z5.745
X14.521 Y12.126 Z5.738
X14.555 Y12.101 Z5.73
X14.596 Y12.091 Z5.723
X14.638 Y12.096 Z5.716
X14.675 Y12.117 Z5.709
X14.702 Y12.149 Z5.702
X14.715 Y12.19 Z5.695
X14.712 Y12.232 Z5.688
X14.693 Y12.27 Z5.681
X14.662 Y12.299 Z5.673
X14.623 Y12.314 Z5.666
X14.581 Y12.313 Z5.659
X14.542 Y12.297 Z5.652
X14.511 Y12.268 Z5.645
X14.494 Y12.23 Z5.638
X14.491 Y12.188 Z5.631
X14.505 Y12.148 Z5.623
X14.532 Y12.115 Z5.616
X14.57 Y12.096 Z5.609
X14.612 Y12.091 Z5.602
X14.652 Y12.102 Z5.595
X14.686 Y12.127 Z5.588
X14.708 Y12.163 Z5.581
X14.715 Y12.205 Z5.573
X14.707 Y12.246 Z5.566
X14.683 Y12.282 Z5.559
X14.649 Y12.306 Z5.552
X14.608 Y12.315 Z5.545
X14.566 Y12.309 Z5.538
X14.529 Y12.288 Z5.531
X14.503 Y12.255 Z5.524
X14.491 Y12.215 Z5.516
X14.495 Y12.172 Z5.509
X14.513 Y12.135 Z5.502
X14.545 Y12.107 Z5.495
X14.585 Y12.092 Z5.488
X14.627 Y12.093 Z5.481
X14.666 Y12.11 Z5.474
X14.696 Y12.139 Z5.466
X14.713 Y12.178 Z5.459
X14.714 Y12.22 Z5.452
X14.7 Y12.26 Z5.445
X14.672 Y12.292 Z5.438
X14.634 Y12.311 Z5.431
X14.592 Y12.315 Z5.424
X14.552 Y12.303 Z5.416
X14.518 Y12.277 Z5.409
X14.497 Y12.241 Z5.402
X14.49 Y12.199 Z5.395
X14.5 Y12.158 Z5.388
X14.524 Y12.123 Z5.381
X14.559 Y12.1 Z5.374
X14.6 Y12.091 Z5.367
X14.642 Y12.097 Z5.359
X14.678 Y12.119 Z5.352
X14.703 Y12.153 Z5.345
X14.715 Y12.193 Z5.338
X14.711 Y12.235 Z5.331
X14.691 Y12.273 Z5.324
X14.659 Y12.3 Z5.317
X14.619 Y12.314 Z5.309
X14.577 Y12.313 Z5.302
X14.539 Y12.295 Z5.295
X14.509 Y12.265 Z5.288
X14.493 Y12.226 Z5.281
X14.492 Y12.184 Z5.274
X14.507 Y12.144 Z5.267
X14.535 Y12.113 Z5.259
X14.573 Y12.094 Z5.252
X14.615 Y12.091 Z5.245
X14.656 Y12.104 Z5.238
X14.689 Y12.13 Z5.231
X14.709 Y12.167 Z5.224
X14.715 Y12.209 Z5.217
X14.705 Y12.25 Z5.21
X14.681 Y12.284 Z5.202
X14.645 Y12.307 Z5.195
X14.604 Y12.316 Z5.188
X14.562 Y12.308 Z5.181
X14.527 Y12.286 Z5.174
X14.501 Y12.252 Z5.167
X14.491 Y12.211 Z5.16
X14.496 Y12.169 Z5.152
X14.516 Y12.132 Z5.145
X14.548 Y12.105 Z5.138
X14.588 Y12.091 Z5.131
X14.63 Y12.094 Z5.124
X14.669 Y12.112 Z5.117
X14.698 Y12.143 Z5.11
X14.713 Y12.182 Z5.102
Y12.224 Z5.095
X14.698 Y12.263 Z5.088
X14.669 Y12.294 Z5.081
X14.631 Y12.312 Z5.074
X14.589 Y12.315 Z5.067
X14.548 Y12.301 Z5.06
X14.516 Y12.274 Z5.053
X14.496 Y12.237 Z5.045
X14.491 Y12.195 Z5.038
X14.501 Y12.155 Z5.031
X14.526 Y12.121 Z5.024
X14.562 Y12.098 Z5.017
X14.604 Y12.091 Z5.01
X14.645 Y12.099 Z5.003
X14.681 Y12.122 Z4.995
X14.705 Y12.156 Z4.988
X14.715 Y12.197 Z4.981
X14.709 Y12.239 Z4.974
X14.689 Y12.276 Z4.967
X14.656 Y12.302 Z4.96
X14.616 Y12.315 Z4.953
X14.573 Y12.312 Z4.945
X14.535 Y12.293 Z4.938
X14.507 Y12.262 Z4.931
X14.492 Y12.222 Z4.924
X14.493 Y12.18 Z4.917
X14.509 Y12.141 Z4.91
X14.538 Y12.111 Z4.903
X14.577 Y12.094 Z4.896
X14.619 Y12.092 Z4.888
X14.659 Y12.105 Z4.881
X14.691 Y12.133 Z4.874
X14.711 Y12.17 Z4.867
X14.715 Y12.212 Z4.86
X14.704 Y12.253 Z4.853
X14.678 Y12.287 Z4.846
X14.642 Y12.309 Z4.838
X14.6 Y12.315 Z4.831
X14.559 Y12.307 Z4.824
X14.524 Y12.283 Z4.817
X14.5 Y12.248 Z4.81
X14.49 Y12.207 Z4.803
X14.497 Y12.165 Z4.796
X14.518 Y12.129 Z4.788
X14.551 Y12.103 Z4.781
X14.592 Y12.091 Z4.774
X14.634 Y12.095 Z4.767
X14.672 Y12.114 Z4.76
X14.7 Y12.146 Z4.753
X14.714 Y12.185 Z4.746
X14.713 Y12.228 Z4.739
X14.696 Y12.266 Z4.731
X14.666 Y12.296 Z4.724
X14.627 Y12.313 Z4.717
X14.585 Y12.314 Z4.71
X14.545 Y12.3 Z4.703
X14.514 Y12.272 Z4.696
X14.495 Y12.234 Z4.689
X14.491 Y12.192 Z4.681
X14.503 Y12.151 Z4.674
X14.529 Y12.118 Z4.667
X14.566 Y12.097 Z4.66
X14.607 Y12.091 Z4.653
X14.648 Y12.1 Z4.646
X14.683 Y12.124 Z4.639
X14.707 Y12.159 Z4.631
X14.715 Y12.201 Z4.624
X14.708 Y12.242 Z4.617
X14.686 Y12.278 Z4.61
X14.653 Y12.304 Z4.603
X14.612 Y12.315 Z4.596
X14.57 Y12.311 Z4.589
X14.533 Y12.291 Z4.582
X14.505 Y12.259 Z4.574
X14.491 Y12.219 Z4.567
X14.494 Y12.177 Z4.56
X14.511 Y12.138 Z4.553
X14.541 Y12.109 Z4.546
X14.58 Y12.093 Z4.539
X14.623 Y12.092 Z4.532
X14.662 Y12.107 Z4.524
X14.693 Y12.136 Z4.517
X14.712 Y12.174 Z4.51
X14.715 Y12.216 Z4.503
X14.702 Y12.256 Z4.496
X14.675 Y12.289 Z4.489
X14.638 Y12.31 Z4.482
X14.596 Y12.315 Z4.474
X14.556 Y12.305 Z4.467
X14.521 Y12.28 Z4.46
X14.498 Y12.245 Z4.453
X14.49 Y12.203 Z4.446
X14.498 Y12.162 Z4.439
X14.521 Y12.126 Z4.432
X14.555 Y12.101 Z4.425
X14.596 Y12.091 Z4.417
X14.638 Y12.096 Z4.41
X14.675 Y12.116 Z4.403
X14.701 Y12.149 Z4.396
X14.714 Y12.189 Z4.389
X14.712 Y12.231 Z4.382
X14.694 Y12.269 Z4.375
X14.663 Y12.298 Z4.367
X14.623 Y12.314 Z4.36
X14.581 Y12.313 Z4.353
X14.542 Y12.298 Z4.346
X14.511 Y12.269 Z4.339
X14.494 Y12.23 Z4.332
X14.491 Y12.188 Z4.325
X14.505 Y12.148 Z4.317
X14.532 Y12.116 Z4.31
X14.569 Y12.096 Z4.303
X14.611 Y12.091 Z4.296
X14.652 Y12.102 Z4.289
X14.686 Y12.127 Z4.282
X14.708 Y12.163 Z4.275
X14.715 Y12.204 Z4.268
X14.707 Y12.246 Z4.26
X14.684 Y12.281 Z4.253
X14.649 Y12.306 Z4.246
X14.608 Y12.315 Z4.239
X14.566 Y12.309 Z4.232
X14.53 Y12.288 Z4.225
X14.503 Y12.255 Z4.218
X14.491 Y12.215 Z4.21
X14.494 Y12.173 Z4.203
X14.513 Y12.135 Z4.196
X14.544 Y12.107 Z4.189
X14.584 Y12.092 Z4.182
X14.626 Y12.093 Z4.175
X14.665 Y12.109 Z4.168
X14.695 Y12.139 Z4.16
X14.712 Y12.178 Z4.153
X14.714 Y12.22 Z4.146
X14.7 Y12.26 Z4.139
X14.672 Y12.291 Z4.132
X14.635 Y12.311 Z4.125
X14.593 Y12.315 Z4.118
X14.552 Y12.303 Z4.111
X14.519 Y12.278 Z4.103
X14.497 Y12.241 Z4.096
X14.49 Y12.2 Z4.089
X14.5 Y12.158 Z4.082
X14.523 Y12.124 Z4.075
X14.558 Y12.1 Z4.068
X14.599 Y12.091 Z4.061
X14.641 Y12.097 Z4.053
X14.677 Y12.119 Z4.046
X14.703 Y12.152 Z4.039
X14.715 Y12.193 Z4.032
X14.711 Y12.235 Z4.025
X14.691 Y12.272 Z4.018
X14.66 Y12.3 Z4.011
X14.62 Y12.314 Z4.003
X14.578 Y12.313 Z3.996
X14.539 Y12.296 Z3.989
X14.509 Y12.266 Z3.982
X14.493 Y12.227 Z3.975
X14.492 Y12.184 Z3.968
X14.507 Y12.145 Z3.961
X14.535 Y12.113 Z3.954
X14.573 Y12.095 Z3.946
X14.615 Y12.091 Z3.939
X14.655 Y12.103 Z3.932
X14.688 Y12.13 Z3.925
X14.709 Y12.166 Z3.918
X14.715 Y12.208 Z3.911
X14.705 Y12.249 Z3.904
X14.681 Y12.284 Z3.896
X14.646 Y12.307 Z3.889
X14.604 Y12.316 Z3.882
X14.563 Y12.308 Z3.875
X14.527 Y12.286 Z3.868
X14.502 Y12.252 Z3.861
X14.491 Y12.211 Z3.854
X14.495 Y12.169 Z3.846
X14.515 Y12.132 Z3.839
X14.548 Y12.105 Z3.832
X14.588 Y12.092 Z3.825
X14.63 Y12.094 Z3.818
X14.668 Y12.111 Z3.811
X14.697 Y12.142 Z3.804
X14.713 Y12.181 Z3.797
Y12.223 Z3.789
X14.698 Y12.263 Z3.782
X14.669 Y12.294 Z3.775
X14.631 Y12.312 Z3.768
X14.589 Y12.315 Z3.761
X14.549 Y12.302 Z3.754
X14.516 Y12.275 Z3.747
X14.496 Y12.238 Z3.739
X14.491 Y12.196 Z3.732
X14.501 Y12.155 Z3.725
X14.526 Y12.121 Z3.718
X14.562 Y12.098 Z3.711
X14.603 Y12.091 Z3.704
X14.645 Y12.099 Z3.697
X14.68 Y12.121 Z3.689
X14.705 Y12.156 Z3.682
X14.715 Y12.197 Z3.675
X14.71 Y12.238 Z3.668
X14.689 Y12.275 Z3.661
X14.656 Y12.302 Z3.654
X14.616 Y12.315 Z3.647
X14.574 Y12.312 Z3.64
X14.536 Y12.293 Z3.632
X14.507 Y12.262 Z3.625
X14.492 Y12.223 Z3.618
X14.493 Y12.181 Z3.611
X14.509 Y12.142 Z3.604
X14.538 Y12.111 Z3.597
X14.576 Y12.094 Z3.59
X14.618 Y12.092 Z3.582
X14.658 Y12.105 Z3.575
X14.691 Y12.133 Z3.568
X14.71 Y12.17 Z3.561
X14.715 Y12.212 Z3.554
X14.704 Y12.253 Z3.547
X14.678 Y12.286 Z3.54
X14.642 Y12.308 Z3.532
X14.601 Y12.315 Z3.525
X14.559 Y12.307 Z3.518
X14.524 Y12.283 Z3.511
X14.5 Y12.249 Z3.504
X14.49 Y12.208 Z3.497
X14.497 Y12.166 Z3.49
X14.518 Y12.129 Z3.483
X14.551 Y12.103 Z3.475
X14.591 Y12.091 Z3.468
X14.634 Y12.095 Z3.461
X14.671 Y12.114 Z3.454
X14.699 Y12.145 Z3.447
X14.714 Y12.185 Z3.44
X14.713 Y12.227 Z3.433
X14.696 Y12.266 Z3.425
X14.666 Y12.296 Z3.418
X14.628 Y12.313 Z3.411
X14.585 Y12.314 Z3.404
X14.546 Y12.3 Z3.397
X14.514 Y12.272 Z3.39
X14.495 Y12.234 Z3.383
X14.491 Y12.192 Z3.375
X14.503 Y12.152 Z3.368
X14.529 Y12.118 Z3.361
X14.565 Y12.097 Z3.354
X14.607 Y12.091 Z3.347
X14.648 Y12.1 Z3.34
X14.683 Y12.124 Z3.333
X14.706 Y12.159 Z3.326
X14.715 Y12.2 Z3.318
X14.708 Y12.242 Z3.311
X14.687 Y12.278 Z3.304
X14.653 Y12.304 Z3.297
X14.612 Y12.315 Z3.29
X14.57 Y12.311 Z3.283
X14.533 Y12.291 Z3.276
X14.505 Y12.259 Z3.268
X14.492 Y12.219 Z3.261
X14.493 Y12.177 Z3.254
X14.511 Y12.139 Z3.247
X14.541 Y12.109 Z3.24
X14.58 Y12.093 Z3.233
X14.622 Y12.092 Z3.226
X14.662 Y12.107 Z3.218
X14.693 Y12.136 Z3.211
X14.711 Y12.173 Z3.204
X14.715 Y12.216 Z3.197
X14.702 Y12.256 Z3.19
X14.676 Y12.289 Z3.183
X14.639 Y12.31 Z3.176
X14.597 Y12.315 Z3.169
X14.556 Y12.305 Z3.161
X14.522 Y12.281 Z3.154
X14.499 Y12.245 Z3.147
X14.49 Y12.204 Z3.14
X14.498 Y12.162 Z3.133
X14.52 Y12.127 Z3.126
X14.554 Y12.102 Z3.119
X14.595 Y12.091 Z3.111
X14.637 Y12.096 Z3.104
X14.674 Y12.116 Z3.097
X14.701 Y12.148 Z3.09
X14.714 Y12.189 Z3.083
X14.712 Y12.231 Z3.076
X14.694 Y12.269 Z3.069
X14.663 Y12.298 Z3.061
X14.624 Y12.314 Z3.054
X14.582 Z3.047
X14.542 Y12.298 Z3.04
X14.512 Y12.269 Z3.033
X14.494 Y12.231 Z3.026
X14.491 Y12.189 Z3.019
X14.504 Y12.148 Z3.012
X14.532 Y12.116 Z3.004
X14.569 Y12.096 Z2.997
X14.611 Y12.091 Z2.99
X14.651 Y12.102 Z2.983
X14.685 Y12.127 Z2.976
X14.708 Y12.162 Z2.969
X14.715 Y12.204 Z2.962
X14.707 Y12.245 Z2.954
X14.684 Y12.281 Z2.947
X14.65 Y12.305 Z2.94
X14.609 Y12.315 Z2.933
X14.567 Y12.31 Z2.926
X14.53 Y12.289 Z2.919
X14.504 Y12.256 Z2.912
X14.491 Y12.216 Z2.904
X14.494 Y12.174 Z2.897
X14.513 Y12.136 Z2.89
X14.544 Y12.107 Z2.883
X14.584 Y12.092 Z2.876
X14.626 Y12.093 Z2.869
X14.665 Y12.109 Z2.862
X14.695 Y12.139 Z2.855
X14.712 Y12.177 Z2.847
X14.714 Y12.219 Z2.84
X14.7 Y12.259 Z2.833
X14.673 Y12.291 Z2.826
X14.635 Y12.311 Z2.819
X14.593 Y12.315 Z2.812
X14.553 Y12.304 Z2.805
X14.519 Y12.278 Z2.797
X14.497 Y12.242 Z2.79
X14.49 Y12.2 Z2.783
X14.499 Y12.159 Z2.776
X14.523 Y12.124 Z2.769
X14.558 Y12.1 Z2.762
X14.599 Y12.091 Z2.755
X14.641 Y12.097 Z2.747
X14.677 Y12.118 Z2.74
X14.703 Y12.152 Z2.733
X14.715 Y12.192 Z2.726
X14.711 Y12.234 Z2.719
X14.692 Y12.272 Z2.712
X14.66 Y12.3 Z2.705
X14.62 Y12.314 Z2.698
X14.578 Y12.313 Z2.69
X14.539 Y12.296 Z2.683
X14.51 Y12.266 Z2.676
X14.493 Y12.227 Z2.669
X14.492 Y12.185 Z2.662
X14.506 Y12.145 Z2.655
X14.534 Y12.114 Z2.648
X14.572 Y12.095 Z2.64
X14.614 Y12.091 Z2.633
X14.655 Y12.103 Z2.626
X14.688 Y12.129 Z2.619
X14.709 Y12.166 Z2.612
X14.715 Y12.208 Z2.605
X14.706 Y12.249 Z2.598
X14.682 Y12.283 Z2.59
X14.646 Y12.307 Z2.583
X14.605 Y12.315 Z2.576
X14.563 Y12.308 Z2.569
X14.527 Y12.286 Z2.562
X14.502 Y12.253 Z2.555
X14.491 Y12.212 Z2.548
X14.495 Y12.17 Z2.541
X14.515 Y12.133 Z2.533
X14.547 Y12.105 Z2.526
X14.587 Y12.092 Z2.519
X14.629 Y12.094 Z2.512
X14.668 Y12.111 Z2.505
X14.697 Y12.142 Z2.498
X14.713 Y12.181 Z2.491
X14.714 Y12.223 Z2.483
X14.698 Y12.262 Z2.476
X14.67 Y12.293 Z2.469
X14.632 Y12.312 Z2.462
X14.59 Y12.315 Z2.455
X14.549 Y12.302 Z2.448
X14.517 Y12.275 Z2.441
X14.496 Y12.238 Z2.433
X14.491 Y12.197 Z2.426
X14.501 Y12.156 Z2.419
X14.526 Y12.121 Z2.412
X14.561 Y12.099 Z2.405
X14.603 Y12.091 Z2.398
X14.644 Y12.098 Z2.391
X14.68 Y12.121 Z2.384
X14.705 Y12.155 Z2.376
X14.715 Y12.196 Z2.369
X14.71 Y12.238 Z2.362
X14.689 Y12.275 Z2.355
X14.657 Y12.302 Z2.348
X14.617 Y12.315 Z2.341
X14.574 Y12.312 Z2.334
X14.536 Y12.294 Z2.326
X14.508 Y12.263 Z2.319
X14.492 Y12.223 Z2.312
Y12.181 Z2.305
X14.508 Y12.142 Z2.298
X14.537 Y12.112 Z2.291
X14.576 Y12.094 Z2.284
X14.618 Y12.092 Z2.276
X14.658 Y12.105 Z2.269
X14.69 Y12.132 Z2.262
X14.71 Y12.169 Z2.255
X14.715 Y12.211 Z2.248
X14.704 Y12.252 Z2.241
X14.679 Y12.286 Z2.234
X14.643 Y12.308 Z2.227
X14.601 Y12.316 Z2.219
X14.56 Y12.307 Z2.212
X14.525 Y12.284 Z2.205
X14.5 Y12.249 Z2.198
X14.49 Y12.208 Z2.191
X14.496 Y12.166 Z2.184
X14.517 Y12.13 Z2.177
X14.551 Y12.103 Z2.169
X14.591 Y12.091 Z2.162
X14.633 Y12.095 Z2.155
X14.671 Y12.113 Z2.148
X14.699 Y12.145 Z2.141
X14.714 Y12.184 Z2.134
X14.713 Y12.227 Z2.127
X14.696 Y12.265 Z2.119
X14.667 Y12.296 Z2.112
X14.628 Y12.313 Z2.105
X14.586 Y12.314 Z2.098
X14.546 Y12.3 Z2.091
X14.514 Y12.272 Z2.084
X14.495 Y12.235 Z2.077
X14.491 Y12.193 Z2.07
X14.502 Y12.152 Z2.062
X14.528 Y12.119 Z2.055
X14.565 Y12.097 Z2.048
X14.606 Y12.091 Z2.041
X14.648 Y12.1 Z2.034
X14.682 Y12.124 Z2.027
X14.706 Y12.158 Z2.02
X14.715 Y12.2 Z2.012
X14.709 Y12.241 Z2.005
X14.687 Y12.278 Z1.998
X14.654 Y12.303 Z1.991
X14.613 Y12.315 Z1.984
X14.571 Y12.311 Z1.977
X14.533 Y12.292 Z1.97
X14.506 Y12.26 Z1.962
X14.492 Y12.22 Z1.955
X14.493 Y12.178 Z1.948
X14.51 Y12.139 Z1.941
X14.54 Y12.109 Z1.934
X14.579 Y12.093 Z1.927
X14.622 Y12.092 Z1.92
X14.661 Y12.107 Z1.913
X14.693 Y12.135 Z1.905
X14.711 Y12.173 Z1.898
X14.715 Y12.215 Z1.891
X14.702 Y12.255 Z1.884
X14.676 Y12.288 Z1.877
X14.639 Y12.309 Z1.87
X14.598 Y12.315 Z1.863
X14.556 Y12.306 Z1.855
X14.522 Y12.281 Z1.848
X14.499 Y12.246 Z1.841
X14.49 Y12.204 Z1.834
X14.498 Y12.163 Z1.827
X14.52 Y12.127 Z1.82
X14.554 Y12.102 Z1.813
X14.595 Y12.091 Z1.805
X14.637 Y12.096 Z1.798
X14.674 Y12.116 Z1.791
X14.701 Y12.148 Z1.784
X14.714 Y12.188 Z1.777
X14.712 Y12.23 Z1.77
X14.694 Y12.269 Z1.763
X14.664 Y12.298 Z1.756
X14.625 Y12.313 Z1.748
X14.582 Y12.314 Z1.741
X14.543 Y12.298 Z1.734
X14.512 Y12.269 Z1.727
X14.494 Y12.231 Z1.72
X14.491 Y12.189 Z1.713
X14.504 Y12.149 Z1.706
X14.531 Y12.116 Z1.698
X14.568 Y12.096 Z1.691
X14.61 Y12.091 Z1.684
X14.651 Y12.101 Z1.677
X14.685 Y12.126 Z1.67
X14.708 Y12.162 Z1.663
X14.715 Y12.203 Z1.656
X14.707 Y12.245 Z1.648
X14.684 Y12.28 Z1.641
X14.65 Y12.305 Z1.634
X14.609 Y12.315 Z1.627
X14.567 Y12.31 Z1.62
X14.531 Y12.289 Z1.613
X14.504 Y12.256 Z1.606
X14.491 Y12.216 Z1.599
X14.494 Y12.174 Z1.591
X14.513 Y12.136 Z1.584
X14.544 Y12.107 Z1.577
X14.583 Y12.092 Z1.57
X14.625 Y12.093 Z1.563
X14.664 Y12.109 Z1.556
X14.695 Y12.138 Z1.549
X14.712 Y12.177 Z1.541
X14.714 Y12.219 Z1.534
X14.701 Y12.259 Z1.527
X14.673 Y12.291 Z1.52
X14.636 Y12.311 Z1.513
X14.594 Y12.315 Z1.506
X14.553 Y12.304 Z1.499
X14.519 Y12.278 Z1.491
X14.497 Y12.242 Z1.484
X14.49 Y12.201 Z1.477
X14.499 Y12.159 Z1.47
X14.522 Y12.124 Z1.463
X14.557 Y12.1 Z1.456
X14.598 Y12.091 Z1.449
X14.64 Y12.097 Z1.442
X14.677 Y12.118 Z1.434
X14.703 Y12.151 Z1.427
X14.715 Y12.192 Z1.42
X14.711 Y12.234 Z1.413
X14.692 Y12.272 Z1.406
X14.661 Y12.3 Z1.399
X14.621 Y12.314 Z1.392
X14.579 Y12.313 Z1.384
X14.54 Y12.296 Z1.377
X14.51 Y12.266 Z1.37
X14.493 Y12.228 Z1.363
X14.492 Y12.185 Z1.356
X14.506 Y12.146 Z1.349
X14.534 Y12.114 Z1.342
X14.572 Y12.095 Z1.334
X14.614 Y12.091 Z1.327
X14.654 Y12.103 Z1.32
X14.688 Y12.129 Z1.313
X14.709 Y12.165 Z1.306
X14.715 Y12.207 Z1.299
X14.706 Y12.248 Z1.292
X14.682 Y12.283 Z1.285
X14.647 Y12.307 Z1.277
X14.606 Y12.315 Z1.27
X14.564 Y12.309 Z1.263
X14.528 Y12.287 Z1.256
X14.502 Y12.253 Z1.249
X14.491 Y12.212 Z1.242
X14.495 Y12.17 Z1.235
X14.515 Y12.133 Z1.227
X14.547 Y12.105 Z1.22
X14.587 Y12.092 Z1.213
X14.629 Y12.094 Z1.206
X14.667 Y12.111 Z1.199
X14.697 Y12.141 Z1.192
X14.713 Y12.18 Z1.185
X14.714 Y12.222 Z1.177
X14.699 Y12.262 Z1.17
X14.67 Y12.293 Z1.163
X14.632 Y12.312 Z1.156
X14.59 Y12.315 Z1.149
X14.55 Y12.302 Z1.142
X14.517 Y12.276 Z1.135
X14.496 Y12.239 Z1.128
X14.491 Y12.197 Z1.12
X14.501 Y12.156 Z1.113
X14.525 Y12.122 Z1.106
X14.561 Y12.099 Z1.099
X14.602 Y12.091 Z1.092
X14.644 Y12.098 Z1.085
X14.679 Y12.121 Z1.078
X14.704 Y12.155 Z1.07
X14.715 Y12.195 Z1.063
X14.71 Y12.237 Z1.056
X14.69 Y12.274 Z1.049
X14.657 Y12.301 Z1.042
X14.617 Y12.315 Z1.035
X14.575 Y12.312 Z1.028
X14.537 Y12.294 Z1.02
X14.508 Y12.263 Z1.013
X14.492 Y12.224 Z1.006
Y12.182 Z0.999
X14.508 Y12.143 Z0.992
X14.537 Y12.112 Z0.985
X14.575 Y12.094 Z0.978
X14.617 Y12.091 Z0.971
X14.658 Y12.105 Z0.963
X14.69 Y12.132 Z0.956
X14.71 Y12.169 Z0.949
X14.715 Y12.211 Z0.942
X14.704 Y12.252 Z0.935
X14.679 Y12.286 Z0.928
X14.643 Y12.308 Z0.921
X14.602 Y12.316 Z0.913
X14.56 Y12.307 Z0.906
X14.525 Y12.284 Z0.899
X14.501 Y12.25 Z0.892
X14.49 Y12.209 Z0.885
X14.496 Y12.167 Z0.878
X14.517 Y12.13 Z0.871
X14.55 Y12.104 Z0.863
X14.59 Y12.091 Z0.856
X14.632 Y12.094 Z0.849
X14.67 Y12.113 Z0.842
X14.699 Y12.144 Z0.835
X14.714 Y12.184 Z0.828
X14.713 Y12.226 Z0.821
X14.697 Y12.265 Z0.814
X14.667 Y12.295 Z0.806
X14.629 Y12.313 Z0.799
X14.586 Y12.314 Z0.792
X14.547 Y12.3 Z0.785
X14.515 Y12.273 Z0.778
X14.495 Y12.235 Z0.771
X14.491 Y12.193 Z0.764
X14.502 Y12.153 Z0.756
X14.528 Y12.119 Z0.749
X14.564 Y12.097 Z0.742
X14.606 Y12.091 Z0.735
X14.647 Y12.1 Z0.728
X14.682 Y12.123 Z0.721
X14.706 Y12.158 Z0.714
X14.715 Y12.199 Z0.706
X14.709 Y12.241 Z0.699
X14.687 Y12.277 Z0.692
X14.654 Y12.303 Z0.685
X14.613 Y12.315 Z0.678
X14.571 Y12.311 Z0.671
X14.534 Y12.292 Z0.664
X14.506 Y12.26 Z0.657
X14.492 Y12.22 Z0.649
X14.493 Y12.178 Z0.642
X14.51 Y12.139 Z0.635
X14.54 Y12.11 Z0.628
X14.579 Y12.093 Z0.621
X14.621 Y12.092 Z0.614
X14.661 Y12.107 Z0.607
X14.692 Y12.135 Z0.599
X14.711 Y12.172 Z0.592
X14.715 Y12.215 Z0.585
X14.703 Y12.255 Z0.578
X14.676 Y12.288 Z0.571
X14.64 Y12.309 Z0.564
X14.598 Y12.315 Z0.557
X14.557 Y12.306 Z0.549
X14.522 Y12.282 Z0.542
X14.499 Y12.246 Z0.535
X14.49 Y12.205 Z0.528
X14.498 Y12.163 Z0.521
X14.52 Y12.127 Z0.514
X14.553 Y12.102 Z0.507
X14.594 Y12.091 Z0.5
X14.636 Y12.096 Z0.492
X14.673 Y12.115 Z0.485
X14.701 Y12.148 Z0.478
X14.714 Y12.188 Z0.471
X14.712 Y12.23 Z0.464
X14.695 Y12.268 Z0.457
X14.664 Y12.297 Z0.45
X14.625 Y12.313 Z0.442
X14.583 Y12.314 Z0.435
X14.543 Y12.299 Z0.428
X14.512 Y12.27 Z0.421
X14.494 Y12.232 Z0.414
X14.491 Y12.19 Z0.407
X14.504 Y12.149 Z0.4
X14.531 Y12.117 Z0.392
X14.568 Y12.096 Z0.385
X14.609 Y12.091 Z0.378
X14.65 Y12.101 Z0.371
X14.685 Y12.126 Z0.364
X14.707 Y12.161 Z0.357
X14.715 Y12.203 Z0.35
X14.707 Y12.244 Z0.343
X14.685 Y12.28 Z0.335
X14.651 Y12.305 Z0.328
X14.61 Y12.315 Z0.321
X14.568 Y12.31 Z0.314
X14.531 Y12.29 Z0.307
X14.504 Y12.257 Z0.3
X14.491 Y12.217 Z0.293
X14.494 Y12.175 Z0.285
X14.512 Y12.136 Z0.278
X14.543 Y12.108 Z0.271
X14.582 Y12.092 Z0.264
X14.625 Y12.093 Z0.257
X14.664 Y12.109 Z0.25
X14.694 Y12.138 Z0.243
X14.712 Y12.176 Z0.235
X14.714 Y12.218 Z0.228
X14.701 Y12.258 Z0.221
X14.674 Y12.29 Z0.214
X14.636 Y12.31 Z0.207
X14.594 Y12.315 Z0.2
X14.554 Y12.304 Z0.193
X14.52 Y12.279 Z0.186
X14.498 Y12.243 Z0.178
X14.49 Y12.201 Z0.171
X14.499 Y12.16 Z0.164
X14.522 Y12.125 Z0.157
X14.557 Y12.1 Z0.15
X14.598 Y12.091 Z0.143
X14.64 Y12.097 Z0.136
X14.676 Y12.118 Z0.128
X14.702 Y12.151 Z0.121
X14.715 Y12.191 Z0.114
X14.711 Y12.233 Z0.107
X14.692 Y12.271 Z0.1
X14.661 Y12.299 Z0.093
X14.621 Y12.314 Z0.086
X14.579 Y12.313 Z0.078
X14.54 Y12.297 Z0.071
X14.51 Y12.267 Z0.064
X14.493 Y12.228 Z0.057
X14.492 Y12.186 Z0.05
X14.506 Y12.146 Z0.043
X14.534 Y12.114 Z0.036
X14.571 Y12.095 Z0.029
X14.613 Y12.091 Z0.021
X14.654 Y12.103 Z0.014
X14.687 Y12.129 Z0.007
X14.709 Y12.165 Z0
G3 X14.497 Y12.241 I-0.106 J0.038
X14.709 Y12.165 I0.106 J-0.038
G1 X14.711 Y12.194
X14.699 Y12.22
X14.675 Y12.237
X14.603 Y12.203
G0 Z18.1
X22.477 Y5.979
Z4.182
G1 Z2.5 F500
X22.533 Y6.036
X22.526 Y6.064
X22.505 Y6.084
X22.477 Y6.092
X22.435 Y6.084 Z2.493
X22.4 Y6.061 Z2.486
X22.375 Y6.027 Z2.479
X22.365 Y5.986 Z2.472
X22.37 Y5.945 Z2.464
X22.39 Y5.908 Z2.457
X22.423 Y5.881 Z2.45
X22.463 Y5.868 Z2.443
X22.505 Y5.87 Z2.436
X22.543 Y5.888 Z2.429
X22.572 Y5.919 Z2.422
X22.587 Y5.958 Z2.415
Y6 Z2.407
X22.572 Y6.04 Z2.4
X22.543 Y6.07 Z2.393
X22.505 Y6.088 Z2.386
X22.463 Y6.091 Z2.379
X22.423 Y6.078 Z2.372
X22.39 Y6.051 Z2.365
X22.37 Y6.014 Z2.358
X22.365 Y5.972 Z2.35
X22.375 Y5.932 Z2.343
X22.4 Y5.897 Z2.336
X22.435 Y5.875 Z2.329
X22.477 Y5.867 Z2.322
X22.518 Y5.875 Z2.315
X22.554 Y5.897 Z2.308
X22.579 Y5.931 Z2.301
X22.589 Y5.972 Z2.293
X22.584 Y6.014 Z2.286
X22.564 Y6.051 Z2.279
X22.531 Y6.078 Z2.272
X22.491 Y6.091 Z2.265
X22.449 Y6.088 Z2.258
X22.411 Y6.071 Z2.251
X22.382 Y6.04 Z2.244
X22.366 Y6.001 Z2.236
Y5.959 Z2.229
X22.382 Y5.919 Z2.222
X22.411 Y5.889 Z2.215
X22.449 Y5.87 Z2.208
X22.491 Y5.868 Z2.201
X22.531 Y5.881 Z2.194
X22.563 Y5.907 Z2.187
X22.584 Y5.944 Z2.179
X22.589 Y5.986 Z2.172
X22.579 Y6.027 Z2.165
X22.554 Y6.061 Z2.158
X22.519 Y6.084 Z2.151
X22.477 Y6.092 Z2.144
X22.436 Y6.084 Z2.137
X22.4 Y6.062 Z2.13
X22.375 Y6.028 Z2.123
X22.365 Y5.987 Z2.115
X22.37 Y5.945 Z2.108
X22.39 Y5.908 Z2.101
X22.422 Y5.881 Z2.094
X22.462 Y5.868 Z2.087
X22.504 Y5.87 Z2.08
X22.543 Y5.888 Z2.073
X22.572 Y5.919 Z2.066
X22.587 Y5.958 Z2.058
Y6 Z2.051
X22.572 Y6.039 Z2.044
X22.543 Y6.07 Z2.037
X22.505 Y6.088 Z2.03
X22.463 Y6.091 Z2.023
X22.423 Y6.078 Z2.016
X22.391 Y6.051 Z2.009
X22.37 Y6.015 Z2.001
X22.365 Y5.973 Z1.994
X22.375 Y5.932 Z1.987
X22.399 Y5.898 Z1.98
X22.435 Y5.875 Z1.973
X22.476 Y5.867 Z1.966
X22.518 Y5.875 Z1.959
X22.553 Y5.897 Z1.952
X22.578 Y5.931 Z1.944
X22.589 Y5.972 Z1.937
X22.584 Y6.013 Z1.93
X22.564 Y6.051 Z1.923
X22.532 Y6.078 Z1.916
X22.492 Y6.091 Z1.909
X22.45 Y6.088 Z1.902
X22.411 Y6.071 Z1.895
X22.382 Y6.04 Z1.887
X22.367 Y6.001 Z1.88
X22.366 Y5.959 Z1.873
X22.382 Y5.92 Z1.866
X22.41 Y5.889 Z1.859
X22.448 Y5.871 Z1.852
X22.49 Y5.868 Z1.845
X22.53 Y5.88 Z1.838
X22.563 Y5.907 Z1.83
X22.584 Y5.944 Z1.823
X22.589 Y5.986 Z1.816
X22.579 Y6.027 Z1.809
X22.554 Y6.061 Z1.802
X22.519 Y6.084 Z1.795
X22.478 Y6.092 Z1.788
X22.436 Y6.084 Z1.781
X22.4 Y6.062 Z1.774
X22.375 Y6.028 Z1.766
X22.365 Y5.987 Z1.759
X22.37 Y5.945 Z1.752
X22.39 Y5.908 Z1.745
X22.422 Y5.881 Z1.738
X22.462 Y5.868 Z1.731
X22.504 Y5.87 Z1.724
X22.542 Y5.888 Z1.717
X22.571 Y5.918 Z1.709
X22.587 Y5.957 Z1.702
X22.588 Y6 Z1.695
X22.572 Y6.039 Z1.688
X22.544 Y6.07 Z1.681
X22.506 Y6.088 Z1.674
X22.464 Y6.091 Z1.667
X22.424 Y6.078 Z1.66
X22.391 Y6.052 Z1.652
X22.37 Y6.015 Z1.645
X22.365 Y5.973 Z1.638
X22.375 Y5.932 Z1.631
X22.399 Y5.898 Z1.624
X22.435 Y5.875 Z1.617
X22.476 Y5.867 Z1.61
X22.517 Y5.874 Z1.603
X22.553 Y5.897 Z1.595
X22.578 Y5.931 Z1.588
X22.589 Y5.971 Z1.581
X22.584 Y6.013 Z1.574
X22.564 Y6.05 Z1.567
X22.532 Y6.077 Z1.56
X22.492 Y6.091 Z1.553
X22.45 Y6.089 Z1.546
X22.412 Y6.071 Z1.538
X22.382 Y6.041 Z1.531
X22.367 Y6.001 Z1.524
X22.366 Y5.959 Z1.517
X22.381 Y5.92 Z1.51
X22.41 Y5.889 Z1.503
X22.448 Y5.871 Z1.496
X22.49 Y5.868 Z1.489
X22.53 Y5.88 Z1.481
X22.563 Y5.907 Z1.474
X22.584 Y5.943 Z1.467
X22.589 Y5.985 Z1.46
X22.579 Y6.026 Z1.453
X22.555 Y6.061 Z1.446
X22.519 Y6.083 Z1.439
X22.478 Y6.092 Z1.432
X22.437 Y6.084 Z1.425
X22.401 Y6.062 Z1.417
X22.376 Y6.028 Z1.41
X22.365 Y5.988 Z1.403
X22.37 Y5.946 Z1.396
X22.389 Y5.909 Z1.389
X22.422 Y5.881 Z1.382
X22.462 Y5.868 Z1.375
X22.504 Y5.87 Z1.368
X22.542 Y5.888 Z1.36
X22.571 Y5.918 Z1.353
X22.587 Y5.957 Z1.346
X22.588 Y5.999 Z1.339
X22.573 Y6.039 Z1.332
X22.544 Y6.07 Z1.325
X22.506 Y6.088 Z1.318
X22.464 Y6.091 Z1.311
X22.424 Y6.079 Z1.303
X22.391 Y6.052 Z1.296
X22.37 Y6.015 Z1.289
X22.365 Y5.974 Z1.282
X22.375 Y5.933 Z1.275
X22.399 Y5.898 Z1.268
X22.434 Y5.875 Z1.261
X22.476 Y5.867 Z1.254
X22.517 Y5.874 Z1.246
X22.553 Y5.896 Z1.239
X22.578 Y5.93 Z1.232
X22.589 Y5.971 Z1.225
X22.584 Y6.013 Z1.218
X22.564 Y6.05 Z1.211
X22.532 Y6.077 Z1.204
X22.492 Y6.091 Z1.197
X22.45 Y6.089 Z1.189
X22.412 Y6.071 Z1.182
X22.383 Y6.041 Z1.175
X22.367 Y6.002 Z1.168
X22.366 Y5.96 Z1.161
X22.381 Y5.92 Z1.154
X22.41 Y5.889 Z1.147
X22.447 Y5.871 Z1.14
X22.489 Y5.868 Z1.132
X22.53 Y5.88 Z1.125
X22.563 Y5.906 Z1.118
X22.583 Y5.943 Z1.111
X22.589 Y5.985 Z1.104
X22.579 Y6.026 Z1.097
X22.555 Y6.06 Z1.09
X22.52 Y6.083 Z1.083
X22.478 Y6.092 Z1.075
X22.437 Y6.085 Z1.068
X22.401 Y6.062 Z1.061
X22.376 Y6.029 Z1.054
X22.365 Y5.988 Z1.047
X22.369 Y5.946 Z1.04
X22.389 Y5.909 Z1.033
X22.421 Y5.882 Z1.026
X22.461 Y5.868 Z1.019
X22.503 Y5.87 Z1.011
X22.542 Y5.887 Z1.004
X22.571 Y5.918 Z0.997
X22.587 Y5.957 Z0.99
X22.588 Y5.999 Z0.983
X22.573 Y6.038 Z0.976
X22.544 Y6.069 Z0.969
X22.507 Y6.088 Z0.962
X22.464 Y6.091 Z0.954
X22.424 Y6.079 Z0.947
X22.391 Y6.052 Z0.94
X22.37 Y6.016 Z0.933
X22.365 Y5.974 Z0.926
X22.374 Y5.933 Z0.919
X22.399 Y5.899 Z0.912
X22.434 Y5.875 Z0.905
X22.475 Y5.867 Z0.897
X22.517 Y5.874 Z0.89
X22.553 Y5.896 Z0.883
X22.578 Y5.93 Z0.876
X22.589 Y5.97 Z0.869
X22.584 Y6.012 Z0.862
X22.565 Y6.05 Z0.855
X22.533 Y6.077 Z0.848
X22.493 Y6.091 Z0.84
X22.451 Y6.089 Z0.833
X22.412 Y6.071 Z0.826
X22.383 Y6.041 Z0.819
X22.367 Y6.002 Z0.812
X22.366 Y5.96 Z0.805
X22.381 Y5.921 Z0.798
X22.409 Y5.889 Z0.791
X22.447 Y5.871 Z0.783
X22.489 Y5.867 Z0.776
X22.529 Y5.88 Z0.769
X22.562 Y5.906 Z0.762
X22.583 Y5.943 Z0.755
X22.589 Y5.984 Z0.748
X22.58 Y6.025 Z0.741
X22.555 Y6.06 Z0.734
X22.52 Y6.083 Z0.726
X22.479 Y6.092 Z0.719
X22.437 Y6.085 Z0.712
X22.401 Y6.063 Z0.705
X22.376 Y6.029 Z0.698
X22.365 Y5.988 Z0.691
X22.369 Y5.946 Z0.684
X22.389 Y5.909 Z0.677
X22.421 Y5.882 Z0.67
X22.461 Y5.868 Z0.662
X22.503 Y5.87 Z0.655
X22.541 Y5.887 Z0.648
X22.571 Y5.917 Z0.641
X22.587 Y5.956 Z0.634
X22.588 Y5.998 Z0.627
X22.573 Y6.038 Z0.62
X22.545 Y6.069 Z0.613
X22.507 Y6.088 Z0.605
X22.465 Y6.091 Z0.598
X22.425 Y6.079 Z0.591
X22.392 Y6.053 Z0.584
X22.371 Y6.016 Z0.577
X22.365 Y5.974 Z0.57
X22.374 Y5.933 Z0.563
X22.398 Y5.899 Z0.556
X22.433 Y5.876 Z0.548
X22.475 Y5.867 Z0.541
X22.516 Y5.874 Z0.534
X22.552 Y5.896 Z0.527
X22.578 Y5.929 Z0.52
X22.589 Y5.97 Z0.513
X22.585 Y6.012 Z0.506
X22.565 Y6.049 Z0.499
X22.533 Y6.077 Z0.491
X22.493 Y6.091 Z0.484
X22.451 Y6.089 Z0.477
X22.413 Y6.072 Z0.47
X22.383 Y6.042 Z0.463
X22.367 Y6.003 Z0.456
X22.366 Y5.96 Z0.449
X22.381 Y5.921 Z0.442
X22.409 Y5.89 Z0.434
X22.447 Y5.871 Z0.427
X22.489 Y5.867 Z0.42
X22.529 Y5.88 Z0.413
X22.562 Y5.906 Z0.406
X22.583 Y5.942 Z0.399
X22.589 Y5.984 Z0.392
X22.58 Y6.025 Z0.385
X22.556 Y6.06 Z0.377
X22.52 Y6.083 Z0.37
X22.479 Y6.092 Z0.363
X22.438 Y6.085 Z0.356
X22.402 Y6.063 Z0.349
X22.376 Y6.029 Z0.342
X22.365 Y5.989 Z0.335
X22.369 Y5.947 Z0.328
X22.389 Y5.91 Z0.321
X22.421 Y5.882 Z0.313
X22.46 Y5.868 Z0.306
X22.502 Y5.87 Z0.299
X22.541 Y5.887 Z0.292
X22.571 Y5.917 Z0.285
X22.587 Y5.956 Z0.278
X22.588 Y5.998 Z0.271
X22.573 Y6.038 Z0.264
X22.545 Y6.069 Z0.256
X22.507 Y6.088 Z0.249
X22.465 Y6.091 Z0.242
X22.425 Y6.079 Z0.235
X22.392 Y6.053 Z0.228
X22.371 Y6.017 Z0.221
X22.364 Y5.975 Z0.214
X22.374 Y5.934 Z0.207
X22.398 Y5.899 Z0.199
X22.433 Y5.876 Z0.192
X22.474 Y5.867 Z0.185
X22.516 Y5.874 Z0.178
X22.552 Y5.896 Z0.171
X22.578 Y5.929 Z0.164
X22.589 Y5.97 Z0.157
X22.585 Y6.012 Z0.15
X22.565 Y6.049 Z0.142
X22.533 Y6.077 Z0.135
X22.494 Y6.091 Z0.128
X22.451 Y6.089 Z0.121
X22.413 Y6.072 Z0.114
X22.383 Y6.042 Z0.107
X22.367 Y6.003 Z0.1
X22.366 Y5.961 Z0.093
X22.38 Y5.921 Z0.085
X22.409 Y5.89 Z0.078
X22.446 Y5.871 Z0.071
X22.488 Y5.867 Z0.064
X22.529 Y5.879 Z0.057
X22.562 Y5.906 Z0.05
X22.583 Y5.942 Z0.043
X22.589 Y5.984 Z0.036
X22.58 Y6.025 Z0.028
X22.556 Y6.059 Z0.021
X22.521 Y6.083 Z0.014
X22.48 Y6.092 Z0.007
X22.438 Y6.085 Z0
G3 X22.516 Y5.874 I0.039 J-0.106
X22.438 Y6.085 I-0.039 J0.106
G1 X22.414 Y6.068
X22.402 Y6.042
X22.405 Y6.013
X22.477 Y5.979
G0 Z18.1
X30.603 Y12.203
Z9.483
G1 Z7.8 F500
X30.659 Y12.259
X30.652 Y12.287
X30.631 Y12.308
X30.603 Y12.316
X30.561 Y12.308 Z7.793
X30.526 Y12.285 Z7.786
X30.501 Y12.251 Z7.779
X30.491 Y12.21 Z7.771
X30.496 Y12.168 Z7.764
X30.516 Y12.131 Z7.757
X30.549 Y12.104 Z7.75
X30.589 Y12.091 Z7.743
X30.631 Y12.094 Z7.736
X30.67 Y12.112 Z7.729
X30.698 Y12.143 Z7.722
X30.714 Y12.183 Z7.714
X30.713 Y12.225 Z7.707
X30.697 Y12.264 Z7.7
X30.668 Y12.295 Z7.693
X30.63 Y12.312 Z7.686
X30.587 Y12.314 Z7.679
X30.547 Y12.301 Z7.672
X30.515 Y12.274 Z7.664
X30.495 Y12.236 Z7.657
X30.491 Y12.194 Z7.65
X30.502 Y12.154 Z7.643
X30.527 Y12.12 Z7.636
X30.563 Y12.098 Z7.629
X30.605 Y12.091 Z7.622
X30.646 Y12.099 Z7.614
X30.681 Y12.122 Z7.607
X30.706 Y12.157 Z7.6
X30.715 Y12.198 Z7.593
X30.709 Y12.24 Z7.586
X30.688 Y12.276 Z7.579
X30.655 Y12.303 Z7.572
X30.615 Y12.315 Z7.565
X30.572 Y12.311 Z7.557
X30.535 Y12.292 Z7.55
X30.506 Y12.261 Z7.543
X30.492 Y12.221 Z7.536
X30.493 Y12.179 Z7.529
X30.509 Y12.14 Z7.522
X30.539 Y12.11 Z7.515
X30.578 Y12.093 Z7.507
X30.62 Y12.092 Z7.5
X30.66 Y12.106 Z7.493
X30.692 Y12.134 Z7.486
X30.711 Y12.171 Z7.479
X30.715 Y12.213 Z7.472
X30.703 Y12.254 Z7.465
X30.677 Y12.287 Z7.457
X30.641 Y12.309 Z7.45
X30.599 Y12.315 Z7.443
X30.558 Y12.306 Z7.436
X30.523 Y12.282 Z7.429
X30.499 Y12.247 Z7.422
X30.49 Y12.206 Z7.415
X30.497 Y12.164 Z7.408
X30.519 Y12.128 Z7.4
X30.552 Y12.102 Z7.393
X30.593 Y12.091 Z7.386
X30.635 Y12.095 Z7.379
X30.673 Y12.115 Z7.372
X30.7 Y12.147 Z7.365
X30.714 Y12.186 Z7.358
X30.712 Y12.229 Z7.35
X30.695 Y12.267 Z7.343
X30.665 Y12.297 Z7.336
X30.626 Y12.313 Z7.329
X30.584 Y12.314 Z7.322
X30.544 Y12.299 Z7.315
X30.513 Y12.271 Z7.308
X30.494 Y12.233 Z7.3
X30.491 Y12.191 Z7.293
X30.503 Y12.15 Z7.286
X30.53 Y12.117 Z7.279
X30.567 Y12.097 Z7.272
X30.608 Y12.091 Z7.265
X30.649 Y12.101 Z7.258
X30.684 Y12.125 Z7.251
X30.707 Y12.16 Z7.243
X30.715 Y12.202 Z7.236
X30.708 Y12.243 Z7.229
X30.686 Y12.279 Z7.222
X30.652 Y12.304 Z7.215
X30.611 Y12.315 Z7.208
X30.569 Y12.31 Z7.201
X30.532 Y12.29 Z7.193
X30.505 Y12.258 Z7.186
X30.491 Y12.218 Z7.179
X30.494 Y12.176 Z7.172
X30.512 Y12.137 Z7.165
X30.542 Y12.108 Z7.158
X30.581 Y12.093 Z7.151
X30.624 Y12.092 Z7.143
X30.663 Y12.108 Z7.136
X30.694 Y12.137 Z7.129
X30.712 Y12.175 Z7.122
X30.714 Y12.217 Z7.115
X30.701 Y12.257 Z7.108
X30.674 Y12.29 Z7.101
X30.637 Y12.31 Z7.094
X30.595 Y12.315 Z7.086
X30.555 Y12.305 Z7.079
X30.52 Y12.28 Z7.072
X30.498 Y12.244 Z7.065
X30.49 Y12.202 Z7.058
X30.499 Y12.161 Z7.051
X30.521 Y12.125 Z7.044
X30.556 Y12.101 Z7.036
X30.597 Y12.091 Z7.029
X30.639 Y12.096 Z7.022
X30.675 Y12.117 Z7.015
X30.702 Y12.15 Z7.008
X30.715 Y12.19 Z7.001
X30.711 Y12.232 Z6.994
X30.693 Y12.27 Z6.986
X30.662 Y12.299 Z6.979
X30.622 Y12.314 Z6.972
X30.58 Y12.313 Z6.965
X30.541 Y12.297 Z6.958
X30.511 Y12.268 Z6.951
X30.493 Y12.229 Z6.944
X30.491 Y12.187 Z6.937
X30.505 Y12.147 Z6.929
X30.533 Y12.115 Z6.922
X30.57 Y12.095 Z6.915
X30.612 Y12.091 Z6.908
X30.653 Y12.102 Z6.901
X30.686 Y12.128 Z6.894
X30.708 Y12.164 Z6.887
X30.715 Y12.206 Z6.879
X30.706 Y12.247 Z6.872
X30.683 Y12.282 Z6.865
X30.648 Y12.306 Z6.858
X30.607 Y12.315 Z6.851
X30.565 Y12.309 Z6.844
X30.529 Y12.288 Z6.837
X30.503 Y12.255 Z6.829
X30.491 Y12.214 Z6.822
X30.495 Y12.172 Z6.815
X30.514 Y12.134 Z6.808
X30.545 Y12.106 Z6.801
X30.585 Y12.092 Z6.794
X30.627 Y12.093 Z6.787
X30.666 Y12.11 Z6.78
X30.696 Y12.14 Z6.772
X30.713 Y12.179 Z6.765
X30.714 Y12.221 Z6.758
X30.7 Y12.261 Z6.751
X30.671 Y12.292 Z6.744
X30.634 Y12.311 Z6.737
X30.592 Y12.315 Z6.73
X30.551 Y12.303 Z6.722
X30.518 Y12.277 Z6.715
X30.497 Y12.24 Z6.708
X30.49 Y12.199 Z6.701
X30.5 Y12.157 Z6.694
X30.524 Y12.123 Z6.687
X30.559 Y12.099 Z6.68
X30.6 Y12.091 Z6.672
X30.642 Y12.098 Z6.665
X30.678 Y12.119 Z6.658
X30.704 Y12.153 Z6.651
X30.715 Y12.194 Z6.644
X30.71 Y12.236 Z6.637
X30.691 Y12.273 Z6.63
X30.659 Y12.301 Z6.623
X30.619 Y12.314 Z6.615
X30.577 Y12.312 Z6.608
X30.538 Y12.295 Z6.601
X30.509 Y12.265 Z6.594
X30.493 Y12.226 Z6.587
X30.492 Y12.183 Z6.58
X30.507 Y12.144 Z6.573
X30.536 Y12.113 Z6.565
X30.574 Y12.094 Z6.558
X30.616 Y12.091 Z6.551
X30.656 Y12.104 Z6.544
X30.689 Y12.131 Z6.537
X30.71 Y12.167 Z6.53
X30.715 Y12.209 Z6.523
X30.705 Y12.25 Z6.515
X30.68 Y12.285 Z6.508
X30.645 Y12.307 Z6.501
X30.603 Y12.316 Z6.494
X30.562 Y12.308 Z6.487
X30.526 Y12.285 Z6.48
X30.501 Y12.251 Z6.473
X30.491 Y12.21 Z6.466
X30.496 Y12.168 Z6.458
