(chamfer1)
(T2 D=3 CR=0 TAPER=45deg - ZMIN=1.7 - chamfer mill)
G90 G94
G17
G21
G28 G91 Z0
G90

(2D Chamfer2 3)
T2
S15000 M3
G17 G90 G94
G54
G0 X6.853 Y4.244
Z28.1
G0 Z15.1
G1 Z12.1 F300
Z9.2
X6.553
Y2 F500
G2 X5.103 Y0.55 I-1.45 J0
G1 X2
G2 X0.55 Y2 I0 J1.45
G1 Y51.703
G2 X2 Y53.153 I1.45 J0
G1 X5.103
G2 X6.553 Y51.703 I0 J-1.45
G1 Y4.244
X6.853 F300
G0 Z18.1
X12 Y65.953
Z15.1
G1 Z12.1 F300
Z9.2
Y65.653
X38.103 F500
G2 X39.553 Y64.203 I0 J-1.45
G1 Y63.203
G2 X38.103 Y61.753 I-1.45 J0
G1 X12
G2 X10.55 Y63.203 I0 J1.45
G1 Y64.203
G2 X12 Y65.653 I1.45 J0
G1 Y65.953 F300
G0 Z28.1
X15.553 Y52.203
Z15.1
G1 Z12.1 F300
Z7
X15.853
G3 X13.353 Y52.203 I-1.25 J0 F500
X15.853 Y52.203 I1.25 J0
G1 X15.553 F300
G0 Z18.1
X31.536 Y52.383
Z15.1
G1 Z12.1 F300
Z7
X31.83 Y52.44
G3 X29.375 Y51.966 I-1.227 J-0.237 F500
X31.83 Y52.44 I1.227 J0.237
G1 X31.536 Y52.383 F300
G0 Z18.1
X39.853 Y60.809
Z15.1
G1 Z12.1 F300
Z7
X39.553
Y2 F500
G2 X38.103 Y0.55 I-1.45 J0
G1 X7.496
Y0.25 F300
G0 Z18.1
X15.553 Y12.203
Z15.1
G1 Z12.1 F300
Z7
X15.853
G3 X13.353 Y12.203 I-1.25 J0 F500
X15.853 Y12.203 I1.25 J0
G1 X15.553 F300
G0 Z18.1
X24.977 Y5.979
Z15.1
G1 Z12.1 F300
Z7
X25.277
G3 X19.677 Y5.979 I-2.8 J0 F500
X25.277 Y5.979 I2.8 J0
G1 X24.977 F300
G0 Z18.1
X31.553 Y12.203
Z15.1
G1 Z12.1 F300
Z7
X31.853
G3 X29.353 Y12.203 I-1.25 J0 F500
X31.853 Y12.203 I1.25 J0
G1 X31.553 F300
G0 Z18.1
X0.25 Y54.097
Z15.1
G1 Z12.1 F300
Z7
X0.55
Y64.203 F500
G2 X2 Y65.653 I1.45 J0
G1 X9.606
Y65.953 F300
G0 Z28.1
X20.494 Y78.108
Z15.1
G1 Z12.1 F300
Z6.2
X20.753 Y78.261
G2 X20.55 Y79 I1.247 J0.739 F500
G1 Y80
G2 X22 Y81.45 I1.45 J0
G1 X50
G2 X51.45 Y80 I0 J-1.45
G1 Y79
G2 X50 Y77.55 I-1.45 J0
G1 X22
G2 X20.753 Y78.261 I0 J1.45
G1 X20.494 Y78.108 F300
G0 Z18.1
X11.719 Y120.33
Z15.1
G1 Z12.1 F300
Z6.2
X11.424 Y120.273
G2 X11.45 Y120 I-1.424 J-0.273 F500
G1 Y92
G2 X10 Y90.55 I-1.45 J0
G1 X9
G2 X7.55 Y92 I0 J1.45
G1 Y120
G2 X9 Y121.45 I1.45 J0
G1 X10
G2 X11.424 Y120.273 I0 J-1.45
G1 X11.719 Y120.33 F300
G0 Z28.1
X24.977 Y95.979
Z15.1
G1 Z12.1 F300
Z4.2
X25.277
G3 X19.677 Y95.979 I-2.8 J0 F500
X25.277 Y95.979 I2.8 J0
G1 X24.977 F300
G0 Z18.1
X20.5 Y113
Z15.1
G1 Z12.1 F300
Z4.2
X20.8
G3 X17.2 Y113 I-1.8 J0 F500
X20.8 Y113 I1.8 J0
G1 X20.5 F300
G0 Z18.1
X12.394 Y121.75
Z15.1
G1 Z12.1 F300
Z4.2
Y121.45
X50 F500
G2 X51.45 Y120 I0 J-1.45
G1 Y82.394
X51.75 F300
G0 Z18.1
X44.5 Y89
Z15.1
G1 Z12.1 F300
Z4.2
X44.8
G3 X41.2 Y89 I-1.8 J0 F500
X44.8 Y89 I1.8 J0
G1 X44.5 F300
G0 Z18.1
X40.319 Y76.032
Z15.1
G1 Z12.1 F300
Z4.2
X40.07 Y76.199
G3 X39.553 Y74.5 I2.533 J-1.699 F500
G1 Y66.597
X39.853 F300
G0 Z18.1
X6.784 Y67.171
Z15.1
G1 Z12.1 F300
Z4.2
X7.033 Y67.004
G3 X7.55 Y68.703 I-2.533 J1.699 F500
G1 Y89.606
X7.25 F300
G0 Z28.1
X23.427 Y95.979
Z15.1
G1 Z12.1 F300
Z1.7
X23.727
G3 X21.227 Y95.979 I-1.25 J0 F500
X23.727 Y95.979 I1.25 J0
G1 X23.427 F300
G0 Z18.1
Y5.979
Z15.1
G1 Z12.1 F300
Z1.7
X23.727
G3 X21.227 Y5.979 I-1.25 J0 F500
X23.727 Y5.979 I1.25 J0
G1 X23.427 F300
G0 Z28.1
G28 G91 Z0
G90
G28 G91 X0 Y0
G90
M5
M30
