(contour2)
(T1 D=6 CR=0 - ZMIN=5 - flat end mill)
G90 G94
G17
G21
G28 G91 Z0
G90

(Contour1 2)
T1
S18000 M3
G17 G90 G94
G54
G0 X51.037 Y71.601
Z28.1
G0 Z10.597
G1 Z5.6 F100
Y71.609 Z5.506
X51.039 Y71.631 Z5.415
X51.041 Y71.667 Z5.328
X51.044 Y71.716 Z5.247
X51.048 Y71.777 Z5.176
X51.052 Y71.848 Z5.115
X51.057 Y71.928 Z5.065
X51.063 Y72.015 Z5.029
X51.068 Y72.107 Z5.007
X51.074 Y72.2 Z5
X51.211 Y74.406 F600
G3 X50.543 Y75.039 I-0.599 J0.037
G1 X50.537 F1000
X50.439 Y75.029
X50.423 Y75.027
X50.244 Y75.01
X50.049 Y75
X49.854
X22.146
X21.951
X21.756 Y75.01
X21.577 Y75.027
X21.561 Y75.029
X21.463 Y75.039
X21.457
G0 Z28.1
G28 G91 Z0
G90
G28 G91 X0 Y0
G90
M5
M30
