(contour1)
(T1 D=6 CR=0 - ZMIN=0 - flat end mill)
G90 G94
G17
G21
G28 G91 Z0
G90

(Contour1)
T1
S18000 M3
G17 G90 G94
G54
G0 X-5.299 Y-0.336
Z28.1
G0 Z13.399
G1 Z8.4 F100
X-5.291 Y-0.335 Z8.306
X-5.269 Y-0.332 Z8.215
X-5.234 Y-0.328 Z8.128
X-5.185 Y-0.322 Z8.047
X-5.124 Y-0.314 Z7.976
X-5.053 Y-0.305 Z7.915
X-4.974 Y-0.295 Z7.865
X-4.887 Y-0.284 Z7.829
X-4.796 Y-0.272 Z7.807
X-4.703 Y-0.261 Z7.8
X-2.313 Y0.041 F600
G3 X-1.814 Y0.812 I-0.075 J0.595
G1 X-1.846 Y0.917 F1000
X-1.9 Y1.112
X-1.939 Y1.308
X-1.966 Y1.504
X-1.985 Y1.7
X-1.998 Y1.895
X-2 Y2.091
Y51.606
X-1.998 Y51.802
X-1.986 Y51.997
X-1.966 Y52.193
X-1.94 Y52.389
X-1.901 Y52.584
X-1.848 Y52.78
X-1.814 Y52.891
X-1.789 Y52.976
X-1.72 Y53.172
X-1.636 Y53.367
X-1.619 Y53.404
X-1.536 Y53.563
X-1.429 Y53.759
X-1.423 Y53.77
X-1.306 Y53.954
X-1.227 Y54.065
X-1.16 Y54.15
X-1.031 Y54.307
X-0.999 Y54.346
X-0.835 Y54.525
X-0.818 Y54.542
X-0.639 Y54.705
X-0.6 Y54.737
X-0.443 Y54.866
X-0.358 Y54.933
X-0.247 Y55.012
X-0.062 Y55.129
X-0.052 Y55.135
X0.144 Y55.241
X0.304 Y55.324
X0.34 Y55.341
X0.536 Y55.425
X0.732 Y55.493
X0.82 Y55.52
X0.928 Y55.553
X1.124 Y55.605
X1.32 Y55.644
X1.515 Y55.67
X1.711 Y55.689
X1.907 Y55.702
X2.103 Y55.703
X5.041
X5.237 Y55.7
X5.433 Y55.685
X5.629 Y55.665
X5.825 Y55.637
X6.021 Y55.595
X6.216 Y55.54
X6.283 Y55.52
X6.412 Y55.48
X6.608 Y55.409
X6.798 Y55.324
X6.804 Y55.322
X7 Y55.219
X7.165 Y55.129
X7.196 Y55.111
X7.392 Y54.983
X7.46 Y54.933
X7.588 Y54.832
X7.703 Y54.737
X7.784 Y54.67
X7.921 Y54.542
X7.979 Y54.482
X8.102 Y54.346
X8.175 Y54.257
X8.263 Y54.15
X8.371 Y54.008
X8.409 Y53.954
X8.532 Y53.759
X8.567 Y53.697
X8.639 Y53.563
X8.739 Y53.367
X8.763 Y53.316
X8.823 Y53.172
X8.892 Y52.976
X8.951 Y52.78
X8.959 Y52.755
X9.004 Y52.584
X9.043 Y52.389
X9.069 Y52.193
X9.088 Y51.997
X9.101 Y51.802
X9.103 Y51.606
Y2.091
X9.101 Y1.895
X9.088 Y1.7
X9.068 Y1.504
X9.042 Y1.308
X9.003 Y1.112
X8.959 Y0.948
X8.949 Y0.917
X8.89 Y0.721
X8.821 Y0.525
X8.763 Y0.387
X8.736 Y0.33
X8.636 Y0.134
X8.567 Y0.006
X8.529 Y-0.062
X8.405 Y-0.258
X8.371 Y-0.305
X8.258 Y-0.453
X8.175 Y-0.554
X8.097 Y-0.649
X7.979 Y-0.779
X7.915 Y-0.845
X7.784 Y-0.967
X7.696 Y-1.04
X7.588 Y-1.129
X7.452 Y-1.236
X7.392 Y-1.28
X7.196 Y-1.408
X7.155 Y-1.432
X7 Y-1.516
X6.804 Y-1.619
X6.786 Y-1.627
X6.608 Y-1.706
X6.412 Y-1.777
X6.262 Y-1.823
X6.216 Y-1.837
X6.021 Y-1.892
X5.825 Y-1.934
X5.629 Y-1.962
X5.433 Y-1.982
X5.237 Y-1.997
X5.041 Y-2
X2.103
X1.907 Y-1.999
X1.711 Y-1.986
X1.515 Y-1.967
X1.32 Y-1.941
X1.124 Y-1.902
X0.928 Y-1.85
X0.84 Y-1.823
X0.732 Y-1.79
X0.536 Y-1.722
X0.34 Y-1.638
X0.317 Y-1.627
X0.144 Y-1.538
X-0.052 Y-1.432
X-0.247 Y-1.309
X-0.349 Y-1.236
X-0.443 Y-1.163
X-0.593 Y-1.04
X-0.639 Y-1.002
X-0.812 Y-0.845
X-0.835 Y-0.822
X-0.994 Y-0.649
X-1.031 Y-0.604
X-1.155 Y-0.453
X-1.227 Y-0.362
X-1.302 Y-0.258
X-1.423 Y-0.067
X-1.426 Y-0.062
X-1.533 Y0.134
X-1.619 Y0.299
X-1.633 Y0.33
X-1.718 Y0.525
X-1.787 Y0.721
X-1.814 Y0.812
G3 X-2.658 Y1.173 I-0.574 J-0.175 F600
G1 X-4.81 Y0.09
X-4.894 Y0.048 Z7.807
X-4.976 Y0.007 Z7.829
X-5.054 Y-0.032 Z7.865
X-5.125 Y-0.068 Z7.915
X-5.189 Y-0.1 Z7.976
X-5.244 Y-0.128 Z8.047
X-5.288 Y-0.15 Z8.128
X-5.32 Y-0.166 Z8.215
X-5.34 Y-0.176 Z8.306
X-5.346 Y-0.179 Z8.4
G0 Z18.1
X11.692 Y59.145
Z14.999
G1 Z8.4 F100
X11.685 Y59.147 Z8.306
X11.664 Y59.153 Z8.215
X11.629 Y59.162 Z8.128
X11.582 Y59.175 Z8.047
X11.523 Y59.191 Z7.976
X11.454 Y59.21 Z7.915
X11.376 Y59.231 Z7.865
X11.292 Y59.254 Z7.829
X11.204 Y59.278 Z7.807
X11.113 Y59.303 Z7.8
X10.918 Y59.356 F1000
X10.722 Y59.416
X10.665 Y59.434
X10.526 Y59.485
X10.33 Y59.569
X10.209 Y59.63
X10.134 Y59.67
X9.938 Y59.777
X9.857 Y59.826
X9.742 Y59.901
X9.58 Y60.021
X9.546 Y60.048
X9.351 Y60.21
X9.342 Y60.217
X9.155 Y60.392
X9.134 Y60.413
X8.961 Y60.609
X8.959 Y60.611
X8.802 Y60.804
X8.763 Y60.855
X8.661 Y61
X8.567 Y61.153
X8.543 Y61.196
X8.438 Y61.391
X8.371 Y61.523
X8.341 Y61.587
X8.261 Y61.783
X8.196 Y61.979
X8.175 Y62.049
X8.137 Y62.174
X8.088 Y62.37
X8.052 Y62.566
X8.029 Y62.761
X8.01 Y62.957
X8 Y63.153
Y63.349
Y64.131
X8.003 Y64.327
X8.017 Y64.523
X8.036 Y64.719
X8.064 Y64.914
X8.105 Y65.11
X8.16 Y65.306
X8.175 Y65.358
X8.219 Y65.501
X8.29 Y65.697
X8.371 Y65.883
X8.376 Y65.893
X8.478 Y66.088
X8.567 Y66.253
X8.585 Y66.284
X8.711 Y66.48
X8.763 Y66.551
X8.861 Y66.676
X8.959 Y66.795
X9.023 Y66.871
X9.155 Y67.014
X9.208 Y67.067
X9.351 Y67.196
X9.431 Y67.263
X9.546 Y67.358
X9.677 Y67.458
X9.742 Y67.505
X9.938 Y67.629
X9.982 Y67.654
X10.134 Y67.736
X10.33 Y67.837
X10.358 Y67.85
X10.526 Y67.921
X10.722 Y67.99
X10.904 Y68.046
X10.918 Y68.05
X11.113 Y68.103
X11.309 Y68.143
X11.505 Y68.169
X11.701 Y68.188
X11.897 Y68.201
X12.093 Y68.203
X37.948
X38.144
X38.34 Y68.194
X38.536 Y68.175
X38.732 Y68.152
X38.928 Y68.117
X39.124 Y68.068
X39.199 Y68.046
X39.32 Y68.009
X39.515 Y67.945
X39.711 Y67.865
X39.745 Y67.85
X39.907 Y67.769
X40.103 Y67.664
X40.12 Y67.654
X40.299 Y67.546
X40.426 Y67.458
X40.495 Y67.407
X40.672 Y67.263
X40.691 Y67.248
X40.887 Y67.075
X40.895 Y67.067
X40.992 Y66.969
X41.08 Y66.871
X41.082 Y66.869
X41.242 Y66.676
X41.278 Y66.631
X41.391 Y66.48
X41.474 Y66.355
X41.517 Y66.284
X41.625 Y66.088
X41.67 Y66.004
X41.727 Y65.893
X41.813 Y65.697
X41.866 Y65.554
X41.884 Y65.501
X41.943 Y65.306
X41.998 Y65.11
X42.039 Y64.914
X42.062 Y64.759
X42.066 Y64.719
X42.086 Y64.523
X42.1 Y64.327
X42.103 Y64.131
Y63.349
X42.102 Y63.153
X42.093 Y62.957
X42.074 Y62.761
X42.062 Y62.647
X42.051 Y62.566
X42.015 Y62.37
X41.965 Y62.174
X41.906 Y61.979
X41.866 Y61.852
X41.842 Y61.783
X41.762 Y61.587
X41.67 Y61.402
X41.665 Y61.391
X41.56 Y61.196
X41.474 Y61.051
X41.441 Y61
X41.301 Y60.804
X41.278 Y60.775
X41.142 Y60.609
X41.082 Y60.537
X40.969 Y60.413
X40.887 Y60.331
X40.761 Y60.217
X40.691 Y60.158
X40.523 Y60.021
X40.495 Y59.999
X40.299 Y59.86
X40.246 Y59.826
X40.103 Y59.742
X39.907 Y59.637
X39.893 Y59.63
X39.711 Y59.541
X39.515 Y59.461
X39.438 Y59.434
X39.32 Y59.397
X39.124 Y59.338
X38.928 Y59.289
X38.732 Y59.254
X38.611 Y59.239
X38.536 Y59.231
X38.34 Y59.212
X38.144 Y59.203
X37.948
X12.093
X11.897 Y59.205
X11.701 Y59.218
X11.505 Y59.237
X11.492 Y59.239
X11.309 Y59.263
X11.113 Y59.303
G3 X10.407 Y58.834 I-0.119 J-0.588 F600
G2 X10.053 Y58.599 I-0.294 J0.059
X9.633 Y58.924 I0.119 J0.588
G1 X4.513 Y69.403
Z7.6 F100
G19 G2 Y68.803 Z7 J-0.6 K0
G17 G3 X5.113 Y68.203 I0.6 J0 F600
G1 X37.948 F1000
X38.144
X38.34 Y68.194
X38.536 Y68.175
X38.732 Y68.152
X38.928 Y68.117
X39.124 Y68.068
X39.199 Y68.046
X39.32 Y68.009
X39.515 Y67.945
X39.711 Y67.865
X39.745 Y67.85
X39.907 Y67.769
X40.103 Y67.664
X40.12 Y67.654
X40.299 Y67.546
X40.426 Y67.458
X40.495 Y67.407
X40.672 Y67.263
X40.691 Y67.248
X40.887 Y67.075
X40.895 Y67.067
X40.992 Y66.969
X41.08 Y66.871
X41.082 Y66.869
X41.242 Y66.676
X41.278 Y66.631
X41.391 Y66.48
X41.474 Y66.355
X41.517 Y66.284
X41.625 Y66.088
X41.67 Y66.004
X41.727 Y65.893
X41.813 Y65.697
X41.866 Y65.554
X41.884 Y65.501
X41.943 Y65.306
X41.998 Y65.11
X42.039 Y64.914
X42.062 Y64.759
X42.066 Y64.719
X42.086 Y64.523
X42.1 Y64.327
X42.103 Y64.131
Y2.091
X42.101 Y1.895
X42.088 Y1.7
X42.068 Y1.504
X42.062 Y1.444
X42.042 Y1.308
X42.003 Y1.112
X41.949 Y0.917
X41.89 Y0.721
X41.866 Y0.649
X41.821 Y0.525
X41.736 Y0.33
X41.67 Y0.199
X41.635 Y0.134
X41.529 Y-0.062
X41.474 Y-0.152
X41.405 Y-0.258
X41.278 Y-0.428
X41.258 Y-0.453
X41.097 Y-0.649
X41.082 Y-0.666
X40.915 Y-0.845
X40.887 Y-0.872
X40.696 Y-1.04
X40.691 Y-1.045
X40.495 Y-1.204
X40.452 Y-1.236
X40.299 Y-1.343
X40.155 Y-1.432
X40.103 Y-1.461
X39.907 Y-1.566
X39.786 Y-1.627
X39.711 Y-1.662
X39.515 Y-1.742
X39.32 Y-1.806
X39.262 Y-1.823
X39.124 Y-1.865
X38.928 Y-1.914
X38.732 Y-1.949
X38.536 Y-1.972
X38.34 Y-1.991
X38.144 Y-2
X37.948
X2.103
X1.907 Y-1.999
X1.711 Y-1.986
X1.515 Y-1.967
X1.32 Y-1.941
X1.124 Y-1.902
X0.928 Y-1.85
X0.84 Y-1.823
X0.732 Y-1.79
X0.536 Y-1.722
X0.34 Y-1.638
X0.317 Y-1.627
X0.144 Y-1.538
X-0.052 Y-1.432
X-0.247 Y-1.309
X-0.349 Y-1.236
X-0.443 Y-1.163
X-0.593 Y-1.04
X-0.639 Y-1.002
X-0.812 Y-0.845
X-0.835 Y-0.822
X-0.994 Y-0.649
X-1.031 Y-0.604
X-1.155 Y-0.453
X-1.227 Y-0.362
X-1.302 Y-0.258
X-1.423 Y-0.067
X-1.426 Y-0.062
X-1.533 Y0.134
X-1.619 Y0.299
X-1.633 Y0.33
X-1.718 Y0.525
X-1.787 Y0.721
X-1.814 Y0.812
X-1.846 Y0.917
X-1.9 Y1.112
X-1.939 Y1.308
X-1.966 Y1.504
X-1.985 Y1.7
X-1.998 Y1.895
X-2 Y2.091
Y64.131
X-1.997 Y64.327
X-1.983 Y64.523
X-1.964 Y64.719
X-1.936 Y64.914
X-1.895 Y65.11
X-1.84 Y65.306
X-1.814 Y65.392
X-1.781 Y65.501
X-1.71 Y65.697
X-1.624 Y65.893
X-1.619 Y65.904
X-1.522 Y66.088
X-1.423 Y66.27
X-1.415 Y66.284
X-1.289 Y66.48
X-1.227 Y66.565
X-1.139 Y66.676
X-1.031 Y66.807
X-0.977 Y66.871
X-0.835 Y67.025
X-0.792 Y67.067
X-0.639 Y67.205
X-0.569 Y67.263
X-0.443 Y67.366
X-0.323 Y67.458
X-0.247 Y67.512
X-0.052 Y67.635
X-0.018 Y67.654
X0.144 Y67.741
X0.34 Y67.841
X0.358 Y67.85
X0.536 Y67.925
X0.732 Y67.993
X0.928 Y68.053
X1.124 Y68.105
X1.32 Y68.144
X1.515 Y68.17
X1.711 Y68.189
X1.907 Y68.202
X2.103 Y68.203
X5.113
G3 X5.689 Y68.973 I0 J0.6 F600
G1 X5.672 Y69.029
X5.646 Y69.119 Z7.007
X5.62 Y69.207 Z7.029
X5.595 Y69.29 Z7.065
X5.572 Y69.367 Z7.115
X5.552 Y69.436 Z7.176
X5.535 Y69.495 Z7.247
X5.521 Y69.542 Z7.328
X5.51 Y69.576 Z7.415
X5.504 Y69.597 Z7.506
X5.502 Y69.604 Z7.6
G0 Z18.1
X25.231 Y75
Z12
G1 Z5.147 F100
X25.226 Z5.107
X25.209 Z5.069
X25.183 Z5.037
X25.149 Z5.014
X25.11 Z5
X22.082 F1000
X21.887 Y75.002
X21.691 Y75.016
X21.495 Y75.035
X21.299 Y75.062
X21.152 Y75.091
X21.103 Y75.102
X20.907 Y75.157
X20.711 Y75.216
X20.515 Y75.286
X20.513 Y75.287
X20.32 Y75.371
X20.124 Y75.473
X20.105 Y75.483
X19.928 Y75.58
X19.771 Y75.678
X19.732 Y75.705
X19.536 Y75.854
X19.511 Y75.874
X19.34 Y76.015
X19.279 Y76.07
X19.144 Y76.199
X19.082 Y76.265
X18.948 Y76.421
X18.915 Y76.461
X18.759 Y76.657
X18.753 Y76.666
X18.626 Y76.853
X18.557 Y76.969
X18.513 Y77.048
X18.409 Y77.244
X18.361 Y77.342
X18.317 Y77.44
X18.241 Y77.635
X18.18 Y77.831
X18.165 Y77.879
X18.122 Y78.027
X18.076 Y78.223
X18.044 Y78.418
X18.024 Y78.614
X18.006 Y78.81
X18 Y79.005
Y79.984
X18.005 Y80.18
X18.022 Y80.375
X18.043 Y80.571
X18.074 Y80.767
X18.119 Y80.963
X18.165 Y81.121
X18.176 Y81.158
X18.238 Y81.354
X18.312 Y81.55
X18.361 Y81.658
X18.403 Y81.745
X18.507 Y81.941
X18.557 Y82.032
X18.619 Y82.137
X18.751 Y82.332
X18.753 Y82.334
X18.906 Y82.528
X18.948 Y82.579
X19.072 Y82.724
X19.144 Y82.801
X19.267 Y82.92
X19.34 Y82.985
X19.498 Y83.115
X19.536 Y83.146
X19.732 Y83.295
X19.756 Y83.311
X19.928 Y83.42
X20.085 Y83.507
X20.124 Y83.527
X20.32 Y83.629
X20.486 Y83.702
X20.515 Y83.714
X20.711 Y83.784
X20.907 Y83.843
X21.103 Y83.898
X21.106
X21.299 Y83.938
X21.495 Y83.965
X21.691 Y83.984
X21.887 Y83.998
X22.082 Y84
X49.897
X50.093 Y83.999
X50.289 Y83.986
X50.485 Y83.967
X50.68 Y83.941
X50.876 Y83.902
X50.894 Y83.898
X51.072 Y83.85
X51.268 Y83.79
X51.464 Y83.722
X51.514 Y83.702
X51.66 Y83.638
X51.856 Y83.538
X51.915 Y83.507
X52.052 Y83.432
X52.244 Y83.311
X52.247 Y83.309
X52.443 Y83.163
X52.502 Y83.115
X52.639 Y83.002
X52.733 Y82.92
X52.835 Y82.822
X52.928 Y82.724
X53.031 Y82.604
X53.094 Y82.528
X53.227 Y82.362
X53.249 Y82.332
X53.381 Y82.137
X53.423 Y82.067
X53.493 Y81.941
X53.597 Y81.745
X53.619 Y81.701
X53.688 Y81.55
X53.762 Y81.354
X53.814 Y81.188
X53.824 Y81.158
X53.881 Y80.963
X53.926 Y80.767
X53.957 Y80.571
X53.978 Y80.375
X53.995 Y80.18
X54 Y79.984
Y79.005
X53.994 Y78.81
X53.977 Y78.614
X53.956 Y78.418
X53.924 Y78.223
X53.878 Y78.027
X53.82 Y77.831
X53.814 Y77.812
X53.759 Y77.635
X53.683 Y77.44
X53.619 Y77.299
X53.591 Y77.244
X53.487 Y77.048
X53.423 Y76.933
X53.374 Y76.853
X53.241 Y76.657
X53.227 Y76.638
X53.085 Y76.461
X53.031 Y76.396
X52.918 Y76.265
X52.835 Y76.178
X52.721 Y76.07
X52.639 Y75.998
X52.489 Y75.874
X52.443 Y75.837
X52.247 Y75.691
X52.229 Y75.678
X52.052 Y75.568
X51.895 Y75.483
X51.856 Y75.462
X51.66 Y75.362
X51.487 Y75.287
X51.464 Y75.278
X51.268 Y75.21
X51.072 Y75.15
X50.876 Y75.098
X50.848 Y75.091
X50.68 Y75.059
X50.485 Y75.033
X50.289 Y75.014
X50.093 Y75.001
X49.897 Y75
X36.346
G0 Z18.1
X36.227 Y68.203
Z15
G1 Z5 F100
X37.948 F1000
X38.144
X38.34 Y68.194
X38.536 Y68.175
X38.732 Y68.152
X38.928 Y68.117
X39.124 Y68.068
X39.199 Y68.046
X39.32 Y68.009
X39.515 Y67.945
X39.711 Y67.865
X39.745 Y67.85
X39.907 Y67.769
X40.103 Y67.664
X40.12 Y67.654
X40.299 Y67.546
X40.426 Y67.458
X40.495 Y67.407
X40.672 Y67.263
X40.691 Y67.248
X40.887 Y67.075
X40.895 Y67.067
X40.992 Y66.969
X41.08 Y66.871
X41.082 Y66.869
X41.242 Y66.676
X41.278 Y66.631
X41.391 Y66.48
X41.474 Y66.355
X41.517 Y66.284
X41.625 Y66.088
X41.67 Y66.004
X41.727 Y65.893
X41.813 Y65.697
X41.866 Y65.554
X41.884 Y65.501
X41.943 Y65.306
X41.998 Y65.11
X42.039 Y64.914
X42.062 Y64.759
X42.066 Y64.719
X42.086 Y64.523
X42.1 Y64.327
X42.103 Y64.131
Y2.091
X42.101 Y1.895
X42.088 Y1.7
X42.068 Y1.504
X42.062 Y1.444
X42.042 Y1.308
X42.003 Y1.112
X41.949 Y0.917
X41.89 Y0.721
X41.866 Y0.649
X41.821 Y0.525
X41.736 Y0.33
X41.67 Y0.199
X41.635 Y0.134
X41.529 Y-0.062
X41.474 Y-0.152
X41.405 Y-0.258
X41.278 Y-0.428
X41.258 Y-0.453
X41.097 Y-0.649
X41.082 Y-0.666
X40.915 Y-0.845
X40.887 Y-0.872
X40.696 Y-1.04
X40.691 Y-1.045
X40.495 Y-1.204
X40.452 Y-1.236
X40.299 Y-1.343
X40.155 Y-1.432
X40.103 Y-1.461
X39.907 Y-1.566
X39.786 Y-1.627
X39.711 Y-1.662
X39.515 Y-1.742
X39.32 Y-1.806
X39.262 Y-1.823
X39.124 Y-1.865
X38.928 Y-1.914
X38.732 Y-1.949
X38.536 Y-1.972
X38.34 Y-1.991
X38.144 Y-2
X37.948
X2.103
X1.907 Y-1.999
X1.711 Y-1.986
X1.515 Y-1.967
X1.32 Y-1.941
X1.124 Y-1.902
X0.928 Y-1.85
X0.84 Y-1.823
X0.732 Y-1.79
X0.536 Y-1.722
X0.34 Y-1.638
X0.317 Y-1.627
X0.144 Y-1.538
X-0.052 Y-1.432
X-0.247 Y-1.309
X-0.349 Y-1.236
X-0.443 Y-1.163
X-0.593 Y-1.04
X-0.639 Y-1.002
X-0.812 Y-0.845
X-0.835 Y-0.822
X-0.994 Y-0.649
X-1.031 Y-0.604
X-1.155 Y-0.453
X-1.227 Y-0.362
X-1.302 Y-0.258
X-1.423 Y-0.067
X-1.426 Y-0.062
X-1.533 Y0.134
X-1.619 Y0.299
X-1.633 Y0.33
X-1.718 Y0.525
X-1.787 Y0.721
X-1.814 Y0.812
X-1.846 Y0.917
X-1.9 Y1.112
X-1.939 Y1.308
X-1.966 Y1.504
X-1.985 Y1.7
X-1.998 Y1.895
X-2 Y2.091
Y64.131
X-1.997 Y64.327
X-1.983 Y64.523
X-1.964 Y64.719
X-1.936 Y64.914
X-1.895 Y65.11
X-1.84 Y65.306
X-1.814 Y65.392
X-1.781 Y65.501
X-1.71 Y65.697
X-1.624 Y65.893
X-1.619 Y65.904
X-1.522 Y66.088
X-1.423 Y66.27
X-1.415 Y66.284
X-1.289 Y66.48
X-1.227 Y66.565
X-1.139 Y66.676
X-1.031 Y66.807
X-0.977 Y66.871
X-0.835 Y67.025
X-0.792 Y67.067
X-0.639 Y67.205
X-0.569 Y67.263
X-0.443 Y67.366
X-0.323 Y67.458
X-0.247 Y67.512
X-0.052 Y67.635
X-0.018 Y67.654
X0.144 Y67.741
X0.34 Y67.841
X0.358 Y67.85
X0.536 Y67.925
X0.732 Y67.993
X0.928 Y68.053
X1.124 Y68.105
X1.32 Y68.144
X1.515 Y68.17
X1.711 Y68.189
X1.907 Y68.202
X2.103 Y68.203
X25.253
G0 Z18.1
X14.074 Y85.739
Z10.6
G1 Z5.6 F100
X14.071 Y85.746 Z5.506
X14.063 Y85.766 Z5.415
X14.048 Y85.799 Z5.328
X14.029 Y85.844 Z5.247
X14.005 Y85.901 Z5.176
X13.978 Y85.967 Z5.115
X13.946 Y86.041 Z5.065
X13.912 Y86.121 Z5.029
X13.877 Y86.205 Z5.007
X13.84 Y86.291 Z5
X12.978 Y88.327 F600
G3 X12.098 Y88.595 I-0.552 J-0.234
G1 X12.093 Y88.592 F1000
X11.897 Y88.484
X11.738 Y88.4
X11.701 Y88.381
X11.505 Y88.294
X11.309 Y88.223
X11.249 Y88.204
X11.113 Y88.163
X10.918 Y88.107
X10.722 Y88.066
X10.526 Y88.037
X10.33 Y88.018
X10.22 Y88.008
X10.134 Y88.003
X9.938 Y88
X9.155
X8.959
X8.78 Y88.008
X8.763 Y88.009
X8.567 Y88.028
X8.371 Y88.051
X8.175 Y88.086
X7.979 Y88.135
X7.784 Y88.194
X7.751 Y88.204
X7.588 Y88.258
X7.392 Y88.338
X7.262 Y88.4
X7.196 Y88.434
X7 Y88.539
X6.902 Y88.595
X6.804 Y88.657
X6.615 Y88.791
X6.608 Y88.796
X6.412 Y88.955
X6.374 Y88.987
X6.216 Y89.128
X6.161 Y89.182
X6.021 Y89.334
X5.983 Y89.378
X5.825 Y89.572
X5.823 Y89.574
X5.68 Y89.77
X5.629 Y89.848
X5.559 Y89.965
X5.453 Y90.161
X5.433 Y90.198
X5.354 Y90.357
X5.272 Y90.552
X5.237 Y90.648
X5.205 Y90.748
X5.145 Y90.944
X5.094 Y91.139
X5.056 Y91.335
X5.041 Y91.442
X5.032 Y91.531
X5.012 Y91.727
X5.001 Y91.922
X5 Y92.118
Y119.909
X5.002 Y120.105
X5.015 Y120.3
X5.034 Y120.496
X5.041 Y120.558
X5.061 Y120.692
X5.1 Y120.888
X5.154 Y121.083
X5.213 Y121.279
X5.237 Y121.352
X5.282 Y121.475
X5.367 Y121.67
X5.433 Y121.802
X5.467 Y121.866
X5.574 Y122.062
X5.629 Y122.152
X5.698 Y122.258
X5.825 Y122.428
X5.845 Y122.453
X6.006 Y122.649
X6.021 Y122.666
X6.188 Y122.845
X6.216 Y122.872
X6.407 Y123.04
X6.412 Y123.045
X6.608 Y123.204
X6.651 Y123.236
X6.804 Y123.343
X6.948 Y123.432
X7 Y123.461
X7.196 Y123.566
X7.317 Y123.627
X7.392 Y123.662
X7.588 Y123.742
X7.784 Y123.806
X7.84 Y123.823
X7.979 Y123.865
X8.175 Y123.914
X8.371 Y123.949
X8.567 Y123.972
X8.763 Y123.991
X8.959 Y124
X9.155
X9.938
X10.134 Y123.997
X10.33 Y123.982
X10.526 Y123.963
X10.722 Y123.934
X10.918 Y123.892
X11.113 Y123.837
X11.16 Y123.823
X11.309 Y123.777
X11.505 Y123.706
X11.683 Y123.627
X11.701 Y123.619
X11.897 Y123.516
X12.052 Y123.432
X12.093 Y123.408
X12.289 Y123.28
X12.349 Y123.236
X12.485 Y123.129
X12.593 Y123.04
X12.68 Y122.967
X12.812 Y122.845
X12.876 Y122.779
X12.994 Y122.649
X13.072 Y122.554
X13.155 Y122.453
X13.268 Y122.306
X13.302 Y122.258
X13.426 Y122.062
X13.464 Y121.994
X13.533 Y121.866
X13.633 Y121.67
X13.66 Y121.613
X13.718 Y121.475
X13.787 Y121.279
X13.846 Y121.083
X13.856 Y121.052
X13.9 Y120.888
X13.939 Y120.692
X13.966 Y120.496
X13.985 Y120.3
X13.998 Y120.105
X14 Y119.909
Y92.118
X13.999 Y91.922
X13.988 Y91.727
X13.968 Y91.531
X13.944 Y91.335
X13.906 Y91.139
X13.856 Y90.948
X13.855 Y90.944
X13.795 Y90.748
X13.728 Y90.552
X13.66 Y90.387
X13.646 Y90.357
X13.547 Y90.161
X13.464 Y90.006
X13.441 Y89.965
X13.32 Y89.77
X13.268 Y89.694
X13.177 Y89.574
X13.072 Y89.446
X13.017 Y89.378
X12.876 Y89.221
X12.839 Y89.182
X12.68 Y89.033
X12.626 Y88.987
X12.485 Y88.871
X12.385 Y88.791
X12.289 Y88.72
X12.098 Y88.595
G3 X11.923 Y87.765 I0.328 J-0.503 F600
G2 X11.835 Y87.35 I-0.251 J-0.164
X11.45 Y87.255 I-0.328 J0.503
G1 X3.8 Y87.995
Z1.6 F100
G18 G2 X4.4 Z1 I0.6 K0
G17 G3 X5 Y88.595 I0 J0.6 F600
G1 Y119.909 F1000
X5.002 Y120.105
X5.015 Y120.3
X5.034 Y120.496
X5.041 Y120.558
X5.061 Y120.692
X5.1 Y120.888
X5.154 Y121.083
X5.213 Y121.279
X5.237 Y121.352
X5.282 Y121.475
X5.367 Y121.67
X5.433 Y121.802
X5.467 Y121.866
X5.574 Y122.062
X5.629 Y122.152
X5.698 Y122.258
X5.825 Y122.428
X5.845 Y122.453
X6.006 Y122.649
X6.021 Y122.666
X6.188 Y122.845
X6.216 Y122.872
X6.407 Y123.04
X6.412 Y123.045
X6.608 Y123.204
X6.651 Y123.236
X6.804 Y123.343
X6.948 Y123.432
X7 Y123.461
X7.196 Y123.566
X7.317 Y123.627
X7.392 Y123.662
X7.588 Y123.742
X7.784 Y123.806
X7.84 Y123.823
X7.979 Y123.865
X8.175 Y123.914
X8.371 Y123.949
X8.567 Y123.972
X8.763 Y123.991
X8.959 Y124
X9.155
X49.897
X50.093 Y123.999
X50.289 Y123.986
X50.485 Y123.967
X50.68 Y123.941
X50.876 Y123.902
X51.072 Y123.85
X51.16 Y123.823
X51.268 Y123.79
X51.464 Y123.722
X51.66 Y123.638
X51.683 Y123.627
X51.856 Y123.538
X52.052 Y123.432
X52.247 Y123.309
X52.349 Y123.236
X52.443 Y123.163
X52.593 Y123.04
X52.639 Y123.002
X52.812 Y122.845
X52.835 Y122.822
X52.994 Y122.649
X53.031 Y122.604
X53.155 Y122.453
X53.227 Y122.362
X53.302 Y122.258
X53.423 Y122.067
X53.426 Y122.062
X53.533 Y121.866
X53.619 Y121.701
X53.633 Y121.67
X53.718 Y121.475
X53.787 Y121.279
X53.814 Y121.188
X53.846 Y121.083
X53.9 Y120.888
X53.939 Y120.692
X53.966 Y120.496
X53.985 Y120.3
X53.998 Y120.105
X54 Y119.909
Y79.005
X53.994 Y78.81
X53.977 Y78.614
X53.956 Y78.418
X53.924 Y78.223
X53.878 Y78.027
X53.82 Y77.831
X53.814 Y77.812
X53.759 Y77.635
X53.683 Y77.44
X53.619 Y77.299
X53.591 Y77.244
X53.487 Y77.048
X53.423 Y76.933
X53.374 Y76.853
X53.241 Y76.657
X53.227 Y76.638
X53.085 Y76.461
X53.031 Y76.396
X52.918 Y76.265
X52.835 Y76.178
X52.721 Y76.07
X52.639 Y75.998
X52.489 Y75.874
X52.443 Y75.837
X52.247 Y75.691
X52.229 Y75.678
X52.052 Y75.568
X51.895 Y75.483
X51.856 Y75.462
X51.66 Y75.362
X51.487 Y75.287
X51.464 Y75.278
X51.268 Y75.21
X51.072 Y75.15
X50.876 Y75.098
X50.848 Y75.091
X50.68 Y75.059
X50.485 Y75.033
X50.289 Y75.014
X50.093 Y75.001
X49.897 Y75
X42.845
X42.649 Y74.998
X42.552 Y74.993
X42.55
X42.501 Y74.985
X42.5
X42.451 Y74.972
X42.449 Y74.971
X42.402 Y74.953
X42.4 Y74.952
X42.356 Y74.93
X42.353 Y74.928
X42.314 Y74.903
X42.311 Y74.901
X42.272 Y74.87
X42.271 Y74.868
X42.236 Y74.833
X42.234 Y74.831
X42.202 Y74.792
X42.2 Y74.79
X42.174 Y74.748
X42.172 Y74.746
X42.15 Y74.702
X42.149 Y74.7
X42.131 Y74.654
Y74.652
X42.118 Y74.603
Y74.602
X42.11 Y74.553
Y74.551
X42.107 Y74.504
X42.103 Y74.308
Y2.091
X42.101 Y1.895
X42.088 Y1.7
X42.068 Y1.504
X42.062 Y1.444
X42.042 Y1.308
X42.003 Y1.112
X41.949 Y0.917
X41.89 Y0.721
X41.866 Y0.649
X41.821 Y0.525
X41.736 Y0.33
X41.67 Y0.199
X41.635 Y0.134
X41.529 Y-0.062
X41.474 Y-0.152
X41.405 Y-0.258
X41.278 Y-0.428
X41.258 Y-0.453
X41.097 Y-0.649
X41.082 Y-0.666
X40.915 Y-0.845
X40.887 Y-0.872
X40.696 Y-1.04
X40.691 Y-1.045
X40.495 Y-1.204
X40.452 Y-1.236
X40.299 Y-1.343
X40.155 Y-1.432
X40.103 Y-1.461
X39.907 Y-1.566
X39.786 Y-1.627
X39.711 Y-1.662
X39.515 Y-1.742
X39.32 Y-1.806
X39.262 Y-1.823
X39.124 Y-1.865
X38.928 Y-1.914
X38.732 Y-1.949
X38.536 Y-1.972
X38.34 Y-1.991
X38.144 Y-2
X37.948
X2.103
X1.907 Y-1.999
X1.711 Y-1.986
X1.515 Y-1.967
X1.32 Y-1.941
X1.124 Y-1.902
X0.928 Y-1.85
X0.84 Y-1.823
X0.732 Y-1.79
X0.536 Y-1.722
X0.34 Y-1.638
X0.317 Y-1.627
X0.144 Y-1.538
X-0.052 Y-1.432
X-0.247 Y-1.309
X-0.349 Y-1.236
X-0.443 Y-1.163
X-0.593 Y-1.04
X-0.639 Y-1.002
X-0.812 Y-0.845
X-0.835 Y-0.822
X-0.994 Y-0.649
X-1.031 Y-0.604
X-1.155 Y-0.453
X-1.227 Y-0.362
X-1.302 Y-0.258
X-1.423 Y-0.067
X-1.426 Y-0.062
X-1.533 Y0.134
X-1.619 Y0.299
X-1.633 Y0.33
X-1.718 Y0.525
X-1.787 Y0.721
X-1.814 Y0.812
X-1.846 Y0.917
X-1.9 Y1.112
X-1.939 Y1.308
X-1.966 Y1.504
X-1.985 Y1.7
X-1.998 Y1.895
X-2 Y2.091
Y64.131
X-1.997 Y64.327
X-1.983 Y64.523
X-1.964 Y64.719
X-1.936 Y64.914
X-1.895 Y65.11
X-1.84 Y65.306
X-1.814 Y65.392
X-1.781 Y65.501
X-1.71 Y65.697
X-1.624 Y65.893
X-1.619 Y65.904
X-1.522 Y66.088
X-1.423 Y66.27
X-1.415 Y66.284
X-1.289 Y66.48
X-1.227 Y66.565
X-1.139 Y66.676
X-1.031 Y66.807
X-0.977 Y66.871
X-0.835 Y67.025
X-0.792 Y67.067
X-0.639 Y67.205
X-0.569 Y67.263
X-0.443 Y67.366
X-0.323 Y67.458
X-0.247 Y67.512
X-0.052 Y67.635
X-0.018 Y67.654
X0.144 Y67.741
X0.34 Y67.841
X0.358 Y67.85
X0.536 Y67.925
X0.732 Y67.993
X0.928 Y68.053
X1.124 Y68.105
X1.32 Y68.144
X1.515 Y68.17
X1.711 Y68.189
X1.907 Y68.202
X2.103 Y68.203
X4.258
X4.454 Y68.205
X4.552 Y68.21
X4.553
X4.602 Y68.218
X4.604
X4.653 Y68.231
X4.657 Y68.233
X4.701 Y68.25
X4.702
X4.748 Y68.274
X4.791 Y68.301
X4.792 Y68.302
X4.831 Y68.334
X4.832 Y68.335
X4.868 Y68.37
X4.869 Y68.372
X4.9 Y68.411
X4.901 Y68.412
X4.929 Y68.454
X4.93 Y68.455
X4.953 Y68.501
X4.954 Y68.503
X4.971 Y68.549
X4.972 Y68.55
X4.985 Y68.599
Y68.601
X4.993 Y68.651
Y68.654
X4.997 Y68.731
X5 Y68.828
Y88.595
Y89.889 Z0.955
Y91.183 Z0.91
Y117.231 Z0
Y119.909
X5.002 Y120.105
X5.015 Y120.3
X5.034 Y120.496
X5.041 Y120.558
X5.061 Y120.692
X5.1 Y120.888
X5.154 Y121.083
X5.213 Y121.279
X5.237 Y121.352
X5.282 Y121.475
X5.367 Y121.67
X5.433 Y121.802
X5.467 Y121.866
X5.574 Y122.062
X5.629 Y122.152
X5.698 Y122.258
X5.825 Y122.428
X5.845 Y122.453
X6.006 Y122.649
X6.021 Y122.666
X6.188 Y122.845
X6.216 Y122.872
X6.407 Y123.04
X6.412 Y123.045
X6.608 Y123.204
X6.651 Y123.236
X6.804 Y123.343
X6.948 Y123.432
X7 Y123.461
X7.196 Y123.566
X7.317 Y123.627
X7.392 Y123.662
X7.588 Y123.742
X7.784 Y123.806
X7.84 Y123.823
X7.979 Y123.865
X8.175 Y123.914
X8.371 Y123.949
X8.567 Y123.972
X8.763 Y123.991
X8.959 Y124
X9.155
X49.897
X50.093 Y123.999
X50.289 Y123.986
X50.485 Y123.967
X50.68 Y123.941
X50.876 Y123.902
X51.072 Y123.85
X51.16 Y123.823
X51.268 Y123.79
X51.464 Y123.722
X51.66 Y123.638
X51.683 Y123.627
X51.856 Y123.538
X52.052 Y123.432
X52.247 Y123.309
X52.349 Y123.236
X52.443 Y123.163
X52.593 Y123.04
X52.639 Y123.002
X52.812 Y122.845
X52.835 Y122.822
X52.994 Y122.649
X53.031 Y122.604
X53.155 Y122.453
X53.227 Y122.362
X53.302 Y122.258
X53.423 Y122.067
X53.426 Y122.062
X53.533 Y121.866
X53.619 Y121.701
X53.633 Y121.67
X53.718 Y121.475
X53.787 Y121.279
X53.814 Y121.188
X53.846 Y121.083
X53.9 Y120.888
X53.939 Y120.692
X53.966 Y120.496
X53.985 Y120.3
X53.998 Y120.105
X54 Y119.909
Y79.005
X53.994 Y78.81
X53.977 Y78.614
X53.956 Y78.418
X53.924 Y78.223
X53.878 Y78.027
X53.82 Y77.831
X53.814 Y77.812
X53.759 Y77.635
X53.683 Y77.44
X53.619 Y77.299
X53.591 Y77.244
X53.487 Y77.048
X53.423 Y76.933
X53.374 Y76.853
X53.241 Y76.657
X53.227 Y76.638
X53.085 Y76.461
X53.031 Y76.396
X52.918 Y76.265
X52.835 Y76.178
X52.721 Y76.07
X52.639 Y75.998
X52.489 Y75.874
X52.443 Y75.837
X52.247 Y75.691
X52.229 Y75.678
X52.052 Y75.568
X51.895 Y75.483
X51.856 Y75.462
X51.66 Y75.362
X51.487 Y75.287
X51.464 Y75.278
X51.268 Y75.21
X51.072 Y75.15
X50.876 Y75.098
X50.848 Y75.091
X50.68 Y75.059
X50.485 Y75.033
X50.289 Y75.014
X50.093 Y75.001
X49.897 Y75
X42.845
X42.649 Y74.998
X42.552 Y74.993
X42.55
X42.501 Y74.985
X42.5
X42.451 Y74.972
X42.449 Y74.971
X42.402 Y74.953
X42.4 Y74.952
X42.356 Y74.93
X42.353 Y74.928
X42.314 Y74.903
X42.311 Y74.901
X42.272 Y74.87
X42.271 Y74.868
X42.236 Y74.833
X42.234 Y74.831
X42.202 Y74.792
X42.2 Y74.79
X42.174 Y74.748
X42.172 Y74.746
X42.15 Y74.702
X42.149 Y74.7
X42.131 Y74.654
Y74.652
X42.118 Y74.603
Y74.602
X42.11 Y74.553
Y74.551
X42.107 Y74.504
X42.103 Y74.308
Y2.091
X42.101 Y1.895
X42.088 Y1.7
X42.068 Y1.504
X42.062 Y1.444
X42.042 Y1.308
X42.003 Y1.112
X41.949 Y0.917
X41.89 Y0.721
X41.866 Y0.649
X41.821 Y0.525
X41.736 Y0.33
X41.67 Y0.199
X41.635 Y0.134
X41.529 Y-0.062
X41.474 Y-0.152
X41.405 Y-0.258
X41.278 Y-0.428
X41.258 Y-0.453
X41.097 Y-0.649
X41.082 Y-0.666
X40.915 Y-0.845
X40.887 Y-0.872
X40.696 Y-1.04
X40.691 Y-1.045
X40.495 Y-1.204
X40.452 Y-1.236
X40.299 Y-1.343
X40.155 Y-1.432
X40.103 Y-1.461
X39.907 Y-1.566
X39.786 Y-1.627
X39.711 Y-1.662
X39.515 Y-1.742
X39.32 Y-1.806
X39.262 Y-1.823
X39.124 Y-1.865
X38.928 Y-1.914
X38.732 Y-1.949
X38.536 Y-1.972
X38.34 Y-1.991
X38.144 Y-2
X37.948
X2.103
X1.907 Y-1.999
X1.711 Y-1.986
X1.515 Y-1.967
X1.32 Y-1.941
X1.124 Y-1.902
X0.928 Y-1.85
X0.84 Y-1.823
X0.732 Y-1.79
X0.536 Y-1.722
X0.34 Y-1.638
X0.317 Y-1.627
X0.144 Y-1.538
X-0.052 Y-1.432
X-0.247 Y-1.309
X-0.349 Y-1.236
X-0.443 Y-1.163
X-0.593 Y-1.04
X-0.639 Y-1.002
X-0.812 Y-0.845
X-0.835 Y-0.822
X-0.994 Y-0.649
X-1.031 Y-0.604
X-1.155 Y-0.453
X-1.227 Y-0.362
X-1.302 Y-0.258
X-1.423 Y-0.067
X-1.426 Y-0.062
X-1.533 Y0.134
X-1.619 Y0.299
X-1.633 Y0.33
X-1.718 Y0.525
X-1.787 Y0.721
X-1.814 Y0.812
X-1.846 Y0.917
X-1.9 Y1.112
X-1.939 Y1.308
X-1.966 Y1.504
X-1.985 Y1.7
X-1.998 Y1.895
X-2 Y2.091
Y64.131
X-1.997 Y64.327
X-1.983 Y64.523
X-1.964 Y64.719
X-1.936 Y64.914
X-1.895 Y65.11
X-1.84 Y65.306
X-1.814 Y65.392
X-1.781 Y65.501
X-1.71 Y65.697
X-1.624 Y65.893
X-1.619 Y65.904
X-1.522 Y66.088
X-1.423 Y66.27
X-1.415 Y66.284
X-1.289 Y66.48
X-1.227 Y66.565
X-1.139 Y66.676
X-1.031 Y66.807
X-0.977 Y66.871
X-0.835 Y67.025
X-0.792 Y67.067
X-0.639 Y67.205
X-0.569 Y67.263
X-0.443 Y67.366
X-0.323 Y67.458
X-0.247 Y67.512
X-0.052 Y67.635
X-0.018 Y67.654
X0.144 Y67.741
X0.34 Y67.841
X0.358 Y67.85
X0.536 Y67.925
X0.732 Y67.993
X0.928 Y68.053
X1.124 Y68.105
X1.32 Y68.144
X1.515 Y68.17
X1.711 Y68.189
X1.907 Y68.202
X2.103 Y68.203
X4.258
X4.454 Y68.205
X4.552 Y68.21
X4.553
X4.602 Y68.218
X4.604
X4.653 Y68.231
X4.657 Y68.233
X4.701 Y68.25
X4.702
X4.748 Y68.274
X4.791 Y68.301
X4.792 Y68.302
X4.831 Y68.334
X4.832 Y68.335
X4.868 Y68.37
X4.869 Y68.372
X4.9 Y68.411
X4.901 Y68.412
X4.929 Y68.454
X4.93 Y68.455
X4.953 Y68.501
X4.954 Y68.503
X4.971 Y68.549
X4.972 Y68.55
X4.985 Y68.599
Y68.601
X4.993 Y68.651
Y68.654
X4.997 Y68.731
X5 Y68.828
Y117.231
G3 X4.318 Y117.826 I-0.6 J0 F600
G1 X0.592 Y117.313
X0.499 Y117.3 Z0.007
X0.408 Y117.288 Z0.029
X0.322 Y117.276 Z0.065
X0.243 Y117.265 Z0.115
X0.172 Y117.255 Z0.176
X0.111 Y117.247 Z0.247
X0.062 Y117.24 Z0.328
X0.027 Y117.235 Z0.415
X0.005 Y117.232 Z0.506
X-0.002 Y117.231 Z0.6
G0 Z28.1
G28 G91 Z0
G90
G28 G91 X0 Y0
G90
M5
M30
