(bore3_n25)
(T6  D=3.175 CR=0 - ZMIN=0 - flat end mill)
G90 G94
G17
G21
G28 G91 Z0
G90

(Bore3Precise)
T6
(1/8" Flat-45 degree helix)
S18000 M3
G54
G0 X-56.144 Y0.317
Z27
Z14.5
G1 Z10.818 F500
G18 G3 X-56.461 Z10.5 I-0.318 K0
G1 X-56.62
G17 G3 X-56.938 Y0 I0 J-0.317
X-52.063 Y0 Z10.359 I2.438 J0 F1000
X-56.937 Y0 Z10.219 I-2.437 J0
X-52.063 Y0 Z10.078 I2.437 J0
X-56.937 Y0 Z9.938 I-2.437 J0
X-52.063 Y0 Z9.797 I2.437 J0
X-56.937 Y0 Z9.657 I-2.437 J0
X-52.063 Y0 Z9.516 I2.437 J0
X-56.937 Y0 Z9.376 I-2.437 J0
X-52.063 Y0 Z9.235 I2.437 J0
X-56.937 Y0 Z9.094 I-2.437 J0
X-52.063 Y0 Z8.954 I2.437 J0
X-56.937 Y0 Z8.813 I-2.437 J0
X-52.063 Y0 Z8.673 I2.437 J0
X-56.937 Y0 Z8.532 I-2.437 J0
X-52.063 Y0 Z8.392 I2.437 J0
X-56.937 Y0 Z8.251 I-2.437 J0
X-52.063 Y0 Z8.111 I2.437 J0
X-56.937 Y0 Z7.97 I-2.437 J0
X-52.063 Y0 Z7.829 I2.437 J0
X-56.937 Y0 Z7.689 I-2.437 J0
X-52.063 Y0 Z7.548 I2.437 J0
X-56.937 Y0 Z7.408 I-2.437 J0
X-52.063 Y0 Z7.267 I2.437 J0
X-56.937 Y0 Z7.127 I-2.437 J0
X-52.063 Y0 Z6.986 I2.437 J0
X-56.937 Y0 Z6.846 I-2.437 J0
X-52.063 Y0 Z6.705 I2.437 J0
X-56.937 Y0 Z6.564 I-2.437 J0
X-52.063 Y0 Z6.424 I2.437 J0
X-56.937 Y0 Z6.283 I-2.437 J0
X-52.063 Y0 Z6.143 I2.437 J0
X-56.937 Y0 Z6.002 I-2.437 J0
X-52.063 Y0 Z5.862 I2.437 J0
X-56.937 Y0 Z5.721 I-2.437 J0
X-52.063 Y0 Z5.581 I2.437 J0
X-56.937 Y0 Z5.44 I-2.437 J0
X-52.063 Y0 Z5.299 I2.437 J0
X-56.937 Y0 Z5.159 I-2.437 J0
X-52.063 Y0 Z5.018 I2.437 J0
X-56.937 Y0 Z4.878 I-2.437 J0
X-52.063 Y0 Z4.737 I2.437 J0
X-56.937 Y0 Z4.597 I-2.437 J0
X-52.063 Y0 Z4.456 I2.437 J0
X-56.937 Y0 Z4.316 I-2.437 J0
X-52.063 Y0 Z4.175 I2.437 J0
X-56.937 Y0 Z4.034 I-2.437 J0
X-52.063 Y0 Z3.894 I2.437 J0
X-56.937 Y0 Z3.753 I-2.437 J0
X-52.063 Y0 Z3.613 I2.437 J0
X-56.937 Y0 Z3.472 I-2.437 J0
X-52.063 Y0 Z3.332 I2.437 J0
X-56.937 Y0 Z3.191 I-2.437 J0
X-52.063 Y0 Z3.051 I2.437 J0
X-56.937 Y0 Z2.91 I-2.437 J0
X-52.063 Y0 Z2.769 I2.437 J0
X-56.937 Y0 Z2.629 I-2.437 J0
X-52.063 Y0 Z2.488 I2.437 J0
X-56.937 Y0 Z2.348 I-2.437 J0
X-52.063 Y0 Z2.207 I2.437 J0
X-56.937 Y0 Z2.067 I-2.437 J0
X-52.063 Y0 Z1.926 I2.437 J0
X-56.937 Y0 Z1.786 I-2.437 J0
X-52.063 Y0 Z1.645 I2.437 J0
X-56.937 Y0 Z1.504 I-2.437 J0
X-52.063 Y0 Z1.364 I2.437 J0
X-56.937 Y0 Z1.223 I-2.437 J0
X-52.063 Y0 Z1.083 I2.437 J0
X-56.937 Y0 Z0.942 I-2.437 J0
X-52.063 Y0 Z0.802 I2.437 J0
X-56.937 Y0 Z0.661 I-2.437 J0
X-52.063 Y0 Z0.521 I2.437 J0
X-56.937 Y0 Z0.38 I-2.437 J0
X-52.063 Y0 Z0.239 I2.437 J0
X-56.937 Y0 Z0.099 I-2.437 J0
X-53.047 Y-1.957 Z0 I2.437 J0
X-55.953 Y1.957 I-1.453 J1.957
X-53.047 Y-1.957 I1.453 J-1.957
X-52.981 Y-1.513 I-0.189 J0.255 F500
G1 X-53.076 Y-1.386
X-53.118 Y-1.329 Z0.008
X-53.158 Y-1.275 Z0.031
X-53.194 Y-1.227 Z0.069
X-53.224 Y-1.186 Z0.12
X-53.247 Y-1.156 Z0.18
X-53.261 Y-1.137 Z0.247
X-53.265 Y-1.131 Z0.317
G0 Z17
X52.856 Y0.317
Z14.5
G1 Z10.818 F500
G18 G3 X52.539 Z10.5 I-0.318 K0
G1 X52.38
G17 G3 X52.063 Y0 I0 J-0.317
X56.937 Y0 Z10.359 I2.438 J0 F1000
X52.063 Y0 Z10.219 I-2.437 J0
X56.937 Y0 Z10.078 I2.437 J0
X52.063 Y0 Z9.938 I-2.437 J0
X56.937 Y0 Z9.797 I2.437 J0
X52.063 Y0 Z9.657 I-2.437 J0
X56.937 Y0 Z9.516 I2.437 J0
X52.063 Y0 Z9.376 I-2.437 J0
X56.937 Y0 Z9.235 I2.437 J0
X52.063 Y0 Z9.094 I-2.437 J0
X56.937 Y0 Z8.954 I2.437 J0
X52.063 Y0 Z8.813 I-2.437 J0
X56.937 Y0 Z8.673 I2.437 J0
X52.063 Y0 Z8.532 I-2.437 J0
X56.937 Y0 Z8.392 I2.437 J0
X52.063 Y0 Z8.251 I-2.437 J0
X56.937 Y0 Z8.111 I2.437 J0
X52.063 Y0 Z7.97 I-2.437 J0
X56.937 Y0 Z7.829 I2.437 J0
X52.063 Y0 Z7.689 I-2.437 J0
X56.937 Y0 Z7.548 I2.437 J0
X52.063 Y0 Z7.408 I-2.437 J0
X56.937 Y0 Z7.267 I2.437 J0
X52.063 Y0 Z7.127 I-2.437 J0
X56.937 Y0 Z6.986 I2.437 J0
X52.063 Y0 Z6.846 I-2.437 J0
X56.937 Y0 Z6.705 I2.437 J0
X52.063 Y0 Z6.564 I-2.437 J0
X56.937 Y0 Z6.424 I2.437 J0
X52.063 Y0 Z6.283 I-2.437 J0
X56.937 Y0 Z6.143 I2.437 J0
X52.063 Y0 Z6.002 I-2.437 J0
X56.937 Y0 Z5.862 I2.437 J0
X52.063 Y0 Z5.721 I-2.437 J0
X56.937 Y0 Z5.581 I2.437 J0
X52.063 Y0 Z5.44 I-2.437 J0
X56.937 Y0 Z5.299 I2.437 J0
X52.063 Y0 Z5.159 I-2.437 J0
X56.937 Y0 Z5.018 I2.437 J0
X52.063 Y0 Z4.878 I-2.437 J0
X56.937 Y0 Z4.737 I2.437 J0
X52.063 Y0 Z4.597 I-2.437 J0
X56.937 Y0 Z4.456 I2.437 J0
X52.063 Y0 Z4.316 I-2.437 J0
X56.937 Y0 Z4.175 I2.437 J0
X52.063 Y0 Z4.034 I-2.437 J0
X56.937 Y0 Z3.894 I2.437 J0
X52.063 Y0 Z3.753 I-2.437 J0
X56.937 Y0 Z3.613 I2.437 J0
X52.063 Y0 Z3.472 I-2.437 J0
X56.937 Y0 Z3.332 I2.437 J0
X52.063 Y0 Z3.191 I-2.437 J0
X56.937 Y0 Z3.051 I2.437 J0
X52.063 Y0 Z2.91 I-2.437 J0
X56.937 Y0 Z2.769 I2.437 J0
X52.063 Y0 Z2.629 I-2.437 J0
X56.937 Y0 Z2.488 I2.437 J0
X52.063 Y0 Z2.348 I-2.437 J0
X56.937 Y0 Z2.207 I2.437 J0
X52.063 Y0 Z2.067 I-2.437 J0
X56.937 Y0 Z1.926 I2.437 J0
X52.063 Y0 Z1.786 I-2.437 J0
X56.937 Y0 Z1.645 I2.437 J0
X52.063 Y0 Z1.504 I-2.437 J0
X56.937 Y0 Z1.364 I2.437 J0
X52.063 Y0 Z1.223 I-2.437 J0
X56.937 Y0 Z1.083 I2.437 J0
X52.063 Y0 Z0.942 I-2.437 J0
X56.937 Y0 Z0.802 I2.437 J0
X52.063 Y0 Z0.661 I-2.437 J0
X56.937 Y0 Z0.521 I2.437 J0
X52.063 Y0 Z0.38 I-2.437 J0
X56.937 Y0 Z0.239 I2.437 J0
X52.063 Y0 Z0.099 I-2.437 J0
X55.953 Y-1.957 Z0 I2.437 J0
X53.047 Y1.957 I-1.453 J1.957
X55.953 Y-1.957 I1.453 J-1.957
X56.019 Y-1.513 I-0.189 J0.255 F500
G1 X55.924 Y-1.386
X55.882 Y-1.329 Z0.008
X55.842 Y-1.275 Z0.031
X55.806 Y-1.227 Z0.069
X55.776 Y-1.186 Z0.12
X55.753 Y-1.156 Z0.18
X55.739 Y-1.137 Z0.247
X55.735 Y-1.131 Z0.317
G0 Z27
G28 G91 Z0
G90
G28 G91 X0 Y0
G90
M5
M30
