(bore2)
(T6  D=3.175 CR=0 - ZMIN=0 - flat end mill)
G90 G94
G17
G21
G28 G91 Z0
G90

(Bore12)
T6
(1/8" Flat-45 degree helix)
S18000 M3
G54
G0 X-13.17 Y-3.306
Z27
Z9.5
G1 Z5.818 F500
G18 G2 X-12.852 Z5.5 I0.318 K0
G1 X-12.694
G17 G3 X-12.387 Y-3 I0 J0.306
X-13.613 Y-3 Z5.423 I-0.613 J0 F1000
X-12.387 Y-3 Z5.346 I0.613 J0
X-13.613 Y-3 Z5.27 I-0.613 J0
X-12.387 Y-3 Z5.193 I0.613 J0
X-13.613 Y-3 Z5.116 I-0.613 J0
X-12.387 Y-3 Z5.039 I0.613 J0
X-13.613 Y-3 Z4.962 I-0.613 J0
X-12.387 Y-3 Z4.885 I0.613 J0
X-13.613 Y-3 Z4.809 I-0.613 J0
X-12.387 Y-3 Z4.732 I0.613 J0
X-13.613 Y-3 Z4.655 I-0.613 J0
X-12.387 Y-3 Z4.578 I0.613 J0
X-13.613 Y-3 Z4.501 I-0.613 J0
X-12.387 Y-3 Z4.424 I0.613 J0
X-13.613 Y-3 Z4.348 I-0.613 J0
X-12.387 Y-3 Z4.271 I0.613 J0
X-13.613 Y-3 Z4.194 I-0.613 J0
X-12.387 Y-3 Z4.117 I0.613 J0
X-13.613 Y-3 Z4.04 I-0.613 J0
X-12.387 Y-3 Z3.963 I0.613 J0
X-13.613 Y-3 Z3.887 I-0.613 J0
X-12.387 Y-3 Z3.81 I0.613 J0
X-13.613 Y-3 Z3.733 I-0.613 J0
X-12.387 Y-3 Z3.656 I0.613 J0
X-13.613 Y-3 Z3.579 I-0.613 J0
X-12.387 Y-3 Z3.503 I0.613 J0
X-13.613 Y-3 Z3.426 I-0.613 J0
X-12.387 Y-3 Z3.349 I0.613 J0
X-13.613 Y-3 Z3.272 I-0.613 J0
X-12.387 Y-3 Z3.195 I0.613 J0
X-13.613 Y-3 Z3.118 I-0.613 J0
X-12.387 Y-3 Z3.042 I0.613 J0
X-13.613 Y-3 Z2.965 I-0.613 J0
X-12.387 Y-3 Z2.888 I0.613 J0
X-13.613 Y-3 Z2.811 I-0.613 J0
X-12.387 Y-3 Z2.734 I0.613 J0
X-13.613 Y-3 Z2.657 I-0.613 J0
X-12.387 Y-3 Z2.581 I0.613 J0
X-13.613 Y-3 Z2.504 I-0.613 J0
X-12.387 Y-3 Z2.427 I0.613 J0
X-13.613 Y-3 Z2.35 I-0.613 J0
X-12.387 Y-3 Z2.273 I0.613 J0
X-13.613 Y-3 Z2.196 I-0.613 J0
X-12.387 Y-3 Z2.12 I0.613 J0
X-13.613 Y-3 Z2.043 I-0.613 J0
X-12.387 Y-3 Z1.966 I0.613 J0
X-13.613 Y-3 Z1.889 I-0.613 J0
X-12.387 Y-3 Z1.812 I0.613 J0
X-13.613 Y-3 Z1.736 I-0.613 J0
X-12.387 Y-3 Z1.659 I0.613 J0
X-13.613 Y-3 Z1.582 I-0.613 J0
X-12.387 Y-3 Z1.505 I0.613 J0
X-13.613 Y-3 Z1.428 I-0.613 J0
X-12.387 Y-3 Z1.351 I0.613 J0
X-13.613 Y-3 Z1.275 I-0.613 J0
X-12.387 Y-3 Z1.198 I0.613 J0
X-13.613 Y-3 Z1.121 I-0.613 J0
X-12.387 Y-3 Z1.044 I0.613 J0
X-13.613 Y-3 Z0.967 I-0.613 J0
X-12.387 Y-3 Z0.89 I0.613 J0
X-13.613 Y-3 Z0.814 I-0.613 J0
X-12.387 Y-3 Z0.737 I0.613 J0
X-13.613 Y-3 Z0.66 I-0.613 J0
X-12.387 Y-3 Z0.583 I0.613 J0
X-13.613 Y-3 Z0.506 I-0.613 J0
X-12.387 Y-3 Z0.43 I0.613 J0
X-13.613 Y-3 Z0.353 I-0.613 J0
X-12.387 Y-3 Z0.276 I0.613 J0
X-13.613 Y-3 Z0.199 I-0.613 J0
X-12.387 Y-3 Z0.122 I0.613 J0
X-13.613 Y-3 Z0.045 I-0.613 J0
X-12.828 Y-3.588 Z0 I0.613 J0
X-13.172 Y-2.412 I-0.172 J0.588
X-12.828 Y-3.588 I0.172 J-0.588
X-12.62 Y-3.208 I-0.086 J0.294 F500
G1 X-12.665 Y-3.056
X-12.684 Y-2.988 Z0.008
X-12.703 Y-2.923 Z0.031
X-12.72 Y-2.866 Z0.069
X-12.734 Y-2.817 Z0.12
X-12.745 Y-2.781 Z0.18
X-12.752 Y-2.758 Z0.247
X-12.754 Y-2.751 Z0.317
G0 Z17
Z27
X-12.281 Y-3.318
Z9.5
G1 Z5.818 F500
G18 G2 X-11.964 Z5.5 I0.318 K0
G1 X-11.805
G17 G3 X-11.488 Y-3 I0 J0.318
X-14.512 Y-3 Z5.392 I-1.512 J0 F1000
X-11.488 Y-3 Z5.283 I1.512 J0
X-14.512 Y-3 Z5.175 I-1.512 J0
X-11.488 Y-3 Z5.067 I1.512 J0
X-14.512 Y-3 Z4.959 I-1.512 J0
X-11.488 Y-3 Z4.85 I1.512 J0
X-14.512 Y-3 Z4.742 I-1.512 J0
X-11.488 Y-3 Z4.634 I1.512 J0
X-14.512 Y-3 Z4.526 I-1.512 J0
X-11.488 Y-3 Z4.417 I1.512 J0
X-14.512 Y-3 Z4.309 I-1.512 J0
X-11.488 Y-3 Z4.201 I1.512 J0
X-14.512 Y-3 Z4.093 I-1.512 J0
X-11.488 Y-3 Z3.984 I1.512 J0
X-14.512 Y-3 Z3.876 I-1.512 J0
X-11.488 Y-3 Z3.768 I1.512 J0
X-14.512 Y-3 Z3.66 I-1.512 J0
X-11.488 Y-3 Z3.551 I1.512 J0
X-14.512 Y-3 Z3.443 I-1.512 J0
X-11.487 Y-3 Z3.335 I1.512 J0
X-14.513 Y-3 Z3.227 I-1.513 J0
X-11.487 Y-3 Z3.118 I1.513 J0
X-14.513 Y-3 Z3.01 I-1.513 J0
X-11.487 Y-3 Z2.902 I1.513 J0
X-14.513 Y-3 Z2.794 I-1.513 J0
X-11.487 Y-3 Z2.685 I1.513 J0
X-14.513 Y-3 Z2.577 I-1.513 J0
X-11.487 Y-3 Z2.469 I1.513 J0
X-14.513 Y-3 Z2.361 I-1.513 J0
X-11.487 Y-3 Z2.252 I1.513 J0
X-14.513 Y-3 Z2.144 I-1.513 J0
X-11.487 Y-3 Z2.036 I1.513 J0
X-14.513 Y-3 Z1.928 I-1.513 J0
X-11.487 Y-3 Z1.819 I1.513 J0
X-14.513 Y-3 Z1.711 I-1.513 J0
X-11.487 Y-3 Z1.603 I1.513 J0
X-14.513 Y-3 Z1.495 I-1.513 J0
X-11.487 Y-3 Z1.386 I1.513 J0
X-14.513 Y-3 Z1.278 I-1.513 J0
X-11.487 Y-3 Z1.17 I1.513 J0
X-14.513 Y-3 Z1.062 I-1.513 J0
X-11.487 Y-3 Z0.953 I1.513 J0
X-14.513 Y-3 Z0.845 I-1.513 J0
X-11.487 Y-3 Z0.737 I1.513 J0
X-14.513 Y-3 Z0.629 I-1.513 J0
X-11.487 Y-3 Z0.52 I1.513 J0
X-14.513 Y-3 Z0.412 I-1.513 J0
X-11.487 Y-3 Z0.304 I1.513 J0
X-14.513 Y-3 Z0.196 I-1.513 J0
X-11.487 Y-3 Z0.087 I1.513 J0
X-14.241 Y-2.135 Z0 I-1.513 J0
X-11.759 Y-3.865 I1.241 J-0.865
X-14.241 Y-2.135 I-1.241 J0.865
X-14.162 Y-2.577 I0.26 J-0.182 F500
G1 X-14.032 Y-2.668
X-13.974 Y-2.708 Z0.008
X-13.919 Y-2.747 Z0.031
X-13.869 Y-2.781 Z0.069
X-13.828 Y-2.81 Z0.12
X-13.797 Y-2.832 Z0.18
X-13.778 Y-2.845 Z0.247
X-13.771 Y-2.85 Z0.317
G0 Z17
Z27
X-11.381 Y-3.318
Z9.5
G1 Z5.818 F500
G18 G2 X-11.064 Z5.5 I0.318 K0
G1 X-10.905
G17 G3 X-10.587 Y-3 I0 J0.318
X-15.413 Y-3 Z5.36 I-2.413 J0 F1000
X-10.587 Y-3 Z5.221 I2.413 J0
X-15.413 Y-3 Z5.081 I-2.413 J0
X-10.587 Y-3 Z4.941 I2.413 J0
X-15.413 Y-3 Z4.802 I-2.413 J0
X-10.587 Y-3 Z4.662 I2.413 J0
X-15.413 Y-3 Z4.522 I-2.413 J0
X-10.587 Y-3 Z4.383 I2.413 J0
X-15.413 Y-3 Z4.243 I-2.413 J0
X-10.587 Y-3 Z4.103 I2.413 J0
X-15.413 Y-3 Z3.963 I-2.413 J0
X-10.587 Y-3 Z3.824 I2.413 J0
X-15.413 Y-3 Z3.684 I-2.413 J0
X-10.587 Y-3 Z3.544 I2.413 J0
X-15.413 Y-3 Z3.405 I-2.413 J0
X-10.587 Y-3 Z3.265 I2.413 J0
X-15.413 Y-3 Z3.125 I-2.413 J0
X-10.587 Y-3 Z2.986 I2.413 J0
X-15.413 Y-3 Z2.846 I-2.413 J0
X-10.587 Y-3 Z2.706 I2.413 J0
X-15.413 Y-3 Z2.567 I-2.413 J0
X-10.587 Y-3 Z2.427 I2.413 J0
X-15.412 Y-3 Z2.287 I-2.413 J0
X-10.588 Y-3 Z2.148 I2.412 J0
X-15.412 Y-3 Z2.008 I-2.412 J0
X-10.588 Y-3 Z1.868 I2.412 J0
X-15.412 Y-3 Z1.729 I-2.412 J0
X-10.588 Y-3 Z1.589 I2.412 J0
X-15.412 Y-3 Z1.449 I-2.412 J0
X-10.588 Y-3 Z1.31 I2.412 J0
X-15.412 Y-3 Z1.17 I-2.412 J0
X-10.588 Y-3 Z1.03 I2.412 J0
X-15.412 Y-3 Z0.89 I-2.412 J0
X-10.588 Y-3 Z0.751 I2.412 J0
X-15.412 Y-3 Z0.611 I-2.412 J0
X-10.588 Y-3 Z0.471 I2.412 J0
X-15.412 Y-3 Z0.332 I-2.412 J0
X-10.588 Y-3 Z0.192 I2.412 J0
X-15.412 Y-3 Z0.052 I-2.412 J0
X-13.924 Y-5.228 Z0 I2.412 J0
X-12.076 Y-0.772 I0.924 J2.228
X-13.924 Y-5.228 I-0.924 J-2.228
X-13.509 Y-5.057 I0.122 J0.293 F500
G1 X-13.449 Y-4.91
X-13.421 Y-4.845 Z0.008
X-13.396 Y-4.783 Z0.031
X-13.373 Y-4.727 Z0.069
X-13.353 Y-4.681 Z0.12
X-13.339 Y-4.646 Z0.18
X-13.33 Y-4.624 Z0.247
X-13.327 Y-4.617 Z0.317
G0 Z17
X11.83 Y-3.306
Z9.5
G1 Z5.818 F500
G18 G2 X12.148 Z5.5 I0.318 K0
G1 X12.306
G17 G3 X12.613 Y-3 I0 J0.306
X11.387 Y-3 Z5.423 I-0.613 J0 F1000
X12.613 Y-3 Z5.346 I0.613 J0
X11.387 Y-3 Z5.27 I-0.613 J0
X12.613 Y-3 Z5.193 I0.613 J0
X11.387 Y-3 Z5.116 I-0.613 J0
X12.613 Y-3 Z5.039 I0.613 J0
X11.387 Y-3 Z4.962 I-0.613 J0
X12.613 Y-3 Z4.885 I0.613 J0
X11.387 Y-3 Z4.809 I-0.613 J0
X12.613 Y-3 Z4.732 I0.613 J0
X11.387 Y-3 Z4.655 I-0.613 J0
X12.613 Y-3 Z4.578 I0.613 J0
X11.387 Y-3 Z4.501 I-0.613 J0
X12.613 Y-3 Z4.424 I0.613 J0
X11.387 Y-3 Z4.348 I-0.613 J0
X12.613 Y-3 Z4.271 I0.613 J0
X11.387 Y-3 Z4.194 I-0.613 J0
X12.613 Y-3 Z4.117 I0.613 J0
X11.387 Y-3 Z4.04 I-0.613 J0
X12.613 Y-3 Z3.963 I0.613 J0
X11.387 Y-3 Z3.887 I-0.613 J0
X12.613 Y-3 Z3.81 I0.613 J0
X11.387 Y-3 Z3.733 I-0.613 J0
X12.613 Y-3 Z3.656 I0.613 J0
X11.387 Y-3 Z3.579 I-0.613 J0
X12.613 Y-3 Z3.503 I0.613 J0
X11.387 Y-3 Z3.426 I-0.613 J0
X12.613 Y-3 Z3.349 I0.613 J0
X11.387 Y-3 Z3.272 I-0.613 J0
X12.613 Y-3 Z3.195 I0.613 J0
X11.387 Y-3 Z3.118 I-0.613 J0
X12.613 Y-3 Z3.042 I0.613 J0
X11.387 Y-3 Z2.965 I-0.613 J0
X12.613 Y-3 Z2.888 I0.613 J0
X11.387 Y-3 Z2.811 I-0.613 J0
X12.613 Y-3 Z2.734 I0.613 J0
X11.387 Y-3 Z2.657 I-0.613 J0
X12.613 Y-3 Z2.581 I0.613 J0
X11.387 Y-3 Z2.504 I-0.613 J0
X12.613 Y-3 Z2.427 I0.613 J0
X11.387 Y-3 Z2.35 I-0.613 J0
X12.613 Y-3 Z2.273 I0.613 J0
X11.387 Y-3 Z2.196 I-0.613 J0
X12.613 Y-3 Z2.12 I0.613 J0
X11.387 Y-3 Z2.043 I-0.613 J0
X12.613 Y-3 Z1.966 I0.613 J0
X11.387 Y-3 Z1.889 I-0.613 J0
X12.613 Y-3 Z1.812 I0.613 J0
X11.387 Y-3 Z1.736 I-0.613 J0
X12.613 Y-3 Z1.659 I0.613 J0
X11.387 Y-3 Z1.582 I-0.613 J0
X12.613 Y-3 Z1.505 I0.613 J0
X11.387 Y-3 Z1.428 I-0.613 J0
X12.613 Y-3 Z1.351 I0.613 J0
X11.387 Y-3 Z1.275 I-0.613 J0
X12.613 Y-3 Z1.198 I0.613 J0
X11.387 Y-3 Z1.121 I-0.613 J0
X12.613 Y-3 Z1.044 I0.613 J0
X11.387 Y-3 Z0.967 I-0.613 J0
X12.613 Y-3 Z0.89 I0.613 J0
X11.387 Y-3 Z0.814 I-0.613 J0
X12.613 Y-3 Z0.737 I0.613 J0
X11.387 Y-3 Z0.66 I-0.613 J0
X12.613 Y-3 Z0.583 I0.613 J0
X11.387 Y-3 Z0.506 I-0.613 J0
X12.613 Y-3 Z0.43 I0.613 J0
X11.387 Y-3 Z0.353 I-0.613 J0
X12.613 Y-3 Z0.276 I0.613 J0
X11.387 Y-3 Z0.199 I-0.613 J0
X12.613 Y-3 Z0.122 I0.613 J0
X11.387 Y-3 Z0.045 I-0.613 J0
X12.172 Y-3.588 Z0 I0.613 J0
X11.828 Y-2.412 I-0.172 J0.588
X12.172 Y-3.588 I0.172 J-0.588
X12.38 Y-3.208 I-0.086 J0.294 F500
G1 X12.335 Y-3.056
X12.316 Y-2.988 Z0.008
X12.297 Y-2.923 Z0.031
X12.28 Y-2.866 Z0.069
X12.266 Y-2.817 Z0.12
X12.255 Y-2.781 Z0.18
X12.248 Y-2.758 Z0.247
X12.246 Y-2.751 Z0.317
G0 Z17
X12.719 Y-3.318
Z9.5
G1 Z5.818 F500
G18 G2 X13.036 Z5.5 I0.318 K0
G1 X13.195
G17 G3 X13.512 Y-3 I0 J0.318
X10.488 Y-3 Z5.392 I-1.512 J0 F1000
X13.512 Y-3 Z5.283 I1.512 J0
X10.488 Y-3 Z5.175 I-1.512 J0
X13.512 Y-3 Z5.067 I1.512 J0
X10.488 Y-3 Z4.959 I-1.512 J0
X13.512 Y-3 Z4.85 I1.512 J0
X10.488 Y-3 Z4.742 I-1.512 J0
X13.512 Y-3 Z4.634 I1.512 J0
X10.488 Y-3 Z4.526 I-1.512 J0
X13.512 Y-3 Z4.417 I1.512 J0
X10.488 Y-3 Z4.309 I-1.512 J0
X13.512 Y-3 Z4.201 I1.512 J0
X10.488 Y-3 Z4.093 I-1.512 J0
X13.512 Y-3 Z3.984 I1.512 J0
X10.488 Y-3 Z3.876 I-1.512 J0
X13.512 Y-3 Z3.768 I1.512 J0
X10.488 Y-3 Z3.66 I-1.512 J0
X13.512 Y-3 Z3.551 I1.512 J0
X10.488 Y-3 Z3.443 I-1.512 J0
X13.513 Y-3 Z3.335 I1.512 J0
X10.487 Y-3 Z3.227 I-1.513 J0
X13.513 Y-3 Z3.118 I1.513 J0
X10.487 Y-3 Z3.01 I-1.513 J0
X13.513 Y-3 Z2.902 I1.513 J0
X10.487 Y-3 Z2.794 I-1.513 J0
X13.513 Y-3 Z2.685 I1.513 J0
X10.487 Y-3 Z2.577 I-1.513 J0
X13.513 Y-3 Z2.469 I1.513 J0
X10.487 Y-3 Z2.361 I-1.513 J0
X13.513 Y-3 Z2.252 I1.513 J0
X10.487 Y-3 Z2.144 I-1.513 J0
X13.513 Y-3 Z2.036 I1.513 J0
X10.487 Y-3 Z1.928 I-1.513 J0
X13.513 Y-3 Z1.819 I1.513 J0
X10.487 Y-3 Z1.711 I-1.513 J0
X13.513 Y-3 Z1.603 I1.513 J0
X10.487 Y-3 Z1.495 I-1.513 J0
X13.513 Y-3 Z1.386 I1.513 J0
X10.487 Y-3 Z1.278 I-1.513 J0
X13.513 Y-3 Z1.17 I1.513 J0
X10.487 Y-3 Z1.062 I-1.513 J0
X13.513 Y-3 Z0.953 I1.513 J0
X10.487 Y-3 Z0.845 I-1.513 J0
X13.513 Y-3 Z0.737 I1.513 J0
X10.487 Y-3 Z0.629 I-1.513 J0
X13.513 Y-3 Z0.52 I1.513 J0
X10.487 Y-3 Z0.412 I-1.513 J0
X13.513 Y-3 Z0.304 I1.513 J0
X10.487 Y-3 Z0.196 I-1.513 J0
X13.513 Y-3 Z0.087 I1.513 J0
X10.759 Y-2.135 Z0 I-1.513 J0
X13.241 Y-3.865 I1.241 J-0.865
X10.759 Y-2.135 I-1.241 J0.865
X10.838 Y-2.577 I0.26 J-0.182 F500
G1 X10.968 Y-2.668
X11.026 Y-2.708 Z0.008
X11.081 Y-2.747 Z0.031
X11.131 Y-2.781 Z0.069
X11.172 Y-2.81 Z0.12
X11.203 Y-2.832 Z0.18
X11.222 Y-2.845 Z0.247
X11.229 Y-2.85 Z0.317
G0 Z17
X13.619 Y-3.318
Z9.5
G1 Z5.818 F500
G18 G2 X13.936 Z5.5 I0.318 K0
G1 X14.095
G17 G3 X14.413 Y-3 I0 J0.318
X9.587 Y-3 Z5.36 I-2.413 J0 F1000
X14.413 Y-3 Z5.221 I2.413 J0
X9.587 Y-3 Z5.081 I-2.413 J0
X14.413 Y-3 Z4.941 I2.413 J0
X9.587 Y-3 Z4.802 I-2.413 J0
X14.413 Y-3 Z4.662 I2.413 J0
X9.587 Y-3 Z4.522 I-2.413 J0
X14.413 Y-3 Z4.383 I2.413 J0
X9.587 Y-3 Z4.243 I-2.413 J0
X14.413 Y-3 Z4.103 I2.413 J0
X9.587 Y-3 Z3.963 I-2.413 J0
X14.413 Y-3 Z3.824 I2.413 J0
X9.587 Y-3 Z3.684 I-2.413 J0
X14.413 Y-3 Z3.544 I2.413 J0
X9.587 Y-3 Z3.405 I-2.413 J0
X14.413 Y-3 Z3.265 I2.413 J0
X9.587 Y-3 Z3.125 I-2.413 J0
X14.413 Y-3 Z2.986 I2.413 J0
X9.587 Y-3 Z2.846 I-2.413 J0
X14.413 Y-3 Z2.706 I2.413 J0
X9.587 Y-3 Z2.567 I-2.413 J0
X14.413 Y-3 Z2.427 I2.413 J0
X9.588 Y-3 Z2.287 I-2.413 J0
X14.412 Y-3 Z2.148 I2.412 J0
X9.588 Y-3 Z2.008 I-2.412 J0
X14.412 Y-3 Z1.868 I2.412 J0
X9.588 Y-3 Z1.729 I-2.412 J0
X14.412 Y-3 Z1.589 I2.412 J0
X9.588 Y-3 Z1.449 I-2.412 J0
X14.412 Y-3 Z1.31 I2.412 J0
X9.588 Y-3 Z1.17 I-2.412 J0
X14.412 Y-3 Z1.03 I2.412 J0
X9.588 Y-3 Z0.89 I-2.412 J0
X14.412 Y-3 Z0.751 I2.412 J0
X9.588 Y-3 Z0.611 I-2.412 J0
X14.412 Y-3 Z0.471 I2.412 J0
X9.588 Y-3 Z0.332 I-2.412 J0
X14.412 Y-3 Z0.192 I2.412 J0
X9.588 Y-3 Z0.052 I-2.412 J0
X11.076 Y-5.228 Z0 I2.412 J0
X12.924 Y-0.772 I0.924 J2.228
X11.076 Y-5.228 I-0.924 J-2.228
X11.491 Y-5.057 I0.122 J0.293 F500
G1 X11.551 Y-4.91
X11.579 Y-4.845 Z0.008
X11.604 Y-4.783 Z0.031
X11.627 Y-4.727 Z0.069
X11.647 Y-4.681 Z0.12
X11.661 Y-4.646 Z0.18
X11.67 Y-4.624 Z0.247
X11.673 Y-4.617 Z0.317
G0 Z27
G28 G91 Z0
G90
G28 G91 X0 Y0
G90
M5
M30
