(bore3)
(T6  D=3.175 CR=0 - ZMIN=0 - flat end mill)
G90 G94
G17
G21
G28 G91 Z0
G90

(Bore12 2)
T6
(1/8" Flat-45 degree helix)
S18000 M3
G54
G0 X54.67 Y0.306
Z27
Z14.5
G1 Z10.818 F500
G18 G3 X54.353 Z10.5 I-0.317 K0
G1 X54.194
G17 G3 X53.888 Y0 I0 J-0.306
X55.112 Y0 Z10.423 I0.612 J0 F1000
X53.888 Y0 Z10.346 I-0.612 J0
X55.112 Y0 Z10.27 I0.612 J0
X53.888 Y0 Z10.193 I-0.612 J0
X55.112 Y0 Z10.116 I0.612 J0
X53.888 Y0 Z10.039 I-0.612 J0
X55.112 Y0 Z9.962 I0.612 J0
X53.888 Y0 Z9.885 I-0.612 J0
X55.112 Y0 Z9.809 I0.612 J0
X53.888 Y0 Z9.732 I-0.612 J0
X55.112 Y0 Z9.655 I0.612 J0
X53.888 Y0 Z9.578 I-0.612 J0
X55.112 Y0 Z9.501 I0.612 J0
X53.888 Y0 Z9.424 I-0.612 J0
X55.112 Y0 Z9.348 I0.612 J0
X53.888 Y0 Z9.271 I-0.612 J0
X55.112 Y0 Z9.194 I0.612 J0
X53.888 Y0 Z9.117 I-0.612 J0
X55.112 Y0 Z9.04 I0.612 J0
X53.888 Y0 Z8.963 I-0.612 J0
X55.112 Y0 Z8.887 I0.612 J0
X53.888 Y0 Z8.81 I-0.612 J0
X55.112 Y0 Z8.733 I0.612 J0
X53.888 Y0 Z8.656 I-0.612 J0
X55.112 Y0 Z8.579 I0.612 J0
X53.888 Y0 Z8.503 I-0.612 J0
X55.112 Y0 Z8.426 I0.612 J0
X53.888 Y0 Z8.349 I-0.612 J0
X55.112 Y0 Z8.272 I0.612 J0
X53.888 Y0 Z8.195 I-0.612 J0
X55.112 Y0 Z8.118 I0.612 J0
X53.888 Y0 Z8.042 I-0.612 J0
X55.112 Y0 Z7.965 I0.612 J0
X53.888 Y0 Z7.888 I-0.612 J0
X55.112 Y0 Z7.811 I0.612 J0
X53.888 Y0 Z7.734 I-0.612 J0
X55.112 Y0 Z7.657 I0.612 J0
X53.888 Y0 Z7.581 I-0.612 J0
X55.112 Y0 Z7.504 I0.612 J0
X53.888 Y0 Z7.427 I-0.612 J0
X55.112 Y0 Z7.35 I0.612 J0
X53.888 Y0 Z7.273 I-0.612 J0
X55.112 Y0 Z7.196 I0.612 J0
X53.888 Y0 Z7.12 I-0.612 J0
X55.112 Y0 Z7.043 I0.612 J0
X53.888 Y0 Z6.966 I-0.612 J0
X55.112 Y0 Z6.889 I0.612 J0
X53.888 Y0 Z6.812 I-0.612 J0
X55.112 Y0 Z6.736 I0.612 J0
X53.888 Y0 Z6.659 I-0.612 J0
X55.112 Y0 Z6.582 I0.612 J0
X53.888 Y0 Z6.505 I-0.612 J0
X55.112 Y0 Z6.428 I0.612 J0
X53.888 Y0 Z6.351 I-0.612 J0
X55.112 Y0 Z6.275 I0.612 J0
X53.888 Y0 Z6.198 I-0.612 J0
X55.112 Y0 Z6.121 I0.612 J0
X53.888 Y0 Z6.044 I-0.612 J0
X55.112 Y0 Z5.967 I0.612 J0
X53.888 Y0 Z5.89 I-0.612 J0
X55.112 Y0 Z5.814 I0.612 J0
X53.888 Y0 Z5.737 I-0.612 J0
X55.112 Y0 Z5.66 I0.612 J0
X53.888 Y0 Z5.583 I-0.612 J0
X55.112 Y0 Z5.506 I0.612 J0
X53.888 Y0 Z5.43 I-0.612 J0
X55.112 Y0 Z5.353 I0.612 J0
X53.888 Y0 Z5.276 I-0.612 J0
X55.112 Y0 Z5.199 I0.612 J0
X53.888 Y0 Z5.122 I-0.612 J0
X55.112 Y0 Z5.045 I0.612 J0
X53.888 Y0 Z4.969 I-0.612 J0
X55.112 Y0 Z4.892 I0.612 J0
X53.888 Y0 Z4.815 I-0.612 J0
X55.112 Y0 Z4.738 I0.612 J0
X53.888 Y0 Z4.661 I-0.612 J0
X55.112 Y0 Z4.584 I0.612 J0
X53.888 Y0 Z4.508 I-0.612 J0
X55.112 Y0 Z4.431 I0.612 J0
X53.888 Y0 Z4.354 I-0.612 J0
X55.112 Y0 Z4.277 I0.612 J0
X53.888 Y0 Z4.2 I-0.612 J0
X55.112 Y0 Z4.123 I0.612 J0
X53.888 Y0 Z4.047 I-0.612 J0
X55.112 Y0 Z3.97 I0.612 J0
X53.888 Y0 Z3.893 I-0.612 J0
X55.112 Y0 Z3.816 I0.612 J0
X53.888 Y0 Z3.739 I-0.612 J0
X55.112 Y0 Z3.663 I0.612 J0
X53.888 Y0 Z3.586 I-0.612 J0
X55.112 Y0 Z3.509 I0.612 J0
X53.888 Y0 Z3.432 I-0.612 J0
X55.112 Y0 Z3.355 I0.612 J0
X53.888 Y0 Z3.278 I-0.612 J0
X55.112 Y0 Z3.202 I0.612 J0
X53.888 Y0 Z3.125 I-0.612 J0
X55.112 Y0 Z3.048 I0.612 J0
X53.888 Y0 Z2.971 I-0.612 J0
X55.112 Y0 Z2.894 I0.612 J0
X53.888 Y0 Z2.817 I-0.612 J0
X55.112 Y0 Z2.741 I0.612 J0
X53.888 Y0 Z2.664 I-0.612 J0
X55.113 Y0 Z2.587 I0.612 J0
X53.887 Y0 Z2.51 I-0.613 J0
X55.113 Y0 Z2.433 I0.613 J0
X53.887 Y0 Z2.356 I-0.613 J0
X55.113 Y0 Z2.28 I0.613 J0
X53.887 Y0 Z2.203 I-0.613 J0
X55.113 Y0 Z2.126 I0.613 J0
X53.887 Y0 Z2.049 I-0.613 J0
X55.113 Y0 Z1.972 I0.613 J0
X53.887 Y0 Z1.896 I-0.613 J0
X55.113 Y0 Z1.819 I0.613 J0
X53.887 Y0 Z1.742 I-0.613 J0
X55.113 Y0 Z1.665 I0.613 J0
X53.887 Y0 Z1.588 I-0.613 J0
X55.113 Y0 Z1.511 I0.613 J0
X53.887 Y0 Z1.435 I-0.613 J0
X55.113 Y0 Z1.358 I0.613 J0
X53.887 Y0 Z1.281 I-0.613 J0
X55.113 Y0 Z1.204 I0.613 J0
X53.887 Y0 Z1.127 I-0.613 J0
X55.113 Y0 Z1.05 I0.613 J0
X53.887 Y0 Z0.974 I-0.613 J0
X55.113 Y0 Z0.897 I0.613 J0
X53.887 Y0 Z0.82 I-0.613 J0
X55.113 Y0 Z0.743 I0.613 J0
X53.887 Y0 Z0.666 I-0.613 J0
X55.113 Y0 Z0.589 I0.613 J0
X53.887 Y0 Z0.513 I-0.613 J0
X55.113 Y0 Z0.436 I0.613 J0
X53.887 Y0 Z0.359 I-0.613 J0
X55.113 Y0 Z0.282 I0.613 J0
X53.887 Y0 Z0.205 I-0.613 J0
X55.113 Y0 Z0.129 I0.613 J0
X53.887 Y0 Z0.052 I-0.613 J0
X54.817 Y-0.524 Z0 I0.613 J0
X54.183 Y0.524 I-0.317 J0.524
X54.817 Y-0.524 I0.317 J-0.524
X54.921 Y-0.104 I-0.158 J0.262 F500
G1 X54.838 Y0.032
X54.802 Y0.093 Z0.008
X54.767 Y0.15 Z0.031
X54.736 Y0.202 Z0.069
X54.71 Y0.245 Z0.12
X54.69 Y0.277 Z0.18
X54.678 Y0.297 Z0.247
X54.674 Y0.304 Z0.317
G0 Z17
Z27
X53.781 Y0.317
Z14.5
G1 Z10.818 F500
G18 G3 X53.464 Z10.5 I-0.318 K0
G1 X53.305
G17 G3 X52.987 Y0 I0 J-0.317
X56.013 Y0 Z10.392 I1.513 J0 F1000
X52.987 Y0 Z10.283 I-1.513 J0
X56.013 Y0 Z10.175 I1.513 J0
X52.987 Y0 Z10.067 I-1.513 J0
X56.013 Y0 Z9.959 I1.513 J0
X52.987 Y0 Z9.85 I-1.513 J0
X56.013 Y0 Z9.742 I1.513 J0
X52.987 Y0 Z9.634 I-1.513 J0
X56.013 Y0 Z9.526 I1.513 J0
X52.987 Y0 Z9.417 I-1.513 J0
X56.013 Y0 Z9.309 I1.513 J0
X52.987 Y0 Z9.201 I-1.513 J0
X56.013 Y0 Z9.093 I1.513 J0
X52.987 Y0 Z8.984 I-1.513 J0
X56.013 Y0 Z8.876 I1.513 J0
X52.987 Y0 Z8.768 I-1.513 J0
X56.013 Y0 Z8.66 I1.513 J0
X52.987 Y0 Z8.551 I-1.513 J0
X56.013 Y0 Z8.443 I1.513 J0
X52.987 Y0 Z8.335 I-1.513 J0
X56.013 Y0 Z8.227 I1.513 J0
X52.987 Y0 Z8.118 I-1.513 J0
X56.013 Y0 Z8.01 I1.513 J0
X52.987 Y0 Z7.902 I-1.513 J0
X56.013 Y0 Z7.794 I1.513 J0
X52.987 Y0 Z7.685 I-1.513 J0
X56.013 Y0 Z7.577 I1.513 J0
X52.987 Y0 Z7.469 I-1.513 J0
X56.013 Y0 Z7.361 I1.513 J0
X52.987 Y0 Z7.252 I-1.513 J0
X56.013 Y0 Z7.144 I1.513 J0
X52.987 Y0 Z7.036 I-1.513 J0
X56.013 Y0 Z6.928 I1.513 J0
X52.987 Y0 Z6.819 I-1.513 J0
X56.013 Y0 Z6.711 I1.513 J0
X52.987 Y0 Z6.603 I-1.513 J0
X56.013 Y0 Z6.495 I1.513 J0
X52.987 Y0 Z6.386 I-1.513 J0
X56.013 Y0 Z6.278 I1.513 J0
X52.987 Y0 Z6.17 I-1.513 J0
X56.013 Y0 Z6.062 I1.513 J0
X52.987 Y0 Z5.953 I-1.513 J0
X56.013 Y0 Z5.845 I1.513 J0
X52.987 Y0 Z5.737 I-1.513 J0
X56.013 Y0 Z5.629 I1.513 J0
X52.987 Y0 Z5.52 I-1.513 J0
X56.013 Y0 Z5.412 I1.513 J0
X52.987 Y0 Z5.304 I-1.513 J0
X56.013 Y0 Z5.196 I1.513 J0
X52.987 Y0 Z5.087 I-1.513 J0
X56.013 Y0 Z4.979 I1.513 J0
X52.987 Y0 Z4.871 I-1.513 J0
X56.013 Y0 Z4.763 I1.513 J0
X52.987 Y0 Z4.654 I-1.513 J0
X56.013 Y0 Z4.546 I1.513 J0
X52.987 Y0 Z4.438 I-1.513 J0
X56.013 Y0 Z4.33 I1.513 J0
X52.987 Y0 Z4.221 I-1.513 J0
X56.013 Y0 Z4.113 I1.513 J0
X52.987 Y0 Z4.005 I-1.513 J0
X56.013 Y0 Z3.896 I1.513 J0
X52.987 Y0 Z3.788 I-1.513 J0
X56.013 Y0 Z3.68 I1.513 J0
X52.987 Y0 Z3.572 I-1.513 J0
X56.013 Y0 Z3.463 I1.513 J0
X52.987 Y0 Z3.355 I-1.513 J0
X56.013 Y0 Z3.247 I1.513 J0
X52.987 Y0 Z3.139 I-1.513 J0
X56.013 Y0 Z3.03 I1.513 J0
X52.987 Y0 Z2.922 I-1.513 J0
X56.013 Y0 Z2.814 I1.513 J0
X52.987 Y0 Z2.706 I-1.513 J0
X56.013 Y0 Z2.597 I1.513 J0
X52.987 Y0 Z2.489 I-1.513 J0
X56.013 Y0 Z2.381 I1.513 J0
X52.987 Y0 Z2.273 I-1.513 J0
X56.013 Y0 Z2.164 I1.513 J0
X52.987 Y0 Z2.056 I-1.513 J0
X56.013 Y0 Z1.948 I1.513 J0
X52.987 Y0 Z1.84 I-1.513 J0
X56.013 Y0 Z1.731 I1.513 J0
X52.987 Y0 Z1.623 I-1.513 J0
X56.013 Y0 Z1.515 I1.513 J0
X52.987 Y0 Z1.407 I-1.513 J0
X56.013 Y0 Z1.298 I1.513 J0
X52.987 Y0 Z1.19 I-1.513 J0
X56.013 Y0 Z1.082 I1.513 J0
X52.987 Y0 Z0.974 I-1.513 J0
X56.013 Y0 Z0.865 I1.513 J0
X52.987 Y0 Z0.757 I-1.513 J0
X56.013 Y0 Z0.649 I1.513 J0
X52.987 Y0 Z0.541 I-1.513 J0
X56.013 Y0 Z0.432 I1.513 J0
X52.987 Y0 Z0.324 I-1.513 J0
X56.013 Y0 Z0.216 I1.513 J0
X52.987 Y0 Z0.108 I-1.513 J0
X56.012 Y-0.03 Z0 I1.513 J0
X52.988 Y0.03 I-1.512 J0.03
X56.012 Y-0.03 I1.512 J-0.03
X55.701 Y0.294 I-0.317 J0.006 F500
G1 X55.542 Y0.297
X55.472 Y0.299 Z0.008
X55.405 Y0.3 Z0.031
X55.344 Y0.301 Z0.069
X55.294 Y0.302 Z0.12
X55.256 Y0.303 Z0.18
X55.233 Z0.247
X55.225 Z0.317
G0 Z17
Z27
X52.881 Y0.317
Z14.5
G1 Z10.818 F500
G18 G3 X52.564 Z10.5 I-0.317 K0
G1 X52.405
G17 G3 X52.088 Y0 I0 J-0.317
X56.912 Y0 Z10.36 I2.412 J0 F1000
X52.088 Y0 Z10.221 I-2.412 J0
X56.912 Y0 Z10.081 I2.412 J0
X52.088 Y0 Z9.941 I-2.412 J0
X56.912 Y0 Z9.802 I2.412 J0
X52.088 Y0 Z9.662 I-2.412 J0
X56.912 Y0 Z9.522 I2.412 J0
X52.088 Y0 Z9.383 I-2.412 J0
X56.912 Y0 Z9.243 I2.412 J0
X52.088 Y0 Z9.103 I-2.412 J0
X56.912 Y0 Z8.963 I2.412 J0
X52.088 Y0 Z8.824 I-2.412 J0
X56.912 Y0 Z8.684 I2.412 J0
X52.088 Y0 Z8.544 I-2.412 J0
X56.912 Y0 Z8.405 I2.412 J0
X52.088 Y0 Z8.265 I-2.412 J0
X56.912 Y0 Z8.125 I2.412 J0
X52.088 Y0 Z7.986 I-2.412 J0
X56.912 Y0 Z7.846 I2.412 J0
X52.088 Y0 Z7.706 I-2.412 J0
X56.912 Y0 Z7.567 I2.412 J0
X52.088 Y0 Z7.427 I-2.412 J0
X56.912 Y0 Z7.287 I2.412 J0
X52.088 Y0 Z7.148 I-2.412 J0
X56.912 Y0 Z7.008 I2.412 J0
X52.088 Y0 Z6.868 I-2.412 J0
X56.912 Y0 Z6.729 I2.412 J0
X52.088 Y0 Z6.589 I-2.412 J0
X56.912 Y0 Z6.449 I2.412 J0
X52.088 Y0 Z6.31 I-2.412 J0
X56.912 Y0 Z6.17 I2.412 J0
X52.088 Y0 Z6.03 I-2.412 J0
X56.912 Y0 Z5.89 I2.412 J0
X52.088 Y0 Z5.751 I-2.412 J0
X56.912 Y0 Z5.611 I2.412 J0
X52.088 Y0 Z5.471 I-2.412 J0
X56.912 Y0 Z5.332 I2.412 J0
X52.088 Y0 Z5.192 I-2.412 J0
X56.912 Y0 Z5.052 I2.412 J0
X52.088 Y0 Z4.913 I-2.412 J0
X56.912 Y0 Z4.773 I2.412 J0
X52.088 Y0 Z4.633 I-2.412 J0
X56.912 Y0 Z4.494 I2.412 J0
X52.088 Y0 Z4.354 I-2.412 J0
X56.912 Y0 Z4.214 I2.412 J0
X52.088 Y0 Z4.075 I-2.412 J0
X56.912 Y0 Z3.935 I2.412 J0
X52.087 Y0 Z3.795 I-2.412 J0
X56.913 Y0 Z3.656 I2.413 J0
X52.087 Y0 Z3.516 I-2.413 J0
X56.913 Y0 Z3.376 I2.413 J0
X52.087 Y0 Z3.236 I-2.413 J0
X56.913 Y0 Z3.097 I2.413 J0
X52.087 Y0 Z2.957 I-2.413 J0
X56.913 Y0 Z2.817 I2.413 J0
X52.087 Y0 Z2.678 I-2.413 J0
X56.913 Y0 Z2.538 I2.413 J0
X52.087 Y0 Z2.398 I-2.413 J0
X56.913 Y0 Z2.259 I2.413 J0
X52.087 Y0 Z2.119 I-2.413 J0
X56.913 Y0 Z1.979 I2.413 J0
X52.087 Y0 Z1.84 I-2.413 J0
X56.913 Y0 Z1.7 I2.413 J0
X52.087 Y0 Z1.56 I-2.413 J0
X56.913 Y0 Z1.421 I2.413 J0
X52.087 Y0 Z1.281 I-2.413 J0
X56.913 Y0 Z1.141 I2.413 J0
X52.087 Y0 Z1.002 I-2.413 J0
X56.913 Y0 Z0.862 I2.413 J0
X52.087 Y0 Z0.722 I-2.413 J0
X56.913 Y0 Z0.583 I2.413 J0
X52.087 Y0 Z0.443 I-2.413 J0
X56.913 Y0 Z0.303 I2.413 J0
X52.087 Y0 Z0.163 I-2.413 J0
X56.913 Y0 Z0.024 I2.413 J0
X56.576 Y1.229 Z0 I-2.413 J0
X52.424 Y-1.229 I-2.076 J-1.229
X56.576 Y1.229 I2.076 J1.229
X56.141 Y1.341 I-0.273 J-0.162 F500
G1 X56.004 Y1.26
X55.944 Y1.224 Z0.008
X55.886 Y1.19 Z0.031
X55.834 Y1.159 Z0.069
X55.791 Y1.133 Z0.12
X55.758 Y1.114 Z0.18
X55.738 Y1.102 Z0.247
X55.731 Y1.098 Z0.317
G0 Z17
X-54.33 Y0.306
Z14.5
G1 Z10.818 F500
G18 G3 X-54.647 Z10.5 I-0.317 K0
G1 X-54.806
G17 G3 X-55.112 Y0 I0 J-0.306
X-53.888 Y0 Z10.423 I0.612 J0 F1000
X-55.112 Y0 Z10.346 I-0.612 J0
X-53.888 Y0 Z10.27 I0.612 J0
X-55.112 Y0 Z10.193 I-0.612 J0
X-53.888 Y0 Z10.116 I0.612 J0
X-55.112 Y0 Z10.039 I-0.612 J0
X-53.888 Y0 Z9.962 I0.612 J0
X-55.112 Y0 Z9.885 I-0.612 J0
X-53.888 Y0 Z9.809 I0.612 J0
X-55.112 Y0 Z9.732 I-0.612 J0
X-53.888 Y0 Z9.655 I0.612 J0
X-55.112 Y0 Z9.578 I-0.612 J0
X-53.888 Y0 Z9.501 I0.612 J0
X-55.112 Y0 Z9.424 I-0.612 J0
X-53.888 Y0 Z9.348 I0.612 J0
X-55.112 Y0 Z9.271 I-0.612 J0
X-53.888 Y0 Z9.194 I0.612 J0
X-55.112 Y0 Z9.117 I-0.612 J0
X-53.888 Y0 Z9.04 I0.612 J0
X-55.112 Y0 Z8.963 I-0.612 J0
X-53.888 Y0 Z8.887 I0.612 J0
X-55.112 Y0 Z8.81 I-0.612 J0
X-53.888 Y0 Z8.733 I0.612 J0
X-55.112 Y0 Z8.656 I-0.612 J0
X-53.888 Y0 Z8.579 I0.612 J0
X-55.112 Y0 Z8.503 I-0.612 J0
X-53.888 Y0 Z8.426 I0.612 J0
X-55.112 Y0 Z8.349 I-0.612 J0
X-53.888 Y0 Z8.272 I0.612 J0
X-55.112 Y0 Z8.195 I-0.612 J0
X-53.888 Y0 Z8.118 I0.612 J0
X-55.112 Y0 Z8.042 I-0.612 J0
X-53.888 Y0 Z7.965 I0.612 J0
X-55.112 Y0 Z7.888 I-0.612 J0
X-53.888 Y0 Z7.811 I0.612 J0
X-55.112 Y0 Z7.734 I-0.612 J0
X-53.888 Y0 Z7.657 I0.612 J0
X-55.112 Y0 Z7.581 I-0.612 J0
X-53.888 Y0 Z7.504 I0.612 J0
X-55.112 Y0 Z7.427 I-0.612 J0
X-53.888 Y0 Z7.35 I0.612 J0
X-55.112 Y0 Z7.273 I-0.612 J0
X-53.888 Y0 Z7.196 I0.612 J0
X-55.112 Y0 Z7.12 I-0.612 J0
X-53.888 Y0 Z7.043 I0.612 J0
X-55.112 Y0 Z6.966 I-0.612 J0
X-53.888 Y0 Z6.889 I0.612 J0
X-55.112 Y0 Z6.812 I-0.612 J0
X-53.888 Y0 Z6.736 I0.612 J0
X-55.112 Y0 Z6.659 I-0.612 J0
X-53.888 Y0 Z6.582 I0.612 J0
X-55.112 Y0 Z6.505 I-0.612 J0
X-53.888 Y0 Z6.428 I0.612 J0
X-55.112 Y0 Z6.351 I-0.612 J0
X-53.888 Y0 Z6.275 I0.612 J0
X-55.112 Y0 Z6.198 I-0.612 J0
X-53.888 Y0 Z6.121 I0.612 J0
X-55.112 Y0 Z6.044 I-0.612 J0
X-53.888 Y0 Z5.967 I0.612 J0
X-55.112 Y0 Z5.89 I-0.612 J0
X-53.888 Y0 Z5.814 I0.612 J0
X-55.112 Y0 Z5.737 I-0.612 J0
X-53.888 Y0 Z5.66 I0.612 J0
X-55.112 Y0 Z5.583 I-0.612 J0
X-53.888 Y0 Z5.506 I0.612 J0
X-55.112 Y0 Z5.43 I-0.612 J0
X-53.888 Y0 Z5.353 I0.612 J0
X-55.112 Y0 Z5.276 I-0.612 J0
X-53.888 Y0 Z5.199 I0.612 J0
X-55.112 Y0 Z5.122 I-0.612 J0
X-53.888 Y0 Z5.045 I0.612 J0
X-55.112 Y0 Z4.969 I-0.612 J0
X-53.888 Y0 Z4.892 I0.612 J0
X-55.112 Y0 Z4.815 I-0.612 J0
X-53.888 Y0 Z4.738 I0.612 J0
X-55.112 Y0 Z4.661 I-0.612 J0
X-53.888 Y0 Z4.584 I0.612 J0
X-55.112 Y0 Z4.508 I-0.612 J0
X-53.888 Y0 Z4.431 I0.612 J0
X-55.112 Y0 Z4.354 I-0.612 J0
X-53.888 Y0 Z4.277 I0.612 J0
X-55.112 Y0 Z4.2 I-0.612 J0
X-53.888 Y0 Z4.123 I0.612 J0
X-55.112 Y0 Z4.047 I-0.612 J0
X-53.888 Y0 Z3.97 I0.612 J0
X-55.112 Y0 Z3.893 I-0.612 J0
X-53.888 Y0 Z3.816 I0.612 J0
X-55.112 Y0 Z3.739 I-0.612 J0
X-53.888 Y0 Z3.663 I0.612 J0
X-55.112 Y0 Z3.586 I-0.612 J0
X-53.888 Y0 Z3.509 I0.612 J0
X-55.112 Y0 Z3.432 I-0.612 J0
X-53.888 Y0 Z3.355 I0.612 J0
X-55.112 Y0 Z3.278 I-0.612 J0
X-53.888 Y0 Z3.202 I0.612 J0
X-55.112 Y0 Z3.125 I-0.612 J0
X-53.888 Y0 Z3.048 I0.612 J0
X-55.112 Y0 Z2.971 I-0.612 J0
X-53.888 Y0 Z2.894 I0.612 J0
X-55.112 Y0 Z2.817 I-0.612 J0
X-53.888 Y0 Z2.741 I0.612 J0
X-55.112 Y0 Z2.664 I-0.612 J0
X-53.887 Y0 Z2.587 I0.612 J0
X-55.113 Y0 Z2.51 I-0.613 J0
X-53.887 Y0 Z2.433 I0.613 J0
X-55.113 Y0 Z2.356 I-0.613 J0
X-53.887 Y0 Z2.28 I0.613 J0
X-55.113 Y0 Z2.203 I-0.613 J0
X-53.887 Y0 Z2.126 I0.613 J0
X-55.113 Y0 Z2.049 I-0.613 J0
X-53.887 Y0 Z1.972 I0.613 J0
X-55.113 Y0 Z1.896 I-0.613 J0
X-53.887 Y0 Z1.819 I0.613 J0
X-55.113 Y0 Z1.742 I-0.613 J0
X-53.887 Y0 Z1.665 I0.613 J0
X-55.113 Y0 Z1.588 I-0.613 J0
X-53.887 Y0 Z1.511 I0.613 J0
X-55.113 Y0 Z1.435 I-0.613 J0
X-53.887 Y0 Z1.358 I0.613 J0
X-55.113 Y0 Z1.281 I-0.613 J0
X-53.887 Y0 Z1.204 I0.613 J0
X-55.113 Y0 Z1.127 I-0.613 J0
X-53.887 Y0 Z1.05 I0.613 J0
X-55.113 Y0 Z0.974 I-0.613 J0
X-53.887 Y0 Z0.897 I0.613 J0
X-55.113 Y0 Z0.82 I-0.613 J0
X-53.887 Y0 Z0.743 I0.613 J0
X-55.113 Y0 Z0.666 I-0.613 J0
X-53.887 Y0 Z0.589 I0.613 J0
X-55.113 Y0 Z0.513 I-0.613 J0
X-53.887 Y0 Z0.436 I0.613 J0
X-55.113 Y0 Z0.359 I-0.613 J0
X-53.887 Y0 Z0.282 I0.613 J0
X-55.113 Y0 Z0.205 I-0.613 J0
X-53.887 Y0 Z0.129 I0.613 J0
X-55.113 Y0 Z0.052 I-0.613 J0
X-54.183 Y-0.524 Z0 I0.613 J0
X-54.817 Y0.524 I-0.317 J0.524
X-54.183 Y-0.524 I0.317 J-0.524
X-54.079 Y-0.104 I-0.158 J0.262 F500
G1 X-54.162 Y0.032
X-54.198 Y0.093 Z0.008
X-54.233 Y0.15 Z0.031
X-54.264 Y0.202 Z0.069
X-54.29 Y0.245 Z0.12
X-54.31 Y0.277 Z0.18
X-54.322 Y0.297 Z0.247
X-54.326 Y0.304 Z0.317
G0 Z17
X-55.219 Y0.317
Z14.5
G1 Z10.818 F500
G18 G3 X-55.536 Z10.5 I-0.318 K0
G1 X-55.695
G17 G3 X-56.013 Y0 I0 J-0.317
X-52.987 Y0 Z10.392 I1.513 J0 F1000
X-56.013 Y0 Z10.283 I-1.513 J0
X-52.987 Y0 Z10.175 I1.513 J0
X-56.013 Y0 Z10.067 I-1.513 J0
X-52.987 Y0 Z9.959 I1.513 J0
X-56.013 Y0 Z9.85 I-1.513 J0
X-52.987 Y0 Z9.742 I1.513 J0
X-56.013 Y0 Z9.634 I-1.513 J0
X-52.987 Y0 Z9.526 I1.513 J0
X-56.013 Y0 Z9.417 I-1.513 J0
X-52.987 Y0 Z9.309 I1.513 J0
X-56.013 Y0 Z9.201 I-1.513 J0
X-52.987 Y0 Z9.093 I1.513 J0
X-56.013 Y0 Z8.984 I-1.513 J0
X-52.987 Y0 Z8.876 I1.513 J0
X-56.013 Y0 Z8.768 I-1.513 J0
X-52.987 Y0 Z8.66 I1.513 J0
X-56.013 Y0 Z8.551 I-1.513 J0
X-52.987 Y0 Z8.443 I1.513 J0
X-56.013 Y0 Z8.335 I-1.513 J0
X-52.987 Y0 Z8.227 I1.513 J0
X-56.013 Y0 Z8.118 I-1.513 J0
X-52.987 Y0 Z8.01 I1.513 J0
X-56.013 Y0 Z7.902 I-1.513 J0
X-52.987 Y0 Z7.794 I1.513 J0
X-56.013 Y0 Z7.685 I-1.513 J0
X-52.987 Y0 Z7.577 I1.513 J0
X-56.013 Y0 Z7.469 I-1.513 J0
X-52.987 Y0 Z7.361 I1.513 J0
X-56.013 Y0 Z7.252 I-1.513 J0
X-52.987 Y0 Z7.144 I1.513 J0
X-56.013 Y0 Z7.036 I-1.513 J0
X-52.987 Y0 Z6.928 I1.513 J0
X-56.013 Y0 Z6.819 I-1.513 J0
X-52.987 Y0 Z6.711 I1.513 J0
X-56.013 Y0 Z6.603 I-1.513 J0
X-52.987 Y0 Z6.495 I1.513 J0
X-56.013 Y0 Z6.386 I-1.513 J0
X-52.987 Y0 Z6.278 I1.513 J0
X-56.013 Y0 Z6.17 I-1.513 J0
X-52.987 Y0 Z6.062 I1.513 J0
X-56.013 Y0 Z5.953 I-1.513 J0
X-52.987 Y0 Z5.845 I1.513 J0
X-56.013 Y0 Z5.737 I-1.513 J0
X-52.987 Y0 Z5.629 I1.513 J0
X-56.013 Y0 Z5.52 I-1.513 J0
X-52.987 Y0 Z5.412 I1.513 J0
X-56.013 Y0 Z5.304 I-1.513 J0
X-52.987 Y0 Z5.196 I1.513 J0
X-56.013 Y0 Z5.087 I-1.513 J0
X-52.987 Y0 Z4.979 I1.513 J0
X-56.013 Y0 Z4.871 I-1.513 J0
X-52.987 Y0 Z4.763 I1.513 J0
X-56.013 Y0 Z4.654 I-1.513 J0
X-52.987 Y0 Z4.546 I1.513 J0
X-56.013 Y0 Z4.438 I-1.513 J0
X-52.987 Y0 Z4.33 I1.513 J0
X-56.013 Y0 Z4.221 I-1.513 J0
X-52.987 Y0 Z4.113 I1.513 J0
X-56.013 Y0 Z4.005 I-1.513 J0
X-52.987 Y0 Z3.896 I1.513 J0
X-56.013 Y0 Z3.788 I-1.513 J0
X-52.987 Y0 Z3.68 I1.513 J0
X-56.013 Y0 Z3.572 I-1.513 J0
X-52.987 Y0 Z3.463 I1.513 J0
X-56.013 Y0 Z3.355 I-1.513 J0
X-52.987 Y0 Z3.247 I1.513 J0
X-56.013 Y0 Z3.139 I-1.513 J0
X-52.987 Y0 Z3.03 I1.513 J0
X-56.013 Y0 Z2.922 I-1.513 J0
X-52.987 Y0 Z2.814 I1.513 J0
X-56.013 Y0 Z2.706 I-1.513 J0
X-52.987 Y0 Z2.597 I1.513 J0
X-56.013 Y0 Z2.489 I-1.513 J0
X-52.987 Y0 Z2.381 I1.513 J0
X-56.013 Y0 Z2.273 I-1.513 J0
X-52.987 Y0 Z2.164 I1.513 J0
X-56.013 Y0 Z2.056 I-1.513 J0
X-52.987 Y0 Z1.948 I1.513 J0
X-56.013 Y0 Z1.84 I-1.513 J0
X-52.987 Y0 Z1.731 I1.513 J0
X-56.013 Y0 Z1.623 I-1.513 J0
X-52.987 Y0 Z1.515 I1.513 J0
X-56.013 Y0 Z1.407 I-1.513 J0
X-52.987 Y0 Z1.298 I1.513 J0
X-56.013 Y0 Z1.19 I-1.513 J0
X-52.987 Y0 Z1.082 I1.513 J0
X-56.013 Y0 Z0.974 I-1.513 J0
X-52.987 Y0 Z0.865 I1.513 J0
X-56.013 Y0 Z0.757 I-1.513 J0
X-52.987 Y0 Z0.649 I1.513 J0
X-56.013 Y0 Z0.541 I-1.513 J0
X-52.987 Y0 Z0.432 I1.513 J0
X-56.013 Y0 Z0.324 I-1.513 J0
X-52.987 Y0 Z0.216 I1.513 J0
X-56.013 Y0 Z0.108 I-1.513 J0
X-52.988 Y-0.03 Z0 I1.513 J0
X-56.012 Y0.03 I-1.512 J0.03
X-52.988 Y-0.03 I1.512 J-0.03
X-53.299 Y0.294 I-0.317 J0.006 F500
G1 X-53.458 Y0.297
X-53.528 Y0.299 Z0.008
X-53.595 Y0.3 Z0.031
X-53.656 Y0.301 Z0.069
X-53.706 Y0.302 Z0.12
X-53.744 Y0.303 Z0.18
X-53.767 Z0.247
X-53.775 Z0.317
G0 Z17
X-56.119 Y0.317
Z14.5
G1 Z10.818 F500
G18 G3 X-56.436 Z10.5 I-0.317 K0
G1 X-56.595
G17 G3 X-56.912 Y0 I0 J-0.317
X-52.088 Y0 Z10.36 I2.412 J0 F1000
X-56.912 Y0 Z10.221 I-2.412 J0
X-52.088 Y0 Z10.081 I2.412 J0
X-56.912 Y0 Z9.941 I-2.412 J0
X-52.088 Y0 Z9.802 I2.412 J0
X-56.912 Y0 Z9.662 I-2.412 J0
X-52.088 Y0 Z9.522 I2.412 J0
X-56.912 Y0 Z9.383 I-2.412 J0
X-52.088 Y0 Z9.243 I2.412 J0
X-56.912 Y0 Z9.103 I-2.412 J0
X-52.088 Y0 Z8.963 I2.412 J0
X-56.912 Y0 Z8.824 I-2.412 J0
X-52.088 Y0 Z8.684 I2.412 J0
X-56.912 Y0 Z8.544 I-2.412 J0
X-52.088 Y0 Z8.405 I2.412 J0
X-56.912 Y0 Z8.265 I-2.412 J0
X-52.088 Y0 Z8.125 I2.412 J0
X-56.912 Y0 Z7.986 I-2.412 J0
X-52.088 Y0 Z7.846 I2.412 J0
X-56.912 Y0 Z7.706 I-2.412 J0
X-52.088 Y0 Z7.567 I2.412 J0
X-56.912 Y0 Z7.427 I-2.412 J0
X-52.088 Y0 Z7.287 I2.412 J0
X-56.912 Y0 Z7.148 I-2.412 J0
X-52.088 Y0 Z7.008 I2.412 J0
X-56.912 Y0 Z6.868 I-2.412 J0
X-52.088 Y0 Z6.729 I2.412 J0
X-56.912 Y0 Z6.589 I-2.412 J0
X-52.088 Y0 Z6.449 I2.412 J0
X-56.912 Y0 Z6.31 I-2.412 J0
X-52.088 Y0 Z6.17 I2.412 J0
X-56.912 Y0 Z6.03 I-2.412 J0
X-52.088 Y0 Z5.89 I2.412 J0
X-56.912 Y0 Z5.751 I-2.412 J0
X-52.088 Y0 Z5.611 I2.412 J0
X-56.912 Y0 Z5.471 I-2.412 J0
X-52.088 Y0 Z5.332 I2.412 J0
X-56.912 Y0 Z5.192 I-2.412 J0
X-52.088 Y0 Z5.052 I2.412 J0
X-56.912 Y0 Z4.913 I-2.412 J0
X-52.088 Y0 Z4.773 I2.412 J0
X-56.912 Y0 Z4.633 I-2.412 J0
X-52.088 Y0 Z4.494 I2.412 J0
X-56.912 Y0 Z4.354 I-2.412 J0
X-52.088 Y0 Z4.214 I2.412 J0
X-56.912 Y0 Z4.075 I-2.412 J0
X-52.088 Y0 Z3.935 I2.412 J0
X-56.913 Y0 Z3.795 I-2.412 J0
X-52.087 Y0 Z3.656 I2.413 J0
X-56.913 Y0 Z3.516 I-2.413 J0
X-52.087 Y0 Z3.376 I2.413 J0
X-56.913 Y0 Z3.236 I-2.413 J0
X-52.087 Y0 Z3.097 I2.413 J0
X-56.913 Y0 Z2.957 I-2.413 J0
X-52.087 Y0 Z2.817 I2.413 J0
X-56.913 Y0 Z2.678 I-2.413 J0
X-52.087 Y0 Z2.538 I2.413 J0
X-56.913 Y0 Z2.398 I-2.413 J0
X-52.087 Y0 Z2.259 I2.413 J0
X-56.913 Y0 Z2.119 I-2.413 J0
X-52.087 Y0 Z1.979 I2.413 J0
X-56.913 Y0 Z1.84 I-2.413 J0
X-52.087 Y0 Z1.7 I2.413 J0
X-56.913 Y0 Z1.56 I-2.413 J0
X-52.087 Y0 Z1.421 I2.413 J0
X-56.913 Y0 Z1.281 I-2.413 J0
X-52.087 Y0 Z1.141 I2.413 J0
X-56.913 Y0 Z1.002 I-2.413 J0
X-52.087 Y0 Z0.862 I2.413 J0
X-56.913 Y0 Z0.722 I-2.413 J0
X-52.087 Y0 Z0.583 I2.413 J0
X-56.913 Y0 Z0.443 I-2.413 J0
X-52.087 Y0 Z0.303 I2.413 J0
X-56.913 Y0 Z0.163 I-2.413 J0
X-52.087 Y0 Z0.024 I2.413 J0
X-52.424 Y1.229 Z0 I-2.413 J0
X-56.576 Y-1.229 I-2.076 J-1.229
X-52.424 Y1.229 I2.076 J1.229
X-52.859 Y1.341 I-0.273 J-0.162 F500
G1 X-52.996 Y1.26
X-53.056 Y1.224 Z0.008
X-53.114 Y1.19 Z0.031
X-53.166 Y1.159 Z0.069
X-53.209 Y1.133 Z0.12
X-53.242 Y1.114 Z0.18
X-53.262 Y1.102 Z0.247
X-53.269 Y1.098 Z0.317
G0 Z27
G28 G91 Z0
G90
G28 G91 X0 Y0
G90
M5
M30
