(bore1_400)
(T6  D=3.175 CR=0 - ZMIN=5 - flat end mill)
G90 G94
G17
G21
G28 G91 Z0
G90

(Bore11 2)
T6
(1/8" Flat-45 degree helix)
S18000 M3
G54
G0 X-10.281 Y-3.318
Z27
Z14.5
G1 Z10.818 F500
G18 G2 X-9.964 Z10.5 I0.318 K0
G1 X-9.805
G17 G3 X-9.488 Y-3 I0 J0.318
X-16.512 Y-3 Z10.322 I-3.512 J0 F1000
X-9.488 Y-3 Z10.144 I3.512 J0
X-16.512 Y-3 Z9.966 I-3.512 J0
X-9.488 Y-3 Z9.788 I3.512 J0
X-16.512 Y-3 Z9.61 I-3.512 J0
X-9.488 Y-3 Z9.431 I3.512 J0
X-16.512 Y-3 Z9.253 I-3.512 J0
X-9.488 Y-3 Z9.075 I3.512 J0
X-16.512 Y-3 Z8.897 I-3.512 J0
X-9.488 Y-3 Z8.719 I3.512 J0
X-16.512 Y-3 Z8.541 I-3.512 J0
X-9.488 Y-3 Z8.363 I3.512 J0
X-16.512 Y-3 Z8.185 I-3.512 J0
X-9.488 Y-3 Z8.007 I3.512 J0
X-16.512 Y-3 Z7.829 I-3.512 J0
X-9.488 Y-3 Z7.65 I3.512 J0
X-16.512 Y-3 Z7.472 I-3.512 J0
X-9.488 Y-3 Z7.294 I3.512 J0
X-16.512 Y-3 Z7.116 I-3.512 J0
X-9.488 Y-3 Z6.938 I3.512 J0
X-16.512 Y-3 Z6.76 I-3.512 J0
X-9.488 Y-3 Z6.582 I3.512 J0
X-16.512 Y-3 Z6.404 I-3.512 J0
X-9.488 Y-3 Z6.226 I3.512 J0
X-16.512 Y-3 Z6.048 I-3.512 J0
X-9.488 Y-3 Z5.87 I3.512 J0
X-16.512 Y-3 Z5.691 I-3.512 J0
X-9.488 Y-3 Z5.513 I3.512 J0
X-16.512 Y-3 Z5.335 I-3.512 J0
X-9.488 Y-3 Z5.157 I3.512 J0
X-16.275 Y-1.73 Z5 I-3.512 J0
X-9.725 Y-4.27 I3.275 J-1.27
X-16.275 Y-1.73 I-3.275 J1.27
X-16.094 Y-2.141 I0.296 J-0.115 F500
G1 X-15.946 Y-2.198
X-15.88 Y-2.224 Z5.008
X-15.817 Y-2.248 Z5.031
X-15.761 Y-2.27 Z5.069
X-15.714 Y-2.288 Z5.12
X-15.679 Y-2.302 Z5.18
X-15.657 Y-2.31 Z5.247
X-15.65 Y-2.313 Z5.318
G0 Z17
X14.719 Y-3.318
Z14.5
G1 Z10.818 F500
G18 G2 X15.036 Z10.5 I0.318 K0
G1 X15.195
G17 G3 X15.512 Y-3 I0 J0.318
X8.488 Y-3 Z10.322 I-3.512 J0 F1000
X15.512 Y-3 Z10.144 I3.512 J0
X8.488 Y-3 Z9.966 I-3.512 J0
X15.512 Y-3 Z9.788 I3.512 J0
X8.488 Y-3 Z9.61 I-3.512 J0
X15.512 Y-3 Z9.431 I3.512 J0
X8.488 Y-3 Z9.253 I-3.512 J0
X15.512 Y-3 Z9.075 I3.512 J0
X8.488 Y-3 Z8.897 I-3.512 J0
X15.512 Y-3 Z8.719 I3.512 J0
X8.488 Y-3 Z8.541 I-3.512 J0
X15.512 Y-3 Z8.363 I3.512 J0
X8.488 Y-3 Z8.185 I-3.512 J0
X15.512 Y-3 Z8.007 I3.512 J0
X8.488 Y-3 Z7.829 I-3.512 J0
X15.512 Y-3 Z7.65 I3.512 J0
X8.488 Y-3 Z7.472 I-3.512 J0
X15.512 Y-3 Z7.294 I3.512 J0
X8.488 Y-3 Z7.116 I-3.512 J0
X15.512 Y-3 Z6.938 I3.512 J0
X8.488 Y-3 Z6.76 I-3.512 J0
X15.512 Y-3 Z6.582 I3.512 J0
X8.488 Y-3 Z6.404 I-3.512 J0
X15.512 Y-3 Z6.226 I3.512 J0
X8.488 Y-3 Z6.048 I-3.512 J0
X15.512 Y-3 Z5.87 I3.512 J0
X8.488 Y-3 Z5.691 I-3.512 J0
X15.512 Y-3 Z5.513 I3.512 J0
X8.488 Y-3 Z5.335 I-3.512 J0
X15.512 Y-3 Z5.157 I3.512 J0
X8.725 Y-1.73 Z5 I-3.512 J0
X15.275 Y-4.27 I3.275 J-1.27
X8.725 Y-1.73 I-3.275 J1.27
X8.906 Y-2.141 I0.296 J-0.115 F500
G1 X9.054 Y-2.198
X9.12 Y-2.224 Z5.008
X9.183 Y-2.248 Z5.031
X9.239 Y-2.27 Z5.069
X9.286 Y-2.288 Z5.12
X9.321 Y-2.302 Z5.18
X9.343 Y-2.31 Z5.247
X9.35 Y-2.313 Z5.318
G0 Z27
G28 G91 Z0
G90
G28 G91 X0 Y0
G90
M5
M30
