(bore2_0)
(T6  D=3.175 CR=0 - ZMIN=0 - flat end mill)
G90 G94
G17
G21
G28 G91 Z0
G90

(Bore12-Precise)
T6
(1/8" Flat-45 degree helix)
S18000 M3
G54
G0 X-11.381 Y-3.318
Z27
Z9.5
G1 Z5.818 F500
G18 G2 X-11.064 Z5.5 I0.318 K0
G1 X-10.905
G17 G3 X-10.587 Y-3 I0 J0.318
X-15.413 Y-3 Z5.36 I-2.413 J0 F1000
X-10.587 Y-3 Z5.221 I2.413 J0
X-15.413 Y-3 Z5.081 I-2.413 J0
X-10.587 Y-3 Z4.941 I2.413 J0
X-15.413 Y-3 Z4.802 I-2.413 J0
X-10.587 Y-3 Z4.662 I2.413 J0
X-15.413 Y-3 Z4.522 I-2.413 J0
X-10.587 Y-3 Z4.383 I2.413 J0
X-15.413 Y-3 Z4.243 I-2.413 J0
X-10.587 Y-3 Z4.103 I2.413 J0
X-15.413 Y-3 Z3.963 I-2.413 J0
X-10.587 Y-3 Z3.824 I2.413 J0
X-15.413 Y-3 Z3.684 I-2.413 J0
X-10.587 Y-3 Z3.544 I2.413 J0
X-15.413 Y-3 Z3.405 I-2.413 J0
X-10.587 Y-3 Z3.265 I2.413 J0
X-15.413 Y-3 Z3.125 I-2.413 J0
X-10.587 Y-3 Z2.986 I2.413 J0
X-15.413 Y-3 Z2.846 I-2.413 J0
X-10.587 Y-3 Z2.706 I2.413 J0
X-15.413 Y-3 Z2.567 I-2.413 J0
X-10.587 Y-3 Z2.427 I2.413 J0
X-15.412 Y-3 Z2.287 I-2.413 J0
X-10.588 Y-3 Z2.148 I2.412 J0
X-15.412 Y-3 Z2.008 I-2.412 J0
X-10.588 Y-3 Z1.868 I2.412 J0
X-15.412 Y-3 Z1.729 I-2.412 J0
X-10.588 Y-3 Z1.589 I2.412 J0
X-15.412 Y-3 Z1.449 I-2.412 J0
X-10.588 Y-3 Z1.31 I2.412 J0
X-15.412 Y-3 Z1.17 I-2.412 J0
X-10.588 Y-3 Z1.03 I2.412 J0
X-15.412 Y-3 Z0.89 I-2.412 J0
X-10.588 Y-3 Z0.751 I2.412 J0
X-15.412 Y-3 Z0.611 I-2.412 J0
X-10.588 Y-3 Z0.471 I2.412 J0
X-15.412 Y-3 Z0.332 I-2.412 J0
X-10.588 Y-3 Z0.192 I2.412 J0
X-15.412 Y-3 Z0.052 I-2.412 J0
X-13.924 Y-5.228 Z0 I2.412 J0
X-12.076 Y-0.772 I0.924 J2.228
X-13.924 Y-5.228 I-0.924 J-2.228
X-13.509 Y-5.057 I0.122 J0.293 F500
G1 X-13.449 Y-4.91
X-13.421 Y-4.845 Z0.008
X-13.396 Y-4.783 Z0.031
X-13.373 Y-4.727 Z0.069
X-13.353 Y-4.681 Z0.12
X-13.339 Y-4.646 Z0.18
X-13.33 Y-4.624 Z0.247
X-13.327 Y-4.617 Z0.317
G0 Z17
X13.619 Y-3.318
Z9.5
G1 Z5.818 F500
G18 G2 X13.936 Z5.5 I0.318 K0
G1 X14.095
G17 G3 X14.413 Y-3 I0 J0.318
X9.587 Y-3 Z5.36 I-2.413 J0 F1000
X14.413 Y-3 Z5.221 I2.413 J0
X9.587 Y-3 Z5.081 I-2.413 J0
X14.413 Y-3 Z4.941 I2.413 J0
X9.587 Y-3 Z4.802 I-2.413 J0
X14.413 Y-3 Z4.662 I2.413 J0
X9.587 Y-3 Z4.522 I-2.413 J0
X14.413 Y-3 Z4.383 I2.413 J0
X9.587 Y-3 Z4.243 I-2.413 J0
X14.413 Y-3 Z4.103 I2.413 J0
X9.587 Y-3 Z3.963 I-2.413 J0
X14.413 Y-3 Z3.824 I2.413 J0
X9.587 Y-3 Z3.684 I-2.413 J0
X14.413 Y-3 Z3.544 I2.413 J0
X9.587 Y-3 Z3.405 I-2.413 J0
X14.413 Y-3 Z3.265 I2.413 J0
X9.587 Y-3 Z3.125 I-2.413 J0
X14.413 Y-3 Z2.986 I2.413 J0
X9.587 Y-3 Z2.846 I-2.413 J0
X14.413 Y-3 Z2.706 I2.413 J0
X9.587 Y-3 Z2.567 I-2.413 J0
X14.413 Y-3 Z2.427 I2.413 J0
X9.588 Y-3 Z2.287 I-2.413 J0
X14.412 Y-3 Z2.148 I2.412 J0
X9.588 Y-3 Z2.008 I-2.412 J0
X14.412 Y-3 Z1.868 I2.412 J0
X9.588 Y-3 Z1.729 I-2.412 J0
X14.412 Y-3 Z1.589 I2.412 J0
X9.588 Y-3 Z1.449 I-2.412 J0
X14.412 Y-3 Z1.31 I2.412 J0
X9.588 Y-3 Z1.17 I-2.412 J0
X14.412 Y-3 Z1.03 I2.412 J0
X9.588 Y-3 Z0.89 I-2.412 J0
X14.412 Y-3 Z0.751 I2.412 J0
X9.588 Y-3 Z0.611 I-2.412 J0
X14.412 Y-3 Z0.471 I2.412 J0
X9.588 Y-3 Z0.332 I-2.412 J0
X14.412 Y-3 Z0.192 I2.412 J0
X9.588 Y-3 Z0.052 I-2.412 J0
X11.076 Y-5.228 Z0 I2.412 J0
X12.924 Y-0.772 I0.924 J2.228
X11.076 Y-5.228 I-0.924 J-2.228
X11.491 Y-5.057 I0.122 J0.293 F500
G1 X11.551 Y-4.91
X11.579 Y-4.845 Z0.008
X11.604 Y-4.783 Z0.031
X11.627 Y-4.727 Z0.069
X11.647 Y-4.681 Z0.12
X11.661 Y-4.646 Z0.18
X11.67 Y-4.624 Z0.247
X11.673 Y-4.617 Z0.317
G0 Z27
G28 G91 Z0
G90
G28 G91 X0 Y0
G90
M5
M30
