(bore2_n50)
(T6  D=3.175 CR=0 - ZMIN=0 - flat end mill)
G90 G94
G17
G21
G28 G91 Z0
G90

(Bore12-Precise)
T6
(1/8" Flat-45 degree helix)
S18000 M3
G54
G0 X-11.331 Y-3.318
Z27
Z9.5
G1 Z5.818 F500
G18 G2 X-11.014 Z5.5 I0.318 K0
G1 X-10.855
G17 G3 X-10.538 Y-3 I0 J0.318
X-15.462 Y-3 Z5.359 I-2.462 J0 F1000
X-10.538 Y-3 Z5.217 I2.462 J0
X-15.462 Y-3 Z5.076 I-2.462 J0
X-10.538 Y-3 Z4.934 I2.462 J0
X-15.462 Y-3 Z4.793 I-2.462 J0
X-10.538 Y-3 Z4.651 I2.462 J0
X-15.462 Y-3 Z4.51 I-2.462 J0
X-10.538 Y-3 Z4.369 I2.462 J0
X-15.462 Y-3 Z4.227 I-2.462 J0
X-10.538 Y-3 Z4.086 I2.462 J0
X-15.462 Y-3 Z3.944 I-2.462 J0
X-10.538 Y-3 Z3.803 I2.462 J0
X-15.462 Y-3 Z3.661 I-2.462 J0
X-10.538 Y-3 Z3.52 I2.462 J0
X-15.462 Y-3 Z3.379 I-2.462 J0
X-10.538 Y-3 Z3.237 I2.462 J0
X-15.462 Y-3 Z3.096 I-2.462 J0
X-10.538 Y-3 Z2.954 I2.462 J0
X-15.462 Y-3 Z2.813 I-2.462 J0
X-10.537 Y-3 Z2.671 I2.462 J0
X-15.463 Y-3 Z2.53 I-2.463 J0
X-10.537 Y-3 Z2.389 I2.463 J0
X-15.463 Y-3 Z2.247 I-2.463 J0
X-10.537 Y-3 Z2.106 I2.463 J0
X-15.463 Y-3 Z1.964 I-2.463 J0
X-10.537 Y-3 Z1.823 I2.463 J0
X-15.463 Y-3 Z1.681 I-2.463 J0
X-10.537 Y-3 Z1.54 I2.463 J0
X-15.463 Y-3 Z1.399 I-2.463 J0
X-10.537 Y-3 Z1.257 I2.463 J0
X-15.463 Y-3 Z1.116 I-2.463 J0
X-10.537 Y-3 Z0.974 I2.463 J0
X-15.463 Y-3 Z0.833 I-2.463 J0
X-10.537 Y-3 Z0.691 I2.463 J0
X-15.463 Y-3 Z0.55 I-2.463 J0
X-10.537 Y-3 Z0.409 I2.463 J0
X-15.463 Y-3 Z0.267 I-2.463 J0
X-10.537 Y-3 Z0.126 I2.463 J0
X-15.314 Y-2.157 Z0 I-2.463 J0
X-10.686 Y-3.843 I2.314 J-0.843
X-15.314 Y-2.157 I-2.314 J0.843
X-15.124 Y-2.564 I0.298 J-0.109 F500
G1 X-14.975 Y-2.618
X-14.908 Y-2.642 Z0.008
X-14.845 Y-2.665 Z0.031
X-14.789 Y-2.686 Z0.069
X-14.742 Y-2.703 Z0.12
X-14.706 Y-2.716 Z0.18
X-14.684 Y-2.724 Z0.247
X-14.677 Y-2.727 Z0.317
G0 Z17
X13.669 Y-3.318
Z9.5
G1 Z5.818 F500
G18 G2 X13.986 Z5.5 I0.318 K0
G1 X14.145
G17 G3 X14.462 Y-3 I0 J0.318
X9.538 Y-3 Z5.359 I-2.462 J0 F1000
X14.462 Y-3 Z5.217 I2.462 J0
X9.538 Y-3 Z5.076 I-2.462 J0
X14.462 Y-3 Z4.934 I2.462 J0
X9.538 Y-3 Z4.793 I-2.462 J0
X14.462 Y-3 Z4.651 I2.462 J0
X9.538 Y-3 Z4.51 I-2.462 J0
X14.462 Y-3 Z4.369 I2.462 J0
X9.538 Y-3 Z4.227 I-2.462 J0
X14.462 Y-3 Z4.086 I2.462 J0
X9.538 Y-3 Z3.944 I-2.462 J0
X14.462 Y-3 Z3.803 I2.462 J0
X9.538 Y-3 Z3.661 I-2.462 J0
X14.462 Y-3 Z3.52 I2.462 J0
X9.538 Y-3 Z3.379 I-2.462 J0
X14.462 Y-3 Z3.237 I2.462 J0
X9.538 Y-3 Z3.096 I-2.462 J0
X14.462 Y-3 Z2.954 I2.462 J0
X9.538 Y-3 Z2.813 I-2.462 J0
X14.463 Y-3 Z2.671 I2.462 J0
X9.537 Y-3 Z2.53 I-2.463 J0
X14.463 Y-3 Z2.389 I2.463 J0
X9.537 Y-3 Z2.247 I-2.463 J0
X14.463 Y-3 Z2.106 I2.463 J0
X9.537 Y-3 Z1.964 I-2.463 J0
X14.463 Y-3 Z1.823 I2.463 J0
X9.537 Y-3 Z1.681 I-2.463 J0
X14.463 Y-3 Z1.54 I2.463 J0
X9.537 Y-3 Z1.399 I-2.463 J0
X14.463 Y-3 Z1.257 I2.463 J0
X9.537 Y-3 Z1.116 I-2.463 J0
X14.463 Y-3 Z0.974 I2.463 J0
X9.537 Y-3 Z0.833 I-2.463 J0
X14.463 Y-3 Z0.691 I2.463 J0
X9.537 Y-3 Z0.55 I-2.463 J0
X14.463 Y-3 Z0.409 I2.463 J0
X9.537 Y-3 Z0.267 I-2.463 J0
X14.463 Y-3 Z0.126 I2.463 J0
X9.686 Y-2.157 Z0 I-2.463 J0
X14.314 Y-3.843 I2.314 J-0.843
X9.686 Y-2.157 I-2.314 J0.843
X9.876 Y-2.564 I0.298 J-0.109 F500
G1 X10.025 Y-2.618
X10.092 Y-2.642 Z0.008
X10.155 Y-2.665 Z0.031
X10.211 Y-2.686 Z0.069
X10.258 Y-2.703 Z0.12
X10.294 Y-2.716 Z0.18
X10.316 Y-2.724 Z0.247
X10.323 Y-2.727 Z0.317
G0 Z27
G28 G91 Z0
G90
G28 G91 X0 Y0
G90
M5
M30
