(bore1)
(T6  D=3.175 CR=0 - ZMIN=5 - flat end mill)
G90 G94
G17
G21
G28 G91 Z0
G90

(Bore11)
T6
(1/8" Flat-45 degree helix)
S18000 M3
G54
G0 X-13.081 Y-3.318
Z27
Z14.5
G1 Z10.818 F500
G18 G2 X-12.764 Z10.5 I0.318 K0
G1 X-12.605
G17 G3 X-12.288 Y-3 I0 J0.318
X-13.712 Y-3 Z10.42 I-0.712 J0 F1000
X-12.288 Y-3 Z10.339 I0.712 J0
X-13.712 Y-3 Z10.259 I-0.712 J0
X-12.288 Y-3 Z10.179 I0.712 J0
X-13.712 Y-3 Z10.098 I-0.712 J0
X-12.288 Y-3 Z10.018 I0.712 J0
X-13.712 Y-3 Z9.938 I-0.712 J0
X-12.288 Y-3 Z9.857 I0.712 J0
X-13.712 Y-3 Z9.777 I-0.712 J0
X-12.288 Y-3 Z9.697 I0.712 J0
X-13.712 Y-3 Z9.617 I-0.712 J0
X-12.288 Y-3 Z9.536 I0.712 J0
X-13.712 Y-3 Z9.456 I-0.712 J0
X-12.288 Y-3 Z9.376 I0.712 J0
X-13.712 Y-3 Z9.295 I-0.712 J0
X-12.288 Y-3 Z9.215 I0.712 J0
X-13.712 Y-3 Z9.135 I-0.712 J0
X-12.288 Y-3 Z9.054 I0.712 J0
X-13.712 Y-3 Z8.974 I-0.712 J0
X-12.288 Y-3 Z8.894 I0.712 J0
X-13.712 Y-3 Z8.813 I-0.712 J0
X-12.288 Y-3 Z8.733 I0.712 J0
X-13.712 Y-3 Z8.653 I-0.712 J0
X-12.288 Y-3 Z8.572 I0.712 J0
X-13.712 Y-3 Z8.492 I-0.712 J0
X-12.288 Y-3 Z8.412 I0.712 J0
X-13.712 Y-3 Z8.331 I-0.712 J0
X-12.288 Y-3 Z8.251 I0.712 J0
X-13.712 Y-3 Z8.171 I-0.712 J0
X-12.288 Y-3 Z8.09 I0.712 J0
X-13.712 Y-3 Z8.01 I-0.712 J0
X-12.288 Y-3 Z7.93 I0.712 J0
X-13.712 Y-3 Z7.85 I-0.712 J0
X-12.288 Y-3 Z7.769 I0.712 J0
X-13.712 Y-3 Z7.689 I-0.712 J0
X-12.288 Y-3 Z7.609 I0.712 J0
X-13.712 Y-3 Z7.528 I-0.712 J0
X-12.288 Y-3 Z7.448 I0.712 J0
X-13.712 Y-3 Z7.368 I-0.712 J0
X-12.288 Y-3 Z7.287 I0.712 J0
X-13.712 Y-3 Z7.207 I-0.712 J0
X-12.288 Y-3 Z7.127 I0.712 J0
X-13.712 Y-3 Z7.046 I-0.712 J0
X-12.288 Y-3 Z6.966 I0.712 J0
X-13.712 Y-3 Z6.886 I-0.712 J0
X-12.288 Y-3 Z6.805 I0.712 J0
X-13.712 Y-3 Z6.725 I-0.712 J0
X-12.288 Y-3 Z6.645 I0.712 J0
X-13.712 Y-3 Z6.564 I-0.712 J0
X-12.288 Y-3 Z6.484 I0.712 J0
X-13.712 Y-3 Z6.404 I-0.712 J0
X-12.288 Y-3 Z6.323 I0.712 J0
X-13.712 Y-3 Z6.243 I-0.712 J0
X-12.288 Y-3 Z6.163 I0.712 J0
X-13.712 Y-3 Z6.083 I-0.712 J0
X-12.287 Y-3 Z6.002 I0.712 J0
X-13.713 Y-3 Z5.922 I-0.713 J0
X-12.287 Y-3 Z5.842 I0.713 J0
X-13.713 Y-3 Z5.761 I-0.713 J0
X-12.287 Y-3 Z5.681 I0.713 J0
X-13.713 Y-3 Z5.601 I-0.713 J0
X-12.287 Y-3 Z5.52 I0.713 J0
X-13.713 Y-3 Z5.44 I-0.713 J0
X-12.287 Y-3 Z5.36 I0.713 J0
X-13.713 Y-3 Z5.279 I-0.713 J0
X-12.287 Y-3 Z5.199 I0.713 J0
X-13.713 Y-3 Z5.119 I-0.713 J0
X-12.287 Y-3 Z5.038 I0.713 J0
X-12.951 Y-2.289 Z5 I-0.713 J0
X-13.049 Y-3.711 I-0.049 J-0.711
X-12.951 Y-2.289 I0.049 J0.711
X-13.289 Y-2.584 I-0.022 J-0.317 F500
G1 X-13.3 Y-2.742
X-13.305 Y-2.813 Z5.008
X-13.31 Y-2.88 Z5.031
X-13.314 Y-2.94 Z5.069
X-13.318 Y-2.99 Z5.12
X-13.32 Y-3.028 Z5.18
X-13.322 Y-3.051 Z5.247
Y-3.059 Z5.318
G0 Z17
Z27
X-12.181 Y-3.318
Z14.5
G1 Z10.818 F500
G18 G2 X-11.864 Z10.5 I0.317 K0
G1 X-11.705
G17 G3 X-11.387 Y-3 I0 J0.318
X-14.613 Y-3 Z10.388 I-1.613 J0 F1000
X-11.387 Y-3 Z10.277 I1.613 J0
X-14.613 Y-3 Z10.165 I-1.613 J0
X-11.387 Y-3 Z10.053 I1.613 J0
X-14.613 Y-3 Z9.941 I-1.613 J0
X-11.387 Y-3 Z9.83 I1.613 J0
X-14.613 Y-3 Z9.718 I-1.613 J0
X-11.387 Y-3 Z9.606 I1.613 J0
X-14.613 Y-3 Z9.494 I-1.613 J0
X-11.387 Y-3 Z9.383 I1.613 J0
X-14.613 Y-3 Z9.271 I-1.613 J0
X-11.387 Y-3 Z9.159 I1.613 J0
X-14.613 Y-3 Z9.047 I-1.613 J0
X-11.387 Y-3 Z8.936 I1.613 J0
X-14.613 Y-3 Z8.824 I-1.613 J0
X-11.387 Y-3 Z8.712 I1.613 J0
X-14.613 Y-3 Z8.6 I-1.613 J0
X-11.387 Y-3 Z8.489 I1.613 J0
X-14.613 Y-3 Z8.377 I-1.613 J0
X-11.387 Y-3 Z8.265 I1.613 J0
X-14.613 Y-3 Z8.153 I-1.613 J0
X-11.387 Y-3 Z8.042 I1.613 J0
X-14.613 Y-3 Z7.93 I-1.613 J0
X-11.387 Y-3 Z7.818 I1.613 J0
X-14.613 Y-3 Z7.706 I-1.613 J0
X-11.387 Y-3 Z7.595 I1.613 J0
X-14.613 Y-3 Z7.483 I-1.613 J0
X-11.388 Y-3 Z7.371 I1.613 J0
X-14.612 Y-3 Z7.259 I-1.612 J0
X-11.388 Y-3 Z7.148 I1.612 J0
X-14.612 Y-3 Z7.036 I-1.612 J0
X-11.388 Y-3 Z6.924 I1.612 J0
X-14.612 Y-3 Z6.812 I-1.612 J0
X-11.388 Y-3 Z6.701 I1.612 J0
X-14.612 Y-3 Z6.589 I-1.612 J0
X-11.388 Y-3 Z6.477 I1.612 J0
X-14.612 Y-3 Z6.365 I-1.612 J0
X-11.388 Y-3 Z6.254 I1.612 J0
X-14.612 Y-3 Z6.142 I-1.612 J0
X-11.388 Y-3 Z6.03 I1.612 J0
X-14.612 Y-3 Z5.918 I-1.612 J0
X-11.388 Y-3 Z5.807 I1.612 J0
X-14.612 Y-3 Z5.695 I-1.612 J0
X-11.388 Y-3 Z5.583 I1.612 J0
X-14.612 Y-3 Z5.471 I-1.612 J0
X-11.388 Y-3 Z5.36 I1.612 J0
X-14.612 Y-3 Z5.248 I-1.612 J0
X-11.388 Y-3 Z5.136 I1.612 J0
X-14.612 Y-3 Z5.024 I-1.612 J0
X-14.247 Y-4.022 Z5 I1.612 J0
X-11.753 Y-1.978 I1.247 J1.022
X-14.247 Y-4.022 I-1.247 J-1.022
X-13.8 Y-4.066 I0.246 J0.201 F500
G1 X-13.677 Y-3.966
X-13.623 Y-3.921 Z5.008
X-13.571 Y-3.879 Z5.031
X-13.524 Y-3.84 Z5.069
X-13.486 Y-3.808 Z5.12
X-13.456 Y-3.785 Z5.18
X-13.438 Y-3.77 Z5.247
X-13.432 Y-3.765 Z5.318
G0 Z17
Z27
X-11.281 Y-3.318
Z14.5
G1 Z10.818 F500
G18 G2 X-10.964 Z10.5 I0.318 K0
G1 X-10.805
G17 G3 X-10.488 Y-3 I0 J0.318
X-15.512 Y-3 Z10.357 I-2.512 J0 F1000
X-10.488 Y-3 Z10.214 I2.512 J0
X-15.512 Y-3 Z10.07 I-2.512 J0
X-10.488 Y-3 Z9.927 I2.512 J0
X-15.512 Y-3 Z9.784 I-2.512 J0
X-10.488 Y-3 Z9.641 I2.512 J0
X-15.512 Y-3 Z9.498 I-2.512 J0
X-10.488 Y-3 Z9.355 I2.512 J0
X-15.512 Y-3 Z9.211 I-2.512 J0
X-10.488 Y-3 Z9.068 I2.512 J0
X-15.512 Y-3 Z8.925 I-2.512 J0
X-10.488 Y-3 Z8.782 I2.512 J0
X-15.512 Y-3 Z8.639 I-2.512 J0
X-10.488 Y-3 Z8.496 I2.512 J0
X-15.512 Y-3 Z8.352 I-2.512 J0
X-10.488 Y-3 Z8.209 I2.512 J0
X-15.512 Y-3 Z8.066 I-2.512 J0
X-10.488 Y-3 Z7.923 I2.512 J0
X-15.512 Y-3 Z7.78 I-2.512 J0
X-10.488 Y-3 Z7.636 I2.512 J0
X-15.512 Y-3 Z7.493 I-2.512 J0
X-10.488 Y-3 Z7.35 I2.512 J0
X-15.512 Y-3 Z7.207 I-2.512 J0
X-10.487 Y-3 Z7.064 I2.512 J0
X-15.513 Y-3 Z6.921 I-2.513 J0
X-10.487 Y-3 Z6.777 I2.513 J0
X-15.513 Y-3 Z6.634 I-2.513 J0
X-10.487 Y-3 Z6.491 I2.513 J0
X-15.513 Y-3 Z6.348 I-2.513 J0
X-10.487 Y-3 Z6.205 I2.513 J0
X-15.513 Y-3 Z6.062 I-2.513 J0
X-10.487 Y-3 Z5.918 I2.513 J0
X-15.513 Y-3 Z5.775 I-2.513 J0
X-10.487 Y-3 Z5.632 I2.513 J0
X-15.513 Y-3 Z5.489 I-2.513 J0
X-10.487 Y-3 Z5.346 I2.513 J0
X-15.513 Y-3 Z5.203 I-2.513 J0
X-10.487 Y-3 Z5.059 I2.513 J0
X-12.333 Y-0.578 Z5 I-2.513 J0
X-13.667 Y-5.422 I-0.667 J-2.422
X-12.333 Y-0.578 I0.667 J2.422
X-12.723 Y-0.799 I-0.084 J-0.306 F500
G1 X-12.766 Y-0.953
X-12.784 Y-1.021 Z5.008
X-12.802 Y-1.085 Z5.031
X-12.818 Y-1.143 Z5.069
X-12.832 Y-1.192 Z5.12
X-12.842 Y-1.228 Z5.18
X-12.848 Y-1.251 Z5.247
X-12.85 Y-1.259 Z5.318
G0 Z17
Z27
X-10.381 Y-3.318
Z14.5
G1 Z10.818 F500
G18 G2 X-10.064 Z10.5 I0.318 K0
G1 X-9.905
G17 G3 X-9.587 Y-3 I0 J0.318
X-16.413 Y-3 Z10.325 I-3.413 J0 F1000
X-9.587 Y-3 Z10.151 I3.413 J0
X-16.413 Y-3 Z9.976 I-3.413 J0
X-9.587 Y-3 Z9.802 I3.413 J0
X-16.413 Y-3 Z9.627 I-3.413 J0
X-9.587 Y-3 Z9.452 I3.413 J0
X-16.413 Y-3 Z9.278 I-3.413 J0
X-9.587 Y-3 Z9.103 I3.413 J0
X-16.413 Y-3 Z8.929 I-3.413 J0
X-9.587 Y-3 Z8.754 I3.413 J0
X-16.413 Y-3 Z8.579 I-3.413 J0
X-9.587 Y-3 Z8.405 I3.413 J0
X-16.413 Y-3 Z8.23 I-3.413 J0
X-9.587 Y-3 Z8.056 I3.413 J0
X-16.413 Y-3 Z7.881 I-3.413 J0
X-9.587 Y-3 Z7.706 I3.413 J0
X-16.413 Y-3 Z7.532 I-3.413 J0
X-9.587 Y-3 Z7.357 I3.413 J0
X-16.413 Y-3 Z7.183 I-3.413 J0
X-9.587 Y-3 Z7.008 I3.413 J0
X-16.413 Y-3 Z6.833 I-3.413 J0
X-9.587 Y-3 Z6.659 I3.413 J0
X-16.413 Y-3 Z6.484 I-3.413 J0
X-9.587 Y-3 Z6.31 I3.413 J0
X-16.413 Y-3 Z6.135 I-3.413 J0
X-9.587 Y-3 Z5.96 I3.413 J0
X-16.413 Y-3 Z5.786 I-3.413 J0
X-9.587 Y-3 Z5.611 I3.413 J0
X-16.413 Y-3 Z5.436 I-3.413 J0
X-9.587 Y-3 Z5.262 I3.413 J0
X-16.413 Y-3 Z5.087 I-3.413 J0
X-13.001 Y-6.412 Z5 I3.413 J0
X-12.999 Y0.412 I0.001 J3.412
X-13.001 Y-6.412 I-0.001 J-3.412
X-12.684 Y-6.095 I0 J0.318 F500
G1 Y-5.936
Y-5.866 Z5.008
Y-5.799 Z5.031
Y-5.738 Z5.069
Y-5.688 Z5.12
Y-5.65 Z5.18
Y-5.627 Z5.247
X-12.683 Y-5.619 Z5.318
G0 Z17
X11.919 Y-3.318
Z14.5
G1 Z10.818 F500
G18 G2 X12.236 Z10.5 I0.318 K0
G1 X12.395
G17 G3 X12.712 Y-3 I0 J0.318
X11.288 Y-3 Z10.42 I-0.712 J0 F1000
X12.712 Y-3 Z10.339 I0.712 J0
X11.288 Y-3 Z10.259 I-0.712 J0
X12.712 Y-3 Z10.179 I0.712 J0
X11.288 Y-3 Z10.098 I-0.712 J0
X12.712 Y-3 Z10.018 I0.712 J0
X11.288 Y-3 Z9.938 I-0.712 J0
X12.712 Y-3 Z9.857 I0.712 J0
X11.288 Y-3 Z9.777 I-0.712 J0
X12.712 Y-3 Z9.697 I0.712 J0
X11.288 Y-3 Z9.617 I-0.712 J0
X12.712 Y-3 Z9.536 I0.712 J0
X11.288 Y-3 Z9.456 I-0.712 J0
X12.712 Y-3 Z9.376 I0.712 J0
X11.288 Y-3 Z9.295 I-0.712 J0
X12.712 Y-3 Z9.215 I0.712 J0
X11.288 Y-3 Z9.135 I-0.712 J0
X12.712 Y-3 Z9.054 I0.712 J0
X11.288 Y-3 Z8.974 I-0.712 J0
X12.712 Y-3 Z8.894 I0.712 J0
X11.288 Y-3 Z8.813 I-0.712 J0
X12.712 Y-3 Z8.733 I0.712 J0
X11.288 Y-3 Z8.653 I-0.712 J0
X12.712 Y-3 Z8.572 I0.712 J0
X11.288 Y-3 Z8.492 I-0.712 J0
X12.712 Y-3 Z8.412 I0.712 J0
X11.288 Y-3 Z8.331 I-0.712 J0
X12.712 Y-3 Z8.251 I0.712 J0
X11.288 Y-3 Z8.171 I-0.712 J0
X12.712 Y-3 Z8.09 I0.712 J0
X11.288 Y-3 Z8.01 I-0.712 J0
X12.712 Y-3 Z7.93 I0.712 J0
X11.288 Y-3 Z7.85 I-0.712 J0
X12.712 Y-3 Z7.769 I0.712 J0
X11.288 Y-3 Z7.689 I-0.712 J0
X12.712 Y-3 Z7.609 I0.712 J0
X11.288 Y-3 Z7.528 I-0.712 J0
X12.712 Y-3 Z7.448 I0.712 J0
X11.288 Y-3 Z7.368 I-0.712 J0
X12.712 Y-3 Z7.287 I0.712 J0
X11.288 Y-3 Z7.207 I-0.712 J0
X12.712 Y-3 Z7.127 I0.712 J0
X11.288 Y-3 Z7.046 I-0.712 J0
X12.712 Y-3 Z6.966 I0.712 J0
X11.288 Y-3 Z6.886 I-0.712 J0
X12.712 Y-3 Z6.805 I0.712 J0
X11.288 Y-3 Z6.725 I-0.712 J0
X12.712 Y-3 Z6.645 I0.712 J0
X11.288 Y-3 Z6.564 I-0.712 J0
X12.712 Y-3 Z6.484 I0.712 J0
X11.288 Y-3 Z6.404 I-0.712 J0
X12.712 Y-3 Z6.323 I0.712 J0
X11.288 Y-3 Z6.243 I-0.712 J0
X12.712 Y-3 Z6.163 I0.712 J0
X11.288 Y-3 Z6.083 I-0.712 J0
X12.713 Y-3 Z6.002 I0.712 J0
X11.287 Y-3 Z5.922 I-0.713 J0
X12.713 Y-3 Z5.842 I0.713 J0
X11.287 Y-3 Z5.761 I-0.713 J0
X12.713 Y-3 Z5.681 I0.713 J0
X11.287 Y-3 Z5.601 I-0.713 J0
X12.713 Y-3 Z5.52 I0.713 J0
X11.287 Y-3 Z5.44 I-0.713 J0
X12.713 Y-3 Z5.36 I0.713 J0
X11.287 Y-3 Z5.279 I-0.713 J0
X12.713 Y-3 Z5.199 I0.713 J0
X11.287 Y-3 Z5.119 I-0.713 J0
X12.713 Y-3 Z5.038 I0.713 J0
X12.049 Y-2.289 Z5 I-0.713 J0
X11.951 Y-3.711 I-0.049 J-0.711
X12.049 Y-2.289 I0.049 J0.711
X11.711 Y-2.584 I-0.022 J-0.317 F500
G1 X11.7 Y-2.742
X11.695 Y-2.813 Z5.008
X11.69 Y-2.88 Z5.031
X11.686 Y-2.94 Z5.069
X11.682 Y-2.99 Z5.12
X11.68 Y-3.028 Z5.18
X11.678 Y-3.051 Z5.247
Y-3.059 Z5.318
G0 Z17
X12.819 Y-3.318
Z14.5
G1 Z10.818 F500
G18 G2 X13.136 Z10.5 I0.317 K0
G1 X13.295
G17 G3 X13.613 Y-3 I0 J0.318
X10.387 Y-3 Z10.388 I-1.613 J0 F1000
X13.613 Y-3 Z10.277 I1.613 J0
X10.387 Y-3 Z10.165 I-1.613 J0
X13.613 Y-3 Z10.053 I1.613 J0
X10.387 Y-3 Z9.941 I-1.613 J0
X13.613 Y-3 Z9.83 I1.613 J0
X10.387 Y-3 Z9.718 I-1.613 J0
X13.613 Y-3 Z9.606 I1.613 J0
X10.387 Y-3 Z9.494 I-1.613 J0
X13.613 Y-3 Z9.383 I1.613 J0
X10.387 Y-3 Z9.271 I-1.613 J0
X13.613 Y-3 Z9.159 I1.613 J0
X10.387 Y-3 Z9.047 I-1.613 J0
X13.613 Y-3 Z8.936 I1.613 J0
X10.387 Y-3 Z8.824 I-1.613 J0
X13.613 Y-3 Z8.712 I1.613 J0
X10.387 Y-3 Z8.6 I-1.613 J0
X13.613 Y-3 Z8.489 I1.613 J0
X10.387 Y-3 Z8.377 I-1.613 J0
X13.613 Y-3 Z8.265 I1.613 J0
X10.387 Y-3 Z8.153 I-1.613 J0
X13.613 Y-3 Z8.042 I1.613 J0
X10.387 Y-3 Z7.93 I-1.613 J0
X13.613 Y-3 Z7.818 I1.613 J0
X10.387 Y-3 Z7.706 I-1.613 J0
X13.613 Y-3 Z7.595 I1.613 J0
X10.387 Y-3 Z7.483 I-1.613 J0
X13.612 Y-3 Z7.371 I1.613 J0
X10.388 Y-3 Z7.259 I-1.612 J0
X13.612 Y-3 Z7.148 I1.612 J0
X10.388 Y-3 Z7.036 I-1.612 J0
X13.612 Y-3 Z6.924 I1.612 J0
X10.388 Y-3 Z6.812 I-1.612 J0
X13.612 Y-3 Z6.701 I1.612 J0
X10.388 Y-3 Z6.589 I-1.612 J0
X13.612 Y-3 Z6.477 I1.612 J0
X10.388 Y-3 Z6.365 I-1.612 J0
X13.612 Y-3 Z6.254 I1.612 J0
X10.388 Y-3 Z6.142 I-1.612 J0
X13.612 Y-3 Z6.03 I1.612 J0
X10.388 Y-3 Z5.918 I-1.612 J0
X13.612 Y-3 Z5.807 I1.612 J0
X10.388 Y-3 Z5.695 I-1.612 J0
X13.612 Y-3 Z5.583 I1.612 J0
X10.388 Y-3 Z5.471 I-1.612 J0
X13.612 Y-3 Z5.36 I1.612 J0
X10.388 Y-3 Z5.248 I-1.612 J0
X13.612 Y-3 Z5.136 I1.612 J0
X10.388 Y-3 Z5.024 I-1.612 J0
X10.753 Y-4.022 Z5 I1.612 J0
X13.247 Y-1.978 I1.247 J1.022
X10.753 Y-4.022 I-1.247 J-1.022
X11.2 Y-4.066 I0.246 J0.201 F500
G1 X11.323 Y-3.966
X11.377 Y-3.921 Z5.008
X11.429 Y-3.879 Z5.031
X11.476 Y-3.84 Z5.069
X11.514 Y-3.808 Z5.12
X11.544 Y-3.785 Z5.18
X11.562 Y-3.77 Z5.247
X11.568 Y-3.765 Z5.318
G0 Z17
X13.719 Y-3.318
Z14.5
G1 Z10.818 F500
G18 G2 X14.036 Z10.5 I0.318 K0
G1 X14.195
G17 G3 X14.512 Y-3 I0 J0.318
X9.488 Y-3 Z10.357 I-2.512 J0 F1000
X14.512 Y-3 Z10.214 I2.512 J0
X9.488 Y-3 Z10.07 I-2.512 J0
X14.512 Y-3 Z9.927 I2.512 J0
X9.488 Y-3 Z9.784 I-2.512 J0
X14.512 Y-3 Z9.641 I2.512 J0
X9.488 Y-3 Z9.498 I-2.512 J0
X14.512 Y-3 Z9.355 I2.512 J0
X9.488 Y-3 Z9.211 I-2.512 J0
X14.512 Y-3 Z9.068 I2.512 J0
X9.488 Y-3 Z8.925 I-2.512 J0
X14.512 Y-3 Z8.782 I2.512 J0
X9.488 Y-3 Z8.639 I-2.512 J0
X14.512 Y-3 Z8.496 I2.512 J0
X9.488 Y-3 Z8.352 I-2.512 J0
X14.512 Y-3 Z8.209 I2.512 J0
X9.488 Y-3 Z8.066 I-2.512 J0
X14.512 Y-3 Z7.923 I2.512 J0
X9.488 Y-3 Z7.78 I-2.512 J0
X14.512 Y-3 Z7.636 I2.512 J0
X9.488 Y-3 Z7.493 I-2.512 J0
X14.512 Y-3 Z7.35 I2.512 J0
X9.488 Y-3 Z7.207 I-2.512 J0
X14.513 Y-3 Z7.064 I2.512 J0
X9.487 Y-3 Z6.921 I-2.513 J0
X14.513 Y-3 Z6.777 I2.513 J0
X9.487 Y-3 Z6.634 I-2.513 J0
X14.513 Y-3 Z6.491 I2.513 J0
X9.487 Y-3 Z6.348 I-2.513 J0
X14.513 Y-3 Z6.205 I2.513 J0
X9.487 Y-3 Z6.062 I-2.513 J0
X14.513 Y-3 Z5.918 I2.513 J0
X9.487 Y-3 Z5.775 I-2.513 J0
X14.513 Y-3 Z5.632 I2.513 J0
X9.487 Y-3 Z5.489 I-2.513 J0
X14.513 Y-3 Z5.346 I2.513 J0
X9.487 Y-3 Z5.203 I-2.513 J0
X14.513 Y-3 Z5.059 I2.513 J0
X12.667 Y-0.578 Z5 I-2.513 J0
X11.333 Y-5.422 I-0.667 J-2.422
X12.667 Y-0.578 I0.667 J2.422
X12.277 Y-0.799 I-0.084 J-0.306 F500
G1 X12.234 Y-0.953
X12.216 Y-1.021 Z5.008
X12.198 Y-1.085 Z5.031
X12.182 Y-1.143 Z5.069
X12.168 Y-1.192 Z5.12
X12.158 Y-1.228 Z5.18
X12.152 Y-1.251 Z5.247
X12.15 Y-1.259 Z5.318
G0 Z17
X14.619 Y-3.318
Z14.5
G1 Z10.818 F500
G18 G2 X14.936 Z10.5 I0.318 K0
G1 X15.095
G17 G3 X15.413 Y-3 I0 J0.318
X8.587 Y-3 Z10.325 I-3.413 J0 F1000
X15.413 Y-3 Z10.151 I3.413 J0
X8.587 Y-3 Z9.976 I-3.413 J0
X15.413 Y-3 Z9.802 I3.413 J0
X8.587 Y-3 Z9.627 I-3.413 J0
X15.413 Y-3 Z9.452 I3.413 J0
X8.587 Y-3 Z9.278 I-3.413 J0
X15.413 Y-3 Z9.103 I3.413 J0
X8.587 Y-3 Z8.929 I-3.413 J0
X15.413 Y-3 Z8.754 I3.413 J0
X8.587 Y-3 Z8.579 I-3.413 J0
X15.413 Y-3 Z8.405 I3.413 J0
X8.587 Y-3 Z8.23 I-3.413 J0
X15.413 Y-3 Z8.056 I3.413 J0
X8.587 Y-3 Z7.881 I-3.413 J0
X15.413 Y-3 Z7.706 I3.413 J0
X8.587 Y-3 Z7.532 I-3.413 J0
X15.413 Y-3 Z7.357 I3.413 J0
X8.587 Y-3 Z7.183 I-3.413 J0
X15.413 Y-3 Z7.008 I3.413 J0
X8.587 Y-3 Z6.833 I-3.413 J0
X15.413 Y-3 Z6.659 I3.413 J0
X8.587 Y-3 Z6.484 I-3.413 J0
X15.413 Y-3 Z6.31 I3.413 J0
X8.587 Y-3 Z6.135 I-3.413 J0
X15.413 Y-3 Z5.96 I3.413 J0
X8.587 Y-3 Z5.786 I-3.413 J0
X15.413 Y-3 Z5.611 I3.413 J0
X8.587 Y-3 Z5.436 I-3.413 J0
X15.413 Y-3 Z5.262 I3.413 J0
X8.587 Y-3 Z5.087 I-3.413 J0
X11.999 Y-6.412 Z5 I3.413 J0
X12.001 Y0.412 I0.001 J3.412
X11.999 Y-6.412 I-0.001 J-3.412
X12.316 Y-6.095 I0 J0.318 F500
G1 Y-5.936
Y-5.866 Z5.008
Y-5.799 Z5.031
Y-5.738 Z5.069
Y-5.688 Z5.12
Y-5.65 Z5.18
Y-5.627 Z5.247
X12.317 Y-5.619 Z5.318
G0 Z27
G28 G91 Z0
G90
G28 G91 X0 Y0
G90
M5
M30
