(bore4)
(T6  D=3.175 CR=0 - ZMIN=0 - flat end mill)
G90 G94
G17
G21
G28 G91 Z0
G90

(Bore4)
T6
(1/8" Flat-45 degree helix)
S18000 M3
G54
G0 X17.515 Y1.571
Z27
Z14.5
G1 Z10.818 F500
X17.523 Y1.572 Z10.747
X17.546 Y1.576 Z10.68
X17.583 Y1.583 Z10.62
X17.633 Y1.592 Z10.569
X17.692 Y1.602 Z10.531
X17.758 Y1.614 Z10.508
X17.828 Y1.626 Z10.5
X17.984 Y1.654
G3 X18.152 Y1.893 I-0.036 J0.203
X17.339 Y1.749 Z10.43 I-0.406 J-0.072 F600
X18.152 Y1.893 Z10.36 I0.406 J0.072
X17.339 Y1.749 Z10.29 I-0.406 J-0.072
X18.152 Y1.893 Z10.221 I0.406 J0.072
X17.339 Y1.749 Z10.151 I-0.406 J-0.072
X18.152 Y1.893 Z10.081 I0.406 J0.072
X17.339 Y1.749 Z10.011 I-0.406 J-0.072
X18.152 Y1.893 Z9.941 I0.406 J0.072
X17.339 Y1.749 Z9.871 I-0.406 J-0.072
X18.152 Y1.893 Z9.802 I0.406 J0.072
X17.339 Y1.749 Z9.732 I-0.406 J-0.072
X18.152 Y1.893 Z9.662 I0.406 J0.072
X17.339 Y1.749 Z9.592 I-0.406 J-0.072
X18.152 Y1.893 Z9.522 I0.406 J0.072
X17.339 Y1.749 Z9.452 I-0.406 J-0.072
X18.152 Y1.893 Z9.383 I0.406 J0.072
X17.339 Y1.749 Z9.313 I-0.406 J-0.072
X18.152 Y1.893 Z9.243 I0.406 J0.072
X17.339 Y1.749 Z9.173 I-0.406 J-0.072
X18.152 Y1.893 Z9.103 I0.406 J0.072
X17.339 Y1.749 Z9.033 I-0.406 J-0.072
X18.152 Y1.893 Z8.963 I0.406 J0.072
X17.339 Y1.749 Z8.894 I-0.406 J-0.072
X18.152 Y1.893 Z8.824 I0.406 J0.072
X17.339 Y1.749 Z8.754 I-0.406 J-0.072
X18.152 Y1.893 Z8.684 I0.406 J0.072
X17.339 Y1.749 Z8.614 I-0.406 J-0.072
X18.152 Y1.893 Z8.544 I0.406 J0.072
X17.339 Y1.749 Z8.475 I-0.406 J-0.072
X18.152 Y1.893 Z8.405 I0.406 J0.072
X17.339 Y1.749 Z8.335 I-0.406 J-0.072
X18.152 Y1.893 Z8.265 I0.406 J0.072
X17.339 Y1.749 Z8.195 I-0.406 J-0.072
X18.152 Y1.893 Z8.125 I0.406 J0.072
X17.339 Y1.749 Z8.056 I-0.406 J-0.072
X18.152 Y1.893 Z7.986 I0.406 J0.072
X17.339 Y1.749 Z7.916 I-0.406 J-0.072
X18.152 Y1.893 Z7.846 I0.406 J0.072
X17.339 Y1.749 Z7.776 I-0.406 J-0.072
X18.152 Y1.893 Z7.706 I0.406 J0.072
X17.339 Y1.749 Z7.636 I-0.406 J-0.072
X18.152 Y1.893 Z7.567 I0.406 J0.072
X17.339 Y1.749 Z7.497 I-0.406 J-0.072
X18.152 Y1.893 Z7.427 I0.406 J0.072
X17.339 Y1.749 Z7.357 I-0.406 J-0.072
X18.152 Y1.893 Z7.287 I0.406 J0.072
X17.339 Y1.749 Z7.217 I-0.406 J-0.072
X18.152 Y1.893 Z7.148 I0.406 J0.072
X17.339 Y1.749 Z7.078 I-0.406 J-0.072
X18.152 Y1.893 Z7.008 I0.406 J0.072
X17.339 Y1.749 Z6.938 I-0.406 J-0.072
X18.152 Y1.893 Z6.868 I0.406 J0.072
X17.339 Y1.749 Z6.798 I-0.406 J-0.072
X18.152 Y1.893 Z6.729 I0.406 J0.072
X17.339 Y1.749 Z6.659 I-0.406 J-0.072
X18.152 Y1.893 Z6.589 I0.406 J0.072
X17.339 Y1.749 Z6.519 I-0.406 J-0.072
X18.152 Y1.893 Z6.449 I0.406 J0.072
X17.339 Y1.749 Z6.379 I-0.406 J-0.072
X18.152 Y1.893 Z6.31 I0.406 J0.072
X17.339 Y1.749 Z6.24 I-0.406 J-0.072
X18.152 Y1.893 Z6.17 I0.406 J0.072
X17.339 Y1.749 Z6.1 I-0.406 J-0.072
X18.152 Y1.893 Z6.03 I0.406 J0.072
X17.339 Y1.749 Z5.96 I-0.406 J-0.072
X18.152 Y1.893 Z5.89 I0.406 J0.072
X17.339 Y1.749 Z5.821 I-0.406 J-0.072
X18.152 Y1.893 Z5.751 I0.406 J0.072
X17.339 Y1.749 Z5.681 I-0.406 J-0.072
X18.152 Y1.893 Z5.611 I0.406 J0.072
X17.339 Y1.749 Z5.541 I-0.406 J-0.072
X18.152 Y1.893 Z5.471 I0.406 J0.072
X17.339 Y1.749 Z5.402 I-0.406 J-0.072
X18.152 Y1.893 Z5.332 I0.406 J0.072
X17.339 Y1.749 Z5.262 I-0.406 J-0.072
X18.152 Y1.893 Z5.192 I0.406 J0.072
X17.339 Y1.749 Z5.122 I-0.406 J-0.072
X18.152 Y1.893 Z5.052 I0.406 J0.072
X17.339 Y1.749 Z4.983 I-0.406 J-0.072
X18.152 Y1.893 Z4.913 I0.406 J0.072
X17.339 Y1.749 Z4.843 I-0.406 J-0.072
X18.152 Y1.893 Z4.773 I0.406 J0.072
X17.339 Y1.749 Z4.703 I-0.406 J-0.072
X18.152 Y1.893 Z4.633 I0.406 J0.072
X17.339 Y1.749 Z4.563 I-0.406 J-0.072
X18.152 Y1.893 Z4.494 I0.406 J0.072
X17.339 Y1.749 Z4.424 I-0.406 J-0.072
X18.152 Y1.893 Z4.354 I0.406 J0.072
X17.339 Y1.749 Z4.284 I-0.406 J-0.072
X18.152 Y1.893 Z4.214 I0.406 J0.072
X17.339 Y1.749 Z4.144 I-0.406 J-0.072
X18.152 Y1.893 Z4.075 I0.406 J0.072
X17.339 Y1.749 Z4.005 I-0.406 J-0.072
X18.152 Y1.893 Z3.935 I0.406 J0.072
X17.339 Y1.749 Z3.865 I-0.406 J-0.072
X18.152 Y1.893 Z3.795 I0.406 J0.072
X17.339 Y1.749 Z3.725 I-0.406 J-0.072
X18.152 Y1.893 Z3.656 I0.406 J0.072
X17.339 Y1.749 Z3.586 I-0.406 J-0.072
X18.152 Y1.893 Z3.516 I0.406 J0.072
X17.339 Y1.749 Z3.446 I-0.406 J-0.072
X18.152 Y1.893 Z3.376 I0.406 J0.072
X17.339 Y1.749 Z3.306 I-0.406 J-0.072
X18.152 Y1.893 Z3.236 I0.406 J0.072
X17.339 Y1.749 Z3.167 I-0.406 J-0.072
X18.152 Y1.893 Z3.097 I0.406 J0.072
X17.339 Y1.749 Z3.027 I-0.406 J-0.072
X18.152 Y1.893 Z2.957 I0.406 J0.072
X17.339 Y1.749 Z2.887 I-0.406 J-0.072
X18.152 Y1.893 Z2.817 I0.406 J0.072
X17.339 Y1.749 Z2.748 I-0.406 J-0.072
X18.152 Y1.893 Z2.678 I0.406 J0.072
X17.339 Y1.749 Z2.608 I-0.406 J-0.072
X18.152 Y1.893 Z2.538 I0.406 J0.072
X17.339 Y1.749 Z2.468 I-0.406 J-0.072
X18.152 Y1.893 Z2.398 I0.406 J0.072
X17.339 Y1.749 Z2.329 I-0.406 J-0.072
X18.152 Y1.893 Z2.259 I0.406 J0.072
X17.339 Y1.749 Z2.189 I-0.406 J-0.072
X18.152 Y1.893 Z2.119 I0.406 J0.072
X17.339 Y1.749 Z2.049 I-0.406 J-0.072
X18.152 Y1.893 Z1.979 I0.406 J0.072
X17.339 Y1.749 Z1.909 I-0.406 J-0.072
X18.152 Y1.893 Z1.84 I0.406 J0.072
X17.339 Y1.749 Z1.77 I-0.406 J-0.072
X18.152 Y1.893 Z1.7 I0.406 J0.072
X17.339 Y1.749 Z1.63 I-0.406 J-0.072
X18.152 Y1.893 Z1.56 I0.406 J0.072
X17.339 Y1.749 Z1.49 I-0.406 J-0.072
X18.152 Y1.893 Z1.421 I0.406 J0.072
X17.339 Y1.749 Z1.351 I-0.406 J-0.072
X18.152 Y1.893 Z1.281 I0.406 J0.072
X17.339 Y1.749 Z1.211 I-0.406 J-0.072
X18.152 Y1.893 Z1.141 I0.406 J0.072
X17.339 Y1.749 Z1.071 I-0.406 J-0.072
X18.152 Y1.893 Z1.002 I0.406 J0.072
X17.339 Y1.749 Z0.932 I-0.406 J-0.072
X18.152 Y1.893 Z0.862 I0.406 J0.072
X17.339 Y1.749 Z0.792 I-0.406 J-0.072
X18.152 Y1.893 Z0.722 I0.406 J0.072
X17.339 Y1.749 Z0.652 I-0.406 J-0.072
X18.152 Y1.893 Z0.583 I0.406 J0.072
X17.339 Y1.749 Z0.513 I-0.406 J-0.072
X18.152 Y1.893 Z0.443 I0.406 J0.072
X17.339 Y1.749 Z0.373 I-0.406 J-0.072
X18.152 Y1.893 Z0.303 I0.406 J0.072
X17.339 Y1.749 Z0.233 I-0.406 J-0.072
X18.152 Y1.893 Z0.163 I0.406 J0.072
X17.339 Y1.749 Z0.094 I-0.406 J-0.072
X18.152 Y1.893 Z0.024 I0.406 J0.072
X17.878 Y2.212 Z0 I-0.406 J-0.072
X17.613 Y1.43 I-0.133 J-0.391
X17.878 Y2.212 I0.133 J0.391
X17.616 Y2.082 I-0.066 J-0.195 F500
G1 X17.565 Y1.932
X17.543 Y1.865 Z0.008
X17.521 Y1.802 Z0.031
X17.502 Y1.745 Z0.069
X17.486 Y1.697 Z0.12
X17.473 Y1.661 Z0.18
X17.466 Y1.639 Z0.247
X17.463 Y1.631 Z0.317
G0 Z17
X13.072 Y4.136
Z14.5
G1 Z10.818 F500
X13.08 Y4.137 Z10.747
X13.103 Y4.142 Z10.68
X13.14 Y4.148 Z10.62
X13.19 Y4.157 Z10.569
X13.249 Y4.167 Z10.531
X13.315 Y4.179 Z10.508
X13.385 Y4.191 Z10.5
X13.541 Y4.219
G3 X13.709 Y4.458 I-0.036 J0.203
X12.896 Y4.314 Z10.43 I-0.406 J-0.072 F600
X13.709 Y4.458 Z10.36 I0.406 J0.072
X12.896 Y4.314 Z10.29 I-0.406 J-0.072
X13.709 Y4.458 Z10.221 I0.406 J0.072
X12.896 Y4.314 Z10.151 I-0.406 J-0.072
X13.709 Y4.458 Z10.081 I0.406 J0.072
X12.896 Y4.314 Z10.011 I-0.406 J-0.072
X13.709 Y4.458 Z9.941 I0.406 J0.072
X12.896 Y4.314 Z9.871 I-0.406 J-0.072
X13.709 Y4.458 Z9.802 I0.406 J0.072
X12.896 Y4.314 Z9.732 I-0.406 J-0.072
X13.709 Y4.458 Z9.662 I0.406 J0.072
X12.896 Y4.314 Z9.592 I-0.406 J-0.072
X13.709 Y4.458 Z9.522 I0.406 J0.072
X12.896 Y4.314 Z9.452 I-0.406 J-0.072
X13.709 Y4.458 Z9.383 I0.406 J0.072
X12.896 Y4.314 Z9.313 I-0.406 J-0.072
X13.709 Y4.458 Z9.243 I0.406 J0.072
X12.896 Y4.314 Z9.173 I-0.406 J-0.072
X13.709 Y4.458 Z9.103 I0.406 J0.072
X12.896 Y4.314 Z9.033 I-0.406 J-0.072
X13.709 Y4.458 Z8.963 I0.406 J0.072
X12.896 Y4.314 Z8.894 I-0.406 J-0.072
X13.709 Y4.458 Z8.824 I0.406 J0.072
X12.896 Y4.314 Z8.754 I-0.406 J-0.072
X13.709 Y4.458 Z8.684 I0.406 J0.072
X12.896 Y4.314 Z8.614 I-0.406 J-0.072
X13.709 Y4.458 Z8.544 I0.406 J0.072
X12.896 Y4.314 Z8.475 I-0.406 J-0.072
X13.709 Y4.458 Z8.405 I0.406 J0.072
X12.896 Y4.314 Z8.335 I-0.406 J-0.072
X13.709 Y4.458 Z8.265 I0.406 J0.072
X12.896 Y4.314 Z8.195 I-0.406 J-0.072
X13.709 Y4.458 Z8.125 I0.406 J0.072
X12.896 Y4.314 Z8.056 I-0.406 J-0.072
X13.709 Y4.458 Z7.986 I0.406 J0.072
X12.896 Y4.314 Z7.916 I-0.406 J-0.072
X13.709 Y4.458 Z7.846 I0.406 J0.072
X12.896 Y4.314 Z7.776 I-0.406 J-0.072
X13.709 Y4.458 Z7.706 I0.406 J0.072
X12.896 Y4.314 Z7.636 I-0.406 J-0.072
X13.709 Y4.458 Z7.567 I0.406 J0.072
X12.896 Y4.314 Z7.497 I-0.406 J-0.072
X13.709 Y4.458 Z7.427 I0.406 J0.072
X12.896 Y4.314 Z7.357 I-0.406 J-0.072
X13.709 Y4.458 Z7.287 I0.406 J0.072
X12.896 Y4.314 Z7.217 I-0.406 J-0.072
X13.709 Y4.458 Z7.148 I0.406 J0.072
X12.896 Y4.314 Z7.078 I-0.406 J-0.072
X13.709 Y4.458 Z7.008 I0.406 J0.072
X12.896 Y4.314 Z6.938 I-0.406 J-0.072
X13.709 Y4.458 Z6.868 I0.406 J0.072
X12.896 Y4.314 Z6.798 I-0.406 J-0.072
X13.709 Y4.458 Z6.729 I0.406 J0.072
X12.896 Y4.314 Z6.659 I-0.406 J-0.072
X13.709 Y4.458 Z6.589 I0.406 J0.072
X12.896 Y4.314 Z6.519 I-0.406 J-0.072
X13.709 Y4.458 Z6.449 I0.406 J0.072
X12.896 Y4.314 Z6.379 I-0.406 J-0.072
X13.709 Y4.458 Z6.31 I0.406 J0.072
X12.896 Y4.314 Z6.24 I-0.406 J-0.072
X13.709 Y4.458 Z6.17 I0.406 J0.072
X12.896 Y4.314 Z6.1 I-0.406 J-0.072
X13.709 Y4.458 Z6.03 I0.406 J0.072
X12.896 Y4.314 Z5.96 I-0.406 J-0.072
X13.709 Y4.458 Z5.89 I0.406 J0.072
X12.896 Y4.314 Z5.821 I-0.406 J-0.072
X13.709 Y4.458 Z5.751 I0.406 J0.072
X12.896 Y4.314 Z5.681 I-0.406 J-0.072
X13.709 Y4.458 Z5.611 I0.406 J0.072
X12.896 Y4.314 Z5.541 I-0.406 J-0.072
X13.709 Y4.458 Z5.471 I0.406 J0.072
X12.896 Y4.314 Z5.402 I-0.406 J-0.072
X13.709 Y4.458 Z5.332 I0.406 J0.072
X12.896 Y4.314 Z5.262 I-0.406 J-0.072
X13.709 Y4.458 Z5.192 I0.406 J0.072
X12.896 Y4.314 Z5.122 I-0.406 J-0.072
X13.709 Y4.458 Z5.052 I0.406 J0.072
X12.896 Y4.314 Z4.983 I-0.406 J-0.072
X13.709 Y4.458 Z4.913 I0.406 J0.072
X12.896 Y4.314 Z4.843 I-0.406 J-0.072
X13.709 Y4.458 Z4.773 I0.406 J0.072
X12.896 Y4.314 Z4.703 I-0.406 J-0.072
X13.709 Y4.458 Z4.633 I0.406 J0.072
X12.896 Y4.314 Z4.563 I-0.406 J-0.072
X13.709 Y4.458 Z4.494 I0.406 J0.072
X12.896 Y4.314 Z4.424 I-0.406 J-0.072
X13.709 Y4.458 Z4.354 I0.406 J0.072
X12.896 Y4.314 Z4.284 I-0.406 J-0.072
X13.709 Y4.458 Z4.214 I0.406 J0.072
X12.896 Y4.314 Z4.144 I-0.406 J-0.072
X13.709 Y4.458 Z4.075 I0.406 J0.072
X12.896 Y4.314 Z4.005 I-0.406 J-0.072
X13.709 Y4.458 Z3.935 I0.406 J0.072
X12.896 Y4.314 Z3.865 I-0.406 J-0.072
X13.709 Y4.458 Z3.795 I0.406 J0.072
X12.896 Y4.314 Z3.725 I-0.406 J-0.072
X13.709 Y4.458 Z3.656 I0.406 J0.072
X12.896 Y4.314 Z3.586 I-0.406 J-0.072
X13.709 Y4.458 Z3.516 I0.406 J0.072
X12.896 Y4.314 Z3.446 I-0.406 J-0.072
X13.709 Y4.458 Z3.376 I0.406 J0.072
X12.896 Y4.314 Z3.306 I-0.406 J-0.072
X13.709 Y4.458 Z3.236 I0.406 J0.072
X12.896 Y4.314 Z3.167 I-0.406 J-0.072
X13.709 Y4.458 Z3.097 I0.406 J0.072
X12.896 Y4.314 Z3.027 I-0.406 J-0.072
X13.709 Y4.458 Z2.957 I0.406 J0.072
X12.896 Y4.314 Z2.887 I-0.406 J-0.072
X13.709 Y4.458 Z2.817 I0.406 J0.072
X12.896 Y4.314 Z2.748 I-0.406 J-0.072
X13.709 Y4.458 Z2.678 I0.406 J0.072
X12.896 Y4.314 Z2.608 I-0.406 J-0.072
X13.709 Y4.458 Z2.538 I0.406 J0.072
X12.896 Y4.314 Z2.468 I-0.406 J-0.072
X13.709 Y4.458 Z2.398 I0.406 J0.072
X12.896 Y4.314 Z2.329 I-0.406 J-0.072
X13.709 Y4.458 Z2.259 I0.406 J0.072
X12.896 Y4.314 Z2.189 I-0.406 J-0.072
X13.709 Y4.458 Z2.119 I0.406 J0.072
X12.896 Y4.314 Z2.049 I-0.406 J-0.072
X13.709 Y4.458 Z1.979 I0.406 J0.072
X12.896 Y4.314 Z1.909 I-0.406 J-0.072
X13.709 Y4.458 Z1.84 I0.406 J0.072
X12.896 Y4.314 Z1.77 I-0.406 J-0.072
X13.709 Y4.458 Z1.7 I0.406 J0.072
X12.896 Y4.314 Z1.63 I-0.406 J-0.072
X13.709 Y4.458 Z1.56 I0.406 J0.072
X12.896 Y4.314 Z1.49 I-0.406 J-0.072
X13.709 Y4.458 Z1.421 I0.406 J0.072
X12.896 Y4.314 Z1.351 I-0.406 J-0.072
X13.709 Y4.458 Z1.281 I0.406 J0.072
X12.896 Y4.314 Z1.211 I-0.406 J-0.072
X13.709 Y4.458 Z1.141 I0.406 J0.072
X12.896 Y4.314 Z1.071 I-0.406 J-0.072
X13.709 Y4.458 Z1.002 I0.406 J0.072
X12.896 Y4.314 Z0.932 I-0.406 J-0.072
X13.709 Y4.458 Z0.862 I0.406 J0.072
X12.896 Y4.314 Z0.792 I-0.406 J-0.072
X13.709 Y4.458 Z0.722 I0.406 J0.072
X12.896 Y4.314 Z0.652 I-0.406 J-0.072
X13.709 Y4.458 Z0.583 I0.406 J0.072
X12.896 Y4.314 Z0.513 I-0.406 J-0.072
X13.709 Y4.458 Z0.443 I0.406 J0.072
X12.896 Y4.314 Z0.373 I-0.406 J-0.072
X13.709 Y4.458 Z0.303 I0.406 J0.072
X12.896 Y4.314 Z0.233 I-0.406 J-0.072
X13.709 Y4.458 Z0.163 I0.406 J0.072
X12.896 Y4.314 Z0.094 I-0.406 J-0.072
X13.709 Y4.458 Z0.024 I0.406 J0.072
X13.435 Y4.777 Z0 I-0.406 J-0.072
X13.17 Y3.995 I-0.133 J-0.391
X13.435 Y4.777 I0.133 J0.391
X13.173 Y4.648 I-0.066 J-0.195 F500
G1 X13.122 Y4.497
X13.1 Y4.43 Z0.008
X13.078 Y4.367 Z0.031
X13.059 Y4.31 Z0.069
X13.043 Y4.262 Z0.12
X13.03 Y4.226 Z0.18
X13.023 Y4.204 Z0.247
X13.02 Y4.197 Z0.317
G0 Z17
X4.694 Y-0.655
Z14.5
G1 Z10.818 F500
X4.701 Z10.747
X4.725 Y-0.653 Z10.68
X4.763 Y-0.651 Z10.62
X4.813 Y-0.649 Z10.569
X4.873 Y-0.646 Z10.531
X4.94 Y-0.642 Z10.508
X5.011 Y-0.638 Z10.5
X5.169 Y-0.63
G3 X5.364 Y-0.413 I-0.011 J0.206
X4.54 Y-0.457 Z10.43 I-0.412 J-0.022 F600
X5.364 Y-0.413 Z10.36 I0.412 J0.022
X4.54 Y-0.457 Z10.29 I-0.412 J-0.022
X5.364 Y-0.413 Z10.221 I0.412 J0.022
X4.54 Y-0.457 Z10.151 I-0.412 J-0.022
X5.364 Y-0.413 Z10.081 I0.412 J0.022
X4.54 Y-0.457 Z10.011 I-0.412 J-0.022
X5.364 Y-0.413 Z9.941 I0.412 J0.022
X4.54 Y-0.457 Z9.871 I-0.412 J-0.022
X5.364 Y-0.413 Z9.802 I0.412 J0.022
X4.54 Y-0.457 Z9.732 I-0.412 J-0.022
X5.364 Y-0.413 Z9.662 I0.412 J0.022
X4.54 Y-0.457 Z9.592 I-0.412 J-0.022
X5.364 Y-0.413 Z9.522 I0.412 J0.022
X4.54 Y-0.457 Z9.452 I-0.412 J-0.022
X5.364 Y-0.413 Z9.383 I0.412 J0.022
X4.54 Y-0.457 Z9.313 I-0.412 J-0.022
X5.364 Y-0.413 Z9.243 I0.412 J0.022
X4.54 Y-0.457 Z9.173 I-0.412 J-0.022
X5.364 Y-0.413 Z9.103 I0.412 J0.022
X4.54 Y-0.457 Z9.033 I-0.412 J-0.022
X5.364 Y-0.413 Z8.963 I0.412 J0.022
X4.54 Y-0.457 Z8.894 I-0.412 J-0.022
X5.364 Y-0.413 Z8.824 I0.412 J0.022
X4.54 Y-0.457 Z8.754 I-0.412 J-0.022
X5.364 Y-0.413 Z8.684 I0.412 J0.022
X4.54 Y-0.457 Z8.614 I-0.412 J-0.022
X5.364 Y-0.413 Z8.544 I0.412 J0.022
X4.54 Y-0.457 Z8.475 I-0.412 J-0.022
X5.364 Y-0.413 Z8.405 I0.412 J0.022
X4.54 Y-0.457 Z8.335 I-0.412 J-0.022
X5.364 Y-0.413 Z8.265 I0.412 J0.022
X4.54 Y-0.457 Z8.195 I-0.412 J-0.022
X5.364 Y-0.413 Z8.125 I0.412 J0.022
X4.54 Y-0.457 Z8.056 I-0.412 J-0.022
X5.364 Y-0.413 Z7.986 I0.412 J0.022
X4.54 Y-0.457 Z7.916 I-0.412 J-0.022
X5.364 Y-0.413 Z7.846 I0.412 J0.022
X4.54 Y-0.457 Z7.776 I-0.412 J-0.022
X5.364 Y-0.413 Z7.706 I0.412 J0.022
X4.54 Y-0.457 Z7.636 I-0.412 J-0.022
X5.364 Y-0.413 Z7.567 I0.412 J0.022
X4.54 Y-0.457 Z7.497 I-0.412 J-0.022
X5.364 Y-0.413 Z7.427 I0.412 J0.022
X4.54 Y-0.457 Z7.357 I-0.412 J-0.022
X5.364 Y-0.413 Z7.287 I0.412 J0.022
X4.54 Y-0.457 Z7.217 I-0.412 J-0.022
X5.364 Y-0.413 Z7.148 I0.412 J0.022
X4.54 Y-0.457 Z7.078 I-0.412 J-0.022
X5.364 Y-0.413 Z7.008 I0.412 J0.022
X4.54 Y-0.457 Z6.938 I-0.412 J-0.022
X5.364 Y-0.413 Z6.868 I0.412 J0.022
X4.54 Y-0.457 Z6.798 I-0.412 J-0.022
X5.364 Y-0.413 Z6.729 I0.412 J0.022
X4.54 Y-0.457 Z6.659 I-0.412 J-0.022
X5.364 Y-0.413 Z6.589 I0.412 J0.022
X4.54 Y-0.457 Z6.519 I-0.412 J-0.022
X5.364 Y-0.413 Z6.449 I0.412 J0.022
X4.54 Y-0.457 Z6.379 I-0.412 J-0.022
X5.364 Y-0.413 Z6.31 I0.412 J0.022
X4.54 Y-0.457 Z6.24 I-0.412 J-0.022
X5.364 Y-0.413 Z6.17 I0.412 J0.022
X4.54 Y-0.457 Z6.1 I-0.412 J-0.022
X5.364 Y-0.413 Z6.03 I0.412 J0.022
X4.54 Y-0.457 Z5.96 I-0.412 J-0.022
X5.364 Y-0.413 Z5.89 I0.412 J0.022
X4.54 Y-0.457 Z5.821 I-0.412 J-0.022
X5.364 Y-0.413 Z5.751 I0.412 J0.022
X4.54 Y-0.457 Z5.681 I-0.412 J-0.022
X5.364 Y-0.413 Z5.611 I0.412 J0.022
X4.54 Y-0.457 Z5.541 I-0.412 J-0.022
X5.364 Y-0.413 Z5.471 I0.412 J0.022
X4.54 Y-0.457 Z5.402 I-0.412 J-0.022
X5.364 Y-0.413 Z5.332 I0.412 J0.022
X4.54 Y-0.457 Z5.262 I-0.412 J-0.022
X5.364 Y-0.413 Z5.192 I0.412 J0.022
X4.54 Y-0.457 Z5.122 I-0.412 J-0.022
X5.364 Y-0.413 Z5.052 I0.412 J0.022
X4.54 Y-0.457 Z4.983 I-0.412 J-0.022
X5.364 Y-0.413 Z4.913 I0.412 J0.022
X4.54 Y-0.457 Z4.843 I-0.412 J-0.022
X5.364 Y-0.413 Z4.773 I0.412 J0.022
X4.54 Y-0.457 Z4.703 I-0.412 J-0.022
X5.364 Y-0.413 Z4.633 I0.412 J0.022
X4.54 Y-0.457 Z4.563 I-0.412 J-0.022
X5.364 Y-0.413 Z4.494 I0.412 J0.022
X4.54 Y-0.457 Z4.424 I-0.412 J-0.022
X5.364 Y-0.413 Z4.354 I0.412 J0.022
X4.54 Y-0.457 Z4.284 I-0.412 J-0.022
X5.364 Y-0.413 Z4.214 I0.412 J0.022
X4.54 Y-0.457 Z4.144 I-0.412 J-0.022
X5.364 Y-0.413 Z4.075 I0.412 J0.022
X4.54 Y-0.457 Z4.005 I-0.412 J-0.022
X5.364 Y-0.413 Z3.935 I0.412 J0.022
X4.54 Y-0.457 Z3.865 I-0.412 J-0.022
X5.364 Y-0.413 Z3.795 I0.412 J0.022
X4.54 Y-0.457 Z3.725 I-0.412 J-0.022
X5.364 Y-0.413 Z3.656 I0.412 J0.022
X4.54 Y-0.457 Z3.586 I-0.412 J-0.022
X5.364 Y-0.413 Z3.516 I0.412 J0.022
X4.54 Y-0.457 Z3.446 I-0.412 J-0.022
X5.364 Y-0.413 Z3.376 I0.412 J0.022
X4.54 Y-0.457 Z3.306 I-0.412 J-0.022
X5.364 Y-0.413 Z3.236 I0.412 J0.022
X4.54 Y-0.457 Z3.167 I-0.412 J-0.022
X5.364 Y-0.413 Z3.097 I0.412 J0.022
X4.54 Y-0.457 Z3.027 I-0.412 J-0.022
X5.364 Y-0.413 Z2.957 I0.412 J0.022
X4.54 Y-0.457 Z2.887 I-0.412 J-0.022
X5.364 Y-0.413 Z2.817 I0.412 J0.022
X4.54 Y-0.457 Z2.748 I-0.412 J-0.022
X5.364 Y-0.413 Z2.678 I0.412 J0.022
X4.54 Y-0.457 Z2.608 I-0.412 J-0.022
X5.364 Y-0.413 Z2.538 I0.412 J0.022
X4.54 Y-0.457 Z2.468 I-0.412 J-0.022
X5.364 Y-0.413 Z2.398 I0.412 J0.022
X4.54 Y-0.457 Z2.329 I-0.412 J-0.022
X5.364 Y-0.413 Z2.259 I0.412 J0.022
X4.54 Y-0.457 Z2.189 I-0.412 J-0.022
X5.364 Y-0.413 Z2.119 I0.412 J0.022
X4.54 Y-0.457 Z2.049 I-0.412 J-0.022
X5.364 Y-0.413 Z1.979 I0.412 J0.022
X4.54 Y-0.457 Z1.909 I-0.412 J-0.022
X5.364 Y-0.413 Z1.84 I0.412 J0.022
X4.54 Y-0.457 Z1.77 I-0.412 J-0.022
X5.364 Y-0.413 Z1.7 I0.412 J0.022
X4.54 Y-0.457 Z1.63 I-0.412 J-0.022
X5.364 Y-0.413 Z1.56 I0.412 J0.022
X4.54 Y-0.457 Z1.49 I-0.412 J-0.022
X5.364 Y-0.413 Z1.421 I0.412 J0.022
X4.54 Y-0.457 Z1.351 I-0.412 J-0.022
X5.364 Y-0.413 Z1.281 I0.412 J0.022
X4.54 Y-0.457 Z1.211 I-0.412 J-0.022
X5.364 Y-0.413 Z1.141 I0.412 J0.022
X4.54 Y-0.457 Z1.071 I-0.412 J-0.022
X5.364 Y-0.413 Z1.002 I0.412 J0.022
X4.54 Y-0.457 Z0.932 I-0.412 J-0.022
X5.364 Y-0.413 Z0.862 I0.412 J0.022
X4.54 Y-0.457 Z0.792 I-0.412 J-0.022
X5.364 Y-0.413 Z0.722 I0.412 J0.022
X4.54 Y-0.457 Z0.652 I-0.412 J-0.022
X5.364 Y-0.413 Z0.583 I0.412 J0.022
X4.54 Y-0.457 Z0.513 I-0.412 J-0.022
X5.364 Y-0.413 Z0.443 I0.412 J0.022
X4.54 Y-0.457 Z0.373 I-0.412 J-0.022
X5.364 Y-0.413 Z0.303 I0.412 J0.022
X4.54 Y-0.457 Z0.233 I-0.412 J-0.022
X5.364 Y-0.413 Z0.163 I0.412 J0.022
X4.54 Y-0.457 Z0.094 I-0.412 J-0.022
X5.364 Y-0.413 Z0.024 I0.412 J0.022
X5.131 Y-0.063 Z0 I-0.412 J-0.022
X4.773 Y-0.806 I-0.179 J-0.372
X5.131 Y-0.063 I0.179 J0.372
X4.856 Y-0.16 I-0.09 J-0.186 F500
G1 X4.787 Y-0.303
X4.756 Y-0.366 Z0.008
X4.727 Y-0.427 Z0.031
X4.701 Y-0.481 Z0.069
X4.679 Y-0.526 Z0.12
X4.663 Y-0.56 Z0.18
X4.653 Y-0.581 Z0.247
X4.649 Y-0.589 Z0.317
G0 Z17
X4.672 Y-5.757
Z14.5
G1 Z10.818 F500
X4.68 Z10.747
X4.703 Y-5.759 Z10.68
X4.741 Y-5.761 Z10.62
X4.791 Y-5.763 Z10.569
X4.851 Y-5.766 Z10.531
X4.918 Y-5.77 Z10.508
X4.989 Y-5.774 Z10.5
X5.147 Y-5.782
G3 X5.364 Y-5.587 I0.011 J0.206
X4.54 Y-5.543 Z10.43 I-0.412 J0.022 F600
X5.364 Y-5.587 Z10.36 I0.412 J-0.022
X4.54 Y-5.543 Z10.29 I-0.412 J0.022
X5.364 Y-5.587 Z10.221 I0.412 J-0.022
X4.54 Y-5.543 Z10.151 I-0.412 J0.022
X5.364 Y-5.587 Z10.081 I0.412 J-0.022
X4.54 Y-5.543 Z10.011 I-0.412 J0.022
X5.364 Y-5.587 Z9.941 I0.412 J-0.022
X4.54 Y-5.543 Z9.871 I-0.412 J0.022
X5.364 Y-5.587 Z9.802 I0.412 J-0.022
X4.54 Y-5.543 Z9.732 I-0.412 J0.022
X5.364 Y-5.587 Z9.662 I0.412 J-0.022
X4.54 Y-5.543 Z9.592 I-0.412 J0.022
X5.364 Y-5.587 Z9.522 I0.412 J-0.022
X4.54 Y-5.543 Z9.452 I-0.412 J0.022
X5.364 Y-5.587 Z9.383 I0.412 J-0.022
X4.54 Y-5.543 Z9.313 I-0.412 J0.022
X5.364 Y-5.587 Z9.243 I0.412 J-0.022
X4.54 Y-5.543 Z9.173 I-0.412 J0.022
X5.364 Y-5.587 Z9.103 I0.412 J-0.022
X4.54 Y-5.543 Z9.033 I-0.412 J0.022
X5.364 Y-5.587 Z8.963 I0.412 J-0.022
X4.54 Y-5.543 Z8.894 I-0.412 J0.022
X5.364 Y-5.587 Z8.824 I0.412 J-0.022
X4.54 Y-5.543 Z8.754 I-0.412 J0.022
X5.364 Y-5.587 Z8.684 I0.412 J-0.022
X4.54 Y-5.543 Z8.614 I-0.412 J0.022
X5.364 Y-5.587 Z8.544 I0.412 J-0.022
X4.54 Y-5.543 Z8.475 I-0.412 J0.022
X5.364 Y-5.587 Z8.405 I0.412 J-0.022
X4.54 Y-5.543 Z8.335 I-0.412 J0.022
X5.364 Y-5.587 Z8.265 I0.412 J-0.022
X4.54 Y-5.543 Z8.195 I-0.412 J0.022
X5.364 Y-5.587 Z8.125 I0.412 J-0.022
X4.54 Y-5.543 Z8.056 I-0.412 J0.022
X5.364 Y-5.587 Z7.986 I0.412 J-0.022
X4.54 Y-5.543 Z7.916 I-0.412 J0.022
X5.364 Y-5.587 Z7.846 I0.412 J-0.022
X4.54 Y-5.543 Z7.776 I-0.412 J0.022
X5.364 Y-5.587 Z7.706 I0.412 J-0.022
X4.54 Y-5.543 Z7.636 I-0.412 J0.022
X5.364 Y-5.587 Z7.567 I0.412 J-0.022
X4.54 Y-5.543 Z7.497 I-0.412 J0.022
X5.364 Y-5.587 Z7.427 I0.412 J-0.022
X4.54 Y-5.543 Z7.357 I-0.412 J0.022
X5.364 Y-5.587 Z7.287 I0.412 J-0.022
X4.54 Y-5.543 Z7.217 I-0.412 J0.022
X5.364 Y-5.587 Z7.148 I0.412 J-0.022
X4.54 Y-5.543 Z7.078 I-0.412 J0.022
X5.364 Y-5.587 Z7.008 I0.412 J-0.022
X4.54 Y-5.543 Z6.938 I-0.412 J0.022
X5.364 Y-5.587 Z6.868 I0.412 J-0.022
X4.54 Y-5.543 Z6.798 I-0.412 J0.022
X5.364 Y-5.587 Z6.729 I0.412 J-0.022
X4.54 Y-5.543 Z6.659 I-0.412 J0.022
X5.364 Y-5.587 Z6.589 I0.412 J-0.022
X4.54 Y-5.543 Z6.519 I-0.412 J0.022
X5.364 Y-5.587 Z6.449 I0.412 J-0.022
X4.54 Y-5.543 Z6.379 I-0.412 J0.022
X5.364 Y-5.587 Z6.31 I0.412 J-0.022
X4.54 Y-5.543 Z6.24 I-0.412 J0.022
X5.364 Y-5.587 Z6.17 I0.412 J-0.022
X4.54 Y-5.543 Z6.1 I-0.412 J0.022
X5.364 Y-5.587 Z6.03 I0.412 J-0.022
X4.54 Y-5.543 Z5.96 I-0.412 J0.022
X5.364 Y-5.587 Z5.89 I0.412 J-0.022
X4.54 Y-5.543 Z5.821 I-0.412 J0.022
X5.364 Y-5.587 Z5.751 I0.412 J-0.022
X4.54 Y-5.543 Z5.681 I-0.412 J0.022
X5.364 Y-5.587 Z5.611 I0.412 J-0.022
X4.54 Y-5.543 Z5.541 I-0.412 J0.022
X5.364 Y-5.587 Z5.471 I0.412 J-0.022
X4.54 Y-5.543 Z5.402 I-0.412 J0.022
X5.364 Y-5.587 Z5.332 I0.412 J-0.022
X4.54 Y-5.543 Z5.262 I-0.412 J0.022
X5.364 Y-5.587 Z5.192 I0.412 J-0.022
X4.54 Y-5.543 Z5.122 I-0.412 J0.022
X5.364 Y-5.587 Z5.052 I0.412 J-0.022
X4.54 Y-5.543 Z4.983 I-0.412 J0.022
X5.364 Y-5.587 Z4.913 I0.412 J-0.022
X4.54 Y-5.543 Z4.843 I-0.412 J0.022
X5.364 Y-5.587 Z4.773 I0.412 J-0.022
X4.54 Y-5.543 Z4.703 I-0.412 J0.022
X5.364 Y-5.587 Z4.633 I0.412 J-0.022
X4.54 Y-5.543 Z4.563 I-0.412 J0.022
X5.364 Y-5.587 Z4.494 I0.412 J-0.022
X4.54 Y-5.543 Z4.424 I-0.412 J0.022
X5.364 Y-5.587 Z4.354 I0.412 J-0.022
X4.54 Y-5.543 Z4.284 I-0.412 J0.022
X5.364 Y-5.587 Z4.214 I0.412 J-0.022
X4.54 Y-5.543 Z4.144 I-0.412 J0.022
X5.364 Y-5.587 Z4.075 I0.412 J-0.022
X4.54 Y-5.543 Z4.005 I-0.412 J0.022
X5.364 Y-5.587 Z3.935 I0.412 J-0.022
X4.54 Y-5.543 Z3.865 I-0.412 J0.022
X5.364 Y-5.587 Z3.795 I0.412 J-0.022
X4.54 Y-5.543 Z3.725 I-0.412 J0.022
X5.364 Y-5.587 Z3.656 I0.412 J-0.022
X4.54 Y-5.543 Z3.586 I-0.412 J0.022
X5.364 Y-5.587 Z3.516 I0.412 J-0.022
X4.54 Y-5.543 Z3.446 I-0.412 J0.022
X5.364 Y-5.587 Z3.376 I0.412 J-0.022
X4.54 Y-5.543 Z3.306 I-0.412 J0.022
X5.364 Y-5.587 Z3.236 I0.412 J-0.022
X4.54 Y-5.543 Z3.167 I-0.412 J0.022
X5.364 Y-5.587 Z3.097 I0.412 J-0.022
X4.54 Y-5.543 Z3.027 I-0.412 J0.022
X5.364 Y-5.587 Z2.957 I0.412 J-0.022
X4.54 Y-5.543 Z2.887 I-0.412 J0.022
X5.364 Y-5.587 Z2.817 I0.412 J-0.022
X4.54 Y-5.543 Z2.748 I-0.412 J0.022
X5.364 Y-5.587 Z2.678 I0.412 J-0.022
X4.54 Y-5.543 Z2.608 I-0.412 J0.022
X5.364 Y-5.587 Z2.538 I0.412 J-0.022
X4.54 Y-5.543 Z2.468 I-0.412 J0.022
X5.364 Y-5.587 Z2.398 I0.412 J-0.022
X4.54 Y-5.543 Z2.329 I-0.412 J0.022
X5.364 Y-5.587 Z2.259 I0.412 J-0.022
X4.54 Y-5.543 Z2.189 I-0.412 J0.022
X5.364 Y-5.587 Z2.119 I0.412 J-0.022
X4.54 Y-5.543 Z2.049 I-0.412 J0.022
X5.364 Y-5.587 Z1.979 I0.412 J-0.022
X4.54 Y-5.543 Z1.909 I-0.412 J0.022
X5.364 Y-5.587 Z1.84 I0.412 J-0.022
X4.54 Y-5.543 Z1.77 I-0.412 J0.022
X5.364 Y-5.587 Z1.7 I0.412 J-0.022
X4.54 Y-5.543 Z1.63 I-0.412 J0.022
X5.364 Y-5.587 Z1.56 I0.412 J-0.022
X4.54 Y-5.543 Z1.49 I-0.412 J0.022
X5.364 Y-5.587 Z1.421 I0.412 J-0.022
X4.54 Y-5.543 Z1.351 I-0.412 J0.022
X5.364 Y-5.587 Z1.281 I0.412 J-0.022
X4.54 Y-5.543 Z1.211 I-0.412 J0.022
X5.364 Y-5.587 Z1.141 I0.412 J-0.022
X4.54 Y-5.543 Z1.071 I-0.412 J0.022
X5.364 Y-5.587 Z1.002 I0.412 J-0.022
X4.54 Y-5.543 Z0.932 I-0.412 J0.022
X5.364 Y-5.587 Z0.862 I0.412 J-0.022
X4.54 Y-5.543 Z0.792 I-0.412 J0.022
X5.364 Y-5.587 Z0.722 I0.412 J-0.022
X4.54 Y-5.543 Z0.652 I-0.412 J0.022
X5.364 Y-5.587 Z0.583 I0.412 J-0.022
X4.54 Y-5.543 Z0.513 I-0.412 J0.022
X5.364 Y-5.587 Z0.443 I0.412 J-0.022
X4.54 Y-5.543 Z0.373 I-0.412 J0.022
X5.364 Y-5.587 Z0.303 I0.412 J-0.022
X4.54 Y-5.543 Z0.233 I-0.412 J0.022
X5.364 Y-5.587 Z0.163 I0.412 J-0.022
X4.54 Y-5.543 Z0.094 I-0.412 J0.022
X5.364 Y-5.587 Z0.024 I0.412 J-0.022
X5.169 Y-5.214 Z0 I-0.412 J0.022
X4.735 Y-5.916 I-0.217 J-0.351
X5.169 Y-5.214 I0.217 J0.351
X4.886 Y-5.281 I-0.109 J-0.175 F500
G1 X4.802 Y-5.416
X4.765 Y-5.476 Z0.008
X4.729 Y-5.533 Z0.031
X4.698 Y-5.585 Z0.069
X4.671 Y-5.627 Z0.12
X4.651 Y-5.659 Z0.18
X4.639 Y-5.679 Z0.247
X4.635 Y-5.686 Z0.317
G0 Z17
X13.072 Y-10.636
Z14.5
G1 Z10.818 F500
X13.08 Y-10.635 Z10.747
X13.103 Y-10.631 Z10.68
X13.14 Y-10.624 Z10.62
X13.19 Y-10.615 Z10.569
X13.249 Y-10.605 Z10.531
X13.315 Y-10.593 Z10.508
X13.385 Y-10.581 Z10.5
X13.541 Y-10.553
G3 X13.709 Y-10.314 I-0.036 J0.203
X12.896 Y-10.458 Z10.43 I-0.406 J-0.072 F600
X13.709 Y-10.314 Z10.36 I0.406 J0.072
X12.896 Y-10.458 Z10.29 I-0.406 J-0.072
X13.709 Y-10.314 Z10.221 I0.406 J0.072
X12.896 Y-10.458 Z10.151 I-0.406 J-0.072
X13.709 Y-10.314 Z10.081 I0.406 J0.072
X12.896 Y-10.458 Z10.011 I-0.406 J-0.072
X13.709 Y-10.314 Z9.941 I0.406 J0.072
X12.896 Y-10.458 Z9.871 I-0.406 J-0.072
X13.709 Y-10.314 Z9.802 I0.406 J0.072
X12.896 Y-10.458 Z9.732 I-0.406 J-0.072
X13.709 Y-10.314 Z9.662 I0.406 J0.072
X12.896 Y-10.458 Z9.592 I-0.406 J-0.072
X13.709 Y-10.314 Z9.522 I0.406 J0.072
X12.896 Y-10.458 Z9.452 I-0.406 J-0.072
X13.709 Y-10.314 Z9.383 I0.406 J0.072
X12.896 Y-10.458 Z9.313 I-0.406 J-0.072
X13.709 Y-10.314 Z9.243 I0.406 J0.072
X12.896 Y-10.458 Z9.173 I-0.406 J-0.072
X13.709 Y-10.314 Z9.103 I0.406 J0.072
X12.896 Y-10.458 Z9.033 I-0.406 J-0.072
X13.709 Y-10.314 Z8.963 I0.406 J0.072
X12.896 Y-10.458 Z8.894 I-0.406 J-0.072
X13.709 Y-10.314 Z8.824 I0.406 J0.072
X12.896 Y-10.458 Z8.754 I-0.406 J-0.072
X13.709 Y-10.314 Z8.684 I0.406 J0.072
X12.896 Y-10.458 Z8.614 I-0.406 J-0.072
X13.709 Y-10.314 Z8.544 I0.406 J0.072
X12.896 Y-10.458 Z8.475 I-0.406 J-0.072
X13.709 Y-10.314 Z8.405 I0.406 J0.072
X12.896 Y-10.458 Z8.335 I-0.406 J-0.072
X13.709 Y-10.314 Z8.265 I0.406 J0.072
X12.896 Y-10.458 Z8.195 I-0.406 J-0.072
X13.709 Y-10.314 Z8.125 I0.406 J0.072
X12.896 Y-10.458 Z8.056 I-0.406 J-0.072
X13.709 Y-10.314 Z7.986 I0.406 J0.072
X12.896 Y-10.458 Z7.916 I-0.406 J-0.072
X13.709 Y-10.314 Z7.846 I0.406 J0.072
X12.896 Y-10.458 Z7.776 I-0.406 J-0.072
X13.709 Y-10.314 Z7.706 I0.406 J0.072
X12.896 Y-10.458 Z7.636 I-0.406 J-0.072
X13.709 Y-10.314 Z7.567 I0.406 J0.072
X12.896 Y-10.458 Z7.497 I-0.406 J-0.072
X13.709 Y-10.314 Z7.427 I0.406 J0.072
X12.896 Y-10.458 Z7.357 I-0.406 J-0.072
X13.709 Y-10.314 Z7.287 I0.406 J0.072
X12.896 Y-10.458 Z7.217 I-0.406 J-0.072
X13.709 Y-10.314 Z7.148 I0.406 J0.072
X12.896 Y-10.458 Z7.078 I-0.406 J-0.072
X13.709 Y-10.314 Z7.008 I0.406 J0.072
X12.896 Y-10.458 Z6.938 I-0.406 J-0.072
X13.709 Y-10.314 Z6.868 I0.406 J0.072
X12.896 Y-10.458 Z6.798 I-0.406 J-0.072
X13.709 Y-10.314 Z6.729 I0.406 J0.072
X12.896 Y-10.458 Z6.659 I-0.406 J-0.072
X13.709 Y-10.314 Z6.589 I0.406 J0.072
X12.896 Y-10.458 Z6.519 I-0.406 J-0.072
X13.709 Y-10.314 Z6.449 I0.406 J0.072
X12.896 Y-10.458 Z6.379 I-0.406 J-0.072
X13.709 Y-10.314 Z6.31 I0.406 J0.072
X12.896 Y-10.458 Z6.24 I-0.406 J-0.072
X13.709 Y-10.314 Z6.17 I0.406 J0.072
X12.896 Y-10.458 Z6.1 I-0.406 J-0.072
X13.709 Y-10.314 Z6.03 I0.406 J0.072
X12.896 Y-10.458 Z5.96 I-0.406 J-0.072
X13.709 Y-10.314 Z5.89 I0.406 J0.072
X12.896 Y-10.458 Z5.821 I-0.406 J-0.072
X13.709 Y-10.314 Z5.751 I0.406 J0.072
X12.896 Y-10.458 Z5.681 I-0.406 J-0.072
X13.709 Y-10.314 Z5.611 I0.406 J0.072
X12.896 Y-10.458 Z5.541 I-0.406 J-0.072
X13.709 Y-10.314 Z5.471 I0.406 J0.072
X12.896 Y-10.458 Z5.402 I-0.406 J-0.072
X13.709 Y-10.314 Z5.332 I0.406 J0.072
X12.896 Y-10.458 Z5.262 I-0.406 J-0.072
X13.709 Y-10.314 Z5.192 I0.406 J0.072
X12.896 Y-10.458 Z5.122 I-0.406 J-0.072
X13.709 Y-10.314 Z5.052 I0.406 J0.072
X12.896 Y-10.458 Z4.983 I-0.406 J-0.072
X13.709 Y-10.314 Z4.913 I0.406 J0.072
X12.896 Y-10.458 Z4.843 I-0.406 J-0.072
X13.709 Y-10.314 Z4.773 I0.406 J0.072
X12.896 Y-10.458 Z4.703 I-0.406 J-0.072
X13.709 Y-10.314 Z4.633 I0.406 J0.072
X12.896 Y-10.458 Z4.563 I-0.406 J-0.072
X13.709 Y-10.314 Z4.494 I0.406 J0.072
X12.896 Y-10.458 Z4.424 I-0.406 J-0.072
X13.709 Y-10.314 Z4.354 I0.406 J0.072
X12.896 Y-10.458 Z4.284 I-0.406 J-0.072
X13.709 Y-10.314 Z4.214 I0.406 J0.072
X12.896 Y-10.458 Z4.144 I-0.406 J-0.072
X13.709 Y-10.314 Z4.075 I0.406 J0.072
X12.896 Y-10.458 Z4.005 I-0.406 J-0.072
X13.709 Y-10.314 Z3.935 I0.406 J0.072
X12.896 Y-10.458 Z3.865 I-0.406 J-0.072
X13.709 Y-10.314 Z3.795 I0.406 J0.072
X12.896 Y-10.458 Z3.725 I-0.406 J-0.072
X13.709 Y-10.314 Z3.656 I0.406 J0.072
X12.896 Y-10.458 Z3.586 I-0.406 J-0.072
X13.709 Y-10.314 Z3.516 I0.406 J0.072
X12.896 Y-10.458 Z3.446 I-0.406 J-0.072
X13.709 Y-10.314 Z3.376 I0.406 J0.072
X12.896 Y-10.458 Z3.306 I-0.406 J-0.072
X13.709 Y-10.314 Z3.236 I0.406 J0.072
X12.896 Y-10.458 Z3.167 I-0.406 J-0.072
X13.709 Y-10.314 Z3.097 I0.406 J0.072
X12.896 Y-10.458 Z3.027 I-0.406 J-0.072
X13.709 Y-10.314 Z2.957 I0.406 J0.072
X12.896 Y-10.458 Z2.887 I-0.406 J-0.072
X13.709 Y-10.314 Z2.817 I0.406 J0.072
X12.896 Y-10.458 Z2.748 I-0.406 J-0.072
X13.709 Y-10.314 Z2.678 I0.406 J0.072
X12.896 Y-10.458 Z2.608 I-0.406 J-0.072
X13.709 Y-10.314 Z2.538 I0.406 J0.072
X12.896 Y-10.458 Z2.468 I-0.406 J-0.072
X13.709 Y-10.314 Z2.398 I0.406 J0.072
X12.896 Y-10.458 Z2.329 I-0.406 J-0.072
X13.709 Y-10.314 Z2.259 I0.406 J0.072
X12.896 Y-10.458 Z2.189 I-0.406 J-0.072
X13.709 Y-10.314 Z2.119 I0.406 J0.072
X12.896 Y-10.458 Z2.049 I-0.406 J-0.072
X13.709 Y-10.314 Z1.979 I0.406 J0.072
X12.896 Y-10.458 Z1.909 I-0.406 J-0.072
X13.709 Y-10.314 Z1.84 I0.406 J0.072
X12.896 Y-10.458 Z1.77 I-0.406 J-0.072
X13.709 Y-10.314 Z1.7 I0.406 J0.072
X12.896 Y-10.458 Z1.63 I-0.406 J-0.072
X13.709 Y-10.314 Z1.56 I0.406 J0.072
X12.896 Y-10.458 Z1.49 I-0.406 J-0.072
X13.709 Y-10.314 Z1.421 I0.406 J0.072
X12.896 Y-10.458 Z1.351 I-0.406 J-0.072
X13.709 Y-10.314 Z1.281 I0.406 J0.072
X12.896 Y-10.458 Z1.211 I-0.406 J-0.072
X13.709 Y-10.314 Z1.141 I0.406 J0.072
X12.896 Y-10.458 Z1.071 I-0.406 J-0.072
X13.709 Y-10.314 Z1.002 I0.406 J0.072
X12.896 Y-10.458 Z0.932 I-0.406 J-0.072
X13.709 Y-10.314 Z0.862 I0.406 J0.072
X12.896 Y-10.458 Z0.792 I-0.406 J-0.072
X13.709 Y-10.314 Z0.722 I0.406 J0.072
X12.896 Y-10.458 Z0.652 I-0.406 J-0.072
X13.709 Y-10.314 Z0.583 I0.406 J0.072
X12.896 Y-10.458 Z0.513 I-0.406 J-0.072
X13.709 Y-10.314 Z0.443 I0.406 J0.072
X12.896 Y-10.458 Z0.373 I-0.406 J-0.072
X13.709 Y-10.314 Z0.303 I0.406 J0.072
X12.896 Y-10.458 Z0.233 I-0.406 J-0.072
X13.709 Y-10.314 Z0.163 I0.406 J0.072
X12.896 Y-10.458 Z0.094 I-0.406 J-0.072
X13.709 Y-10.314 Z0.024 I0.406 J0.072
X13.435 Y-9.995 Z0 I-0.406 J-0.072
X13.17 Y-10.777 I-0.133 J-0.391
X13.435 Y-9.995 I0.133 J0.391
X13.173 Y-10.124 I-0.066 J-0.195 F500
G1 X13.122 Y-10.275
X13.1 Y-10.342 Z0.008
X13.078 Y-10.405 Z0.031
X13.059 Y-10.462 Z0.069
X13.043 Y-10.51 Z0.12
X13.03 Y-10.546 Z0.18
X13.023 Y-10.568 Z0.247
X13.02 Y-10.575 Z0.317
G0 Z17
X17.515 Y-8.071
Z14.5
G1 Z10.818 F500
X17.523 Y-8.07 Z10.747
X17.546 Y-8.065 Z10.68
X17.583 Y-8.059 Z10.62
X17.633 Y-8.05 Z10.569
X17.692 Y-8.04 Z10.531
X17.758 Y-8.028 Z10.508
X17.828 Y-8.016 Z10.5
X17.984 Y-7.988
G3 X18.152 Y-7.749 I-0.036 J0.203
X17.339 Y-7.893 Z10.43 I-0.406 J-0.072 F600
X18.152 Y-7.749 Z10.36 I0.406 J0.072
X17.339 Y-7.893 Z10.29 I-0.406 J-0.072
X18.152 Y-7.749 Z10.221 I0.406 J0.072
X17.339 Y-7.893 Z10.151 I-0.406 J-0.072
X18.152 Y-7.749 Z10.081 I0.406 J0.072
X17.339 Y-7.893 Z10.011 I-0.406 J-0.072
X18.152 Y-7.749 Z9.941 I0.406 J0.072
X17.339 Y-7.893 Z9.871 I-0.406 J-0.072
X18.152 Y-7.749 Z9.802 I0.406 J0.072
X17.339 Y-7.893 Z9.732 I-0.406 J-0.072
X18.152 Y-7.749 Z9.662 I0.406 J0.072
X17.339 Y-7.893 Z9.592 I-0.406 J-0.072
X18.152 Y-7.749 Z9.522 I0.406 J0.072
X17.339 Y-7.893 Z9.452 I-0.406 J-0.072
X18.152 Y-7.749 Z9.383 I0.406 J0.072
X17.339 Y-7.893 Z9.313 I-0.406 J-0.072
X18.152 Y-7.749 Z9.243 I0.406 J0.072
X17.339 Y-7.893 Z9.173 I-0.406 J-0.072
X18.152 Y-7.749 Z9.103 I0.406 J0.072
X17.339 Y-7.893 Z9.033 I-0.406 J-0.072
X18.152 Y-7.749 Z8.963 I0.406 J0.072
X17.339 Y-7.893 Z8.894 I-0.406 J-0.072
X18.152 Y-7.749 Z8.824 I0.406 J0.072
X17.339 Y-7.893 Z8.754 I-0.406 J-0.072
X18.152 Y-7.749 Z8.684 I0.406 J0.072
X17.339 Y-7.893 Z8.614 I-0.406 J-0.072
X18.152 Y-7.749 Z8.544 I0.406 J0.072
X17.339 Y-7.893 Z8.475 I-0.406 J-0.072
X18.152 Y-7.749 Z8.405 I0.406 J0.072
X17.339 Y-7.893 Z8.335 I-0.406 J-0.072
X18.152 Y-7.749 Z8.265 I0.406 J0.072
X17.339 Y-7.893 Z8.195 I-0.406 J-0.072
X18.152 Y-7.749 Z8.125 I0.406 J0.072
X17.339 Y-7.893 Z8.056 I-0.406 J-0.072
X18.152 Y-7.749 Z7.986 I0.406 J0.072
X17.339 Y-7.893 Z7.916 I-0.406 J-0.072
X18.152 Y-7.749 Z7.846 I0.406 J0.072
X17.339 Y-7.893 Z7.776 I-0.406 J-0.072
X18.152 Y-7.749 Z7.706 I0.406 J0.072
X17.339 Y-7.893 Z7.636 I-0.406 J-0.072
X18.152 Y-7.749 Z7.567 I0.406 J0.072
X17.339 Y-7.893 Z7.497 I-0.406 J-0.072
X18.152 Y-7.749 Z7.427 I0.406 J0.072
X17.339 Y-7.893 Z7.357 I-0.406 J-0.072
X18.152 Y-7.749 Z7.287 I0.406 J0.072
X17.339 Y-7.893 Z7.217 I-0.406 J-0.072
X18.152 Y-7.749 Z7.148 I0.406 J0.072
X17.339 Y-7.893 Z7.078 I-0.406 J-0.072
X18.152 Y-7.749 Z7.008 I0.406 J0.072
X17.339 Y-7.893 Z6.938 I-0.406 J-0.072
X18.152 Y-7.749 Z6.868 I0.406 J0.072
X17.339 Y-7.893 Z6.798 I-0.406 J-0.072
X18.152 Y-7.749 Z6.729 I0.406 J0.072
X17.339 Y-7.893 Z6.659 I-0.406 J-0.072
X18.152 Y-7.749 Z6.589 I0.406 J0.072
X17.339 Y-7.893 Z6.519 I-0.406 J-0.072
X18.152 Y-7.749 Z6.449 I0.406 J0.072
X17.339 Y-7.893 Z6.379 I-0.406 J-0.072
X18.152 Y-7.749 Z6.31 I0.406 J0.072
X17.339 Y-7.893 Z6.24 I-0.406 J-0.072
X18.152 Y-7.749 Z6.17 I0.406 J0.072
X17.339 Y-7.893 Z6.1 I-0.406 J-0.072
X18.152 Y-7.749 Z6.03 I0.406 J0.072
X17.339 Y-7.893 Z5.96 I-0.406 J-0.072
X18.152 Y-7.749 Z5.89 I0.406 J0.072
X17.339 Y-7.893 Z5.821 I-0.406 J-0.072
X18.152 Y-7.749 Z5.751 I0.406 J0.072
X17.339 Y-7.893 Z5.681 I-0.406 J-0.072
X18.152 Y-7.749 Z5.611 I0.406 J0.072
X17.339 Y-7.893 Z5.541 I-0.406 J-0.072
X18.152 Y-7.749 Z5.471 I0.406 J0.072
X17.339 Y-7.893 Z5.402 I-0.406 J-0.072
X18.152 Y-7.749 Z5.332 I0.406 J0.072
X17.339 Y-7.893 Z5.262 I-0.406 J-0.072
X18.152 Y-7.749 Z5.192 I0.406 J0.072
X17.339 Y-7.893 Z5.122 I-0.406 J-0.072
X18.152 Y-7.749 Z5.052 I0.406 J0.072
X17.339 Y-7.893 Z4.983 I-0.406 J-0.072
X18.152 Y-7.749 Z4.913 I0.406 J0.072
X17.339 Y-7.893 Z4.843 I-0.406 J-0.072
X18.152 Y-7.749 Z4.773 I0.406 J0.072
X17.339 Y-7.893 Z4.703 I-0.406 J-0.072
X18.152 Y-7.749 Z4.633 I0.406 J0.072
X17.339 Y-7.893 Z4.563 I-0.406 J-0.072
X18.152 Y-7.749 Z4.494 I0.406 J0.072
X17.339 Y-7.893 Z4.424 I-0.406 J-0.072
X18.152 Y-7.749 Z4.354 I0.406 J0.072
X17.339 Y-7.893 Z4.284 I-0.406 J-0.072
X18.152 Y-7.749 Z4.214 I0.406 J0.072
X17.339 Y-7.893 Z4.144 I-0.406 J-0.072
X18.152 Y-7.749 Z4.075 I0.406 J0.072
X17.339 Y-7.893 Z4.005 I-0.406 J-0.072
X18.152 Y-7.749 Z3.935 I0.406 J0.072
X17.339 Y-7.893 Z3.865 I-0.406 J-0.072
X18.152 Y-7.749 Z3.795 I0.406 J0.072
X17.339 Y-7.893 Z3.725 I-0.406 J-0.072
X18.152 Y-7.749 Z3.656 I0.406 J0.072
X17.339 Y-7.893 Z3.586 I-0.406 J-0.072
X18.152 Y-7.749 Z3.516 I0.406 J0.072
X17.339 Y-7.893 Z3.446 I-0.406 J-0.072
X18.152 Y-7.749 Z3.376 I0.406 J0.072
X17.339 Y-7.893 Z3.306 I-0.406 J-0.072
X18.152 Y-7.749 Z3.236 I0.406 J0.072
X17.339 Y-7.893 Z3.167 I-0.406 J-0.072
X18.152 Y-7.749 Z3.097 I0.406 J0.072
X17.339 Y-7.893 Z3.027 I-0.406 J-0.072
X18.152 Y-7.749 Z2.957 I0.406 J0.072
X17.339 Y-7.893 Z2.887 I-0.406 J-0.072
X18.152 Y-7.749 Z2.817 I0.406 J0.072
X17.339 Y-7.893 Z2.748 I-0.406 J-0.072
X18.152 Y-7.749 Z2.678 I0.406 J0.072
X17.339 Y-7.893 Z2.608 I-0.406 J-0.072
X18.152 Y-7.749 Z2.538 I0.406 J0.072
X17.339 Y-7.893 Z2.468 I-0.406 J-0.072
X18.152 Y-7.749 Z2.398 I0.406 J0.072
X17.339 Y-7.893 Z2.329 I-0.406 J-0.072
X18.152 Y-7.749 Z2.259 I0.406 J0.072
X17.339 Y-7.893 Z2.189 I-0.406 J-0.072
X18.152 Y-7.749 Z2.119 I0.406 J0.072
X17.339 Y-7.893 Z2.049 I-0.406 J-0.072
X18.152 Y-7.749 Z1.979 I0.406 J0.072
X17.339 Y-7.893 Z1.909 I-0.406 J-0.072
X18.152 Y-7.749 Z1.84 I0.406 J0.072
X17.339 Y-7.893 Z1.77 I-0.406 J-0.072
X18.152 Y-7.749 Z1.7 I0.406 J0.072
X17.339 Y-7.893 Z1.63 I-0.406 J-0.072
X18.152 Y-7.749 Z1.56 I0.406 J0.072
X17.339 Y-7.893 Z1.49 I-0.406 J-0.072
X18.152 Y-7.749 Z1.421 I0.406 J0.072
X17.339 Y-7.893 Z1.351 I-0.406 J-0.072
X18.152 Y-7.749 Z1.281 I0.406 J0.072
X17.339 Y-7.893 Z1.211 I-0.406 J-0.072
X18.152 Y-7.749 Z1.141 I0.406 J0.072
X17.339 Y-7.893 Z1.071 I-0.406 J-0.072
X18.152 Y-7.749 Z1.002 I0.406 J0.072
X17.339 Y-7.893 Z0.932 I-0.406 J-0.072
X18.152 Y-7.749 Z0.862 I0.406 J0.072
X17.339 Y-7.893 Z0.792 I-0.406 J-0.072
X18.152 Y-7.749 Z0.722 I0.406 J0.072
X17.339 Y-7.893 Z0.652 I-0.406 J-0.072
X18.152 Y-7.749 Z0.583 I0.406 J0.072
X17.339 Y-7.893 Z0.513 I-0.406 J-0.072
X18.152 Y-7.749 Z0.443 I0.406 J0.072
X17.339 Y-7.893 Z0.373 I-0.406 J-0.072
X18.152 Y-7.749 Z0.303 I0.406 J0.072
X17.339 Y-7.893 Z0.233 I-0.406 J-0.072
X18.152 Y-7.749 Z0.163 I0.406 J0.072
X17.339 Y-7.893 Z0.094 I-0.406 J-0.072
X18.152 Y-7.749 Z0.024 I0.406 J0.072
X17.878 Y-7.43 Z0 I-0.406 J-0.072
X17.613 Y-8.212 I-0.133 J-0.391
X17.878 Y-7.43 I0.133 J0.391
X17.616 Y-7.559 I-0.066 J-0.195 F500
G1 X17.565 Y-7.71
X17.543 Y-7.777 Z0.008
X17.521 Y-7.84 Z0.031
X17.502 Y-7.897 Z0.069
X17.486 Y-7.945 Z0.12
X17.473 Y-7.981 Z0.18
X17.466 Y-8.003 Z0.247
X17.463 Y-8.01 Z0.317
G0 Z17
X-7.485 Y-8.071
Z14.5
G1 Z10.818 F500
X-7.477 Y-8.07 Z10.747
X-7.454 Y-8.065 Z10.68
X-7.417 Y-8.059 Z10.62
X-7.367 Y-8.05 Z10.569
X-7.308 Y-8.04 Z10.531
X-7.242 Y-8.028 Z10.508
X-7.172 Y-8.016 Z10.5
X-7.016 Y-7.988
G3 X-6.848 Y-7.749 I-0.036 J0.203
X-7.661 Y-7.893 Z10.43 I-0.406 J-0.072 F600
X-6.848 Y-7.749 Z10.36 I0.406 J0.072
X-7.661 Y-7.893 Z10.29 I-0.406 J-0.072
X-6.848 Y-7.749 Z10.221 I0.406 J0.072
X-7.661 Y-7.893 Z10.151 I-0.406 J-0.072
X-6.848 Y-7.749 Z10.081 I0.406 J0.072
X-7.661 Y-7.893 Z10.011 I-0.406 J-0.072
X-6.848 Y-7.749 Z9.941 I0.406 J0.072
X-7.661 Y-7.893 Z9.871 I-0.406 J-0.072
X-6.848 Y-7.749 Z9.802 I0.406 J0.072
X-7.661 Y-7.893 Z9.732 I-0.406 J-0.072
X-6.848 Y-7.749 Z9.662 I0.406 J0.072
X-7.661 Y-7.893 Z9.592 I-0.406 J-0.072
X-6.848 Y-7.749 Z9.522 I0.406 J0.072
X-7.661 Y-7.893 Z9.452 I-0.406 J-0.072
X-6.848 Y-7.749 Z9.383 I0.406 J0.072
X-7.661 Y-7.893 Z9.313 I-0.406 J-0.072
X-6.848 Y-7.749 Z9.243 I0.406 J0.072
X-7.661 Y-7.893 Z9.173 I-0.406 J-0.072
X-6.848 Y-7.749 Z9.103 I0.406 J0.072
X-7.661 Y-7.893 Z9.033 I-0.406 J-0.072
X-6.848 Y-7.749 Z8.963 I0.406 J0.072
X-7.661 Y-7.893 Z8.894 I-0.406 J-0.072
X-6.848 Y-7.749 Z8.824 I0.406 J0.072
X-7.661 Y-7.893 Z8.754 I-0.406 J-0.072
X-6.848 Y-7.749 Z8.684 I0.406 J0.072
X-7.661 Y-7.893 Z8.614 I-0.406 J-0.072
X-6.848 Y-7.749 Z8.544 I0.406 J0.072
X-7.661 Y-7.893 Z8.475 I-0.406 J-0.072
X-6.848 Y-7.749 Z8.405 I0.406 J0.072
X-7.661 Y-7.893 Z8.335 I-0.406 J-0.072
X-6.848 Y-7.749 Z8.265 I0.406 J0.072
X-7.661 Y-7.893 Z8.195 I-0.406 J-0.072
X-6.848 Y-7.749 Z8.125 I0.406 J0.072
X-7.661 Y-7.893 Z8.056 I-0.406 J-0.072
X-6.848 Y-7.749 Z7.986 I0.406 J0.072
X-7.661 Y-7.893 Z7.916 I-0.406 J-0.072
X-6.848 Y-7.749 Z7.846 I0.406 J0.072
X-7.661 Y-7.893 Z7.776 I-0.406 J-0.072
X-6.848 Y-7.749 Z7.706 I0.406 J0.072
X-7.661 Y-7.893 Z7.636 I-0.406 J-0.072
X-6.848 Y-7.749 Z7.567 I0.406 J0.072
X-7.661 Y-7.893 Z7.497 I-0.406 J-0.072
X-6.848 Y-7.749 Z7.427 I0.406 J0.072
X-7.661 Y-7.893 Z7.357 I-0.406 J-0.072
X-6.848 Y-7.749 Z7.287 I0.406 J0.072
X-7.661 Y-7.893 Z7.217 I-0.406 J-0.072
X-6.848 Y-7.749 Z7.148 I0.406 J0.072
X-7.661 Y-7.893 Z7.078 I-0.406 J-0.072
X-6.848 Y-7.749 Z7.008 I0.406 J0.072
X-7.661 Y-7.893 Z6.938 I-0.406 J-0.072
X-6.848 Y-7.749 Z6.868 I0.406 J0.072
X-7.661 Y-7.893 Z6.798 I-0.406 J-0.072
X-6.848 Y-7.749 Z6.729 I0.406 J0.072
X-7.661 Y-7.893 Z6.659 I-0.406 J-0.072
X-6.848 Y-7.749 Z6.589 I0.406 J0.072
X-7.661 Y-7.893 Z6.519 I-0.406 J-0.072
X-6.848 Y-7.749 Z6.449 I0.406 J0.072
X-7.661 Y-7.893 Z6.379 I-0.406 J-0.072
X-6.848 Y-7.749 Z6.31 I0.406 J0.072
X-7.661 Y-7.893 Z6.24 I-0.406 J-0.072
X-6.848 Y-7.749 Z6.17 I0.406 J0.072
X-7.661 Y-7.893 Z6.1 I-0.406 J-0.072
X-6.848 Y-7.749 Z6.03 I0.406 J0.072
X-7.661 Y-7.893 Z5.96 I-0.406 J-0.072
X-6.848 Y-7.749 Z5.89 I0.406 J0.072
X-7.661 Y-7.893 Z5.821 I-0.406 J-0.072
X-6.848 Y-7.749 Z5.751 I0.406 J0.072
X-7.661 Y-7.893 Z5.681 I-0.406 J-0.072
X-6.848 Y-7.749 Z5.611 I0.406 J0.072
X-7.661 Y-7.893 Z5.541 I-0.406 J-0.072
X-6.848 Y-7.749 Z5.471 I0.406 J0.072
X-7.661 Y-7.893 Z5.402 I-0.406 J-0.072
X-6.848 Y-7.749 Z5.332 I0.406 J0.072
X-7.661 Y-7.893 Z5.262 I-0.406 J-0.072
X-6.848 Y-7.749 Z5.192 I0.406 J0.072
X-7.661 Y-7.893 Z5.122 I-0.406 J-0.072
X-6.848 Y-7.749 Z5.052 I0.406 J0.072
X-7.661 Y-7.893 Z4.983 I-0.406 J-0.072
X-6.848 Y-7.749 Z4.913 I0.406 J0.072
X-7.661 Y-7.893 Z4.843 I-0.406 J-0.072
X-6.848 Y-7.749 Z4.773 I0.406 J0.072
X-7.661 Y-7.893 Z4.703 I-0.406 J-0.072
X-6.848 Y-7.749 Z4.633 I0.406 J0.072
X-7.661 Y-7.893 Z4.563 I-0.406 J-0.072
X-6.848 Y-7.749 Z4.494 I0.406 J0.072
X-7.661 Y-7.893 Z4.424 I-0.406 J-0.072
X-6.848 Y-7.749 Z4.354 I0.406 J0.072
X-7.661 Y-7.893 Z4.284 I-0.406 J-0.072
X-6.848 Y-7.749 Z4.214 I0.406 J0.072
X-7.661 Y-7.893 Z4.144 I-0.406 J-0.072
X-6.848 Y-7.749 Z4.075 I0.406 J0.072
X-7.661 Y-7.893 Z4.005 I-0.406 J-0.072
X-6.848 Y-7.749 Z3.935 I0.406 J0.072
X-7.661 Y-7.893 Z3.865 I-0.406 J-0.072
X-6.848 Y-7.749 Z3.795 I0.406 J0.072
X-7.661 Y-7.893 Z3.725 I-0.406 J-0.072
X-6.848 Y-7.749 Z3.656 I0.406 J0.072
X-7.661 Y-7.893 Z3.586 I-0.406 J-0.072
X-6.848 Y-7.749 Z3.516 I0.406 J0.072
X-7.661 Y-7.893 Z3.446 I-0.406 J-0.072
X-6.848 Y-7.749 Z3.376 I0.406 J0.072
X-7.661 Y-7.893 Z3.306 I-0.406 J-0.072
X-6.848 Y-7.749 Z3.236 I0.406 J0.072
X-7.661 Y-7.893 Z3.167 I-0.406 J-0.072
X-6.848 Y-7.749 Z3.097 I0.406 J0.072
X-7.661 Y-7.893 Z3.027 I-0.406 J-0.072
X-6.848 Y-7.749 Z2.957 I0.406 J0.072
X-7.661 Y-7.893 Z2.887 I-0.406 J-0.072
X-6.848 Y-7.749 Z2.817 I0.406 J0.072
X-7.661 Y-7.893 Z2.748 I-0.406 J-0.072
X-6.848 Y-7.749 Z2.678 I0.406 J0.072
X-7.661 Y-7.893 Z2.608 I-0.406 J-0.072
X-6.848 Y-7.749 Z2.538 I0.406 J0.072
X-7.661 Y-7.893 Z2.468 I-0.406 J-0.072
X-6.848 Y-7.749 Z2.398 I0.406 J0.072
X-7.661 Y-7.893 Z2.329 I-0.406 J-0.072
X-6.848 Y-7.749 Z2.259 I0.406 J0.072
X-7.661 Y-7.893 Z2.189 I-0.406 J-0.072
X-6.848 Y-7.749 Z2.119 I0.406 J0.072
X-7.661 Y-7.893 Z2.049 I-0.406 J-0.072
X-6.848 Y-7.749 Z1.979 I0.406 J0.072
X-7.661 Y-7.893 Z1.909 I-0.406 J-0.072
X-6.848 Y-7.749 Z1.84 I0.406 J0.072
X-7.661 Y-7.893 Z1.77 I-0.406 J-0.072
X-6.848 Y-7.749 Z1.7 I0.406 J0.072
X-7.661 Y-7.893 Z1.63 I-0.406 J-0.072
X-6.848 Y-7.749 Z1.56 I0.406 J0.072
X-7.661 Y-7.893 Z1.49 I-0.406 J-0.072
X-6.848 Y-7.749 Z1.421 I0.406 J0.072
X-7.661 Y-7.893 Z1.351 I-0.406 J-0.072
X-6.848 Y-7.749 Z1.281 I0.406 J0.072
X-7.661 Y-7.893 Z1.211 I-0.406 J-0.072
X-6.848 Y-7.749 Z1.141 I0.406 J0.072
X-7.661 Y-7.893 Z1.071 I-0.406 J-0.072
X-6.848 Y-7.749 Z1.002 I0.406 J0.072
X-7.661 Y-7.893 Z0.932 I-0.406 J-0.072
X-6.848 Y-7.749 Z0.862 I0.406 J0.072
X-7.661 Y-7.893 Z0.792 I-0.406 J-0.072
X-6.848 Y-7.749 Z0.722 I0.406 J0.072
X-7.661 Y-7.893 Z0.652 I-0.406 J-0.072
X-6.848 Y-7.749 Z0.583 I0.406 J0.072
X-7.661 Y-7.893 Z0.513 I-0.406 J-0.072
X-6.848 Y-7.749 Z0.443 I0.406 J0.072
X-7.661 Y-7.893 Z0.373 I-0.406 J-0.072
X-6.848 Y-7.749 Z0.303 I0.406 J0.072
X-7.661 Y-7.893 Z0.233 I-0.406 J-0.072
X-6.848 Y-7.749 Z0.163 I0.406 J0.072
X-7.661 Y-7.893 Z0.094 I-0.406 J-0.072
X-6.848 Y-7.749 Z0.024 I0.406 J0.072
X-7.122 Y-7.43 Z0 I-0.406 J-0.072
X-7.387 Y-8.212 I-0.133 J-0.391
X-7.122 Y-7.43 I0.133 J0.391
X-7.384 Y-7.559 I-0.066 J-0.195 F500
G1 X-7.435 Y-7.71
X-7.457 Y-7.777 Z0.008
X-7.479 Y-7.84 Z0.031
X-7.498 Y-7.897 Z0.069
X-7.514 Y-7.945 Z0.12
X-7.527 Y-7.981 Z0.18
X-7.534 Y-8.003 Z0.247
X-7.537 Y-8.01 Z0.317
G0 Z17
X-11.928 Y-10.636
Z14.5
G1 Z10.818 F500
X-11.92 Y-10.635 Z10.747
X-11.897 Y-10.631 Z10.68
X-11.86 Y-10.624 Z10.62
X-11.81 Y-10.615 Z10.569
X-11.751 Y-10.605 Z10.531
X-11.685 Y-10.593 Z10.508
X-11.615 Y-10.581 Z10.5
X-11.459 Y-10.553
G3 X-11.291 Y-10.314 I-0.036 J0.203
X-12.104 Y-10.458 Z10.43 I-0.406 J-0.072 F600
X-11.291 Y-10.314 Z10.36 I0.406 J0.072
X-12.104 Y-10.458 Z10.29 I-0.406 J-0.072
X-11.291 Y-10.314 Z10.221 I0.406 J0.072
X-12.104 Y-10.458 Z10.151 I-0.406 J-0.072
X-11.291 Y-10.314 Z10.081 I0.406 J0.072
X-12.104 Y-10.458 Z10.011 I-0.406 J-0.072
X-11.291 Y-10.314 Z9.941 I0.406 J0.072
X-12.104 Y-10.458 Z9.871 I-0.406 J-0.072
X-11.291 Y-10.314 Z9.802 I0.406 J0.072
X-12.104 Y-10.458 Z9.732 I-0.406 J-0.072
X-11.291 Y-10.314 Z9.662 I0.406 J0.072
X-12.104 Y-10.458 Z9.592 I-0.406 J-0.072
X-11.291 Y-10.314 Z9.522 I0.406 J0.072
X-12.104 Y-10.458 Z9.452 I-0.406 J-0.072
X-11.291 Y-10.314 Z9.383 I0.406 J0.072
X-12.104 Y-10.458 Z9.313 I-0.406 J-0.072
X-11.291 Y-10.314 Z9.243 I0.406 J0.072
X-12.104 Y-10.458 Z9.173 I-0.406 J-0.072
X-11.291 Y-10.314 Z9.103 I0.406 J0.072
X-12.104 Y-10.458 Z9.033 I-0.406 J-0.072
X-11.291 Y-10.314 Z8.963 I0.406 J0.072
X-12.104 Y-10.458 Z8.894 I-0.406 J-0.072
X-11.291 Y-10.314 Z8.824 I0.406 J0.072
X-12.104 Y-10.458 Z8.754 I-0.406 J-0.072
X-11.291 Y-10.314 Z8.684 I0.406 J0.072
X-12.104 Y-10.458 Z8.614 I-0.406 J-0.072
X-11.291 Y-10.314 Z8.544 I0.406 J0.072
X-12.104 Y-10.458 Z8.475 I-0.406 J-0.072
X-11.291 Y-10.314 Z8.405 I0.406 J0.072
X-12.104 Y-10.458 Z8.335 I-0.406 J-0.072
X-11.291 Y-10.314 Z8.265 I0.406 J0.072
X-12.104 Y-10.458 Z8.195 I-0.406 J-0.072
X-11.291 Y-10.314 Z8.125 I0.406 J0.072
X-12.104 Y-10.458 Z8.056 I-0.406 J-0.072
X-11.291 Y-10.314 Z7.986 I0.406 J0.072
X-12.104 Y-10.458 Z7.916 I-0.406 J-0.072
X-11.291 Y-10.314 Z7.846 I0.406 J0.072
X-12.104 Y-10.458 Z7.776 I-0.406 J-0.072
X-11.291 Y-10.314 Z7.706 I0.406 J0.072
X-12.104 Y-10.458 Z7.636 I-0.406 J-0.072
X-11.291 Y-10.314 Z7.567 I0.406 J0.072
X-12.104 Y-10.458 Z7.497 I-0.406 J-0.072
X-11.291 Y-10.314 Z7.427 I0.406 J0.072
X-12.104 Y-10.458 Z7.357 I-0.406 J-0.072
X-11.291 Y-10.314 Z7.287 I0.406 J0.072
X-12.104 Y-10.458 Z7.217 I-0.406 J-0.072
X-11.291 Y-10.314 Z7.148 I0.406 J0.072
X-12.104 Y-10.458 Z7.078 I-0.406 J-0.072
X-11.291 Y-10.314 Z7.008 I0.406 J0.072
X-12.104 Y-10.458 Z6.938 I-0.406 J-0.072
X-11.291 Y-10.314 Z6.868 I0.406 J0.072
X-12.104 Y-10.458 Z6.798 I-0.406 J-0.072
X-11.291 Y-10.314 Z6.729 I0.406 J0.072
X-12.104 Y-10.458 Z6.659 I-0.406 J-0.072
X-11.291 Y-10.314 Z6.589 I0.406 J0.072
X-12.104 Y-10.458 Z6.519 I-0.406 J-0.072
X-11.291 Y-10.314 Z6.449 I0.406 J0.072
X-12.104 Y-10.458 Z6.379 I-0.406 J-0.072
X-11.291 Y-10.314 Z6.31 I0.406 J0.072
X-12.104 Y-10.458 Z6.24 I-0.406 J-0.072
X-11.291 Y-10.314 Z6.17 I0.406 J0.072
X-12.104 Y-10.458 Z6.1 I-0.406 J-0.072
X-11.291 Y-10.314 Z6.03 I0.406 J0.072
X-12.104 Y-10.458 Z5.96 I-0.406 J-0.072
X-11.291 Y-10.314 Z5.89 I0.406 J0.072
X-12.104 Y-10.458 Z5.821 I-0.406 J-0.072
X-11.291 Y-10.314 Z5.751 I0.406 J0.072
X-12.104 Y-10.458 Z5.681 I-0.406 J-0.072
X-11.291 Y-10.314 Z5.611 I0.406 J0.072
X-12.104 Y-10.458 Z5.541 I-0.406 J-0.072
X-11.291 Y-10.314 Z5.471 I0.406 J0.072
X-12.104 Y-10.458 Z5.402 I-0.406 J-0.072
X-11.291 Y-10.314 Z5.332 I0.406 J0.072
X-12.104 Y-10.458 Z5.262 I-0.406 J-0.072
X-11.291 Y-10.314 Z5.192 I0.406 J0.072
X-12.104 Y-10.458 Z5.122 I-0.406 J-0.072
X-11.291 Y-10.314 Z5.052 I0.406 J0.072
X-12.104 Y-10.458 Z4.983 I-0.406 J-0.072
X-11.291 Y-10.314 Z4.913 I0.406 J0.072
X-12.104 Y-10.458 Z4.843 I-0.406 J-0.072
X-11.291 Y-10.314 Z4.773 I0.406 J0.072
X-12.104 Y-10.458 Z4.703 I-0.406 J-0.072
X-11.291 Y-10.314 Z4.633 I0.406 J0.072
X-12.104 Y-10.458 Z4.563 I-0.406 J-0.072
X-11.291 Y-10.314 Z4.494 I0.406 J0.072
X-12.104 Y-10.458 Z4.424 I-0.406 J-0.072
X-11.291 Y-10.314 Z4.354 I0.406 J0.072
X-12.104 Y-10.458 Z4.284 I-0.406 J-0.072
X-11.291 Y-10.314 Z4.214 I0.406 J0.072
X-12.104 Y-10.458 Z4.144 I-0.406 J-0.072
X-11.291 Y-10.314 Z4.075 I0.406 J0.072
X-12.104 Y-10.458 Z4.005 I-0.406 J-0.072
X-11.291 Y-10.314 Z3.935 I0.406 J0.072
X-12.104 Y-10.458 Z3.865 I-0.406 J-0.072
X-11.291 Y-10.314 Z3.795 I0.406 J0.072
X-12.104 Y-10.458 Z3.725 I-0.406 J-0.072
X-11.291 Y-10.314 Z3.656 I0.406 J0.072
X-12.104 Y-10.458 Z3.586 I-0.406 J-0.072
X-11.291 Y-10.314 Z3.516 I0.406 J0.072
X-12.104 Y-10.458 Z3.446 I-0.406 J-0.072
X-11.291 Y-10.314 Z3.376 I0.406 J0.072
X-12.104 Y-10.458 Z3.306 I-0.406 J-0.072
X-11.291 Y-10.314 Z3.236 I0.406 J0.072
X-12.104 Y-10.458 Z3.167 I-0.406 J-0.072
X-11.291 Y-10.314 Z3.097 I0.406 J0.072
X-12.104 Y-10.458 Z3.027 I-0.406 J-0.072
X-11.291 Y-10.314 Z2.957 I0.406 J0.072
X-12.104 Y-10.458 Z2.887 I-0.406 J-0.072
X-11.291 Y-10.314 Z2.817 I0.406 J0.072
X-12.104 Y-10.458 Z2.748 I-0.406 J-0.072
X-11.291 Y-10.314 Z2.678 I0.406 J0.072
X-12.104 Y-10.458 Z2.608 I-0.406 J-0.072
X-11.291 Y-10.314 Z2.538 I0.406 J0.072
X-12.104 Y-10.458 Z2.468 I-0.406 J-0.072
X-11.291 Y-10.314 Z2.398 I0.406 J0.072
X-12.104 Y-10.458 Z2.329 I-0.406 J-0.072
X-11.291 Y-10.314 Z2.259 I0.406 J0.072
X-12.104 Y-10.458 Z2.189 I-0.406 J-0.072
X-11.291 Y-10.314 Z2.119 I0.406 J0.072
X-12.104 Y-10.458 Z2.049 I-0.406 J-0.072
X-11.291 Y-10.314 Z1.979 I0.406 J0.072
X-12.104 Y-10.458 Z1.909 I-0.406 J-0.072
X-11.291 Y-10.314 Z1.84 I0.406 J0.072
X-12.104 Y-10.458 Z1.77 I-0.406 J-0.072
X-11.291 Y-10.314 Z1.7 I0.406 J0.072
X-12.104 Y-10.458 Z1.63 I-0.406 J-0.072
X-11.291 Y-10.314 Z1.56 I0.406 J0.072
X-12.104 Y-10.458 Z1.49 I-0.406 J-0.072
X-11.291 Y-10.314 Z1.421 I0.406 J0.072
X-12.104 Y-10.458 Z1.351 I-0.406 J-0.072
X-11.291 Y-10.314 Z1.281 I0.406 J0.072
X-12.104 Y-10.458 Z1.211 I-0.406 J-0.072
X-11.291 Y-10.314 Z1.141 I0.406 J0.072
X-12.104 Y-10.458 Z1.071 I-0.406 J-0.072
X-11.291 Y-10.314 Z1.002 I0.406 J0.072
X-12.104 Y-10.458 Z0.932 I-0.406 J-0.072
X-11.291 Y-10.314 Z0.862 I0.406 J0.072
X-12.104 Y-10.458 Z0.792 I-0.406 J-0.072
X-11.291 Y-10.314 Z0.722 I0.406 J0.072
X-12.104 Y-10.458 Z0.652 I-0.406 J-0.072
X-11.291 Y-10.314 Z0.583 I0.406 J0.072
X-12.104 Y-10.458 Z0.513 I-0.406 J-0.072
X-11.291 Y-10.314 Z0.443 I0.406 J0.072
X-12.104 Y-10.458 Z0.373 I-0.406 J-0.072
X-11.291 Y-10.314 Z0.303 I0.406 J0.072
X-12.104 Y-10.458 Z0.233 I-0.406 J-0.072
X-11.291 Y-10.314 Z0.163 I0.406 J0.072
X-12.104 Y-10.458 Z0.094 I-0.406 J-0.072
X-11.291 Y-10.314 Z0.024 I0.406 J0.072
X-11.565 Y-9.995 Z0 I-0.406 J-0.072
X-11.83 Y-10.777 I-0.133 J-0.391
X-11.565 Y-9.995 I0.133 J0.391
X-11.827 Y-10.124 I-0.066 J-0.195 F500
G1 X-11.878 Y-10.275
X-11.9 Y-10.342 Z0.008
X-11.922 Y-10.405 Z0.031
X-11.941 Y-10.462 Z0.069
X-11.957 Y-10.51 Z0.12
X-11.97 Y-10.546 Z0.18
X-11.977 Y-10.568 Z0.247
X-11.98 Y-10.575 Z0.317
G0 Z17
X-20.328 Y-5.757
Z14.5
G1 Z10.818 F500
X-20.32 Z10.747
X-20.297 Y-5.759 Z10.68
X-20.259 Y-5.761 Z10.62
X-20.209 Y-5.763 Z10.569
X-20.149 Y-5.766 Z10.531
X-20.082 Y-5.77 Z10.508
X-20.011 Y-5.774 Z10.5
X-19.853 Y-5.782
G3 X-19.636 Y-5.587 I0.011 J0.206
X-20.46 Y-5.543 Z10.43 I-0.412 J0.022 F600
X-19.636 Y-5.587 Z10.36 I0.412 J-0.022
X-20.46 Y-5.543 Z10.29 I-0.412 J0.022
X-19.636 Y-5.587 Z10.221 I0.412 J-0.022
X-20.46 Y-5.543 Z10.151 I-0.412 J0.022
X-19.636 Y-5.587 Z10.081 I0.412 J-0.022
X-20.46 Y-5.543 Z10.011 I-0.412 J0.022
X-19.636 Y-5.587 Z9.941 I0.412 J-0.022
X-20.46 Y-5.543 Z9.871 I-0.412 J0.022
X-19.636 Y-5.587 Z9.802 I0.412 J-0.022
X-20.46 Y-5.543 Z9.732 I-0.412 J0.022
X-19.636 Y-5.587 Z9.662 I0.412 J-0.022
X-20.46 Y-5.543 Z9.592 I-0.412 J0.022
X-19.636 Y-5.587 Z9.522 I0.412 J-0.022
X-20.46 Y-5.543 Z9.452 I-0.412 J0.022
X-19.636 Y-5.587 Z9.383 I0.412 J-0.022
X-20.46 Y-5.543 Z9.313 I-0.412 J0.022
X-19.636 Y-5.587 Z9.243 I0.412 J-0.022
X-20.46 Y-5.543 Z9.173 I-0.412 J0.022
X-19.636 Y-5.587 Z9.103 I0.412 J-0.022
X-20.46 Y-5.543 Z9.033 I-0.412 J0.022
X-19.636 Y-5.587 Z8.963 I0.412 J-0.022
X-20.46 Y-5.543 Z8.894 I-0.412 J0.022
X-19.636 Y-5.587 Z8.824 I0.412 J-0.022
X-20.46 Y-5.543 Z8.754 I-0.412 J0.022
X-19.636 Y-5.587 Z8.684 I0.412 J-0.022
X-20.46 Y-5.543 Z8.614 I-0.412 J0.022
X-19.636 Y-5.587 Z8.544 I0.412 J-0.022
X-20.46 Y-5.543 Z8.475 I-0.412 J0.022
X-19.636 Y-5.587 Z8.405 I0.412 J-0.022
X-20.46 Y-5.543 Z8.335 I-0.412 J0.022
X-19.636 Y-5.587 Z8.265 I0.412 J-0.022
X-20.46 Y-5.543 Z8.195 I-0.412 J0.022
X-19.636 Y-5.587 Z8.125 I0.412 J-0.022
X-20.46 Y-5.543 Z8.056 I-0.412 J0.022
X-19.636 Y-5.587 Z7.986 I0.412 J-0.022
X-20.46 Y-5.543 Z7.916 I-0.412 J0.022
X-19.636 Y-5.587 Z7.846 I0.412 J-0.022
X-20.46 Y-5.543 Z7.776 I-0.412 J0.022
X-19.636 Y-5.587 Z7.706 I0.412 J-0.022
X-20.46 Y-5.543 Z7.636 I-0.412 J0.022
X-19.636 Y-5.587 Z7.567 I0.412 J-0.022
X-20.46 Y-5.543 Z7.497 I-0.412 J0.022
X-19.636 Y-5.587 Z7.427 I0.412 J-0.022
X-20.46 Y-5.543 Z7.357 I-0.412 J0.022
X-19.636 Y-5.587 Z7.287 I0.412 J-0.022
X-20.46 Y-5.543 Z7.217 I-0.412 J0.022
X-19.636 Y-5.587 Z7.148 I0.412 J-0.022
X-20.46 Y-5.543 Z7.078 I-0.412 J0.022
X-19.636 Y-5.587 Z7.008 I0.412 J-0.022
X-20.46 Y-5.543 Z6.938 I-0.412 J0.022
X-19.636 Y-5.587 Z6.868 I0.412 J-0.022
X-20.46 Y-5.543 Z6.798 I-0.412 J0.022
X-19.636 Y-5.587 Z6.729 I0.412 J-0.022
X-20.46 Y-5.543 Z6.659 I-0.412 J0.022
X-19.636 Y-5.587 Z6.589 I0.412 J-0.022
X-20.46 Y-5.543 Z6.519 I-0.412 J0.022
X-19.636 Y-5.587 Z6.449 I0.412 J-0.022
X-20.46 Y-5.543 Z6.379 I-0.412 J0.022
X-19.636 Y-5.587 Z6.31 I0.412 J-0.022
X-20.46 Y-5.543 Z6.24 I-0.412 J0.022
X-19.636 Y-5.587 Z6.17 I0.412 J-0.022
X-20.46 Y-5.543 Z6.1 I-0.412 J0.022
X-19.636 Y-5.587 Z6.03 I0.412 J-0.022
X-20.46 Y-5.543 Z5.96 I-0.412 J0.022
X-19.636 Y-5.587 Z5.89 I0.412 J-0.022
X-20.46 Y-5.543 Z5.821 I-0.412 J0.022
X-19.636 Y-5.587 Z5.751 I0.412 J-0.022
X-20.46 Y-5.543 Z5.681 I-0.412 J0.022
X-19.636 Y-5.587 Z5.611 I0.412 J-0.022
X-20.46 Y-5.543 Z5.541 I-0.412 J0.022
X-19.636 Y-5.587 Z5.471 I0.412 J-0.022
X-20.46 Y-5.543 Z5.402 I-0.412 J0.022
X-19.636 Y-5.587 Z5.332 I0.412 J-0.022
X-20.46 Y-5.543 Z5.262 I-0.412 J0.022
X-19.636 Y-5.587 Z5.192 I0.412 J-0.022
X-20.46 Y-5.543 Z5.122 I-0.412 J0.022
X-19.636 Y-5.587 Z5.052 I0.412 J-0.022
X-20.46 Y-5.543 Z4.983 I-0.412 J0.022
X-19.636 Y-5.587 Z4.913 I0.412 J-0.022
X-20.46 Y-5.543 Z4.843 I-0.412 J0.022
X-19.636 Y-5.587 Z4.773 I0.412 J-0.022
X-20.46 Y-5.543 Z4.703 I-0.412 J0.022
X-19.636 Y-5.587 Z4.633 I0.412 J-0.022
X-20.46 Y-5.543 Z4.563 I-0.412 J0.022
X-19.636 Y-5.587 Z4.494 I0.412 J-0.022
X-20.46 Y-5.543 Z4.424 I-0.412 J0.022
X-19.636 Y-5.587 Z4.354 I0.412 J-0.022
X-20.46 Y-5.543 Z4.284 I-0.412 J0.022
X-19.636 Y-5.587 Z4.214 I0.412 J-0.022
X-20.46 Y-5.543 Z4.144 I-0.412 J0.022
X-19.636 Y-5.587 Z4.075 I0.412 J-0.022
X-20.46 Y-5.543 Z4.005 I-0.412 J0.022
X-19.636 Y-5.587 Z3.935 I0.412 J-0.022
X-20.46 Y-5.543 Z3.865 I-0.412 J0.022
X-19.636 Y-5.587 Z3.795 I0.412 J-0.022
X-20.46 Y-5.543 Z3.725 I-0.412 J0.022
X-19.636 Y-5.587 Z3.656 I0.412 J-0.022
X-20.46 Y-5.543 Z3.586 I-0.412 J0.022
X-19.636 Y-5.587 Z3.516 I0.412 J-0.022
X-20.46 Y-5.543 Z3.446 I-0.412 J0.022
X-19.636 Y-5.587 Z3.376 I0.412 J-0.022
X-20.46 Y-5.543 Z3.306 I-0.412 J0.022
X-19.636 Y-5.587 Z3.236 I0.412 J-0.022
X-20.46 Y-5.543 Z3.167 I-0.412 J0.022
X-19.636 Y-5.587 Z3.097 I0.412 J-0.022
X-20.46 Y-5.543 Z3.027 I-0.412 J0.022
X-19.636 Y-5.587 Z2.957 I0.412 J-0.022
X-20.46 Y-5.543 Z2.887 I-0.412 J0.022
X-19.636 Y-5.587 Z2.817 I0.412 J-0.022
X-20.46 Y-5.543 Z2.748 I-0.412 J0.022
X-19.636 Y-5.587 Z2.678 I0.412 J-0.022
X-20.46 Y-5.543 Z2.608 I-0.412 J0.022
X-19.636 Y-5.587 Z2.538 I0.412 J-0.022
X-20.46 Y-5.543 Z2.468 I-0.412 J0.022
X-19.636 Y-5.587 Z2.398 I0.412 J-0.022
X-20.46 Y-5.543 Z2.329 I-0.412 J0.022
X-19.636 Y-5.587 Z2.259 I0.412 J-0.022
X-20.46 Y-5.543 Z2.189 I-0.412 J0.022
X-19.636 Y-5.587 Z2.119 I0.412 J-0.022
X-20.46 Y-5.543 Z2.049 I-0.412 J0.022
X-19.636 Y-5.587 Z1.979 I0.412 J-0.022
X-20.46 Y-5.543 Z1.909 I-0.412 J0.022
X-19.636 Y-5.587 Z1.84 I0.412 J-0.022
X-20.46 Y-5.543 Z1.77 I-0.412 J0.022
X-19.636 Y-5.587 Z1.7 I0.412 J-0.022
X-20.46 Y-5.543 Z1.63 I-0.412 J0.022
X-19.636 Y-5.587 Z1.56 I0.412 J-0.022
X-20.46 Y-5.543 Z1.49 I-0.412 J0.022
X-19.636 Y-5.587 Z1.421 I0.412 J-0.022
X-20.46 Y-5.543 Z1.351 I-0.412 J0.022
X-19.636 Y-5.587 Z1.281 I0.412 J-0.022
X-20.46 Y-5.543 Z1.211 I-0.412 J0.022
X-19.636 Y-5.587 Z1.141 I0.412 J-0.022
X-20.46 Y-5.543 Z1.071 I-0.412 J0.022
X-19.636 Y-5.587 Z1.002 I0.412 J-0.022
X-20.46 Y-5.543 Z0.932 I-0.412 J0.022
X-19.636 Y-5.587 Z0.862 I0.412 J-0.022
X-20.46 Y-5.543 Z0.792 I-0.412 J0.022
X-19.636 Y-5.587 Z0.722 I0.412 J-0.022
X-20.46 Y-5.543 Z0.652 I-0.412 J0.022
X-19.636 Y-5.587 Z0.583 I0.412 J-0.022
X-20.46 Y-5.543 Z0.513 I-0.412 J0.022
X-19.636 Y-5.587 Z0.443 I0.412 J-0.022
X-20.46 Y-5.543 Z0.373 I-0.412 J0.022
X-19.636 Y-5.587 Z0.303 I0.412 J-0.022
X-20.46 Y-5.543 Z0.233 I-0.412 J0.022
X-19.636 Y-5.587 Z0.163 I0.412 J-0.022
X-20.46 Y-5.543 Z0.094 I-0.412 J0.022
X-19.636 Y-5.587 Z0.024 I0.412 J-0.022
X-19.831 Y-5.214 Z0 I-0.412 J0.022
X-20.265 Y-5.916 I-0.217 J-0.351
X-19.831 Y-5.214 I0.217 J0.351
X-20.114 Y-5.281 I-0.109 J-0.175 F500
G1 X-20.198 Y-5.416
X-20.235 Y-5.476 Z0.008
X-20.271 Y-5.533 Z0.031
X-20.302 Y-5.585 Z0.069
X-20.329 Y-5.627 Z0.12
X-20.349 Y-5.659 Z0.18
X-20.361 Y-5.679 Z0.247
X-20.365 Y-5.686 Z0.317
G0 Z17
X-20.306 Y-0.655
Z14.5
G1 Z10.818 F500
X-20.299 Z10.747
X-20.275 Y-0.653 Z10.68
X-20.237 Y-0.651 Z10.62
X-20.187 Y-0.649 Z10.569
X-20.127 Y-0.646 Z10.531
X-20.06 Y-0.642 Z10.508
X-19.989 Y-0.638 Z10.5
X-19.831 Y-0.63
G3 X-19.636 Y-0.413 I-0.011 J0.206
X-20.46 Y-0.457 Z10.43 I-0.412 J-0.022 F600
X-19.636 Y-0.413 Z10.36 I0.412 J0.022
X-20.46 Y-0.457 Z10.29 I-0.412 J-0.022
X-19.636 Y-0.413 Z10.221 I0.412 J0.022
X-20.46 Y-0.457 Z10.151 I-0.412 J-0.022
X-19.636 Y-0.413 Z10.081 I0.412 J0.022
X-20.46 Y-0.457 Z10.011 I-0.412 J-0.022
X-19.636 Y-0.413 Z9.941 I0.412 J0.022
X-20.46 Y-0.457 Z9.871 I-0.412 J-0.022
X-19.636 Y-0.413 Z9.802 I0.412 J0.022
X-20.46 Y-0.457 Z9.732 I-0.412 J-0.022
X-19.636 Y-0.413 Z9.662 I0.412 J0.022
X-20.46 Y-0.457 Z9.592 I-0.412 J-0.022
X-19.636 Y-0.413 Z9.522 I0.412 J0.022
X-20.46 Y-0.457 Z9.452 I-0.412 J-0.022
X-19.636 Y-0.413 Z9.383 I0.412 J0.022
X-20.46 Y-0.457 Z9.313 I-0.412 J-0.022
X-19.636 Y-0.413 Z9.243 I0.412 J0.022
X-20.46 Y-0.457 Z9.173 I-0.412 J-0.022
X-19.636 Y-0.413 Z9.103 I0.412 J0.022
X-20.46 Y-0.457 Z9.033 I-0.412 J-0.022
X-19.636 Y-0.413 Z8.963 I0.412 J0.022
X-20.46 Y-0.457 Z8.894 I-0.412 J-0.022
X-19.636 Y-0.413 Z8.824 I0.412 J0.022
X-20.46 Y-0.457 Z8.754 I-0.412 J-0.022
X-19.636 Y-0.413 Z8.684 I0.412 J0.022
X-20.46 Y-0.457 Z8.614 I-0.412 J-0.022
X-19.636 Y-0.413 Z8.544 I0.412 J0.022
X-20.46 Y-0.457 Z8.475 I-0.412 J-0.022
X-19.636 Y-0.413 Z8.405 I0.412 J0.022
X-20.46 Y-0.457 Z8.335 I-0.412 J-0.022
X-19.636 Y-0.413 Z8.265 I0.412 J0.022
X-20.46 Y-0.457 Z8.195 I-0.412 J-0.022
X-19.636 Y-0.413 Z8.125 I0.412 J0.022
X-20.46 Y-0.457 Z8.056 I-0.412 J-0.022
X-19.636 Y-0.413 Z7.986 I0.412 J0.022
X-20.46 Y-0.457 Z7.916 I-0.412 J-0.022
X-19.636 Y-0.413 Z7.846 I0.412 J0.022
X-20.46 Y-0.457 Z7.776 I-0.412 J-0.022
X-19.636 Y-0.413 Z7.706 I0.412 J0.022
X-20.46 Y-0.457 Z7.636 I-0.412 J-0.022
X-19.636 Y-0.413 Z7.567 I0.412 J0.022
X-20.46 Y-0.457 Z7.497 I-0.412 J-0.022
X-19.636 Y-0.413 Z7.427 I0.412 J0.022
X-20.46 Y-0.457 Z7.357 I-0.412 J-0.022
X-19.636 Y-0.413 Z7.287 I0.412 J0.022
X-20.46 Y-0.457 Z7.217 I-0.412 J-0.022
X-19.636 Y-0.413 Z7.148 I0.412 J0.022
X-20.46 Y-0.457 Z7.078 I-0.412 J-0.022
X-19.636 Y-0.413 Z7.008 I0.412 J0.022
X-20.46 Y-0.457 Z6.938 I-0.412 J-0.022
X-19.636 Y-0.413 Z6.868 I0.412 J0.022
X-20.46 Y-0.457 Z6.798 I-0.412 J-0.022
X-19.636 Y-0.413 Z6.729 I0.412 J0.022
X-20.46 Y-0.457 Z6.659 I-0.412 J-0.022
X-19.636 Y-0.413 Z6.589 I0.412 J0.022
X-20.46 Y-0.457 Z6.519 I-0.412 J-0.022
X-19.636 Y-0.413 Z6.449 I0.412 J0.022
X-20.46 Y-0.457 Z6.379 I-0.412 J-0.022
X-19.636 Y-0.413 Z6.31 I0.412 J0.022
X-20.46 Y-0.457 Z6.24 I-0.412 J-0.022
X-19.636 Y-0.413 Z6.17 I0.412 J0.022
X-20.46 Y-0.457 Z6.1 I-0.412 J-0.022
X-19.636 Y-0.413 Z6.03 I0.412 J0.022
X-20.46 Y-0.457 Z5.96 I-0.412 J-0.022
X-19.636 Y-0.413 Z5.89 I0.412 J0.022
X-20.46 Y-0.457 Z5.821 I-0.412 J-0.022
X-19.636 Y-0.413 Z5.751 I0.412 J0.022
X-20.46 Y-0.457 Z5.681 I-0.412 J-0.022
X-19.636 Y-0.413 Z5.611 I0.412 J0.022
X-20.46 Y-0.457 Z5.541 I-0.412 J-0.022
X-19.636 Y-0.413 Z5.471 I0.412 J0.022
X-20.46 Y-0.457 Z5.402 I-0.412 J-0.022
X-19.636 Y-0.413 Z5.332 I0.412 J0.022
X-20.46 Y-0.457 Z5.262 I-0.412 J-0.022
X-19.636 Y-0.413 Z5.192 I0.412 J0.022
X-20.46 Y-0.457 Z5.122 I-0.412 J-0.022
X-19.636 Y-0.413 Z5.052 I0.412 J0.022
X-20.46 Y-0.457 Z4.983 I-0.412 J-0.022
X-19.636 Y-0.413 Z4.913 I0.412 J0.022
X-20.46 Y-0.457 Z4.843 I-0.412 J-0.022
X-19.636 Y-0.413 Z4.773 I0.412 J0.022
X-20.46 Y-0.457 Z4.703 I-0.412 J-0.022
X-19.636 Y-0.413 Z4.633 I0.412 J0.022
X-20.46 Y-0.457 Z4.563 I-0.412 J-0.022
X-19.636 Y-0.413 Z4.494 I0.412 J0.022
X-20.46 Y-0.457 Z4.424 I-0.412 J-0.022
X-19.636 Y-0.413 Z4.354 I0.412 J0.022
X-20.46 Y-0.457 Z4.284 I-0.412 J-0.022
X-19.636 Y-0.413 Z4.214 I0.412 J0.022
X-20.46 Y-0.457 Z4.144 I-0.412 J-0.022
X-19.636 Y-0.413 Z4.075 I0.412 J0.022
X-20.46 Y-0.457 Z4.005 I-0.412 J-0.022
X-19.636 Y-0.413 Z3.935 I0.412 J0.022
X-20.46 Y-0.457 Z3.865 I-0.412 J-0.022
X-19.636 Y-0.413 Z3.795 I0.412 J0.022
X-20.46 Y-0.457 Z3.725 I-0.412 J-0.022
X-19.636 Y-0.413 Z3.656 I0.412 J0.022
X-20.46 Y-0.457 Z3.586 I-0.412 J-0.022
X-19.636 Y-0.413 Z3.516 I0.412 J0.022
X-20.46 Y-0.457 Z3.446 I-0.412 J-0.022
X-19.636 Y-0.413 Z3.376 I0.412 J0.022
X-20.46 Y-0.457 Z3.306 I-0.412 J-0.022
X-19.636 Y-0.413 Z3.236 I0.412 J0.022
X-20.46 Y-0.457 Z3.167 I-0.412 J-0.022
X-19.636 Y-0.413 Z3.097 I0.412 J0.022
X-20.46 Y-0.457 Z3.027 I-0.412 J-0.022
X-19.636 Y-0.413 Z2.957 I0.412 J0.022
X-20.46 Y-0.457 Z2.887 I-0.412 J-0.022
X-19.636 Y-0.413 Z2.817 I0.412 J0.022
X-20.46 Y-0.457 Z2.748 I-0.412 J-0.022
X-19.636 Y-0.413 Z2.678 I0.412 J0.022
X-20.46 Y-0.457 Z2.608 I-0.412 J-0.022
X-19.636 Y-0.413 Z2.538 I0.412 J0.022
X-20.46 Y-0.457 Z2.468 I-0.412 J-0.022
X-19.636 Y-0.413 Z2.398 I0.412 J0.022
X-20.46 Y-0.457 Z2.329 I-0.412 J-0.022
X-19.636 Y-0.413 Z2.259 I0.412 J0.022
X-20.46 Y-0.457 Z2.189 I-0.412 J-0.022
X-19.636 Y-0.413 Z2.119 I0.412 J0.022
X-20.46 Y-0.457 Z2.049 I-0.412 J-0.022
X-19.636 Y-0.413 Z1.979 I0.412 J0.022
X-20.46 Y-0.457 Z1.909 I-0.412 J-0.022
X-19.636 Y-0.413 Z1.84 I0.412 J0.022
X-20.46 Y-0.457 Z1.77 I-0.412 J-0.022
X-19.636 Y-0.413 Z1.7 I0.412 J0.022
X-20.46 Y-0.457 Z1.63 I-0.412 J-0.022
X-19.636 Y-0.413 Z1.56 I0.412 J0.022
X-20.46 Y-0.457 Z1.49 I-0.412 J-0.022
X-19.636 Y-0.413 Z1.421 I0.412 J0.022
X-20.46 Y-0.457 Z1.351 I-0.412 J-0.022
X-19.636 Y-0.413 Z1.281 I0.412 J0.022
X-20.46 Y-0.457 Z1.211 I-0.412 J-0.022
X-19.636 Y-0.413 Z1.141 I0.412 J0.022
X-20.46 Y-0.457 Z1.071 I-0.412 J-0.022
X-19.636 Y-0.413 Z1.002 I0.412 J0.022
X-20.46 Y-0.457 Z0.932 I-0.412 J-0.022
X-19.636 Y-0.413 Z0.862 I0.412 J0.022
X-20.46 Y-0.457 Z0.792 I-0.412 J-0.022
X-19.636 Y-0.413 Z0.722 I0.412 J0.022
X-20.46 Y-0.457 Z0.652 I-0.412 J-0.022
X-19.636 Y-0.413 Z0.583 I0.412 J0.022
X-20.46 Y-0.457 Z0.513 I-0.412 J-0.022
X-19.636 Y-0.413 Z0.443 I0.412 J0.022
X-20.46 Y-0.457 Z0.373 I-0.412 J-0.022
X-19.636 Y-0.413 Z0.303 I0.412 J0.022
X-20.46 Y-0.457 Z0.233 I-0.412 J-0.022
X-19.636 Y-0.413 Z0.163 I0.412 J0.022
X-20.46 Y-0.457 Z0.094 I-0.412 J-0.022
X-19.636 Y-0.413 Z0.024 I0.412 J0.022
X-19.869 Y-0.063 Z0 I-0.412 J-0.022
X-20.227 Y-0.806 I-0.179 J-0.372
X-19.869 Y-0.063 I0.179 J0.372
X-20.144 Y-0.16 I-0.09 J-0.186 F500
G1 X-20.213 Y-0.303
X-20.244 Y-0.366 Z0.008
X-20.273 Y-0.427 Z0.031
X-20.299 Y-0.481 Z0.069
X-20.321 Y-0.526 Z0.12
X-20.337 Y-0.56 Z0.18
X-20.347 Y-0.581 Z0.247
X-20.351 Y-0.589 Z0.317
G0 Z17
X-11.928 Y4.136
Z14.5
G1 Z10.818 F500
X-11.92 Y4.137 Z10.747
X-11.897 Y4.142 Z10.68
X-11.86 Y4.148 Z10.62
X-11.81 Y4.157 Z10.569
X-11.751 Y4.167 Z10.531
X-11.685 Y4.179 Z10.508
X-11.615 Y4.191 Z10.5
X-11.459 Y4.219
G3 X-11.291 Y4.458 I-0.036 J0.203
X-12.104 Y4.314 Z10.43 I-0.406 J-0.072 F600
X-11.291 Y4.458 Z10.36 I0.406 J0.072
X-12.104 Y4.314 Z10.29 I-0.406 J-0.072
X-11.291 Y4.458 Z10.221 I0.406 J0.072
X-12.104 Y4.314 Z10.151 I-0.406 J-0.072
X-11.291 Y4.458 Z10.081 I0.406 J0.072
X-12.104 Y4.314 Z10.011 I-0.406 J-0.072
X-11.291 Y4.458 Z9.941 I0.406 J0.072
X-12.104 Y4.314 Z9.871 I-0.406 J-0.072
X-11.291 Y4.458 Z9.802 I0.406 J0.072
X-12.104 Y4.314 Z9.732 I-0.406 J-0.072
X-11.291 Y4.458 Z9.662 I0.406 J0.072
X-12.104 Y4.314 Z9.592 I-0.406 J-0.072
X-11.291 Y4.458 Z9.522 I0.406 J0.072
X-12.104 Y4.314 Z9.452 I-0.406 J-0.072
X-11.291 Y4.458 Z9.383 I0.406 J0.072
X-12.104 Y4.314 Z9.313 I-0.406 J-0.072
X-11.291 Y4.458 Z9.243 I0.406 J0.072
X-12.104 Y4.314 Z9.173 I-0.406 J-0.072
X-11.291 Y4.458 Z9.103 I0.406 J0.072
X-12.104 Y4.314 Z9.033 I-0.406 J-0.072
X-11.291 Y4.458 Z8.963 I0.406 J0.072
X-12.104 Y4.314 Z8.894 I-0.406 J-0.072
X-11.291 Y4.458 Z8.824 I0.406 J0.072
X-12.104 Y4.314 Z8.754 I-0.406 J-0.072
X-11.291 Y4.458 Z8.684 I0.406 J0.072
X-12.104 Y4.314 Z8.614 I-0.406 J-0.072
X-11.291 Y4.458 Z8.544 I0.406 J0.072
X-12.104 Y4.314 Z8.475 I-0.406 J-0.072
X-11.291 Y4.458 Z8.405 I0.406 J0.072
X-12.104 Y4.314 Z8.335 I-0.406 J-0.072
X-11.291 Y4.458 Z8.265 I0.406 J0.072
X-12.104 Y4.314 Z8.195 I-0.406 J-0.072
X-11.291 Y4.458 Z8.125 I0.406 J0.072
X-12.104 Y4.314 Z8.056 I-0.406 J-0.072
X-11.291 Y4.458 Z7.986 I0.406 J0.072
X-12.104 Y4.314 Z7.916 I-0.406 J-0.072
X-11.291 Y4.458 Z7.846 I0.406 J0.072
X-12.104 Y4.314 Z7.776 I-0.406 J-0.072
X-11.291 Y4.458 Z7.706 I0.406 J0.072
X-12.104 Y4.314 Z7.636 I-0.406 J-0.072
X-11.291 Y4.458 Z7.567 I0.406 J0.072
X-12.104 Y4.314 Z7.497 I-0.406 J-0.072
X-11.291 Y4.458 Z7.427 I0.406 J0.072
X-12.104 Y4.314 Z7.357 I-0.406 J-0.072
X-11.291 Y4.458 Z7.287 I0.406 J0.072
X-12.104 Y4.314 Z7.217 I-0.406 J-0.072
X-11.291 Y4.458 Z7.148 I0.406 J0.072
X-12.104 Y4.314 Z7.078 I-0.406 J-0.072
X-11.291 Y4.458 Z7.008 I0.406 J0.072
X-12.104 Y4.314 Z6.938 I-0.406 J-0.072
X-11.291 Y4.458 Z6.868 I0.406 J0.072
X-12.104 Y4.314 Z6.798 I-0.406 J-0.072
X-11.291 Y4.458 Z6.729 I0.406 J0.072
X-12.104 Y4.314 Z6.659 I-0.406 J-0.072
X-11.291 Y4.458 Z6.589 I0.406 J0.072
X-12.104 Y4.314 Z6.519 I-0.406 J-0.072
X-11.291 Y4.458 Z6.449 I0.406 J0.072
X-12.104 Y4.314 Z6.379 I-0.406 J-0.072
X-11.291 Y4.458 Z6.31 I0.406 J0.072
X-12.104 Y4.314 Z6.24 I-0.406 J-0.072
X-11.291 Y4.458 Z6.17 I0.406 J0.072
X-12.104 Y4.314 Z6.1 I-0.406 J-0.072
X-11.291 Y4.458 Z6.03 I0.406 J0.072
X-12.104 Y4.314 Z5.96 I-0.406 J-0.072
X-11.291 Y4.458 Z5.89 I0.406 J0.072
X-12.104 Y4.314 Z5.821 I-0.406 J-0.072
X-11.291 Y4.458 Z5.751 I0.406 J0.072
X-12.104 Y4.314 Z5.681 I-0.406 J-0.072
X-11.291 Y4.458 Z5.611 I0.406 J0.072
X-12.104 Y4.314 Z5.541 I-0.406 J-0.072
X-11.291 Y4.458 Z5.471 I0.406 J0.072
X-12.104 Y4.314 Z5.402 I-0.406 J-0.072
X-11.291 Y4.458 Z5.332 I0.406 J0.072
X-12.104 Y4.314 Z5.262 I-0.406 J-0.072
X-11.291 Y4.458 Z5.192 I0.406 J0.072
X-12.104 Y4.314 Z5.122 I-0.406 J-0.072
X-11.291 Y4.458 Z5.052 I0.406 J0.072
X-12.104 Y4.314 Z4.983 I-0.406 J-0.072
X-11.291 Y4.458 Z4.913 I0.406 J0.072
X-12.104 Y4.314 Z4.843 I-0.406 J-0.072
X-11.291 Y4.458 Z4.773 I0.406 J0.072
X-12.104 Y4.314 Z4.703 I-0.406 J-0.072
X-11.291 Y4.458 Z4.633 I0.406 J0.072
X-12.104 Y4.314 Z4.563 I-0.406 J-0.072
X-11.291 Y4.458 Z4.494 I0.406 J0.072
X-12.104 Y4.314 Z4.424 I-0.406 J-0.072
X-11.291 Y4.458 Z4.354 I0.406 J0.072
X-12.104 Y4.314 Z4.284 I-0.406 J-0.072
X-11.291 Y4.458 Z4.214 I0.406 J0.072
X-12.104 Y4.314 Z4.144 I-0.406 J-0.072
X-11.291 Y4.458 Z4.075 I0.406 J0.072
X-12.104 Y4.314 Z4.005 I-0.406 J-0.072
X-11.291 Y4.458 Z3.935 I0.406 J0.072
X-12.104 Y4.314 Z3.865 I-0.406 J-0.072
X-11.291 Y4.458 Z3.795 I0.406 J0.072
X-12.104 Y4.314 Z3.725 I-0.406 J-0.072
X-11.291 Y4.458 Z3.656 I0.406 J0.072
X-12.104 Y4.314 Z3.586 I-0.406 J-0.072
X-11.291 Y4.458 Z3.516 I0.406 J0.072
X-12.104 Y4.314 Z3.446 I-0.406 J-0.072
X-11.291 Y4.458 Z3.376 I0.406 J0.072
X-12.104 Y4.314 Z3.306 I-0.406 J-0.072
X-11.291 Y4.458 Z3.236 I0.406 J0.072
X-12.104 Y4.314 Z3.167 I-0.406 J-0.072
X-11.291 Y4.458 Z3.097 I0.406 J0.072
X-12.104 Y4.314 Z3.027 I-0.406 J-0.072
X-11.291 Y4.458 Z2.957 I0.406 J0.072
X-12.104 Y4.314 Z2.887 I-0.406 J-0.072
X-11.291 Y4.458 Z2.817 I0.406 J0.072
X-12.104 Y4.314 Z2.748 I-0.406 J-0.072
X-11.291 Y4.458 Z2.678 I0.406 J0.072
X-12.104 Y4.314 Z2.608 I-0.406 J-0.072
X-11.291 Y4.458 Z2.538 I0.406 J0.072
X-12.104 Y4.314 Z2.468 I-0.406 J-0.072
X-11.291 Y4.458 Z2.398 I0.406 J0.072
X-12.104 Y4.314 Z2.329 I-0.406 J-0.072
X-11.291 Y4.458 Z2.259 I0.406 J0.072
X-12.104 Y4.314 Z2.189 I-0.406 J-0.072
X-11.291 Y4.458 Z2.119 I0.406 J0.072
X-12.104 Y4.314 Z2.049 I-0.406 J-0.072
X-11.291 Y4.458 Z1.979 I0.406 J0.072
X-12.104 Y4.314 Z1.909 I-0.406 J-0.072
X-11.291 Y4.458 Z1.84 I0.406 J0.072
X-12.104 Y4.314 Z1.77 I-0.406 J-0.072
X-11.291 Y4.458 Z1.7 I0.406 J0.072
X-12.104 Y4.314 Z1.63 I-0.406 J-0.072
X-11.291 Y4.458 Z1.56 I0.406 J0.072
X-12.104 Y4.314 Z1.49 I-0.406 J-0.072
X-11.291 Y4.458 Z1.421 I0.406 J0.072
X-12.104 Y4.314 Z1.351 I-0.406 J-0.072
X-11.291 Y4.458 Z1.281 I0.406 J0.072
X-12.104 Y4.314 Z1.211 I-0.406 J-0.072
X-11.291 Y4.458 Z1.141 I0.406 J0.072
X-12.104 Y4.314 Z1.071 I-0.406 J-0.072
X-11.291 Y4.458 Z1.002 I0.406 J0.072
X-12.104 Y4.314 Z0.932 I-0.406 J-0.072
X-11.291 Y4.458 Z0.862 I0.406 J0.072
X-12.104 Y4.314 Z0.792 I-0.406 J-0.072
X-11.291 Y4.458 Z0.722 I0.406 J0.072
X-12.104 Y4.314 Z0.652 I-0.406 J-0.072
X-11.291 Y4.458 Z0.583 I0.406 J0.072
X-12.104 Y4.314 Z0.513 I-0.406 J-0.072
X-11.291 Y4.458 Z0.443 I0.406 J0.072
X-12.104 Y4.314 Z0.373 I-0.406 J-0.072
X-11.291 Y4.458 Z0.303 I0.406 J0.072
X-12.104 Y4.314 Z0.233 I-0.406 J-0.072
X-11.291 Y4.458 Z0.163 I0.406 J0.072
X-12.104 Y4.314 Z0.094 I-0.406 J-0.072
X-11.291 Y4.458 Z0.024 I0.406 J0.072
X-11.565 Y4.777 Z0 I-0.406 J-0.072
X-11.83 Y3.995 I-0.133 J-0.391
X-11.565 Y4.777 I0.133 J0.391
X-11.827 Y4.648 I-0.066 J-0.195 F500
G1 X-11.878 Y4.497
X-11.9 Y4.43 Z0.008
X-11.922 Y4.367 Z0.031
X-11.941 Y4.31 Z0.069
X-11.957 Y4.262 Z0.12
X-11.97 Y4.226 Z0.18
X-11.977 Y4.204 Z0.247
X-11.98 Y4.197 Z0.317
G0 Z17
X-7.485 Y1.571
Z14.5
G1 Z10.818 F500
X-7.477 Y1.572 Z10.747
X-7.454 Y1.576 Z10.68
X-7.417 Y1.583 Z10.62
X-7.367 Y1.592 Z10.569
X-7.308 Y1.602 Z10.531
X-7.242 Y1.614 Z10.508
X-7.172 Y1.626 Z10.5
X-7.016 Y1.654
G3 X-6.848 Y1.893 I-0.036 J0.203
X-7.661 Y1.749 Z10.43 I-0.406 J-0.072 F600
X-6.848 Y1.893 Z10.36 I0.406 J0.072
X-7.661 Y1.749 Z10.29 I-0.406 J-0.072
X-6.848 Y1.893 Z10.221 I0.406 J0.072
X-7.661 Y1.749 Z10.151 I-0.406 J-0.072
X-6.848 Y1.893 Z10.081 I0.406 J0.072
X-7.661 Y1.749 Z10.011 I-0.406 J-0.072
X-6.848 Y1.893 Z9.941 I0.406 J0.072
X-7.661 Y1.749 Z9.871 I-0.406 J-0.072
X-6.848 Y1.893 Z9.802 I0.406 J0.072
X-7.661 Y1.749 Z9.732 I-0.406 J-0.072
X-6.848 Y1.893 Z9.662 I0.406 J0.072
X-7.661 Y1.749 Z9.592 I-0.406 J-0.072
X-6.848 Y1.893 Z9.522 I0.406 J0.072
X-7.661 Y1.749 Z9.452 I-0.406 J-0.072
X-6.848 Y1.893 Z9.383 I0.406 J0.072
X-7.661 Y1.749 Z9.313 I-0.406 J-0.072
X-6.848 Y1.893 Z9.243 I0.406 J0.072
X-7.661 Y1.749 Z9.173 I-0.406 J-0.072
X-6.848 Y1.893 Z9.103 I0.406 J0.072
X-7.661 Y1.749 Z9.033 I-0.406 J-0.072
X-6.848 Y1.893 Z8.963 I0.406 J0.072
X-7.661 Y1.749 Z8.894 I-0.406 J-0.072
X-6.848 Y1.893 Z8.824 I0.406 J0.072
X-7.661 Y1.749 Z8.754 I-0.406 J-0.072
X-6.848 Y1.893 Z8.684 I0.406 J0.072
X-7.661 Y1.749 Z8.614 I-0.406 J-0.072
X-6.848 Y1.893 Z8.544 I0.406 J0.072
X-7.661 Y1.749 Z8.475 I-0.406 J-0.072
X-6.848 Y1.893 Z8.405 I0.406 J0.072
X-7.661 Y1.749 Z8.335 I-0.406 J-0.072
X-6.848 Y1.893 Z8.265 I0.406 J0.072
X-7.661 Y1.749 Z8.195 I-0.406 J-0.072
X-6.848 Y1.893 Z8.125 I0.406 J0.072
X-7.661 Y1.749 Z8.056 I-0.406 J-0.072
X-6.848 Y1.893 Z7.986 I0.406 J0.072
X-7.661 Y1.749 Z7.916 I-0.406 J-0.072
X-6.848 Y1.893 Z7.846 I0.406 J0.072
X-7.661 Y1.749 Z7.776 I-0.406 J-0.072
X-6.848 Y1.893 Z7.706 I0.406 J0.072
X-7.661 Y1.749 Z7.636 I-0.406 J-0.072
X-6.848 Y1.893 Z7.567 I0.406 J0.072
X-7.661 Y1.749 Z7.497 I-0.406 J-0.072
X-6.848 Y1.893 Z7.427 I0.406 J0.072
X-7.661 Y1.749 Z7.357 I-0.406 J-0.072
X-6.848 Y1.893 Z7.287 I0.406 J0.072
X-7.661 Y1.749 Z7.217 I-0.406 J-0.072
X-6.848 Y1.893 Z7.148 I0.406 J0.072
X-7.661 Y1.749 Z7.078 I-0.406 J-0.072
X-6.848 Y1.893 Z7.008 I0.406 J0.072
X-7.661 Y1.749 Z6.938 I-0.406 J-0.072
X-6.848 Y1.893 Z6.868 I0.406 J0.072
X-7.661 Y1.749 Z6.798 I-0.406 J-0.072
X-6.848 Y1.893 Z6.729 I0.406 J0.072
X-7.661 Y1.749 Z6.659 I-0.406 J-0.072
X-6.848 Y1.893 Z6.589 I0.406 J0.072
X-7.661 Y1.749 Z6.519 I-0.406 J-0.072
X-6.848 Y1.893 Z6.449 I0.406 J0.072
X-7.661 Y1.749 Z6.379 I-0.406 J-0.072
X-6.848 Y1.893 Z6.31 I0.406 J0.072
X-7.661 Y1.749 Z6.24 I-0.406 J-0.072
X-6.848 Y1.893 Z6.17 I0.406 J0.072
X-7.661 Y1.749 Z6.1 I-0.406 J-0.072
X-6.848 Y1.893 Z6.03 I0.406 J0.072
X-7.661 Y1.749 Z5.96 I-0.406 J-0.072
X-6.848 Y1.893 Z5.89 I0.406 J0.072
X-7.661 Y1.749 Z5.821 I-0.406 J-0.072
X-6.848 Y1.893 Z5.751 I0.406 J0.072
X-7.661 Y1.749 Z5.681 I-0.406 J-0.072
X-6.848 Y1.893 Z5.611 I0.406 J0.072
X-7.661 Y1.749 Z5.541 I-0.406 J-0.072
X-6.848 Y1.893 Z5.471 I0.406 J0.072
X-7.661 Y1.749 Z5.402 I-0.406 J-0.072
X-6.848 Y1.893 Z5.332 I0.406 J0.072
X-7.661 Y1.749 Z5.262 I-0.406 J-0.072
X-6.848 Y1.893 Z5.192 I0.406 J0.072
X-7.661 Y1.749 Z5.122 I-0.406 J-0.072
X-6.848 Y1.893 Z5.052 I0.406 J0.072
X-7.661 Y1.749 Z4.983 I-0.406 J-0.072
X-6.848 Y1.893 Z4.913 I0.406 J0.072
X-7.661 Y1.749 Z4.843 I-0.406 J-0.072
X-6.848 Y1.893 Z4.773 I0.406 J0.072
X-7.661 Y1.749 Z4.703 I-0.406 J-0.072
X-6.848 Y1.893 Z4.633 I0.406 J0.072
X-7.661 Y1.749 Z4.563 I-0.406 J-0.072
X-6.848 Y1.893 Z4.494 I0.406 J0.072
X-7.661 Y1.749 Z4.424 I-0.406 J-0.072
X-6.848 Y1.893 Z4.354 I0.406 J0.072
X-7.661 Y1.749 Z4.284 I-0.406 J-0.072
X-6.848 Y1.893 Z4.214 I0.406 J0.072
X-7.661 Y1.749 Z4.144 I-0.406 J-0.072
X-6.848 Y1.893 Z4.075 I0.406 J0.072
X-7.661 Y1.749 Z4.005 I-0.406 J-0.072
X-6.848 Y1.893 Z3.935 I0.406 J0.072
X-7.661 Y1.749 Z3.865 I-0.406 J-0.072
X-6.848 Y1.893 Z3.795 I0.406 J0.072
X-7.661 Y1.749 Z3.725 I-0.406 J-0.072
X-6.848 Y1.893 Z3.656 I0.406 J0.072
X-7.661 Y1.749 Z3.586 I-0.406 J-0.072
X-6.848 Y1.893 Z3.516 I0.406 J0.072
X-7.661 Y1.749 Z3.446 I-0.406 J-0.072
X-6.848 Y1.893 Z3.376 I0.406 J0.072
X-7.661 Y1.749 Z3.306 I-0.406 J-0.072
X-6.848 Y1.893 Z3.236 I0.406 J0.072
X-7.661 Y1.749 Z3.167 I-0.406 J-0.072
X-6.848 Y1.893 Z3.097 I0.406 J0.072
X-7.661 Y1.749 Z3.027 I-0.406 J-0.072
X-6.848 Y1.893 Z2.957 I0.406 J0.072
X-7.661 Y1.749 Z2.887 I-0.406 J-0.072
X-6.848 Y1.893 Z2.817 I0.406 J0.072
X-7.661 Y1.749 Z2.748 I-0.406 J-0.072
X-6.848 Y1.893 Z2.678 I0.406 J0.072
X-7.661 Y1.749 Z2.608 I-0.406 J-0.072
X-6.848 Y1.893 Z2.538 I0.406 J0.072
X-7.661 Y1.749 Z2.468 I-0.406 J-0.072
X-6.848 Y1.893 Z2.398 I0.406 J0.072
X-7.661 Y1.749 Z2.329 I-0.406 J-0.072
X-6.848 Y1.893 Z2.259 I0.406 J0.072
X-7.661 Y1.749 Z2.189 I-0.406 J-0.072
X-6.848 Y1.893 Z2.119 I0.406 J0.072
X-7.661 Y1.749 Z2.049 I-0.406 J-0.072
X-6.848 Y1.893 Z1.979 I0.406 J0.072
X-7.661 Y1.749 Z1.909 I-0.406 J-0.072
X-6.848 Y1.893 Z1.84 I0.406 J0.072
X-7.661 Y1.749 Z1.77 I-0.406 J-0.072
X-6.848 Y1.893 Z1.7 I0.406 J0.072
X-7.661 Y1.749 Z1.63 I-0.406 J-0.072
X-6.848 Y1.893 Z1.56 I0.406 J0.072
X-7.661 Y1.749 Z1.49 I-0.406 J-0.072
X-6.848 Y1.893 Z1.421 I0.406 J0.072
X-7.661 Y1.749 Z1.351 I-0.406 J-0.072
X-6.848 Y1.893 Z1.281 I0.406 J0.072
X-7.661 Y1.749 Z1.211 I-0.406 J-0.072
X-6.848 Y1.893 Z1.141 I0.406 J0.072
X-7.661 Y1.749 Z1.071 I-0.406 J-0.072
X-6.848 Y1.893 Z1.002 I0.406 J0.072
X-7.661 Y1.749 Z0.932 I-0.406 J-0.072
X-6.848 Y1.893 Z0.862 I0.406 J0.072
X-7.661 Y1.749 Z0.792 I-0.406 J-0.072
X-6.848 Y1.893 Z0.722 I0.406 J0.072
X-7.661 Y1.749 Z0.652 I-0.406 J-0.072
X-6.848 Y1.893 Z0.583 I0.406 J0.072
X-7.661 Y1.749 Z0.513 I-0.406 J-0.072
X-6.848 Y1.893 Z0.443 I0.406 J0.072
X-7.661 Y1.749 Z0.373 I-0.406 J-0.072
X-6.848 Y1.893 Z0.303 I0.406 J0.072
X-7.661 Y1.749 Z0.233 I-0.406 J-0.072
X-6.848 Y1.893 Z0.163 I0.406 J0.072
X-7.661 Y1.749 Z0.094 I-0.406 J-0.072
X-6.848 Y1.893 Z0.024 I0.406 J0.072
X-7.122 Y2.212 Z0 I-0.406 J-0.072
X-7.387 Y1.43 I-0.133 J-0.391
X-7.122 Y2.212 I0.133 J0.391
X-7.384 Y2.082 I-0.066 J-0.195 F500
G1 X-7.435 Y1.932
X-7.457 Y1.865 Z0.008
X-7.479 Y1.802 Z0.031
X-7.498 Y1.745 Z0.069
X-7.514 Y1.697 Z0.12
X-7.527 Y1.661 Z0.18
X-7.534 Y1.639 Z0.247
X-7.537 Y1.631 Z0.317
G0 Z27
G28 G91 Z0
G90
G28 G91 X0 Y0
G90
M5
M30
