(chamfer)
(T2  D=3 CR=0 TAPER=45deg - ZMIN=8.567 - chamfer mill)
G90 G94
G17
G21
G28 G91 Z0
G90

(Trace1)
T2
S15000 M3
G54
G0 X-14.75 Y-6.031
Z27
Z15
G1 Z10.167 F1000
X-19 Y-13.392 F500
Z15
G0 X-14.75 Y-6.031
G1 Z9.967 F1000
X-19 Y-13.392 F500
Z15
G0 X-14.75 Y-6.031
G1 Z9.767 F1000
X-19 Y-13.392 F500
Z15
G0 X-14.75 Y-6.031
G1 Z9.567 F1000
X-19 Y-13.392 F500
Z15
G0 X-14.75 Y-6.031
G1 Z9.367 F1000
X-19 Y-13.392 F500
Z15
G0 X-14.75 Y-6.031
G1 Z9.167 F1000
X-19 Y-13.392 F500
Z15
G0 X-14.75 Y-6.031
G1 Z8.967 F1000
X-19 Y-13.392 F500
Z15
G0 X-14.75 Y-6.031
G1 Z8.767 F1000
X-19 Y-13.392 F500
Z15
G0 X-14.75 Y-6.031
G1 Z8.567 F1000
X-19 Y-13.392 F500
Z15
G0 X-9.5 Y-3
G1 Z10.167 F1000
X-1 F500
Z15
G0 X-9.5
G1 Z9.967 F1000
X-1 F500
Z15
G0 X-9.5
G1 Z9.767 F1000
X-1 F500
Z15
G0 X-9.5
G1 Z9.567 F1000
X-1 F500
Z15
G0 X-9.5
G1 Z9.367 F1000
X-1 F500
Z15
G0 X-9.5
G1 Z9.167 F1000
X-1 F500
Z15
G0 X-9.5
G1 Z8.967 F1000
X-1 F500
Z15
G0 X-9.5
G1 Z8.767 F1000
X-1 F500
Z15
G0 X-9.5
G1 Z8.567 F1000
X-1 F500
Z15
G0 X-14.75 Y0.031
G1 Z10.167 F1000
X-19 Y7.392 F500
Z15
G0 X-14.75 Y0.031
G1 Z9.967 F1000
X-19 Y7.392 F500
Z15
G0 X-14.75 Y0.031
G1 Z9.767 F1000
X-19 Y7.392 F500
Z15
G0 X-14.75 Y0.031
G1 Z9.567 F1000
X-19 Y7.392 F500
Z15
G0 X-14.75 Y0.031
G1 Z9.367 F1000
X-19 Y7.392 F500
Z15
G0 X-14.75 Y0.031
G1 Z9.167 F1000
X-19 Y7.392 F500
Z15
G0 X-14.75 Y0.031
G1 Z8.967 F1000
X-19 Y7.392 F500
Z15
G0 X-14.75 Y0.031
G1 Z8.767 F1000
X-19 Y7.392 F500
Z15
G0 X-14.75 Y0.031
G1 Z8.567 F1000
X-19 Y7.392 F500
Z15
G0 Z27
G28 G91 Z0
G90
G28 G91 X0 Y0
G90
M5
M30
