(cont1)
(T6  D=3.175 CR=0 - ZMIN=0 - flat end mill)
G90 G94
G17
G21
G28 G91 Z0
G90

(2D Contour5)
T6
(1/8" Flat-45 degree helix)
S18000 M3
G54
G0 X-12.892 Y-20.725
Z27
Z10.7
G1 Z10.317 F30
Y-20.717 Z10.247 F500
X-12.891 Y-20.694 Z10.18
Y-20.656 Z10.12
X-12.89 Y-20.605 Z10.069
Y-20.545 Z10.031
X-12.889 Y-20.478 Z10.008
X-12.888 Y-20.408 Z10
X-12.829 Y-15.408
G3 X-13.143 Y-15.087 I-0.317 J0.004
G2 X-12.857 Y9.087 I0.143 J12.087 F1000
X-13.143 Y-15.087 I-0.143 J-12.087
X-13.519 Y-14.826 I0.005 J0.408
G3 X-13.886 Y-14.554 I-0.4 J-0.155
G2 X-12.114 Y8.554 I0.886 J11.554
X-13.886 Y-14.554 I-0.886 J-11.554
G3 X-14.227 Y-14.846 I-0.024 J-0.317 F500
G1 X-14.609 Y-19.831
X-14.615 Y-19.902 Z10.008
X-14.62 Y-19.969 Z10.031
X-14.624 Y-20.029 Z10.069
X-14.628 Y-20.079 Z10.12
X-14.631 Y-20.116 Z10.18
X-14.633 Y-20.14 Z10.247
Y-20.148 Z10.317
G0 Z17
X13.813 Y-20.632
Z10.7
G1 Z10.317 F30
X13.812 Y-20.624 Z10.247 F500
X13.81 Y-20.601 Z10.18
X13.807 Y-20.563 Z10.12
X13.802 Y-20.513 Z10.069
X13.797 Y-20.453 Z10.031
X13.792 Y-20.386 Z10.008
X13.786 Y-20.316 Z10
X13.364 Y-15.334
G3 X13.02 Y-15.044 I-0.316 J-0.027
G2 X10.98 Y9.044 I-1.02 J12.044 F1000
X13.02 Y-15.044 I1.02 J-12.044
X12.621 Y-14.821 I-0.034 J0.407
G3 X12.229 Y-14.585 I-0.383 J-0.193
G2 X11.771 Y8.585 I-0.229 J11.585
X12.229 Y-14.585 I0.229 J-11.585
G3 X11.918 Y-14.909 I0.006 J-0.317 F500
G1 X12.017 Y-19.908
X12.019 Y-19.979 Z10.008
X12.02 Y-20.046 Z10.031
X12.021 Y-20.106 Z10.069
X12.022 Y-20.156 Z10.12
X12.023 Y-20.194 Z10.18
Y-20.217 Z10.247
Y-20.225 Z10.317
X13.813 Y-20.632 F1000
Z9.817 F30
X13.812 Y-20.624 Z9.747 F500
X13.81 Y-20.601 Z9.68
X13.807 Y-20.563 Z9.62
X13.802 Y-20.513 Z9.569
X13.797 Y-20.453 Z9.531
X13.792 Y-20.386 Z9.508
X13.786 Y-20.316 Z9.5
X13.364 Y-15.334
G3 X13.02 Y-15.044 I-0.316 J-0.027
G2 X10.98 Y9.044 I-1.02 J12.044 F1000
X13.02 Y-15.044 I1.02 J-12.044
X12.621 Y-14.821 I-0.034 J0.407
G3 X12.229 Y-14.585 I-0.383 J-0.193
G2 X11.771 Y8.585 I-0.229 J11.585
X12.229 Y-14.585 I0.229 J-11.585
G3 X11.918 Y-14.909 I0.006 J-0.317 F500
G1 X12.017 Y-19.908
X12.019 Y-19.979 Z9.508
X12.02 Y-20.046 Z9.531
X12.021 Y-20.106 Z9.569
X12.022 Y-20.156 Z9.62
X12.023 Y-20.194 Z9.68
Y-20.217 Z9.747
Y-20.225 Z9.817
G0 Z17
X-12.892 Y-20.725
Z10.7
G1 Z10.2 F30
Z9.817
Y-20.717 Z9.747 F500
X-12.891 Y-20.694 Z9.68
Y-20.656 Z9.62
X-12.89 Y-20.605 Z9.569
Y-20.545 Z9.531
X-12.889 Y-20.478 Z9.508
X-12.888 Y-20.408 Z9.5
X-12.829 Y-15.408
G3 X-13.143 Y-15.087 I-0.317 J0.004
G2 X-12.857 Y9.087 I0.143 J12.087 F1000
X-13.143 Y-15.087 I-0.143 J-12.087
X-13.519 Y-14.826 I0.005 J0.408
G3 X-13.886 Y-14.554 I-0.4 J-0.155
G2 X-12.114 Y8.554 I0.886 J11.554
X-13.886 Y-14.554 I-0.886 J-11.554
G3 X-14.227 Y-14.846 I-0.024 J-0.317 F500
G1 X-14.609 Y-19.831
X-14.615 Y-19.902 Z9.508
X-14.62 Y-19.969 Z9.531
X-14.624 Y-20.029 Z9.569
X-14.628 Y-20.079 Z9.62
X-14.631 Y-20.116 Z9.68
X-14.633 Y-20.14 Z9.747
Y-20.148 Z9.817
X-12.892 Y-20.725 F1000
Z9.317 F30
Y-20.717 Z9.247 F500
X-12.891 Y-20.694 Z9.18
Y-20.656 Z9.12
X-12.89 Y-20.605 Z9.069
Y-20.545 Z9.031
X-12.889 Y-20.478 Z9.008
X-12.888 Y-20.408 Z9
X-12.829 Y-15.408
G3 X-13.143 Y-15.087 I-0.317 J0.004
G2 X-12.857 Y9.087 I0.143 J12.087 F1000
X-13.143 Y-15.087 I-0.143 J-12.087
X-13.519 Y-14.826 I0.005 J0.408
G3 X-13.886 Y-14.554 I-0.4 J-0.155
G2 X-12.114 Y8.554 I0.886 J11.554
X-13.886 Y-14.554 I-0.886 J-11.554
G3 X-14.227 Y-14.846 I-0.024 J-0.317 F500
G1 X-14.609 Y-19.831
X-14.615 Y-19.902 Z9.008
X-14.62 Y-19.969 Z9.031
X-14.624 Y-20.029 Z9.069
X-14.628 Y-20.079 Z9.12
X-14.631 Y-20.116 Z9.18
X-14.633 Y-20.14 Z9.247
Y-20.148 Z9.317
G0 Z17
X13.813 Y-20.632
Z10.7
G1 Z9.7 F30
Z9.317
X13.812 Y-20.624 Z9.247 F500
X13.81 Y-20.601 Z9.18
X13.807 Y-20.563 Z9.12
X13.802 Y-20.513 Z9.069
X13.797 Y-20.453 Z9.031
X13.792 Y-20.386 Z9.008
X13.786 Y-20.316 Z9
X13.364 Y-15.334
G3 X13.02 Y-15.044 I-0.316 J-0.027
G2 X10.98 Y9.044 I-1.02 J12.044 F1000
X13.02 Y-15.044 I1.02 J-12.044
X12.621 Y-14.821 I-0.034 J0.407
G3 X12.229 Y-14.585 I-0.383 J-0.193
G2 X11.771 Y8.585 I-0.229 J11.585
X12.229 Y-14.585 I0.229 J-11.585
G3 X11.918 Y-14.909 I0.006 J-0.317 F500
G1 X12.017 Y-19.908
X12.019 Y-19.979 Z9.008
X12.02 Y-20.046 Z9.031
X12.021 Y-20.106 Z9.069
X12.022 Y-20.156 Z9.12
X12.023 Y-20.194 Z9.18
Y-20.217 Z9.247
Y-20.225 Z9.317
X13.813 Y-20.632 F1000
Z8.817 F30
X13.812 Y-20.624 Z8.747 F500
X13.81 Y-20.601 Z8.68
X13.807 Y-20.563 Z8.62
X13.802 Y-20.513 Z8.569
X13.797 Y-20.453 Z8.531
X13.792 Y-20.386 Z8.508
X13.786 Y-20.316 Z8.5
X13.364 Y-15.334
G3 X13.02 Y-15.044 I-0.316 J-0.027
G2 X10.98 Y9.044 I-1.02 J12.044 F1000
X13.02 Y-15.044 I1.02 J-12.044
X12.621 Y-14.821 I-0.034 J0.407
G3 X12.229 Y-14.585 I-0.383 J-0.193
G2 X11.771 Y8.585 I-0.229 J11.585
X12.229 Y-14.585 I0.229 J-11.585
G3 X11.918 Y-14.909 I0.006 J-0.317 F500
G1 X12.017 Y-19.908
X12.019 Y-19.979 Z8.508
X12.02 Y-20.046 Z8.531
X12.021 Y-20.106 Z8.569
X12.022 Y-20.156 Z8.62
X12.023 Y-20.194 Z8.68
Y-20.217 Z8.747
Y-20.225 Z8.817
G0 Z17
X-12.892 Y-20.725
Z10.7
G1 Z9.2 F30
Z8.817
Y-20.717 Z8.747 F500
X-12.891 Y-20.694 Z8.68
Y-20.656 Z8.62
X-12.89 Y-20.605 Z8.569
Y-20.545 Z8.531
X-12.889 Y-20.478 Z8.508
X-12.888 Y-20.408 Z8.5
X-12.829 Y-15.408
G3 X-13.143 Y-15.087 I-0.317 J0.004
G2 X-12.857 Y9.087 I0.143 J12.087 F1000
X-13.143 Y-15.087 I-0.143 J-12.087
X-13.519 Y-14.826 I0.005 J0.408
G3 X-13.886 Y-14.554 I-0.4 J-0.155
G2 X-12.114 Y8.554 I0.886 J11.554
X-13.886 Y-14.554 I-0.886 J-11.554
G3 X-14.227 Y-14.846 I-0.024 J-0.317 F500
G1 X-14.609 Y-19.831
X-14.615 Y-19.902 Z8.508
X-14.62 Y-19.969 Z8.531
X-14.624 Y-20.029 Z8.569
X-14.628 Y-20.079 Z8.62
X-14.631 Y-20.116 Z8.68
X-14.633 Y-20.14 Z8.747
Y-20.148 Z8.817
X-12.892 Y-20.725 F1000
Z8.317 F30
Y-20.717 Z8.247 F500
X-12.891 Y-20.694 Z8.18
Y-20.656 Z8.12
X-12.89 Y-20.605 Z8.069
Y-20.545 Z8.031
X-12.889 Y-20.478 Z8.008
X-12.888 Y-20.408 Z8
X-12.829 Y-15.408
G3 X-13.143 Y-15.087 I-0.317 J0.004
G2 X-12.857 Y9.087 I0.143 J12.087 F1000
X-13.143 Y-15.087 I-0.143 J-12.087
X-13.519 Y-14.826 I0.005 J0.408
G3 X-13.886 Y-14.554 I-0.4 J-0.155
G2 X-12.114 Y8.554 I0.886 J11.554
X-13.886 Y-14.554 I-0.886 J-11.554
G3 X-14.227 Y-14.846 I-0.024 J-0.317 F500
G1 X-14.609 Y-19.831
X-14.615 Y-19.902 Z8.008
X-14.62 Y-19.969 Z8.031
X-14.624 Y-20.029 Z8.069
X-14.628 Y-20.079 Z8.12
X-14.631 Y-20.116 Z8.18
X-14.633 Y-20.14 Z8.247
Y-20.148 Z8.317
G0 Z17
X13.813 Y-20.632
Z10.7
G1 Z8.7 F30
Z8.317
X13.812 Y-20.624 Z8.247 F500
X13.81 Y-20.601 Z8.18
X13.807 Y-20.563 Z8.12
X13.802 Y-20.513 Z8.069
X13.797 Y-20.453 Z8.031
X13.792 Y-20.386 Z8.008
X13.786 Y-20.316 Z8
X13.364 Y-15.334
G3 X13.02 Y-15.044 I-0.316 J-0.027
G2 X10.98 Y9.044 I-1.02 J12.044 F1000
X13.02 Y-15.044 I1.02 J-12.044
X12.621 Y-14.821 I-0.034 J0.407
G3 X12.229 Y-14.585 I-0.383 J-0.193
G2 X11.771 Y8.585 I-0.229 J11.585
X12.229 Y-14.585 I0.229 J-11.585
G3 X11.918 Y-14.909 I0.006 J-0.317 F500
G1 X12.017 Y-19.908
X12.019 Y-19.979 Z8.008
X12.02 Y-20.046 Z8.031
X12.021 Y-20.106 Z8.069
X12.022 Y-20.156 Z8.12
X12.023 Y-20.194 Z8.18
Y-20.217 Z8.247
Y-20.225 Z8.317
X13.813 Y-20.632 F1000
Z7.817 F30
X13.812 Y-20.624 Z7.747 F500
X13.81 Y-20.601 Z7.68
X13.807 Y-20.563 Z7.62
X13.802 Y-20.513 Z7.569
X13.797 Y-20.453 Z7.531
X13.792 Y-20.386 Z7.508
X13.786 Y-20.316 Z7.5
X13.364 Y-15.334
G3 X13.02 Y-15.044 I-0.316 J-0.027
G2 X10.98 Y9.044 I-1.02 J12.044 F1000
X13.02 Y-15.044 I1.02 J-12.044
X12.621 Y-14.821 I-0.034 J0.407
G3 X12.229 Y-14.585 I-0.383 J-0.193
G2 X11.771 Y8.585 I-0.229 J11.585
X12.229 Y-14.585 I0.229 J-11.585
G3 X11.918 Y-14.909 I0.006 J-0.317 F500
G1 X12.017 Y-19.908
X12.019 Y-19.979 Z7.508
X12.02 Y-20.046 Z7.531
X12.021 Y-20.106 Z7.569
X12.022 Y-20.156 Z7.62
X12.023 Y-20.194 Z7.68
Y-20.217 Z7.747
Y-20.225 Z7.817
G0 Z17
X-12.892 Y-20.725
Z10.7
G1 Z8.2 F30
Z7.817
Y-20.717 Z7.747 F500
X-12.891 Y-20.694 Z7.68
Y-20.656 Z7.62
X-12.89 Y-20.605 Z7.569
Y-20.545 Z7.531
X-12.889 Y-20.478 Z7.508
X-12.888 Y-20.408 Z7.5
X-12.829 Y-15.408
G3 X-13.143 Y-15.087 I-0.317 J0.004
G2 X-12.857 Y9.087 I0.143 J12.087 F1000
X-13.143 Y-15.087 I-0.143 J-12.087
X-13.519 Y-14.826 I0.005 J0.408
G3 X-13.886 Y-14.554 I-0.4 J-0.155
G2 X-12.114 Y8.554 I0.886 J11.554
X-13.886 Y-14.554 I-0.886 J-11.554
G3 X-14.227 Y-14.846 I-0.024 J-0.317 F500
G1 X-14.609 Y-19.831
X-14.615 Y-19.902 Z7.508
X-14.62 Y-19.969 Z7.531
X-14.624 Y-20.029 Z7.569
X-14.628 Y-20.079 Z7.62
X-14.631 Y-20.116 Z7.68
X-14.633 Y-20.14 Z7.747
Y-20.148 Z7.817
X-12.892 Y-20.725 F1000
Z7.317 F30
Y-20.717 Z7.247 F500
X-12.891 Y-20.694 Z7.18
Y-20.656 Z7.12
X-12.89 Y-20.605 Z7.069
Y-20.545 Z7.031
X-12.889 Y-20.478 Z7.008
X-12.888 Y-20.408 Z7
X-12.829 Y-15.408
G3 X-13.143 Y-15.087 I-0.317 J0.004
G2 X-12.857 Y9.087 I0.143 J12.087 F1000
X-13.143 Y-15.087 I-0.143 J-12.087
X-13.519 Y-14.826 I0.005 J0.408
G3 X-13.886 Y-14.554 I-0.4 J-0.155
G2 X-12.114 Y8.554 I0.886 J11.554
X-13.886 Y-14.554 I-0.886 J-11.554
G3 X-14.227 Y-14.846 I-0.024 J-0.317 F500
G1 X-14.609 Y-19.831
X-14.615 Y-19.902 Z7.008
X-14.62 Y-19.969 Z7.031
X-14.624 Y-20.029 Z7.069
X-14.628 Y-20.079 Z7.12
X-14.631 Y-20.116 Z7.18
X-14.633 Y-20.14 Z7.247
Y-20.148 Z7.317
G0 Z17
X13.813 Y-20.632
Z10.7
G1 Z7.7 F30
Z7.317
X13.812 Y-20.624 Z7.247 F500
X13.81 Y-20.601 Z7.18
X13.807 Y-20.563 Z7.12
X13.802 Y-20.513 Z7.069
X13.797 Y-20.453 Z7.031
X13.792 Y-20.386 Z7.008
X13.786 Y-20.316 Z7
X13.364 Y-15.334
G3 X13.02 Y-15.044 I-0.316 J-0.027
G2 X10.98 Y9.044 I-1.02 J12.044 F1000
X13.02 Y-15.044 I1.02 J-12.044
X12.621 Y-14.821 I-0.034 J0.407
G3 X12.229 Y-14.585 I-0.383 J-0.193
G2 X11.771 Y8.585 I-0.229 J11.585
X12.229 Y-14.585 I0.229 J-11.585
G3 X11.918 Y-14.909 I0.006 J-0.317 F500
G1 X12.017 Y-19.908
X12.019 Y-19.979 Z7.008
X12.02 Y-20.046 Z7.031
X12.021 Y-20.106 Z7.069
X12.022 Y-20.156 Z7.12
X12.023 Y-20.194 Z7.18
Y-20.217 Z7.247
Y-20.225 Z7.317
X13.813 Y-20.632 F1000
Z6.817 F30
X13.812 Y-20.624 Z6.747 F500
X13.81 Y-20.601 Z6.68
X13.807 Y-20.563 Z6.62
X13.802 Y-20.513 Z6.569
X13.797 Y-20.453 Z6.531
X13.792 Y-20.386 Z6.508
X13.786 Y-20.316 Z6.5
X13.364 Y-15.334
G3 X13.02 Y-15.044 I-0.316 J-0.027
G2 X10.98 Y9.044 I-1.02 J12.044 F1000
X13.02 Y-15.044 I1.02 J-12.044
X12.621 Y-14.821 I-0.034 J0.407
G3 X12.229 Y-14.585 I-0.383 J-0.193
G2 X11.771 Y8.585 I-0.229 J11.585
X12.229 Y-14.585 I0.229 J-11.585
G3 X11.918 Y-14.909 I0.006 J-0.317 F500
G1 X12.017 Y-19.908
X12.019 Y-19.979 Z6.508
X12.02 Y-20.046 Z6.531
X12.021 Y-20.106 Z6.569
X12.022 Y-20.156 Z6.62
X12.023 Y-20.194 Z6.68
Y-20.217 Z6.747
Y-20.225 Z6.817
G0 Z17
X-12.892 Y-20.725
Z10.7
G1 Z7.2 F30
Z6.817
Y-20.717 Z6.747 F500
X-12.891 Y-20.694 Z6.68
Y-20.656 Z6.62
X-12.89 Y-20.605 Z6.569
Y-20.545 Z6.531
X-12.889 Y-20.478 Z6.508
X-12.888 Y-20.408 Z6.5
X-12.829 Y-15.408
G3 X-13.143 Y-15.087 I-0.317 J0.004
G2 X-12.857 Y9.087 I0.143 J12.087 F1000
X-13.143 Y-15.087 I-0.143 J-12.087
X-13.519 Y-14.826 I0.005 J0.408
G3 X-13.886 Y-14.554 I-0.4 J-0.155
G2 X-12.114 Y8.554 I0.886 J11.554
X-13.886 Y-14.554 I-0.886 J-11.554
G3 X-14.227 Y-14.846 I-0.024 J-0.317 F500
G1 X-14.609 Y-19.831
X-14.615 Y-19.902 Z6.508
X-14.62 Y-19.969 Z6.531
X-14.624 Y-20.029 Z6.569
X-14.628 Y-20.079 Z6.62
X-14.631 Y-20.116 Z6.68
X-14.633 Y-20.14 Z6.747
Y-20.148 Z6.817
X-12.892 Y-20.725 F1000
Z6.317 F30
Y-20.717 Z6.247 F500
X-12.891 Y-20.694 Z6.18
Y-20.656 Z6.12
X-12.89 Y-20.605 Z6.069
Y-20.545 Z6.031
X-12.889 Y-20.478 Z6.008
X-12.888 Y-20.408 Z6
X-12.829 Y-15.408
G3 X-13.143 Y-15.087 I-0.317 J0.004
G2 X-12.857 Y9.087 I0.143 J12.087 F1000
X-13.143 Y-15.087 I-0.143 J-12.087
X-13.519 Y-14.826 I0.005 J0.408
G3 X-13.886 Y-14.554 I-0.4 J-0.155
G2 X-12.114 Y8.554 I0.886 J11.554
X-13.886 Y-14.554 I-0.886 J-11.554
G3 X-14.227 Y-14.846 I-0.024 J-0.317 F500
G1 X-14.609 Y-19.831
X-14.615 Y-19.902 Z6.008
X-14.62 Y-19.969 Z6.031
X-14.624 Y-20.029 Z6.069
X-14.628 Y-20.079 Z6.12
X-14.631 Y-20.116 Z6.18
X-14.633 Y-20.14 Z6.247
Y-20.148 Z6.317
G0 Z17
X13.813 Y-20.632
Z10.7
G1 Z6.7 F30
Z6.317
X13.812 Y-20.624 Z6.247 F500
X13.81 Y-20.601 Z6.18
X13.807 Y-20.563 Z6.12
X13.802 Y-20.513 Z6.069
X13.797 Y-20.453 Z6.031
X13.792 Y-20.386 Z6.008
X13.786 Y-20.316 Z6
X13.364 Y-15.334
G3 X13.02 Y-15.044 I-0.316 J-0.027
G2 X10.98 Y9.044 I-1.02 J12.044 F1000
X13.02 Y-15.044 I1.02 J-12.044
X12.621 Y-14.821 I-0.034 J0.407
G3 X12.229 Y-14.585 I-0.383 J-0.193
G2 X11.771 Y8.585 I-0.229 J11.585
X12.229 Y-14.585 I0.229 J-11.585
G3 X11.918 Y-14.909 I0.006 J-0.317 F500
G1 X12.017 Y-19.908
X12.019 Y-19.979 Z6.008
X12.02 Y-20.046 Z6.031
X12.021 Y-20.106 Z6.069
X12.022 Y-20.156 Z6.12
X12.023 Y-20.194 Z6.18
Y-20.217 Z6.247
Y-20.225 Z6.317
X13.813 Y-20.632 F1000
Z5.817 F30
X13.812 Y-20.624 Z5.747 F500
X13.81 Y-20.601 Z5.68
X13.807 Y-20.563 Z5.62
X13.802 Y-20.513 Z5.569
X13.797 Y-20.453 Z5.531
X13.792 Y-20.386 Z5.508
X13.786 Y-20.316 Z5.5
X13.364 Y-15.334
G3 X13.02 Y-15.044 I-0.316 J-0.027
G2 X10.98 Y9.044 I-1.02 J12.044 F1000
X13.02 Y-15.044 I1.02 J-12.044
X12.621 Y-14.821 I-0.034 J0.407
G3 X12.229 Y-14.585 I-0.383 J-0.193
G2 X11.771 Y8.585 I-0.229 J11.585
X12.229 Y-14.585 I0.229 J-11.585
G3 X11.918 Y-14.909 I0.006 J-0.317 F500
G1 X12.017 Y-19.908
X12.019 Y-19.979 Z5.508
X12.02 Y-20.046 Z5.531
X12.021 Y-20.106 Z5.569
X12.022 Y-20.156 Z5.62
X12.023 Y-20.194 Z5.68
Y-20.217 Z5.747
Y-20.225 Z5.817
G0 Z17
X-12.892 Y-20.725
Z10.7
G1 Z6.2 F30
Z5.817
Y-20.717 Z5.747 F500
X-12.891 Y-20.694 Z5.68
Y-20.656 Z5.62
X-12.89 Y-20.605 Z5.569
Y-20.545 Z5.531
X-12.889 Y-20.478 Z5.508
X-12.888 Y-20.408 Z5.5
X-12.829 Y-15.408
G3 X-13.143 Y-15.087 I-0.317 J0.004
G2 X-12.857 Y9.087 I0.143 J12.087 F1000
X-13.143 Y-15.087 I-0.143 J-12.087
X-13.519 Y-14.826 I0.005 J0.408
G3 X-13.886 Y-14.554 I-0.4 J-0.155
G2 X-12.114 Y8.554 I0.886 J11.554
X-13.886 Y-14.554 I-0.886 J-11.554
G3 X-14.227 Y-14.846 I-0.024 J-0.317 F500
G1 X-14.609 Y-19.831
X-14.615 Y-19.902 Z5.508
X-14.62 Y-19.969 Z5.531
X-14.624 Y-20.029 Z5.569
X-14.628 Y-20.079 Z5.62
X-14.631 Y-20.116 Z5.68
X-14.633 Y-20.14 Z5.747
Y-20.148 Z5.817
X-12.892 Y-20.725 F1000
Z5.317 F30
Y-20.717 Z5.247 F500
X-12.891 Y-20.694 Z5.18
Y-20.656 Z5.12
X-12.89 Y-20.605 Z5.069
Y-20.545 Z5.031
X-12.889 Y-20.478 Z5.008
X-12.888 Y-20.408 Z5
X-12.829 Y-15.408
G3 X-13.143 Y-15.087 I-0.317 J0.004
G2 X-12.857 Y9.087 I0.143 J12.087 F1000
X-13.143 Y-15.087 I-0.143 J-12.087
X-13.519 Y-14.826 I0.005 J0.408
G3 X-13.886 Y-14.554 I-0.4 J-0.155
G2 X-12.114 Y8.554 I0.886 J11.554
X-13.886 Y-14.554 I-0.886 J-11.554
G3 X-14.227 Y-14.846 I-0.024 J-0.317 F500
G1 X-14.609 Y-19.831
X-14.615 Y-19.902 Z5.008
X-14.62 Y-19.969 Z5.031
X-14.624 Y-20.029 Z5.069
X-14.628 Y-20.079 Z5.12
X-14.631 Y-20.116 Z5.18
X-14.633 Y-20.14 Z5.247
Y-20.148 Z5.317
G0 Z17
X13.813 Y-20.632
Z10.7
G1 Z5.7 F30
Z5.317
X13.812 Y-20.624 Z5.247 F500
X13.81 Y-20.601 Z5.18
X13.807 Y-20.563 Z5.12
X13.802 Y-20.513 Z5.069
X13.797 Y-20.453 Z5.031
X13.792 Y-20.386 Z5.008
X13.786 Y-20.316 Z5
X13.364 Y-15.334
G3 X13.02 Y-15.044 I-0.316 J-0.027
G2 X10.98 Y9.044 I-1.02 J12.044 F1000
X13.02 Y-15.044 I1.02 J-12.044
X12.621 Y-14.821 I-0.034 J0.407
G3 X12.229 Y-14.585 I-0.383 J-0.193
G2 X11.771 Y8.585 I-0.229 J11.585
X12.229 Y-14.585 I0.229 J-11.585
G3 X11.918 Y-14.909 I0.006 J-0.317 F500
G1 X12.017 Y-19.908
X12.019 Y-19.979 Z5.008
X12.02 Y-20.046 Z5.031
X12.021 Y-20.106 Z5.069
X12.022 Y-20.156 Z5.12
X12.023 Y-20.194 Z5.18
Y-20.217 Z5.247
Y-20.225 Z5.317
X13.813 Y-20.632 F1000
Z4.817 F30
X13.812 Y-20.624 Z4.747 F500
X13.81 Y-20.601 Z4.68
X13.807 Y-20.563 Z4.62
X13.802 Y-20.513 Z4.569
X13.797 Y-20.453 Z4.531
X13.792 Y-20.386 Z4.508
X13.786 Y-20.316 Z4.5
X13.364 Y-15.334
G3 X13.02 Y-15.044 I-0.316 J-0.027
G2 X10.98 Y9.044 I-1.02 J12.044 F1000
X13.02 Y-15.044 I1.02 J-12.044
X12.621 Y-14.821 I-0.034 J0.407
G3 X12.229 Y-14.585 I-0.383 J-0.193
G2 X11.771 Y8.585 I-0.229 J11.585
X12.229 Y-14.585 I0.229 J-11.585
G3 X11.918 Y-14.909 I0.006 J-0.317 F500
G1 X12.017 Y-19.908
X12.019 Y-19.979 Z4.508
X12.02 Y-20.046 Z4.531
X12.021 Y-20.106 Z4.569
X12.022 Y-20.156 Z4.62
X12.023 Y-20.194 Z4.68
Y-20.217 Z4.747
Y-20.225 Z4.817
G0 Z17
X-12.892 Y-20.725
Z10.7
G1 Z5.2 F30
Z4.817
Y-20.717 Z4.747 F500
X-12.891 Y-20.694 Z4.68
Y-20.656 Z4.62
X-12.89 Y-20.605 Z4.569
Y-20.545 Z4.531
X-12.889 Y-20.478 Z4.508
X-12.888 Y-20.408 Z4.5
X-12.829 Y-15.408
G3 X-13.143 Y-15.087 I-0.317 J0.004
G2 X-12.857 Y9.087 I0.143 J12.087 F1000
X-13.143 Y-15.087 I-0.143 J-12.087
X-13.519 Y-14.826 I0.005 J0.408
G3 X-13.886 Y-14.554 I-0.4 J-0.155
G2 X-12.114 Y8.554 I0.886 J11.554
X-13.886 Y-14.554 I-0.886 J-11.554
G3 X-14.227 Y-14.846 I-0.024 J-0.317 F500
G1 X-14.609 Y-19.831
X-14.615 Y-19.902 Z4.508
X-14.62 Y-19.969 Z4.531
X-14.624 Y-20.029 Z4.569
X-14.628 Y-20.079 Z4.62
X-14.631 Y-20.116 Z4.68
X-14.633 Y-20.14 Z4.747
Y-20.148 Z4.817
X-12.892 Y-20.725 F1000
Z4.317 F30
Y-20.717 Z4.247 F500
X-12.891 Y-20.694 Z4.18
Y-20.656 Z4.12
X-12.89 Y-20.605 Z4.069
Y-20.545 Z4.031
X-12.889 Y-20.478 Z4.008
X-12.888 Y-20.408 Z4
X-12.829 Y-15.408
G3 X-13.143 Y-15.087 I-0.317 J0.004
G2 X-12.857 Y9.087 I0.143 J12.087 F1000
X-13.143 Y-15.087 I-0.143 J-12.087
X-13.519 Y-14.826 I0.005 J0.408
G3 X-13.886 Y-14.554 I-0.4 J-0.155
G2 X-12.114 Y8.554 I0.886 J11.554
X-13.886 Y-14.554 I-0.886 J-11.554
G3 X-14.227 Y-14.846 I-0.024 J-0.317 F500
G1 X-14.609 Y-19.831
X-14.615 Y-19.902 Z4.008
X-14.62 Y-19.969 Z4.031
X-14.624 Y-20.029 Z4.069
X-14.628 Y-20.079 Z4.12
X-14.631 Y-20.116 Z4.18
X-14.633 Y-20.14 Z4.247
Y-20.148 Z4.317
G0 Z17
X13.813 Y-20.632
Z10.7
G1 Z4.7 F30
Z4.317
X13.812 Y-20.624 Z4.247 F500
X13.81 Y-20.601 Z4.18
X13.807 Y-20.563 Z4.12
X13.802 Y-20.513 Z4.069
X13.797 Y-20.453 Z4.031
X13.792 Y-20.386 Z4.008
X13.786 Y-20.316 Z4
X13.364 Y-15.334
G3 X13.02 Y-15.044 I-0.316 J-0.027
G2 X10.98 Y9.044 I-1.02 J12.044 F1000
X13.02 Y-15.044 I1.02 J-12.044
X12.621 Y-14.821 I-0.034 J0.407
G3 X12.229 Y-14.585 I-0.383 J-0.193
G2 X11.771 Y8.585 I-0.229 J11.585
X12.229 Y-14.585 I0.229 J-11.585
G3 X11.918 Y-14.909 I0.006 J-0.317 F500
G1 X12.017 Y-19.908
X12.019 Y-19.979 Z4.008
X12.02 Y-20.046 Z4.031
X12.021 Y-20.106 Z4.069
X12.022 Y-20.156 Z4.12
X12.023 Y-20.194 Z4.18
Y-20.217 Z4.247
Y-20.225 Z4.317
X13.813 Y-20.632 F1000
Z3.817 F30
X13.812 Y-20.624 Z3.747 F500
X13.81 Y-20.601 Z3.68
X13.807 Y-20.563 Z3.62
X13.802 Y-20.513 Z3.569
X13.797 Y-20.453 Z3.531
X13.792 Y-20.386 Z3.508
X13.786 Y-20.316 Z3.5
X13.364 Y-15.334
G3 X13.02 Y-15.044 I-0.316 J-0.027
G2 X10.98 Y9.044 I-1.02 J12.044 F1000
X13.02 Y-15.044 I1.02 J-12.044
X12.621 Y-14.821 I-0.034 J0.407
G3 X12.229 Y-14.585 I-0.383 J-0.193
G2 X11.771 Y8.585 I-0.229 J11.585
X12.229 Y-14.585 I0.229 J-11.585
G3 X11.918 Y-14.909 I0.006 J-0.317 F500
G1 X12.017 Y-19.908
X12.019 Y-19.979 Z3.508
X12.02 Y-20.046 Z3.531
X12.021 Y-20.106 Z3.569
X12.022 Y-20.156 Z3.62
X12.023 Y-20.194 Z3.68
Y-20.217 Z3.747
Y-20.225 Z3.817
G0 Z17
X-12.892 Y-20.725
Z10.7
G1 Z4.2 F30
Z3.817
Y-20.717 Z3.747 F500
X-12.891 Y-20.694 Z3.68
Y-20.656 Z3.62
X-12.89 Y-20.605 Z3.569
Y-20.545 Z3.531
X-12.889 Y-20.478 Z3.508
X-12.888 Y-20.408 Z3.5
X-12.829 Y-15.408
G3 X-13.143 Y-15.087 I-0.317 J0.004
G2 X-12.857 Y9.087 I0.143 J12.087 F1000
X-13.143 Y-15.087 I-0.143 J-12.087
X-13.519 Y-14.826 I0.005 J0.408
G3 X-13.886 Y-14.554 I-0.4 J-0.155
G2 X-12.114 Y8.554 I0.886 J11.554
X-13.886 Y-14.554 I-0.886 J-11.554
G3 X-14.227 Y-14.846 I-0.024 J-0.317 F500
G1 X-14.609 Y-19.831
X-14.615 Y-19.902 Z3.508
X-14.62 Y-19.969 Z3.531
X-14.624 Y-20.029 Z3.569
X-14.628 Y-20.079 Z3.62
X-14.631 Y-20.116 Z3.68
X-14.633 Y-20.14 Z3.747
Y-20.148 Z3.817
X-12.892 Y-20.725 F1000
Z3.317 F30
Y-20.717 Z3.247 F500
X-12.891 Y-20.694 Z3.18
Y-20.656 Z3.12
X-12.89 Y-20.605 Z3.069
Y-20.545 Z3.031
X-12.889 Y-20.478 Z3.008
X-12.888 Y-20.408 Z3
X-12.829 Y-15.408
G3 X-13.143 Y-15.087 I-0.317 J0.004
G2 X-12.857 Y9.087 I0.143 J12.087 F1000
X-13.143 Y-15.087 I-0.143 J-12.087
X-13.519 Y-14.826 I0.005 J0.408
G3 X-13.886 Y-14.554 I-0.4 J-0.155
G2 X-12.114 Y8.554 I0.886 J11.554
X-13.886 Y-14.554 I-0.886 J-11.554
G3 X-14.227 Y-14.846 I-0.024 J-0.317 F500
G1 X-14.609 Y-19.831
X-14.615 Y-19.902 Z3.008
X-14.62 Y-19.969 Z3.031
X-14.624 Y-20.029 Z3.069
X-14.628 Y-20.079 Z3.12
X-14.631 Y-20.116 Z3.18
X-14.633 Y-20.14 Z3.247
Y-20.148 Z3.317
G0 Z17
X13.813 Y-20.632
Z10.7
G1 Z3.7 F30
Z3.317
X13.812 Y-20.624 Z3.247 F500
X13.81 Y-20.601 Z3.18
X13.807 Y-20.563 Z3.12
X13.802 Y-20.513 Z3.069
X13.797 Y-20.453 Z3.031
X13.792 Y-20.386 Z3.008
X13.786 Y-20.316 Z3
X13.364 Y-15.334
G3 X13.02 Y-15.044 I-0.316 J-0.027
G2 X10.98 Y9.044 I-1.02 J12.044 F1000
X13.02 Y-15.044 I1.02 J-12.044
X12.621 Y-14.821 I-0.034 J0.407
G3 X12.229 Y-14.585 I-0.383 J-0.193
G2 X11.771 Y8.585 I-0.229 J11.585
X12.229 Y-14.585 I0.229 J-11.585
G3 X11.918 Y-14.909 I0.006 J-0.317 F500
G1 X12.017 Y-19.908
X12.019 Y-19.979 Z3.008
X12.02 Y-20.046 Z3.031
X12.021 Y-20.106 Z3.069
X12.022 Y-20.156 Z3.12
X12.023 Y-20.194 Z3.18
Y-20.217 Z3.247
Y-20.225 Z3.317
X13.813 Y-20.632 F1000
Z2.817 F30
X13.812 Y-20.624 Z2.747 F500
X13.81 Y-20.601 Z2.68
X13.807 Y-20.563 Z2.62
X13.802 Y-20.513 Z2.569
X13.797 Y-20.453 Z2.531
X13.792 Y-20.386 Z2.508
X13.786 Y-20.316 Z2.5
X13.364 Y-15.334
G3 X13.02 Y-15.044 I-0.316 J-0.027
G2 X10.98 Y9.044 I-1.02 J12.044 F1000
X13.02 Y-15.044 I1.02 J-12.044
X12.621 Y-14.821 I-0.034 J0.407
G3 X12.229 Y-14.585 I-0.383 J-0.193
G2 X11.771 Y8.585 I-0.229 J11.585
X12.229 Y-14.585 I0.229 J-11.585
G3 X11.918 Y-14.909 I0.006 J-0.317 F500
G1 X12.017 Y-19.908
X12.019 Y-19.979 Z2.508
X12.02 Y-20.046 Z2.531
X12.021 Y-20.106 Z2.569
X12.022 Y-20.156 Z2.62
X12.023 Y-20.194 Z2.68
Y-20.217 Z2.747
Y-20.225 Z2.817
G0 Z17
X-12.892 Y-20.725
Z10.7
G1 Z3.2 F30
Z2.817
Y-20.717 Z2.747 F500
X-12.891 Y-20.694 Z2.68
Y-20.656 Z2.62
X-12.89 Y-20.605 Z2.569
Y-20.545 Z2.531
X-12.889 Y-20.478 Z2.508
X-12.888 Y-20.408 Z2.5
X-12.829 Y-15.408
G3 X-13.143 Y-15.087 I-0.317 J0.004
G2 X-12.857 Y9.087 I0.143 J12.087 F1000
X-13.143 Y-15.087 I-0.143 J-12.087
X-13.519 Y-14.826 I0.005 J0.408
G3 X-13.886 Y-14.554 I-0.4 J-0.155
G2 X-12.114 Y8.554 I0.886 J11.554
X-13.886 Y-14.554 I-0.886 J-11.554
G3 X-14.227 Y-14.846 I-0.024 J-0.317 F500
G1 X-14.609 Y-19.831
X-14.615 Y-19.902 Z2.508
X-14.62 Y-19.969 Z2.531
X-14.624 Y-20.029 Z2.569
X-14.628 Y-20.079 Z2.62
X-14.631 Y-20.116 Z2.68
X-14.633 Y-20.14 Z2.747
Y-20.148 Z2.817
X-12.892 Y-20.725 F1000
Z2.317 F30
Y-20.717 Z2.247 F500
X-12.891 Y-20.694 Z2.18
Y-20.656 Z2.12
X-12.89 Y-20.605 Z2.069
Y-20.545 Z2.031
X-12.889 Y-20.478 Z2.008
X-12.888 Y-20.408 Z2
X-12.829 Y-15.408
G3 X-13.143 Y-15.087 I-0.317 J0.004
G2 X-12.857 Y9.087 I0.143 J12.087 F1000
X-13.143 Y-15.087 I-0.143 J-12.087
X-13.519 Y-14.826 I0.005 J0.408
G3 X-13.886 Y-14.554 I-0.4 J-0.155
G2 X-12.114 Y8.554 I0.886 J11.554
X-13.886 Y-14.554 I-0.886 J-11.554
G3 X-14.227 Y-14.846 I-0.024 J-0.317 F500
G1 X-14.609 Y-19.831
X-14.615 Y-19.902 Z2.008
X-14.62 Y-19.969 Z2.031
X-14.624 Y-20.029 Z2.069
X-14.628 Y-20.079 Z2.12
X-14.631 Y-20.116 Z2.18
X-14.633 Y-20.14 Z2.247
Y-20.148 Z2.317
G0 Z17
X13.813 Y-20.632
Z10.7
G1 Z2.7 F30
Z2.317
X13.812 Y-20.624 Z2.247 F500
X13.81 Y-20.601 Z2.18
X13.807 Y-20.563 Z2.12
X13.802 Y-20.513 Z2.069
X13.797 Y-20.453 Z2.031
X13.792 Y-20.386 Z2.008
X13.786 Y-20.316 Z2
X13.364 Y-15.334
G3 X13.02 Y-15.044 I-0.316 J-0.027
G2 X10.98 Y9.044 I-1.02 J12.044 F1000
X13.02 Y-15.044 I1.02 J-12.044
X12.621 Y-14.821 I-0.034 J0.407
G3 X12.229 Y-14.585 I-0.383 J-0.193
G2 X11.771 Y8.585 I-0.229 J11.585
X12.229 Y-14.585 I0.229 J-11.585
G3 X11.918 Y-14.909 I0.006 J-0.317 F500
G1 X12.017 Y-19.908
X12.019 Y-19.979 Z2.008
X12.02 Y-20.046 Z2.031
X12.021 Y-20.106 Z2.069
X12.022 Y-20.156 Z2.12
X12.023 Y-20.194 Z2.18
Y-20.217 Z2.247
Y-20.225 Z2.317
X13.813 Y-20.632 F1000
Z1.817 F30
X13.812 Y-20.624 Z1.747 F500
X13.81 Y-20.601 Z1.68
X13.807 Y-20.563 Z1.62
X13.802 Y-20.513 Z1.569
X13.797 Y-20.453 Z1.531
X13.792 Y-20.386 Z1.508
X13.786 Y-20.316 Z1.5
X13.364 Y-15.334
G3 X13.02 Y-15.044 I-0.316 J-0.027
G2 X10.98 Y9.044 I-1.02 J12.044 F1000
X13.02 Y-15.044 I1.02 J-12.044
X12.621 Y-14.821 I-0.034 J0.407
G3 X12.229 Y-14.585 I-0.383 J-0.193
G2 X11.771 Y8.585 I-0.229 J11.585
X12.229 Y-14.585 I0.229 J-11.585
G3 X11.918 Y-14.909 I0.006 J-0.317 F500
G1 X12.017 Y-19.908
X12.019 Y-19.979 Z1.508
X12.02 Y-20.046 Z1.531
X12.021 Y-20.106 Z1.569
X12.022 Y-20.156 Z1.62
X12.023 Y-20.194 Z1.68
Y-20.217 Z1.747
Y-20.225 Z1.817
G0 Z17
X-12.892 Y-20.725
Z10.7
G1 Z2.2 F30
Z1.817
Y-20.717 Z1.747 F500
X-12.891 Y-20.694 Z1.68
Y-20.656 Z1.62
X-12.89 Y-20.605 Z1.569
Y-20.545 Z1.531
X-12.889 Y-20.478 Z1.508
X-12.888 Y-20.408 Z1.5
X-12.829 Y-15.408
G3 X-13.143 Y-15.087 I-0.317 J0.004
G2 X-12.857 Y9.087 I0.143 J12.087 F1000
X-13.143 Y-15.087 I-0.143 J-12.087
X-13.519 Y-14.826 I0.005 J0.408
G3 X-13.886 Y-14.554 I-0.4 J-0.155
G2 X-12.114 Y8.554 I0.886 J11.554
X-13.886 Y-14.554 I-0.886 J-11.554
G3 X-14.227 Y-14.846 I-0.024 J-0.317 F500
G1 X-14.609 Y-19.831
X-14.615 Y-19.902 Z1.508
X-14.62 Y-19.969 Z1.531
X-14.624 Y-20.029 Z1.569
X-14.628 Y-20.079 Z1.62
X-14.631 Y-20.116 Z1.68
X-14.633 Y-20.14 Z1.747
Y-20.148 Z1.817
X-12.892 Y-20.725 F1000
Z1.317 F30
Y-20.717 Z1.247 F500
X-12.891 Y-20.694 Z1.18
Y-20.656 Z1.12
X-12.89 Y-20.605 Z1.069
Y-20.545 Z1.031
X-12.889 Y-20.478 Z1.008
X-12.888 Y-20.408 Z1
X-12.829 Y-15.408
G3 X-13.143 Y-15.087 I-0.317 J0.004
G2 X-12.857 Y9.087 I0.143 J12.087 F1000
X-13.143 Y-15.087 I-0.143 J-12.087
X-13.519 Y-14.826 I0.005 J0.408
G3 X-13.886 Y-14.554 I-0.4 J-0.155
G2 X-12.114 Y8.554 I0.886 J11.554
X-13.886 Y-14.554 I-0.886 J-11.554
G3 X-14.227 Y-14.846 I-0.024 J-0.317 F500
G1 X-14.609 Y-19.831
X-14.615 Y-19.902 Z1.008
X-14.62 Y-19.969 Z1.031
X-14.624 Y-20.029 Z1.069
X-14.628 Y-20.079 Z1.12
X-14.631 Y-20.116 Z1.18
X-14.633 Y-20.14 Z1.247
Y-20.148 Z1.317
G0 Z17
X13.813 Y-20.632
Z10.7
G1 Z1.7 F30
Z1.317
X13.812 Y-20.624 Z1.247 F500
X13.81 Y-20.601 Z1.18
X13.807 Y-20.563 Z1.12
X13.802 Y-20.513 Z1.069
X13.797 Y-20.453 Z1.031
X13.792 Y-20.386 Z1.008
X13.786 Y-20.316 Z1
X13.364 Y-15.334
G3 X13.02 Y-15.044 I-0.316 J-0.027
G2 X10.98 Y9.044 I-1.02 J12.044 F1000
X13.02 Y-15.044 I1.02 J-12.044
X12.621 Y-14.821 I-0.034 J0.407
G3 X12.229 Y-14.585 I-0.383 J-0.193
G2 X11.771 Y8.585 I-0.229 J11.585
X12.229 Y-14.585 I0.229 J-11.585
G3 X11.918 Y-14.909 I0.006 J-0.317 F500
G1 X12.017 Y-19.908
X12.019 Y-19.979 Z1.008
X12.02 Y-20.046 Z1.031
X12.021 Y-20.106 Z1.069
X12.022 Y-20.156 Z1.12
X12.023 Y-20.194 Z1.18
Y-20.217 Z1.247
Y-20.225 Z1.317
X13.813 Y-20.632 F1000
Z0.817 F30
X13.812 Y-20.624 Z0.747 F500
X13.81 Y-20.601 Z0.68
X13.807 Y-20.563 Z0.62
X13.802 Y-20.513 Z0.569
X13.797 Y-20.453 Z0.531
X13.792 Y-20.386 Z0.508
X13.786 Y-20.316 Z0.5
X13.364 Y-15.334
G3 X13.02 Y-15.044 I-0.316 J-0.027
G2 X10.98 Y9.044 I-1.02 J12.044 F1000
X13.02 Y-15.044 I1.02 J-12.044
X12.621 Y-14.821 I-0.034 J0.407
G3 X12.229 Y-14.585 I-0.383 J-0.193
G2 X11.771 Y8.585 I-0.229 J11.585
X12.229 Y-14.585 I0.229 J-11.585
G3 X11.918 Y-14.909 I0.006 J-0.317 F500
G1 X12.017 Y-19.908
X12.019 Y-19.979 Z0.508
X12.02 Y-20.046 Z0.531
X12.021 Y-20.106 Z0.569
X12.022 Y-20.156 Z0.62
X12.023 Y-20.194 Z0.68
Y-20.217 Z0.747
Y-20.225 Z0.817
G0 Z17
X-12.892 Y-20.725
Z10.7
G1 Z1.2 F30
Z0.817
Y-20.717 Z0.747 F500
X-12.891 Y-20.694 Z0.68
Y-20.656 Z0.62
X-12.89 Y-20.605 Z0.569
Y-20.545 Z0.531
X-12.889 Y-20.478 Z0.508
X-12.888 Y-20.408 Z0.5
X-12.829 Y-15.408
G3 X-13.143 Y-15.087 I-0.317 J0.004
G2 X-12.857 Y9.087 I0.143 J12.087 F1000
X-13.143 Y-15.087 I-0.143 J-12.087
X-13.519 Y-14.826 I0.005 J0.408
G3 X-13.886 Y-14.554 I-0.4 J-0.155
G2 X-12.114 Y8.554 I0.886 J11.554
X-13.886 Y-14.554 I-0.886 J-11.554
G3 X-14.227 Y-14.846 I-0.024 J-0.317 F500
G1 X-14.609 Y-19.831
X-14.615 Y-19.902 Z0.508
X-14.62 Y-19.969 Z0.531
X-14.624 Y-20.029 Z0.569
X-14.628 Y-20.079 Z0.62
X-14.631 Y-20.116 Z0.68
X-14.633 Y-20.14 Z0.747
Y-20.148 Z0.817
X-12.892 Y-20.725 F1000
Z0.317 F30
Y-20.717 Z0.247 F500
X-12.891 Y-20.694 Z0.18
Y-20.656 Z0.12
X-12.89 Y-20.605 Z0.069
Y-20.545 Z0.031
X-12.889 Y-20.478 Z0.008
X-12.888 Y-20.408 Z0
X-12.829 Y-15.408
G3 X-13.143 Y-15.087 I-0.317 J0.004
G2 X-24.369 Y-7.105 I0.143 J12.087 F1000
G1 Z0.5
G2 X-24.881 Y-0.775 I11.369 J4.105
G1 Z0 F30
G2 X-16.16 Y8.667 I11.881 J-2.225 F1000
G1 Z0.5
G2 X-9.81 Y8.659 I3.16 J-11.667
G1 Z0 F30
G2 X-4.44 Y5.534 I-3.19 J-11.659 F1000
G1 Z0.5
G2 X-1.295 Y0.017 I-8.56 J-8.534
G1 Z0 F30
G2 X-2.427 Y-8.858 I-11.705 J-3.017 F1000
G1 Z0.5
G2 X-6.855 Y-13.409 I-10.573 J5.858
G1 Z0 F30
G2 X-13.143 Y-15.087 I-6.145 J10.409 F1000
X-13.519 Y-14.826 I0.005 J0.408
G3 X-13.886 Y-14.554 I-0.4 J-0.155
G2 X-23.852 Y-7.063 I0.886 J11.554
G1 Z0.5
G2 X-24.364 Y-0.733 I10.852 J4.063
G1 Z0 F30
G2 X-16.161 Y8.148 I11.364 J-2.267 F1000
G1 Z0.5
G2 X-9.811 Y8.14 I3.161 J-11.148
G1 Z0 F30
G2 X-4.891 Y5.277 I-3.189 J-11.14 F1000
G1 Z0.5
G2 X-1.746 Y-0.24 I-8.109 J-8.277
G1 Z0 F30
G2 X-2.799 Y-8.496 I-11.254 J-2.76 F1000
G1 Z0.5
G2 X-7.227 Y-13.047 I-10.201 J5.496
G1 Z0 F30
G2 X-13.886 Y-14.554 I-5.773 J10.047 F1000
G3 X-14.227 Y-14.846 I-0.024 J-0.317 F500
G1 X-14.609 Y-19.831
X-14.615 Y-19.902 Z0.008
X-14.62 Y-19.969 Z0.031
X-14.624 Y-20.029 Z0.069
X-14.628 Y-20.079 Z0.12
X-14.631 Y-20.116 Z0.18
X-14.633 Y-20.14 Z0.247
Y-20.148 Z0.317
G0 Z17
X13.813 Y-20.632
Z10.7
G1 Z0.7 F30
Z0.317
X13.812 Y-20.624 Z0.247 F500
X13.81 Y-20.601 Z0.18
X13.807 Y-20.563 Z0.12
X13.802 Y-20.513 Z0.069
X13.797 Y-20.453 Z0.031
X13.792 Y-20.386 Z0.008
X13.786 Y-20.316 Z0
X13.364 Y-15.334
G3 X13.02 Y-15.044 I-0.316 J-0.027
G2 X5.584 Y-13.244 I-1.02 J12.044 F1000
G1 Z0.5
G2 X1.277 Y-8.578 I6.416 J10.244
G1 Z0 F30
G2 X0.626 Y1.091 I10.723 J5.578 F1000
G1 Z0.5
G2 X4.269 Y6.292 I11.374 J-4.091
G1 Z0 F30
G2 X8.552 Y8.585 I7.731 J-9.292 F1000
G1 Z0.5
G2 X14.901 Y8.734 I3.448 J-11.585
G1 Z0 F30
G2 X23.699 Y0.04 I-2.901 J-11.734 F1000
G1 Z0.5
G2 X23.625 Y-6.31 I-11.699 J-3.04
G1 Z0 F30
G2 X13.02 Y-15.044 I-11.625 J3.31 F1000
X12.621 Y-14.821 I-0.034 J0.407
G3 X12.229 Y-14.585 I-0.383 J-0.193
G2 X5.965 Y-12.892 I-0.229 J11.585
G1 Z0.5
G2 X1.658 Y-8.226 I6.035 J9.892
G1 Z0 F30
G2 X1.051 Y0.793 I10.342 J5.226 F1000
G1 Z0.5
G2 X4.694 Y5.994 I10.949 J-3.793
G1 Z0 F30
G2 X8.565 Y8.067 I7.306 J-8.994 F1000
G1 Z0.5
G2 X14.913 Y8.215 I3.435 J-11.067
G1 Z0 F30
G2 X23.18 Y0.046 I-2.913 J-11.215 F1000
G1 Z0.5
G2 X23.106 Y-6.304 I-11.18 J-3.046
G1 Z0 F30
G2 X12.229 Y-14.585 I-11.106 J3.304 F1000
G3 X11.918 Y-14.909 I0.006 J-0.317 F500
G1 X12.017 Y-19.908
X12.019 Y-19.979 Z0.008
X12.02 Y-20.046 Z0.031
X12.021 Y-20.106 Z0.069
X12.022 Y-20.156 Z0.12
X12.023 Y-20.194 Z0.18
Y-20.217 Z0.247
Y-20.225 Z0.317
G0 Z17
X53.968 Y19.718
Z10.7
G1 Z10.317 F30
Y19.71 Z10.247 F500
Y19.686 Z10.18
Y19.649 Z10.12
X53.969 Y19.598 Z10.069
X53.97 Y19.538 Z10.031
Y19.471 Z10.008
X53.971 Y19.4 Z10
X54.026 Y14.401
G3 X54.347 Y14.087 I0.317 J0.003
G2 X54.653 Y-14.087 I0.153 J-14.087 F1000
X54.347 Y14.087 I-0.153 J14.087
X54.728 Y13.836 I0.004 J-0.408
G3 X55.102 Y13.574 I0.393 J0.164
G2 X53.898 Y-13.574 I-0.602 J-13.574
X55.102 Y13.574 I0.602 J13.574
G3 X55.433 Y13.877 I0.014 J0.317 F500
G1 X55.655 Y18.872
X55.658 Y18.943 Z10.008
X55.661 Y19.01 Z10.031
X55.663 Y19.07 Z10.069
X55.666 Y19.12 Z10.12
X55.667 Y19.158 Z10.18
X55.668 Y19.182 Z10.247
X55.669 Y19.19 Z10.317
X53.968 Y19.718 F1000
Z9.817 F30
Y19.71 Z9.747 F500
Y19.686 Z9.68
Y19.649 Z9.62
X53.969 Y19.598 Z9.569
X53.97 Y19.538 Z9.531
Y19.471 Z9.508
X53.971 Y19.4 Z9.5
X54.026 Y14.401
G3 X54.347 Y14.087 I0.317 J0.003
G2 X54.653 Y-14.087 I0.153 J-14.087 F1000
X54.347 Y14.087 I-0.153 J14.087
X54.728 Y13.836 I0.004 J-0.408
G3 X55.102 Y13.574 I0.393 J0.164
G2 X53.898 Y-13.574 I-0.602 J-13.574
X55.102 Y13.574 I0.602 J13.574
G3 X55.433 Y13.877 I0.014 J0.317 F500
G1 X55.655 Y18.872
X55.658 Y18.943 Z9.508
X55.661 Y19.01 Z9.531
X55.663 Y19.07 Z9.569
X55.666 Y19.12 Z9.62
X55.667 Y19.158 Z9.68
X55.668 Y19.182 Z9.747
X55.669 Y19.19 Z9.817
X53.968 Y19.718 F1000
Z9.317 F30
Y19.71 Z9.247 F500
Y19.686 Z9.18
Y19.649 Z9.12
X53.969 Y19.598 Z9.069
X53.97 Y19.538 Z9.031
Y19.471 Z9.008
X53.971 Y19.4 Z9
X54.026 Y14.401
G3 X54.347 Y14.087 I0.317 J0.003
G2 X54.653 Y-14.087 I0.153 J-14.087 F1000
X54.347 Y14.087 I-0.153 J14.087
X54.728 Y13.836 I0.004 J-0.408
G3 X55.102 Y13.574 I0.393 J0.164
G2 X53.898 Y-13.574 I-0.602 J-13.574
X55.102 Y13.574 I0.602 J13.574
G3 X55.433 Y13.877 I0.014 J0.317 F500
G1 X55.655 Y18.872
X55.658 Y18.943 Z9.008
X55.661 Y19.01 Z9.031
X55.663 Y19.07 Z9.069
X55.666 Y19.12 Z9.12
X55.667 Y19.158 Z9.18
X55.668 Y19.182 Z9.247
X55.669 Y19.19 Z9.317
X53.968 Y19.718 F1000
Z8.817 F30
Y19.71 Z8.747 F500
Y19.686 Z8.68
Y19.649 Z8.62
X53.969 Y19.598 Z8.569
X53.97 Y19.538 Z8.531
Y19.471 Z8.508
X53.971 Y19.4 Z8.5
X54.026 Y14.401
G3 X54.347 Y14.087 I0.317 J0.003
G2 X54.653 Y-14.087 I0.153 J-14.087 F1000
X54.347 Y14.087 I-0.153 J14.087
X54.728 Y13.836 I0.004 J-0.408
G3 X55.102 Y13.574 I0.393 J0.164
G2 X53.898 Y-13.574 I-0.602 J-13.574
X55.102 Y13.574 I0.602 J13.574
G3 X55.433 Y13.877 I0.014 J0.317 F500
G1 X55.655 Y18.872
X55.658 Y18.943 Z8.508
X55.661 Y19.01 Z8.531
X55.663 Y19.07 Z8.569
X55.666 Y19.12 Z8.62
X55.667 Y19.158 Z8.68
X55.668 Y19.182 Z8.747
X55.669 Y19.19 Z8.817
X53.968 Y19.718 F1000
Z8.317 F30
Y19.71 Z8.247 F500
Y19.686 Z8.18
Y19.649 Z8.12
X53.969 Y19.598 Z8.069
X53.97 Y19.538 Z8.031
Y19.471 Z8.008
X53.971 Y19.4 Z8
X54.026 Y14.401
G3 X54.347 Y14.087 I0.317 J0.003
G2 X54.653 Y-14.087 I0.153 J-14.087 F1000
X54.347 Y14.087 I-0.153 J14.087
X54.728 Y13.836 I0.004 J-0.408
G3 X55.102 Y13.574 I0.393 J0.164
G2 X53.898 Y-13.574 I-0.602 J-13.574
X55.102 Y13.574 I0.602 J13.574
G3 X55.433 Y13.877 I0.014 J0.317 F500
G1 X55.655 Y18.872
X55.658 Y18.943 Z8.008
X55.661 Y19.01 Z8.031
X55.663 Y19.07 Z8.069
X55.666 Y19.12 Z8.12
X55.667 Y19.158 Z8.18
X55.668 Y19.182 Z8.247
X55.669 Y19.19 Z8.317
X53.968 Y19.718 F1000
Z7.817 F30
Y19.71 Z7.747 F500
Y19.686 Z7.68
Y19.649 Z7.62
X53.969 Y19.598 Z7.569
X53.97 Y19.538 Z7.531
Y19.471 Z7.508
X53.971 Y19.4 Z7.5
X54.026 Y14.401
G3 X54.347 Y14.087 I0.317 J0.003
G2 X54.653 Y-14.087 I0.153 J-14.087 F1000
X54.347 Y14.087 I-0.153 J14.087
X54.728 Y13.836 I0.004 J-0.408
G3 X55.102 Y13.574 I0.393 J0.164
G2 X53.898 Y-13.574 I-0.602 J-13.574
X55.102 Y13.574 I0.602 J13.574
G3 X55.433 Y13.877 I0.014 J0.317 F500
G1 X55.655 Y18.872
X55.658 Y18.943 Z7.508
X55.661 Y19.01 Z7.531
X55.663 Y19.07 Z7.569
X55.666 Y19.12 Z7.62
X55.667 Y19.158 Z7.68
X55.668 Y19.182 Z7.747
X55.669 Y19.19 Z7.817
X53.968 Y19.718 F1000
Z7.317 F30
Y19.71 Z7.247 F500
Y19.686 Z7.18
Y19.649 Z7.12
X53.969 Y19.598 Z7.069
X53.97 Y19.538 Z7.031
Y19.471 Z7.008
X53.971 Y19.4 Z7
X54.026 Y14.401
G3 X54.347 Y14.087 I0.317 J0.003
G2 X54.653 Y-14.087 I0.153 J-14.087 F1000
X54.347 Y14.087 I-0.153 J14.087
X54.728 Y13.836 I0.004 J-0.408
G3 X55.102 Y13.574 I0.393 J0.164
G2 X53.898 Y-13.574 I-0.602 J-13.574
X55.102 Y13.574 I0.602 J13.574
G3 X55.433 Y13.877 I0.014 J0.317 F500
G1 X55.655 Y18.872
X55.658 Y18.943 Z7.008
X55.661 Y19.01 Z7.031
X55.663 Y19.07 Z7.069
X55.666 Y19.12 Z7.12
X55.667 Y19.158 Z7.18
X55.668 Y19.182 Z7.247
X55.669 Y19.19 Z7.317
X53.968 Y19.718 F1000
Z6.817 F30
Y19.71 Z6.747 F500
Y19.686 Z6.68
Y19.649 Z6.62
X53.969 Y19.598 Z6.569
X53.97 Y19.538 Z6.531
Y19.471 Z6.508
X53.971 Y19.4 Z6.5
X54.026 Y14.401
G3 X54.347 Y14.087 I0.317 J0.003
G2 X54.653 Y-14.087 I0.153 J-14.087 F1000
X54.347 Y14.087 I-0.153 J14.087
X54.728 Y13.836 I0.004 J-0.408
G3 X55.102 Y13.574 I0.393 J0.164
G2 X53.898 Y-13.574 I-0.602 J-13.574
X55.102 Y13.574 I0.602 J13.574
G3 X55.433 Y13.877 I0.014 J0.317 F500
G1 X55.655 Y18.872
X55.658 Y18.943 Z6.508
X55.661 Y19.01 Z6.531
X55.663 Y19.07 Z6.569
X55.666 Y19.12 Z6.62
X55.667 Y19.158 Z6.68
X55.668 Y19.182 Z6.747
X55.669 Y19.19 Z6.817
X53.968 Y19.718 F1000
Z6.317 F30
Y19.71 Z6.247 F500
Y19.686 Z6.18
Y19.649 Z6.12
X53.969 Y19.598 Z6.069
X53.97 Y19.538 Z6.031
Y19.471 Z6.008
X53.971 Y19.4 Z6
X54.026 Y14.401
G3 X54.347 Y14.087 I0.317 J0.003
G2 X54.653 Y-14.087 I0.153 J-14.087 F1000
X54.347 Y14.087 I-0.153 J14.087
X54.728 Y13.836 I0.004 J-0.408
G3 X55.102 Y13.574 I0.393 J0.164
G2 X53.898 Y-13.574 I-0.602 J-13.574
X55.102 Y13.574 I0.602 J13.574
G3 X55.433 Y13.877 I0.014 J0.317 F500
G1 X55.655 Y18.872
X55.658 Y18.943 Z6.008
X55.661 Y19.01 Z6.031
X55.663 Y19.07 Z6.069
X55.666 Y19.12 Z6.12
X55.667 Y19.158 Z6.18
X55.668 Y19.182 Z6.247
X55.669 Y19.19 Z6.317
X53.968 Y19.718 F1000
Z5.817 F30
Y19.71 Z5.747 F500
Y19.686 Z5.68
Y19.649 Z5.62
X53.969 Y19.598 Z5.569
X53.97 Y19.538 Z5.531
Y19.471 Z5.508
X53.971 Y19.4 Z5.5
X54.026 Y14.401
G3 X54.347 Y14.087 I0.317 J0.003
G2 X54.653 Y-14.087 I0.153 J-14.087 F1000
X54.347 Y14.087 I-0.153 J14.087
X54.728 Y13.836 I0.004 J-0.408
G3 X55.102 Y13.574 I0.393 J0.164
G2 X53.898 Y-13.574 I-0.602 J-13.574
X55.102 Y13.574 I0.602 J13.574
G3 X55.433 Y13.877 I0.014 J0.317 F500
G1 X55.655 Y18.872
X55.658 Y18.943 Z5.508
X55.661 Y19.01 Z5.531
X55.663 Y19.07 Z5.569
X55.666 Y19.12 Z5.62
X55.667 Y19.158 Z5.68
X55.668 Y19.182 Z5.747
X55.669 Y19.19 Z5.817
X53.968 Y19.718 F1000
Z5.317 F30
Y19.71 Z5.247 F500
Y19.686 Z5.18
Y19.649 Z5.12
X53.969 Y19.598 Z5.069
X53.97 Y19.538 Z5.031
Y19.471 Z5.008
X53.971 Y19.4 Z5
X54.026 Y14.401
G3 X54.347 Y14.087 I0.317 J0.003
G2 X54.653 Y-14.087 I0.153 J-14.087 F1000
X54.347 Y14.087 I-0.153 J14.087
X54.728 Y13.836 I0.004 J-0.408
G3 X55.102 Y13.574 I0.393 J0.164
G2 X53.898 Y-13.574 I-0.602 J-13.574
X55.102 Y13.574 I0.602 J13.574
G3 X55.433 Y13.877 I0.014 J0.317 F500
G1 X55.655 Y18.872
X55.658 Y18.943 Z5.008
X55.661 Y19.01 Z5.031
X55.663 Y19.07 Z5.069
X55.666 Y19.12 Z5.12
X55.667 Y19.158 Z5.18
X55.668 Y19.182 Z5.247
X55.669 Y19.19 Z5.317
X53.968 Y19.718 F1000
Z4.817 F30
Y19.71 Z4.747 F500
Y19.686 Z4.68
Y19.649 Z4.62
X53.969 Y19.598 Z4.569
X53.97 Y19.538 Z4.531
Y19.471 Z4.508
X53.971 Y19.4 Z4.5
X54.026 Y14.401
G3 X54.347 Y14.087 I0.317 J0.003
G2 X54.653 Y-14.087 I0.153 J-14.087 F1000
X54.347 Y14.087 I-0.153 J14.087
X54.728 Y13.836 I0.004 J-0.408
G3 X55.102 Y13.574 I0.393 J0.164
G2 X53.898 Y-13.574 I-0.602 J-13.574
X55.102 Y13.574 I0.602 J13.574
G3 X55.433 Y13.877 I0.014 J0.317 F500
G1 X55.655 Y18.872
X55.658 Y18.943 Z4.508
X55.661 Y19.01 Z4.531
X55.663 Y19.07 Z4.569
X55.666 Y19.12 Z4.62
X55.667 Y19.158 Z4.68
X55.668 Y19.182 Z4.747
X55.669 Y19.19 Z4.817
X53.968 Y19.718 F1000
Z4.317 F30
Y19.71 Z4.247 F500
Y19.686 Z4.18
Y19.649 Z4.12
X53.969 Y19.598 Z4.069
X53.97 Y19.538 Z4.031
Y19.471 Z4.008
X53.971 Y19.4 Z4
X54.026 Y14.401
G3 X54.347 Y14.087 I0.317 J0.003
G2 X54.653 Y-14.087 I0.153 J-14.087 F1000
X54.347 Y14.087 I-0.153 J14.087
X54.728 Y13.836 I0.004 J-0.408
G3 X55.102 Y13.574 I0.393 J0.164
G2 X53.898 Y-13.574 I-0.602 J-13.574
X55.102 Y13.574 I0.602 J13.574
G3 X55.433 Y13.877 I0.014 J0.317 F500
G1 X55.655 Y18.872
X55.658 Y18.943 Z4.008
X55.661 Y19.01 Z4.031
X55.663 Y19.07 Z4.069
X55.666 Y19.12 Z4.12
X55.667 Y19.158 Z4.18
X55.668 Y19.182 Z4.247
X55.669 Y19.19 Z4.317
X53.968 Y19.718 F1000
Z3.817 F30
Y19.71 Z3.747 F500
Y19.686 Z3.68
Y19.649 Z3.62
X53.969 Y19.598 Z3.569
X53.97 Y19.538 Z3.531
Y19.471 Z3.508
X53.971 Y19.4 Z3.5
X54.026 Y14.401
G3 X54.347 Y14.087 I0.317 J0.003
G2 X54.653 Y-14.087 I0.153 J-14.087 F1000
X54.347 Y14.087 I-0.153 J14.087
X54.728 Y13.836 I0.004 J-0.408
G3 X55.102 Y13.574 I0.393 J0.164
G2 X53.898 Y-13.574 I-0.602 J-13.574
X55.102 Y13.574 I0.602 J13.574
G3 X55.433 Y13.877 I0.014 J0.317 F500
G1 X55.655 Y18.872
X55.658 Y18.943 Z3.508
X55.661 Y19.01 Z3.531
X55.663 Y19.07 Z3.569
X55.666 Y19.12 Z3.62
X55.667 Y19.158 Z3.68
X55.668 Y19.182 Z3.747
X55.669 Y19.19 Z3.817
X53.968 Y19.718 F1000
Z3.317 F30
Y19.71 Z3.247 F500
Y19.686 Z3.18
Y19.649 Z3.12
X53.969 Y19.598 Z3.069
X53.97 Y19.538 Z3.031
Y19.471 Z3.008
X53.971 Y19.4 Z3
X54.026 Y14.401
G3 X54.347 Y14.087 I0.317 J0.003
G2 X54.653 Y-14.087 I0.153 J-14.087 F1000
X54.347 Y14.087 I-0.153 J14.087
X54.728 Y13.836 I0.004 J-0.408
G3 X55.102 Y13.574 I0.393 J0.164
G2 X53.898 Y-13.574 I-0.602 J-13.574
X55.102 Y13.574 I0.602 J13.574
G3 X55.433 Y13.877 I0.014 J0.317 F500
G1 X55.655 Y18.872
X55.658 Y18.943 Z3.008
X55.661 Y19.01 Z3.031
X55.663 Y19.07 Z3.069
X55.666 Y19.12 Z3.12
X55.667 Y19.158 Z3.18
X55.668 Y19.182 Z3.247
X55.669 Y19.19 Z3.317
X53.968 Y19.718 F1000
Z2.817 F30
Y19.71 Z2.747 F500
Y19.686 Z2.68
Y19.649 Z2.62
X53.969 Y19.598 Z2.569
X53.97 Y19.538 Z2.531
Y19.471 Z2.508
X53.971 Y19.4 Z2.5
X54.026 Y14.401
G3 X54.347 Y14.087 I0.317 J0.003
G2 X54.653 Y-14.087 I0.153 J-14.087 F1000
X54.347 Y14.087 I-0.153 J14.087
X54.728 Y13.836 I0.004 J-0.408
G3 X55.102 Y13.574 I0.393 J0.164
G2 X53.898 Y-13.574 I-0.602 J-13.574
X55.102 Y13.574 I0.602 J13.574
G3 X55.433 Y13.877 I0.014 J0.317 F500
G1 X55.655 Y18.872
X55.658 Y18.943 Z2.508
X55.661 Y19.01 Z2.531
X55.663 Y19.07 Z2.569
X55.666 Y19.12 Z2.62
X55.667 Y19.158 Z2.68
X55.668 Y19.182 Z2.747
X55.669 Y19.19 Z2.817
X53.968 Y19.718 F1000
Z2.317 F30
Y19.71 Z2.247 F500
Y19.686 Z2.18
Y19.649 Z2.12
X53.969 Y19.598 Z2.069
X53.97 Y19.538 Z2.031
Y19.471 Z2.008
X53.971 Y19.4 Z2
X54.026 Y14.401
G3 X54.347 Y14.087 I0.317 J0.003
G2 X54.653 Y-14.087 I0.153 J-14.087 F1000
X54.347 Y14.087 I-0.153 J14.087
X54.728 Y13.836 I0.004 J-0.408
G3 X55.102 Y13.574 I0.393 J0.164
G2 X53.898 Y-13.574 I-0.602 J-13.574
X55.102 Y13.574 I0.602 J13.574
G3 X55.433 Y13.877 I0.014 J0.317 F500
G1 X55.655 Y18.872
X55.658 Y18.943 Z2.008
X55.661 Y19.01 Z2.031
X55.663 Y19.07 Z2.069
X55.666 Y19.12 Z2.12
X55.667 Y19.158 Z2.18
X55.668 Y19.182 Z2.247
X55.669 Y19.19 Z2.317
X53.968 Y19.718 F1000
Z1.817 F30
Y19.71 Z1.747 F500
Y19.686 Z1.68
Y19.649 Z1.62
X53.969 Y19.598 Z1.569
X53.97 Y19.538 Z1.531
Y19.471 Z1.508
X53.971 Y19.4 Z1.5
X54.026 Y14.401
G3 X54.347 Y14.087 I0.317 J0.003
G2 X54.653 Y-14.087 I0.153 J-14.087 F1000
X54.347 Y14.087 I-0.153 J14.087
X54.728 Y13.836 I0.004 J-0.408
G3 X55.102 Y13.574 I0.393 J0.164
G2 X53.898 Y-13.574 I-0.602 J-13.574
X55.102 Y13.574 I0.602 J13.574
G3 X55.433 Y13.877 I0.014 J0.317 F500
G1 X55.655 Y18.872
X55.658 Y18.943 Z1.508
X55.661 Y19.01 Z1.531
X55.663 Y19.07 Z1.569
X55.666 Y19.12 Z1.62
X55.667 Y19.158 Z1.68
X55.668 Y19.182 Z1.747
X55.669 Y19.19 Z1.817
X53.968 Y19.718 F1000
Z1.317 F30
Y19.71 Z1.247 F500
Y19.686 Z1.18
Y19.649 Z1.12
X53.969 Y19.598 Z1.069
X53.97 Y19.538 Z1.031
Y19.471 Z1.008
X53.971 Y19.4 Z1
X54.026 Y14.401
G3 X54.347 Y14.087 I0.317 J0.003
G2 X54.653 Y-14.087 I0.153 J-14.087 F1000
X54.347 Y14.087 I-0.153 J14.087
X54.728 Y13.836 I0.004 J-0.408
G3 X55.102 Y13.574 I0.393 J0.164
G2 X53.898 Y-13.574 I-0.602 J-13.574
X55.102 Y13.574 I0.602 J13.574
G3 X55.433 Y13.877 I0.014 J0.317 F500
G1 X55.655 Y18.872
X55.658 Y18.943 Z1.008
X55.661 Y19.01 Z1.031
X55.663 Y19.07 Z1.069
X55.666 Y19.12 Z1.12
X55.667 Y19.158 Z1.18
X55.668 Y19.182 Z1.247
X55.669 Y19.19 Z1.317
X53.968 Y19.718 F1000
Z0.817 F30
Y19.71 Z0.747 F500
Y19.686 Z0.68
Y19.649 Z0.62
X53.969 Y19.598 Z0.569
X53.97 Y19.538 Z0.531
Y19.471 Z0.508
X53.971 Y19.4 Z0.5
X54.026 Y14.401
G3 X54.347 Y14.087 I0.317 J0.003
G2 X54.653 Y-14.087 I0.153 J-14.087 F1000
X54.347 Y14.087 I-0.153 J14.087
X54.728 Y13.836 I0.004 J-0.408
G3 X55.102 Y13.574 I0.393 J0.164
G2 X53.898 Y-13.574 I-0.602 J-13.574
X55.102 Y13.574 I0.602 J13.574
G3 X55.433 Y13.877 I0.014 J0.317 F500
G1 X55.655 Y18.872
X55.658 Y18.943 Z0.508
X55.661 Y19.01 Z0.531
X55.663 Y19.07 Z0.569
X55.666 Y19.12 Z0.62
X55.667 Y19.158 Z0.68
X55.668 Y19.182 Z0.747
X55.669 Y19.19 Z0.817
X53.968 Y19.718 F1000
Z0.317 F30
Y19.71 Z0.247 F500
Y19.686 Z0.18
Y19.649 Z0.12
X53.969 Y19.598 Z0.069
X53.97 Y19.538 Z0.031
Y19.471 Z0.008
X53.971 Y19.4 Z0
X54.026 Y14.401
G3 X54.347 Y14.087 I0.317 J0.003
G2 X63.07 Y11.181 I0.153 J-14.087 F1000
G1 Z0.5
G2 X67.11 Y6.281 I-8.57 J-11.181
G1 Z0 F30
G2 X66.777 Y-6.909 I-12.61 J-6.281 F1000
G1 Z0.5
G2 X62.496 Y-11.599 I-12.277 J6.909
G1 Z0 F30
G2 X43.613 Y-8.941 I-7.996 J11.599 F1000
G1 Z0.5
G2 X40.793 Y-3.251 I10.887 J8.941
G1 Z0 F30
G2 X41.818 Y6.134 I13.707 J3.251 F1000
G1 Z0.5
G2 X45.8 Y11.08 I12.682 J-6.134
G1 Z0 F30
G2 X54.347 Y14.087 I8.7 J-11.08 F1000
X54.728 Y13.836 I0.004 J-0.408
G3 X55.102 Y13.574 I0.393 J0.164
G2 X62.674 Y10.854 I-0.602 J-13.574
G1 Z0.5
G2 X66.713 Y5.955 I-8.174 J-10.854
G1 Z0 F30
G2 X66.398 Y-6.563 I-12.213 J-5.955 F1000
G1 Z0.5
G2 X62.116 Y-11.252 I-11.898 J6.563
G1 Z0 F30
G2 X44.073 Y-8.712 I-7.616 J11.252 F1000
G1 Z0.5
G2 X41.253 Y-3.023 I10.427 J8.712
G1 Z0 F30
G2 X42.218 Y5.812 I13.247 J3.023 F1000
G1 Z0.5
G2 X46.2 Y10.758 I12.282 J-5.812
G1 Z0 F30
G2 X55.102 Y13.574 I8.3 J-10.758 F1000
G3 X55.433 Y13.877 I0.014 J0.317 F500
G1 X55.655 Y18.872
X55.658 Y18.943 Z0.008
X55.661 Y19.01 Z0.031
X55.663 Y19.07 Z0.069
X55.666 Y19.12 Z0.12
X55.667 Y19.158 Z0.18
X55.668 Y19.182 Z0.247
X55.669 Y19.19 Z0.317
G0 Z17
X-54.818 Y19.722
Z10.7
G1 Z10.317 F30
G19 G2 Y19.405 Z10 J-0.317 K0 F500
G1 Y14.405
G17 G3 X-54.5 Y14.087 I0.318 J0
G2 X-54.5 Y-14.087 I0 J-14.087 F1000
X-54.5 Y14.087 I0 J14.087
X-54.122 Y13.832 I0 J-0.408
G3 X-53.75 Y13.567 I0.395 J0.16
G2 X-55.25 Y-13.567 I-0.75 J-13.567
X-53.75 Y13.567 I0.75 J13.567
G3 X-53.416 Y13.866 I0.018 J0.317 F500
G1 X-53.14 Y18.859
X-53.136 Y18.929 Z10.008
X-53.132 Y18.996 Z10.031
X-53.129 Y19.056 Z10.069
X-53.126 Y19.107 Z10.12
X-53.124 Y19.144 Z10.18
X-53.123 Y19.168 Z10.247
X-53.122 Y19.176 Z10.317
X-54.818 Y19.722 F1000
Z9.817 F30
G19 G2 Y19.405 Z9.5 J-0.317 K0 F500
G1 Y14.405
G17 G3 X-54.5 Y14.087 I0.318 J0
G2 X-54.5 Y-14.087 I0 J-14.087 F1000
X-54.5 Y14.087 I0 J14.087
X-54.122 Y13.832 I0 J-0.408
G3 X-53.75 Y13.567 I0.395 J0.16
G2 X-55.25 Y-13.567 I-0.75 J-13.567
X-53.75 Y13.567 I0.75 J13.567
G3 X-53.416 Y13.866 I0.018 J0.317 F500
G1 X-53.14 Y18.859
X-53.136 Y18.929 Z9.508
X-53.132 Y18.996 Z9.531
X-53.129 Y19.056 Z9.569
X-53.126 Y19.107 Z9.62
X-53.124 Y19.144 Z9.68
X-53.123 Y19.168 Z9.747
X-53.122 Y19.176 Z9.817
X-54.818 Y19.722 F1000
Z9.317 F30
G19 G2 Y19.405 Z9 J-0.317 K0 F500
G1 Y14.405
G17 G3 X-54.5 Y14.087 I0.318 J0
G2 X-54.5 Y-14.087 I0 J-14.087 F1000
X-54.5 Y14.087 I0 J14.087
X-54.122 Y13.832 I0 J-0.408
G3 X-53.75 Y13.567 I0.395 J0.16
G2 X-55.25 Y-13.567 I-0.75 J-13.567
X-53.75 Y13.567 I0.75 J13.567
G3 X-53.416 Y13.866 I0.018 J0.317 F500
G1 X-53.14 Y18.859
X-53.136 Y18.929 Z9.008
X-53.132 Y18.996 Z9.031
X-53.129 Y19.056 Z9.069
X-53.126 Y19.107 Z9.12
X-53.124 Y19.144 Z9.18
X-53.123 Y19.168 Z9.247
X-53.122 Y19.176 Z9.317
X-54.818 Y19.722 F1000
Z8.817 F30
G19 G2 Y19.405 Z8.5 J-0.317 K0 F500
G1 Y14.405
G17 G3 X-54.5 Y14.087 I0.318 J0
G2 X-54.5 Y-14.087 I0 J-14.087 F1000
X-54.5 Y14.087 I0 J14.087
X-54.122 Y13.832 I0 J-0.408
G3 X-53.75 Y13.567 I0.395 J0.16
G2 X-55.25 Y-13.567 I-0.75 J-13.567
X-53.75 Y13.567 I0.75 J13.567
G3 X-53.416 Y13.866 I0.018 J0.317 F500
G1 X-53.14 Y18.859
X-53.136 Y18.929 Z8.508
X-53.132 Y18.996 Z8.531
X-53.129 Y19.056 Z8.569
X-53.126 Y19.107 Z8.62
X-53.124 Y19.144 Z8.68
X-53.123 Y19.168 Z8.747
X-53.122 Y19.176 Z8.817
X-54.818 Y19.722 F1000
Z8.317 F30
G19 G2 Y19.405 Z8 J-0.317 K0 F500
G1 Y14.405
G17 G3 X-54.5 Y14.087 I0.318 J0
G2 X-54.5 Y-14.087 I0 J-14.087 F1000
X-54.5 Y14.087 I0 J14.087
X-54.122 Y13.832 I0 J-0.408
G3 X-53.75 Y13.567 I0.395 J0.16
G2 X-55.25 Y-13.567 I-0.75 J-13.567
X-53.75 Y13.567 I0.75 J13.567
G3 X-53.416 Y13.866 I0.018 J0.317 F500
G1 X-53.14 Y18.859
X-53.136 Y18.929 Z8.008
X-53.132 Y18.996 Z8.031
X-53.129 Y19.056 Z8.069
X-53.126 Y19.107 Z8.12
X-53.124 Y19.144 Z8.18
X-53.123 Y19.168 Z8.247
X-53.122 Y19.176 Z8.317
X-54.818 Y19.722 F1000
Z7.817 F30
G19 G2 Y19.405 Z7.5 J-0.317 K0 F500
G1 Y14.405
G17 G3 X-54.5 Y14.087 I0.318 J0
G2 X-54.5 Y-14.087 I0 J-14.087 F1000
X-54.5 Y14.087 I0 J14.087
X-54.122 Y13.832 I0 J-0.408
G3 X-53.75 Y13.567 I0.395 J0.16
G2 X-55.25 Y-13.567 I-0.75 J-13.567
X-53.75 Y13.567 I0.75 J13.567
G3 X-53.416 Y13.866 I0.018 J0.317 F500
G1 X-53.14 Y18.859
X-53.136 Y18.929 Z7.508
X-53.132 Y18.996 Z7.531
X-53.129 Y19.056 Z7.569
X-53.126 Y19.107 Z7.62
X-53.124 Y19.144 Z7.68
X-53.123 Y19.168 Z7.747
X-53.122 Y19.176 Z7.817
X-54.818 Y19.722 F1000
Z7.317 F30
G19 G2 Y19.405 Z7 J-0.317 K0 F500
G1 Y14.405
G17 G3 X-54.5 Y14.087 I0.318 J0
G2 X-54.5 Y-14.087 I0 J-14.087 F1000
X-54.5 Y14.087 I0 J14.087
X-54.122 Y13.832 I0 J-0.408
G3 X-53.75 Y13.567 I0.395 J0.16
G2 X-55.25 Y-13.567 I-0.75 J-13.567
X-53.75 Y13.567 I0.75 J13.567
G3 X-53.416 Y13.866 I0.018 J0.317 F500
G1 X-53.14 Y18.859
X-53.136 Y18.929 Z7.008
X-53.132 Y18.996 Z7.031
X-53.129 Y19.056 Z7.069
X-53.126 Y19.107 Z7.12
X-53.124 Y19.144 Z7.18
X-53.123 Y19.168 Z7.247
X-53.122 Y19.176 Z7.317
X-54.818 Y19.722 F1000
Z6.817 F30
G19 G2 Y19.405 Z6.5 J-0.317 K0 F500
G1 Y14.405
G17 G3 X-54.5 Y14.087 I0.318 J0
G2 X-54.5 Y-14.087 I0 J-14.087 F1000
X-54.5 Y14.087 I0 J14.087
X-54.122 Y13.832 I0 J-0.408
G3 X-53.75 Y13.567 I0.395 J0.16
G2 X-55.25 Y-13.567 I-0.75 J-13.567
X-53.75 Y13.567 I0.75 J13.567
G3 X-53.416 Y13.866 I0.018 J0.317 F500
G1 X-53.14 Y18.859
X-53.136 Y18.929 Z6.508
X-53.132 Y18.996 Z6.531
X-53.129 Y19.056 Z6.569
X-53.126 Y19.107 Z6.62
X-53.124 Y19.144 Z6.68
X-53.123 Y19.168 Z6.747
X-53.122 Y19.176 Z6.817
X-54.818 Y19.722 F1000
Z6.317 F30
G19 G2 Y19.405 Z6 J-0.317 K0 F500
G1 Y14.405
G17 G3 X-54.5 Y14.087 I0.318 J0
G2 X-54.5 Y-14.087 I0 J-14.087 F1000
X-54.5 Y14.087 I0 J14.087
X-54.122 Y13.832 I0 J-0.408
G3 X-53.75 Y13.567 I0.395 J0.16
G2 X-55.25 Y-13.567 I-0.75 J-13.567
X-53.75 Y13.567 I0.75 J13.567
G3 X-53.416 Y13.866 I0.018 J0.317 F500
G1 X-53.14 Y18.859
X-53.136 Y18.929 Z6.008
X-53.132 Y18.996 Z6.031
X-53.129 Y19.056 Z6.069
X-53.126 Y19.107 Z6.12
X-53.124 Y19.144 Z6.18
X-53.123 Y19.168 Z6.247
X-53.122 Y19.176 Z6.317
X-54.818 Y19.722 F1000
Z5.817 F30
G19 G2 Y19.405 Z5.5 J-0.317 K0 F500
G1 Y14.405
G17 G3 X-54.5 Y14.087 I0.318 J0
G2 X-54.5 Y-14.087 I0 J-14.087 F1000
X-54.5 Y14.087 I0 J14.087
X-54.122 Y13.832 I0 J-0.408
G3 X-53.75 Y13.567 I0.395 J0.16
G2 X-55.25 Y-13.567 I-0.75 J-13.567
X-53.75 Y13.567 I0.75 J13.567
G3 X-53.416 Y13.866 I0.018 J0.317 F500
G1 X-53.14 Y18.859
X-53.136 Y18.929 Z5.508
X-53.132 Y18.996 Z5.531
X-53.129 Y19.056 Z5.569
X-53.126 Y19.107 Z5.62
X-53.124 Y19.144 Z5.68
X-53.123 Y19.168 Z5.747
X-53.122 Y19.176 Z5.817
X-54.818 Y19.722 F1000
Z5.317 F30
G19 G2 Y19.405 Z5 J-0.317 K0 F500
G1 Y14.405
G17 G3 X-54.5 Y14.087 I0.318 J0
G2 X-54.5 Y-14.087 I0 J-14.087 F1000
X-54.5 Y14.087 I0 J14.087
X-54.122 Y13.832 I0 J-0.408
G3 X-53.75 Y13.567 I0.395 J0.16
G2 X-55.25 Y-13.567 I-0.75 J-13.567
X-53.75 Y13.567 I0.75 J13.567
G3 X-53.416 Y13.866 I0.018 J0.317 F500
G1 X-53.14 Y18.859
X-53.136 Y18.929 Z5.008
X-53.132 Y18.996 Z5.031
X-53.129 Y19.056 Z5.069
X-53.126 Y19.107 Z5.12
X-53.124 Y19.144 Z5.18
X-53.123 Y19.168 Z5.247
X-53.122 Y19.176 Z5.317
X-54.818 Y19.722 F1000
Z4.817 F30
G19 G2 Y19.405 Z4.5 J-0.317 K0 F500
G1 Y14.405
G17 G3 X-54.5 Y14.087 I0.318 J0
G2 X-54.5 Y-14.087 I0 J-14.087 F1000
X-54.5 Y14.087 I0 J14.087
X-54.122 Y13.832 I0 J-0.408
G3 X-53.75 Y13.567 I0.395 J0.16
G2 X-55.25 Y-13.567 I-0.75 J-13.567
X-53.75 Y13.567 I0.75 J13.567
G3 X-53.416 Y13.866 I0.018 J0.317 F500
G1 X-53.14 Y18.859
X-53.136 Y18.929 Z4.508
X-53.132 Y18.996 Z4.531
X-53.129 Y19.056 Z4.569
X-53.126 Y19.107 Z4.62
X-53.124 Y19.144 Z4.68
X-53.123 Y19.168 Z4.747
X-53.122 Y19.176 Z4.817
X-54.818 Y19.722 F1000
Z4.317 F30
G19 G2 Y19.405 Z4 J-0.317 K0 F500
G1 Y14.405
G17 G3 X-54.5 Y14.087 I0.318 J0
G2 X-54.5 Y-14.087 I0 J-14.087 F1000
X-54.5 Y14.087 I0 J14.087
X-54.122 Y13.832 I0 J-0.408
G3 X-53.75 Y13.567 I0.395 J0.16
G2 X-55.25 Y-13.567 I-0.75 J-13.567
X-53.75 Y13.567 I0.75 J13.567
G3 X-53.416 Y13.866 I0.018 J0.317 F500
G1 X-53.14 Y18.859
X-53.136 Y18.929 Z4.008
X-53.132 Y18.996 Z4.031
X-53.129 Y19.056 Z4.069
X-53.126 Y19.107 Z4.12
X-53.124 Y19.144 Z4.18
X-53.123 Y19.168 Z4.247
X-53.122 Y19.176 Z4.317
X-54.818 Y19.722 F1000
Z3.817 F30
G19 G2 Y19.405 Z3.5 J-0.317 K0 F500
G1 Y14.405
G17 G3 X-54.5 Y14.087 I0.318 J0
G2 X-54.5 Y-14.087 I0 J-14.087 F1000
X-54.5 Y14.087 I0 J14.087
X-54.122 Y13.832 I0 J-0.408
G3 X-53.75 Y13.567 I0.395 J0.16
G2 X-55.25 Y-13.567 I-0.75 J-13.567
X-53.75 Y13.567 I0.75 J13.567
G3 X-53.416 Y13.866 I0.018 J0.317 F500
G1 X-53.14 Y18.859
X-53.136 Y18.929 Z3.508
X-53.132 Y18.996 Z3.531
X-53.129 Y19.056 Z3.569
X-53.126 Y19.107 Z3.62
X-53.124 Y19.144 Z3.68
X-53.123 Y19.168 Z3.747
X-53.122 Y19.176 Z3.817
X-54.818 Y19.722 F1000
Z3.317 F30
G19 G2 Y19.405 Z3 J-0.317 K0 F500
G1 Y14.405
G17 G3 X-54.5 Y14.087 I0.318 J0
G2 X-54.5 Y-14.087 I0 J-14.087 F1000
X-54.5 Y14.087 I0 J14.087
X-54.122 Y13.832 I0 J-0.408
G3 X-53.75 Y13.567 I0.395 J0.16
G2 X-55.25 Y-13.567 I-0.75 J-13.567
X-53.75 Y13.567 I0.75 J13.567
G3 X-53.416 Y13.866 I0.018 J0.317 F500
G1 X-53.14 Y18.859
X-53.136 Y18.929 Z3.008
X-53.132 Y18.996 Z3.031
X-53.129 Y19.056 Z3.069
X-53.126 Y19.107 Z3.12
X-53.124 Y19.144 Z3.18
X-53.123 Y19.168 Z3.247
X-53.122 Y19.176 Z3.317
X-54.818 Y19.722 F1000
Z2.817 F30
G19 G2 Y19.405 Z2.5 J-0.317 K0 F500
G1 Y14.405
G17 G3 X-54.5 Y14.087 I0.318 J0
G2 X-54.5 Y-14.087 I0 J-14.087 F1000
X-54.5 Y14.087 I0 J14.087
X-54.122 Y13.832 I0 J-0.408
G3 X-53.75 Y13.567 I0.395 J0.16
G2 X-55.25 Y-13.567 I-0.75 J-13.567
X-53.75 Y13.567 I0.75 J13.567
G3 X-53.416 Y13.866 I0.018 J0.317 F500
G1 X-53.14 Y18.859
X-53.136 Y18.929 Z2.508
X-53.132 Y18.996 Z2.531
X-53.129 Y19.056 Z2.569
X-53.126 Y19.107 Z2.62
X-53.124 Y19.144 Z2.68
X-53.123 Y19.168 Z2.747
X-53.122 Y19.176 Z2.817
X-54.818 Y19.722 F1000
Z2.317 F30
G19 G2 Y19.405 Z2 J-0.317 K0 F500
G1 Y14.405
G17 G3 X-54.5 Y14.087 I0.318 J0
G2 X-54.5 Y-14.087 I0 J-14.087 F1000
X-54.5 Y14.087 I0 J14.087
X-54.122 Y13.832 I0 J-0.408
G3 X-53.75 Y13.567 I0.395 J0.16
G2 X-55.25 Y-13.567 I-0.75 J-13.567
X-53.75 Y13.567 I0.75 J13.567
G3 X-53.416 Y13.866 I0.018 J0.317 F500
G1 X-53.14 Y18.859
X-53.136 Y18.929 Z2.008
X-53.132 Y18.996 Z2.031
X-53.129 Y19.056 Z2.069
X-53.126 Y19.107 Z2.12
X-53.124 Y19.144 Z2.18
X-53.123 Y19.168 Z2.247
X-53.122 Y19.176 Z2.317
X-54.818 Y19.722 F1000
Z1.817 F30
G19 G2 Y19.405 Z1.5 J-0.317 K0 F500
G1 Y14.405
G17 G3 X-54.5 Y14.087 I0.318 J0
G2 X-54.5 Y-14.087 I0 J-14.087 F1000
X-54.5 Y14.087 I0 J14.087
X-54.122 Y13.832 I0 J-0.408
G3 X-53.75 Y13.567 I0.395 J0.16
G2 X-55.25 Y-13.567 I-0.75 J-13.567
X-53.75 Y13.567 I0.75 J13.567
G3 X-53.416 Y13.866 I0.018 J0.317 F500
G1 X-53.14 Y18.859
X-53.136 Y18.929 Z1.508
X-53.132 Y18.996 Z1.531
X-53.129 Y19.056 Z1.569
X-53.126 Y19.107 Z1.62
X-53.124 Y19.144 Z1.68
X-53.123 Y19.168 Z1.747
X-53.122 Y19.176 Z1.817
X-54.818 Y19.722 F1000
Z1.317 F30
G19 G2 Y19.405 Z1 J-0.317 K0 F500
G1 Y14.405
G17 G3 X-54.5 Y14.087 I0.318 J0
G2 X-54.5 Y-14.087 I0 J-14.087 F1000
X-54.5 Y14.087 I0 J14.087
X-54.122 Y13.832 I0 J-0.408
G3 X-53.75 Y13.567 I0.395 J0.16
G2 X-55.25 Y-13.567 I-0.75 J-13.567
X-53.75 Y13.567 I0.75 J13.567
G3 X-53.416 Y13.866 I0.018 J0.317 F500
G1 X-53.14 Y18.859
X-53.136 Y18.929 Z1.008
X-53.132 Y18.996 Z1.031
X-53.129 Y19.056 Z1.069
X-53.126 Y19.107 Z1.12
X-53.124 Y19.144 Z1.18
X-53.123 Y19.168 Z1.247
X-53.122 Y19.176 Z1.317
X-54.818 Y19.722 F1000
Z0.817 F30
G19 G2 Y19.405 Z0.5 J-0.317 K0 F500
G1 Y14.405
G17 G3 X-54.5 Y14.087 I0.318 J0
G2 X-54.5 Y-14.087 I0 J-14.087 F1000
X-54.5 Y14.087 I0 J14.087
X-54.122 Y13.832 I0 J-0.408
G3 X-53.75 Y13.567 I0.395 J0.16
G2 X-55.25 Y-13.567 I-0.75 J-13.567
X-53.75 Y13.567 I0.75 J13.567
G3 X-53.416 Y13.866 I0.018 J0.317 F500
G1 X-53.14 Y18.859
X-53.136 Y18.929 Z0.508
X-53.132 Y18.996 Z0.531
X-53.129 Y19.056 Z0.569
X-53.126 Y19.107 Z0.62
X-53.124 Y19.144 Z0.68
X-53.123 Y19.168 Z0.747
X-53.122 Y19.176 Z0.817
X-54.818 Y19.722 F1000
Z0.317 F30
G19 G2 Y19.405 Z0 J-0.317 K0 F500
G1 Y14.405
G17 G3 X-54.5 Y14.087 I0.318 J0
G2 X-46.448 Y11.56 I0 J-14.087 F1000
G1 Z0.5
G2 X-42.19 Y6.85 I-8.052 J-11.56
G1 Z0 F30
G2 X-41.867 Y-6.233 I-12.31 J-6.85 F1000
G1 Z0.5
G2 X-45.887 Y-11.148 I-12.633 J6.233
G1 Z0 F30
G2 X-62.208 Y-11.791 I-8.613 J11.148 F1000
G1 Z0.5
G2 X-66.604 Y-7.208 I7.708 J11.791
G1 Z0 F30
G2 X-67.126 Y6.249 I12.104 J7.208 F1000
G1 Z0.5
G2 X-63.099 Y11.159 I12.626 J-6.249
G1 Z0 F30
G2 X-54.5 Y14.087 I8.599 J-11.159 F1000
X-54.122 Y13.832 I0 J-0.408
G3 X-53.75 Y13.567 I0.395 J0.16
G2 X-46.829 Y11.215 I-0.75 J-13.567
G1 Z0.5
G2 X-42.571 Y6.505 I-7.671 J-11.215
G1 Z0 F30
G2 X-42.264 Y-5.908 I-11.929 J-6.505 F1000
G1 Z0.5
G2 X-46.285 Y-10.823 I-12.236 J5.908
G1 Z0 F30
G2 X-61.838 Y-11.436 I-8.215 J10.823 F1000
G1 Z0.5
G2 X-66.233 Y-6.853 I7.338 J11.436
G1 Z0 F30
G2 X-66.729 Y5.923 I11.733 J6.853 F1000
G1 Z0.5
G2 X-62.702 Y10.833 I12.229 J-5.923
G1 Z0 F30
G2 X-53.75 Y13.567 I8.202 J-10.833 F1000
G3 X-53.416 Y13.866 I0.018 J0.317 F500
G1 X-53.14 Y18.859
X-53.136 Y18.929 Z0.008
X-53.132 Y18.996 Z0.031
X-53.129 Y19.056 Z0.069
X-53.126 Y19.107 Z0.12
X-53.124 Y19.144 Z0.18
X-53.123 Y19.168 Z0.247
X-53.122 Y19.176 Z0.317
G0 Z27
G28 G91 Z0
G90
G28 G91 X0 Y0
G90
M5
M30
