(drill2)
(T2  D=5 CR=0 TAPER=120deg - ZMIN=6.5 - center drill)
G90 G94
G17
G21
G28 G91 Z0
G90

(Drill1 6)
T2
S5000 M3
G54
G0 X8 Y-10
Z25
Z15
Z12
G1 Z9.5 F100.3
G0 Z15
Z11.5
G1 Z9 F100.3
G0 Z15
Z11
G1 Z8.5 F100.3
G0 Z15
Z10.5
G1 Z8 F100.3
G0 Z15
Z10
G1 Z7.5 F100.3
G0 Z15
Z9.5
G1 Z7 F100.3
G0 Z15
Z9
G1 Z6.5 F100.3
G0 Z15
X20.062 Y-2.964
Z12
G1 Z9.5 F100.3
G0 Z15
Z11.5
G1 Z9 F100.3
G0 Z15
Z11
G1 Z8.5 F100.3
G0 Z15
Z10.5
G1 Z8 F100.3
G0 Z15
Z10
G1 Z7.5 F100.3
G0 Z15
Z9.5
G1 Z7 F100.3
G0 Z15
Z9
G1 Z6.5 F100.3
G0 Z15
X7.938 Y3.964
Z12
G1 Z9.5 F100.3
G0 Z15
Z11.5
G1 Z9 F100.3
G0 Z15
Z11
G1 Z8.5 F100.3
G0 Z15
Z10.5
G1 Z8 F100.3
G0 Z15
Z10
G1 Z7.5 F100.3
G0 Z15
Z9.5
G1 Z7 F100.3
G0 Z15
Z9
G1 Z6.5 F100.3
G0 Z15
Z25
G28 G91 Z0
G90
G28 G91 X0 Y0
G90
M5
M30
