(drill1)
(T2  D=5 CR=0 TAPER=120deg - ZMIN=9 - center drill)
G90 G94
G17
G21
G28 G91 Z0
G90

(Drill1 3)
T2
S5000 M3
G54
G0 X-61.861 Y4.25
Z25
Z15
Z12
G1 Z9.5 F100.3
G0 Z15
Z11.5
G1 Z9 F100.3
G0 Z15
X-54.5 Y8.5
Z12
G1 Z9.5 F100.3
G0 Z15
Z11.5
G1 Z9 F100.3
G0 Z15
X-47.139 Y4.25
Z12
G1 Z9.5 F100.3
G0 Z15
Z11.5
G1 Z9 F100.3
G0 Z15
Y-4.25
Z12
G1 Z9.5 F100.3
G0 Z15
Z11.5
G1 Z9 F100.3
G0 Z15
X-54.5 Y-8.5
Z12
G1 Z9.5 F100.3
G0 Z15
Z11.5
G1 Z9 F100.3
G0 Z15
X-61.861 Y-4.25
Z12
G1 Z9.5 F100.3
G0 Z15
Z11.5
G1 Z9 F100.3
G0 Z15
X47.139
Z12
G1 Z9.5 F100.3
G0 Z15
Z11.5
G1 Z9 F100.3
G0 Z15
X54.5 Y-8.5
Z12
G1 Z9.5 F100.3
G0 Z15
Z11.5
G1 Z9 F100.3
G0 Z15
X61.861 Y-4.25
Z12
G1 Z9.5 F100.3
G0 Z15
Z11.5
G1 Z9 F100.3
G0 Z15
Y4.25
Z12
G1 Z9.5 F100.3
G0 Z15
Z11.5
G1 Z9 F100.3
G0 Z15
X54.5 Y8.5
Z12
G1 Z9.5 F100.3
G0 Z15
Z11.5
G1 Z9 F100.3
G0 Z15
X47.139 Y4.25
Z12
G1 Z9.5 F100.3
G0 Z15
Z11.5
G1 Z9 F100.3
G0 Z15
Z25
G28 G91 Z0
G90
G28 G91 X0 Y0
G90
M5
M30
