(motormount_adap_1)
(T1  D=6 CR=0 - ZMIN=0 - flat end mill)
G90 G94
G17
G21
G28 G91 Z0
G90

(Adaptive1)
T1
S18000 M3
G54
G0 X-1.237 Y1.862
Z25.2
Z15.2
Z10.7
G3 X-3.729 Y1.029 Z10.6 I-0.763 J-1.862 F600
X-3.272 Y-1.557 Z10.5 I1.728 J-1.028
X-0.65 Y-1.486 Z10.4 I1.27 J1.557
X-0.334 Y1.116 Z10.3 I-1.351 J1.484
X-2.86 Y1.811 Z10.2 I-1.665 J-1.117
X-3.917 Y-0.583 Z10.1 I0.859 J-1.81
X-1.707 Y-1.98 Z10 I1.915 J0.583
X-0.002 Y-0.002 Z9.9 I-0.294 J1.978
X-4.002 Y-0.002 I-2 J0
X-0.002 Y-0.002 I2 J0
G1 X0.001 Y0.113 F1300
X0.33 Y0.967
X0.438 Y1.113
X0.536 Y1.296
X0.615 Y1.516
X0.667 Y1.77
X0.683 Y2.055
X0.656 Y2.367
X0.578 Y2.697
X0.443 Y3.038
X0.247 Y3.381
X-0.013 Y3.713
X-0.339 Y4.024
X-0.729 Y4.301
X-1.18 Y4.532
X-1.684 Y4.704
X-2.235 Y4.807
X-2.819 Y4.831
X-3.425 Y4.767
X-4.037 Y4.612
X-4.64 Y4.363
X-5.216 Y4.02
X-5.749 Y3.588
X-6.224 Y3.072
X-6.628 Y2.484
X-6.947 Y1.834
X-7.173 Y1.136
X-7.296 Y0.405
X-7.314 Y-0.342
X-7.223 Y-1.089
X-7.025 Y-1.82
X-6.723 Y-2.517
X-6.321 Y-3.167
X-5.829 Y-3.753
X-5.256 Y-4.264
X-4.615 Y-4.688
X-3.918 Y-5.016
X-3.18 Y-5.241
X-2.416 Y-5.357
X-1.643 Y-5.363
X-0.877 Y-5.257
X-0.134 Y-5.041
X0.571 Y-4.721
X1.223 Y-4.303
X1.808 Y-3.795
X2.405 Y-3.102
X2.913 Y-2.34
X3.374 Y-1.55
X3.757 Y-0.718
X4.038 Y0.153
X4.202 Y1.054
X4.24 Y1.968
X4.148 Y2.879
X3.926 Y3.767
X3.579 Y4.614
X3.116 Y5.404
X2.548 Y6.122
X2.066 Y6.586
X2.037 Y6.612
X2.006 Y6.636
X1.974 Y6.658
X1.764 Y6.794
X1.556 Y6.922
X1.474 Y6.957
X0.311 Y7.423
X0.207 Y7.462
X0.104 Y7.487
X-1.141 Y7.727
X-1.245 Y7.746
X-1.349 Y7.75
X-2.697
X-2.801 Y7.738
X-4.15 Y7.478
X-4.253 Y7.446
X-5.498 Y6.948
X-5.602 Y6.897
X-6.743 Y6.164
X-6.799 Y6.127
X-6.951 Y5.988
X-7.781 Y5.197
X-7.888 Y5.088
X-7.988 Y4.952
X-8.704 Y3.946
X-8.765 Y3.842
X-9.334 Y2.596
X-9.37 Y2.492
X-9.697 Y1.142
X-9.714 Y0.935
X-9.774 Y-0.312
X-9.77 Y-0.415
X-9.576 Y-1.765
X-9.554 Y-1.869
X-9.441 Y-2.198
X-9.159 Y-3.011
X-9.086 Y-3.219
X-9.026 Y-3.332
X-8.371 Y-4.465
X-8.337 Y-4.517
X-8.296 Y-4.569
X-7.486 Y-5.504
X-7.366 Y-5.636
X-7.275 Y-5.711
X-6.328 Y-6.456
X-6.215 Y-6.542
X-6.121 Y-6.595
X-5.015 Y-7.165
X-4.876 Y-7.231
X-4.668 Y-7.294
X-3.631 Y-7.598
X-3.423 Y-7.649
X-2.179 Y-7.768
X-1.971 Y-7.782
X-1.764 Y-7.763
X-0.726 Y-7.664
X-0.519 Y-7.64
X-0.308 Y-7.58
X0.726 Y-7.277
X0.934 Y-7.207
X1.971 Y-6.672
X2.179 Y-6.564
X2.215 Y-6.542
X2.386 Y-6.41
X3.275 Y-5.711
X3.349 Y-5.651
X3.423 Y-5.576
X4.253 Y-4.618
X4.319 Y-4.542
X4.371 Y-4.465
X4.971 Y-3.427
X5.085 Y-3.219
X5.159 Y-3.011
X5.518 Y-1.973
X5.554 Y-1.869
X5.576 Y-1.765
X5.77 Y-0.415
X5.774 Y-0.312
X5.714 Y0.935
X5.706 Y1.088
X5.697 Y1.142
X5.37 Y2.492
X5.334 Y2.596
X4.765 Y3.842
X4.722 Y3.919
X4.631 Y4.05
X4.039 Y4.881
X3.888 Y5.088
X3.838 Y5.142
X3.009 Y5.933
X2.798 Y6.127
X2.594 Y6.261
X1.974 Y6.658
X1.891 Y6.7 F800
X1.803 Y6.727
X1.735 Y6.735 Z9.904
X1.668 Y6.743 Z9.916
X1.592 Y6.729 Z9.939
X1.521 Y6.716 Z9.973
X1.454 Y6.703 Z10.016
X1.393 Y6.666 Z10.078
X1.341 Y6.635 Z10.151
X1.299 Y6.609 Z10.233
X1.269 Y6.591 Z10.321
X1.254 Y6.577 Z10.41
X1.249 Y6.572 Z10.5
G0 Z15.2
X-0.446 Y3.563
Z11.22
G1 Z10.62 F600
X-0.44 Y3.568 Z10.526
X-0.424 Y3.583 Z10.435
X-0.398 Y3.607 Z10.348
X-0.362 Y3.641 Z10.267
X-0.317 Y3.682 Z10.196
X-0.264 Y3.731 Z10.135
X-0.206 Y3.786 Z10.085
X-0.142 Y3.845 Z10.049
X-0.075 Y3.907 Z10.027
X-0.006 Y3.971 Z10.02
G3 X2.155 Y6.465 I-10.428 J11.22
G1 X2.227 Y6.577 F1300
X2.253 Y6.637
X2.243 Y6.702
X2.2 Y6.751
X1.764 Y7.032
X1.66 Y7.095
X1.556 Y7.14
X0.311 Y7.638
X0.207 Y7.671
X-1.141 Y7.931
X-1.245 Y7.947
X-1.349 Y7.95
X-2.594
X-2.801 Y7.942
X-4.046 Y7.702
X-4.253 Y7.659
X-4.461 Y7.578
X-5.602 Y7.122
X-5.706 Y7.069
X-6.849 Y6.334
X-6.951 Y6.262
X-7.158 Y6.067
X-7.988 Y5.275
X-8.033 Y5.229
X-8.07 Y5.182
X-8.876 Y4.05
X-8.938 Y3.946
X-9.46 Y2.804
X-9.549 Y2.596
X-9.601 Y2.388
X-9.855 Y1.341
X-9.901 Y1.142
X-9.915 Y0.935
X-9.974 Y-0.312
X-9.972 Y-0.415
X-9.838 Y-1.35
X-9.778 Y-1.765
X-9.761 Y-1.869
X-9.73 Y-1.973
X-9.299 Y-3.219
X-9.271 Y-3.296
X-9.233 Y-3.372
X-8.602 Y-4.465
X-8.47 Y-4.673
X-7.571 Y-5.711
X-7.468 Y-5.814
X-6.536 Y-6.547
X-6.328 Y-6.707
X-6.257 Y-6.75
X-5.049 Y-7.373
X-4.962 Y-7.413
X-4.876 Y-7.441
X-3.631 Y-7.807
X-3.527 Y-7.835
X-3.423 Y-7.85
X-2.179 Y-7.969
X-1.971 Y-7.983
X-1.764 Y-7.964
X-0.726 Y-7.865
X-0.519 Y-7.844
X-0.305 Y-7.788
X0.934 Y-7.424
X1.049 Y-7.373
X2.257 Y-6.75
X2.322 Y-6.712
X2.386 Y-6.665
X3.423 Y-5.849
X3.497 Y-5.788
X3.571 Y-5.711
X4.47 Y-4.673
X4.602 Y-4.465
X5.202 Y-3.427
X5.253 Y-3.334
X5.291 Y-3.242
X5.73 Y-1.973
X5.761 Y-1.869
X5.778 Y-1.765
X5.957 Y-0.519
X5.972 Y-0.415
X5.974 Y-0.312
X5.913 Y0.964
X5.901 Y1.142
X5.853 Y1.35
X5.601 Y2.388
X5.549 Y2.596
X5.498 Y2.719
X4.938 Y3.946
X4.876 Y4.05
X4.137 Y5.088
X4.046 Y5.212
X3.966 Y5.296
X3.009 Y6.209
X2.929 Y6.28
X2.849 Y6.334
X2.2 Y6.751
X2.117 Y6.792 F800
X2.028 Y6.82
X1.96 Y6.828 Z10.024
X1.893 Y6.836 Z10.036
X1.818 Y6.822 Z10.059
X1.746 Y6.809 Z10.093
X1.68 Y6.796 Z10.136
X1.618 Y6.759 Z10.198
X1.566 Y6.727 Z10.271
X1.525 Y6.702 Z10.353
X1.494 Y6.684 Z10.441
X1.479 Y6.67 Z10.53
X1.474 Y6.665 Z10.62
G0 Z15.2
X-1.237 Y1.862
Z10.4
G3 X-3.729 Y1.029 Z10.3 I-0.763 J-1.862 F600
X-3.272 Y-1.557 Z10.2 I1.728 J-1.028
X-0.65 Y-1.486 Z10.1 I1.27 J1.557
X-0.334 Y1.116 Z10 I-1.351 J1.484
X-2.86 Y1.811 Z9.9 I-1.665 J-1.117
X-3.917 Y-0.583 Z9.8 I0.859 J-1.81
X-1.707 Y-1.98 Z9.7 I1.915 J0.583
X-0.002 Y-0.002 Z9.6 I-0.294 J1.978
X-4.002 Y-0.002 I-2 J0
X-0.002 Y-0.002 I2 J0
G1 X0.001 Y0.113 F1300
X0.33 Y0.967
X0.438 Y1.113
X0.536 Y1.296
X0.615 Y1.516
X0.667 Y1.77
X0.683 Y2.055
X0.656 Y2.367
X0.578 Y2.697
X0.443 Y3.038
X0.247 Y3.381
X-0.013 Y3.713
X-0.339 Y4.024
X-0.729 Y4.301
X-1.18 Y4.532
X-1.684 Y4.704
X-2.235 Y4.807
X-2.819 Y4.831
X-3.425 Y4.767
X-4.037 Y4.612
X-4.64 Y4.363
X-5.216 Y4.02
X-5.749 Y3.588
X-6.224 Y3.072
X-6.628 Y2.484
X-6.947 Y1.834
X-7.173 Y1.136
X-7.296 Y0.405
X-7.314 Y-0.342
X-7.223 Y-1.089
X-7.025 Y-1.82
X-6.723 Y-2.517
X-6.321 Y-3.167
X-5.829 Y-3.753
X-5.256 Y-4.264
X-4.615 Y-4.688
X-3.918 Y-5.016
X-3.18 Y-5.241
X-2.416 Y-5.357
X-1.643 Y-5.363
X-0.877 Y-5.257
X-0.134 Y-5.041
X0.571 Y-4.721
X1.223 Y-4.303
X1.808 Y-3.795
X2.405 Y-3.102
X2.913 Y-2.34
X3.374 Y-1.55
X3.757 Y-0.718
X4.038 Y0.153
X4.202 Y1.054
X4.24 Y1.968
X4.148 Y2.879
X3.926 Y3.767
X3.579 Y4.614
X3.116 Y5.404
X2.548 Y6.122
X2.066 Y6.586
X2.037 Y6.612
X2.006 Y6.636
X1.974 Y6.658
X1.764 Y6.794
X1.556 Y6.922
X1.474 Y6.957
X0.311 Y7.423
X0.207 Y7.462
X0.104 Y7.487
X-1.141 Y7.727
X-1.245 Y7.746
X-1.349 Y7.75
X-2.697
X-2.801 Y7.738
X-4.15 Y7.478
X-4.253 Y7.446
X-5.498 Y6.948
X-5.602 Y6.897
X-6.743 Y6.164
X-6.799 Y6.127
X-6.951 Y5.988
X-7.781 Y5.197
X-7.888 Y5.088
X-7.988 Y4.952
X-8.704 Y3.946
X-8.765 Y3.842
X-9.334 Y2.596
X-9.37 Y2.492
X-9.697 Y1.142
X-9.714 Y0.935
X-9.774 Y-0.312
X-9.77 Y-0.415
X-9.576 Y-1.765
X-9.554 Y-1.869
X-9.441 Y-2.198
X-9.159 Y-3.011
X-9.086 Y-3.219
X-9.026 Y-3.332
X-8.371 Y-4.465
X-8.337 Y-4.517
X-8.296 Y-4.569
X-7.486 Y-5.504
X-7.366 Y-5.636
X-7.275 Y-5.711
X-6.328 Y-6.456
X-6.215 Y-6.542
X-6.121 Y-6.595
X-5.015 Y-7.165
X-4.876 Y-7.231
X-4.668 Y-7.294
X-3.631 Y-7.598
X-3.423 Y-7.649
X-2.179 Y-7.768
X-1.971 Y-7.782
X-1.764 Y-7.763
X-0.726 Y-7.664
X-0.519 Y-7.64
X-0.308 Y-7.58
X0.726 Y-7.277
X0.934 Y-7.207
X1.971 Y-6.672
X2.179 Y-6.564
X2.215 Y-6.542
X2.386 Y-6.41
X3.275 Y-5.711
X3.349 Y-5.651
X3.423 Y-5.576
X4.253 Y-4.618
X4.319 Y-4.542
X4.371 Y-4.465
X4.971 Y-3.427
X5.085 Y-3.219
X5.159 Y-3.011
X5.518 Y-1.973
X5.554 Y-1.869
X5.576 Y-1.765
X5.77 Y-0.415
X5.774 Y-0.312
X5.714 Y0.935
X5.706 Y1.088
X5.697 Y1.142
X5.37 Y2.492
X5.334 Y2.596
X4.765 Y3.842
X4.722 Y3.919
X4.631 Y4.05
X4.039 Y4.881
X3.888 Y5.088
X3.838 Y5.142
X3.009 Y5.933
X2.798 Y6.127
X2.594 Y6.261
X1.974 Y6.658
X1.891 Y6.7 F800
X1.803 Y6.727
X1.735 Y6.735 Z9.604
X1.668 Y6.743 Z9.616
X1.592 Y6.729 Z9.639
X1.521 Y6.716 Z9.673
X1.454 Y6.703 Z9.716
X1.393 Y6.666 Z9.778
X1.341 Y6.635 Z9.851
X1.299 Y6.609 Z9.933
X1.269 Y6.591 Z10.021
X1.254 Y6.577 Z10.11
X1.249 Y6.572 Z10.2
G0 X-1.237 Y1.862
Z10.1
G3 X-3.729 Y1.029 Z10 I-0.763 J-1.862 F600
X-3.272 Y-1.557 Z9.9 I1.728 J-1.028
X-0.65 Y-1.486 Z9.8 I1.27 J1.557
X-0.334 Y1.116 Z9.7 I-1.351 J1.484
X-2.86 Y1.811 Z9.6 I-1.665 J-1.117
X-3.917 Y-0.583 Z9.5 I0.859 J-1.81
X-1.707 Y-1.98 Z9.4 I1.915 J0.583
X-0.002 Y-0.002 Z9.3 I-0.294 J1.978
X-4.002 Y-0.002 I-2 J0
X-0.002 Y-0.002 I2 J0
G1 X0.001 Y0.113 F1300
X0.33 Y0.967
X0.438 Y1.113
X0.536 Y1.296
X0.615 Y1.516
X0.667 Y1.77
X0.683 Y2.055
X0.656 Y2.367
X0.578 Y2.697
X0.443 Y3.038
X0.247 Y3.381
X-0.013 Y3.713
X-0.339 Y4.024
X-0.729 Y4.301
X-1.18 Y4.532
X-1.684 Y4.704
X-2.235 Y4.807
X-2.819 Y4.831
X-3.425 Y4.767
X-4.037 Y4.612
X-4.64 Y4.363
X-5.216 Y4.02
X-5.749 Y3.588
X-6.224 Y3.072
X-6.628 Y2.484
X-6.947 Y1.834
X-7.173 Y1.136
X-7.296 Y0.405
X-7.314 Y-0.342
X-7.223 Y-1.089
X-7.025 Y-1.82
X-6.723 Y-2.517
X-6.321 Y-3.167
X-5.829 Y-3.753
X-5.256 Y-4.264
X-4.615 Y-4.688
X-3.918 Y-5.016
X-3.18 Y-5.241
X-2.416 Y-5.357
X-1.643 Y-5.363
X-0.877 Y-5.257
X-0.134 Y-5.041
X0.571 Y-4.721
X1.223 Y-4.303
X1.808 Y-3.795
X2.405 Y-3.102
X2.913 Y-2.34
X3.374 Y-1.55
X3.757 Y-0.718
X4.038 Y0.153
X4.202 Y1.054
X4.24 Y1.968
X4.148 Y2.879
X3.926 Y3.767
X3.579 Y4.614
X3.116 Y5.404
X2.548 Y6.122
X2.066 Y6.586
X2.037 Y6.612
X2.006 Y6.636
X1.974 Y6.658
X1.764 Y6.794
X1.556 Y6.922
X1.474 Y6.957
X0.311 Y7.423
X0.207 Y7.462
X0.104 Y7.487
X-1.141 Y7.727
X-1.245 Y7.746
X-1.349 Y7.75
X-2.697
X-2.801 Y7.738
X-4.15 Y7.478
X-4.253 Y7.446
X-5.498 Y6.948
X-5.602 Y6.897
X-6.743 Y6.164
X-6.799 Y6.127
X-6.951 Y5.988
X-7.781 Y5.197
X-7.888 Y5.088
X-7.988 Y4.952
X-8.704 Y3.946
X-8.765 Y3.842
X-9.334 Y2.596
X-9.37 Y2.492
X-9.697 Y1.142
X-9.714 Y0.935
X-9.774 Y-0.312
X-9.77 Y-0.415
X-9.576 Y-1.765
X-9.554 Y-1.869
X-9.441 Y-2.198
X-9.159 Y-3.011
X-9.086 Y-3.219
X-9.026 Y-3.332
X-8.371 Y-4.465
X-8.337 Y-4.517
X-8.296 Y-4.569
X-7.486 Y-5.504
X-7.366 Y-5.636
X-7.275 Y-5.711
X-6.328 Y-6.456
X-6.215 Y-6.542
X-6.121 Y-6.595
X-5.015 Y-7.165
X-4.876 Y-7.231
X-4.668 Y-7.294
X-3.631 Y-7.598
X-3.423 Y-7.649
X-2.179 Y-7.768
X-1.971 Y-7.782
X-1.764 Y-7.763
X-0.726 Y-7.664
X-0.519 Y-7.64
X-0.308 Y-7.58
X0.726 Y-7.277
X0.934 Y-7.207
X1.971 Y-6.672
X2.179 Y-6.564
X2.215 Y-6.542
X2.386 Y-6.41
X3.275 Y-5.711
X3.349 Y-5.651
X3.423 Y-5.576
X4.253 Y-4.618
X4.319 Y-4.542
X4.371 Y-4.465
X4.971 Y-3.427
X5.085 Y-3.219
X5.159 Y-3.011
X5.518 Y-1.973
X5.554 Y-1.869
X5.576 Y-1.765
X5.77 Y-0.415
X5.774 Y-0.312
X5.714 Y0.935
X5.706 Y1.088
X5.697 Y1.142
X5.37 Y2.492
X5.334 Y2.596
X4.765 Y3.842
X4.722 Y3.919
X4.631 Y4.05
X4.039 Y4.881
X3.888 Y5.088
X3.838 Y5.142
X3.009 Y5.933
X2.798 Y6.127
X2.594 Y6.261
X1.974 Y6.658
X1.891 Y6.7 F800
X1.803 Y6.727
X1.735 Y6.735 Z9.304
X1.668 Y6.743 Z9.316
X1.592 Y6.729 Z9.339
X1.521 Y6.716 Z9.373
X1.454 Y6.703 Z9.416
X1.393 Y6.666 Z9.478
X1.341 Y6.635 Z9.551
X1.299 Y6.609 Z9.633
X1.269 Y6.591 Z9.721
X1.254 Y6.577 Z9.81
X1.249 Y6.572 Z9.9
G0 X-1.237 Y1.862
Z9.8
G3 X-3.729 Y1.029 Z9.7 I-0.763 J-1.862 F600
X-3.272 Y-1.557 Z9.6 I1.728 J-1.028
X-0.65 Y-1.486 Z9.5 I1.27 J1.557
X-0.334 Y1.116 Z9.4 I-1.351 J1.484
X-2.86 Y1.811 Z9.3 I-1.665 J-1.117
X-3.917 Y-0.583 Z9.2 I0.859 J-1.81
X-1.707 Y-1.98 Z9.1 I1.915 J0.583
X-0.002 Y-0.002 Z9 I-0.294 J1.978
X-4.002 Y-0.002 I-2 J0
X-0.002 Y-0.002 I2 J0
G1 X0.001 Y0.113 F1300
X0.33 Y0.967
X0.438 Y1.113
X0.536 Y1.296
X0.615 Y1.516
X0.667 Y1.77
X0.683 Y2.055
X0.656 Y2.367
X0.578 Y2.697
X0.443 Y3.038
X0.247 Y3.381
X-0.013 Y3.713
X-0.339 Y4.024
X-0.729 Y4.301
X-1.18 Y4.532
X-1.684 Y4.704
X-2.235 Y4.807
X-2.819 Y4.831
X-3.425 Y4.767
X-4.037 Y4.612
X-4.64 Y4.363
X-5.216 Y4.02
X-5.749 Y3.588
X-6.224 Y3.072
X-6.628 Y2.484
X-6.947 Y1.834
X-7.173 Y1.136
X-7.296 Y0.405
X-7.314 Y-0.342
X-7.223 Y-1.089
X-7.025 Y-1.82
X-6.723 Y-2.517
X-6.321 Y-3.167
X-5.829 Y-3.753
X-5.256 Y-4.264
X-4.615 Y-4.688
X-3.918 Y-5.016
X-3.18 Y-5.241
X-2.416 Y-5.357
X-1.643 Y-5.363
X-0.877 Y-5.257
X-0.134 Y-5.041
X0.571 Y-4.721
X1.223 Y-4.303
X1.808 Y-3.795
X2.405 Y-3.102
X2.913 Y-2.34
X3.374 Y-1.55
X3.757 Y-0.718
X4.038 Y0.153
X4.202 Y1.054
X4.24 Y1.968
X4.148 Y2.879
X3.926 Y3.767
X3.579 Y4.614
X3.116 Y5.404
X2.548 Y6.122
X2.066 Y6.586
X2.037 Y6.612
X2.006 Y6.636
X1.974 Y6.658
X1.764 Y6.794
X1.556 Y6.922
X1.474 Y6.957
X0.311 Y7.423
X0.207 Y7.462
X0.104 Y7.487
X-1.141 Y7.727
X-1.245 Y7.746
X-1.349 Y7.75
X-2.697
X-2.801 Y7.738
X-4.15 Y7.478
X-4.253 Y7.446
X-5.498 Y6.948
X-5.602 Y6.897
X-6.743 Y6.164
X-6.799 Y6.127
X-6.951 Y5.988
X-7.781 Y5.197
X-7.888 Y5.088
X-7.988 Y4.952
X-8.704 Y3.946
X-8.765 Y3.842
X-9.334 Y2.596
X-9.37 Y2.492
X-9.697 Y1.142
X-9.714 Y0.935
X-9.774 Y-0.312
X-9.77 Y-0.415
X-9.576 Y-1.765
X-9.554 Y-1.869
X-9.441 Y-2.198
X-9.159 Y-3.011
X-9.086 Y-3.219
X-9.026 Y-3.332
X-8.371 Y-4.465
X-8.337 Y-4.517
X-8.296 Y-4.569
X-7.486 Y-5.504
X-7.366 Y-5.636
X-7.275 Y-5.711
X-6.328 Y-6.456
X-6.215 Y-6.542
X-6.121 Y-6.595
X-5.015 Y-7.165
X-4.876 Y-7.231
X-4.668 Y-7.294
X-3.631 Y-7.598
X-3.423 Y-7.649
X-2.179 Y-7.768
X-1.971 Y-7.782
X-1.764 Y-7.763
X-0.726 Y-7.664
X-0.519 Y-7.64
X-0.308 Y-7.58
X0.726 Y-7.277
X0.934 Y-7.207
X1.971 Y-6.672
X2.179 Y-6.564
X2.215 Y-6.542
X2.386 Y-6.41
X3.275 Y-5.711
X3.349 Y-5.651
X3.423 Y-5.576
X4.253 Y-4.618
X4.319 Y-4.542
X4.371 Y-4.465
X4.971 Y-3.427
X5.085 Y-3.219
X5.159 Y-3.011
X5.518 Y-1.973
X5.554 Y-1.869
X5.576 Y-1.765
X5.77 Y-0.415
X5.774 Y-0.312
X5.714 Y0.935
X5.706 Y1.088
X5.697 Y1.142
X5.37 Y2.492
X5.334 Y2.596
X4.765 Y3.842
X4.722 Y3.919
X4.631 Y4.05
X4.039 Y4.881
X3.888 Y5.088
X3.838 Y5.142
X3.009 Y5.933
X2.798 Y6.127
X2.594 Y6.261
X1.974 Y6.658
X1.891 Y6.7 F800
X1.803 Y6.727
X1.735 Y6.735 Z9.004
X1.668 Y6.743 Z9.016
X1.592 Y6.729 Z9.039
X1.521 Y6.716 Z9.073
X1.454 Y6.703 Z9.116
X1.393 Y6.666 Z9.178
X1.341 Y6.635 Z9.251
X1.299 Y6.609 Z9.333
X1.269 Y6.591 Z9.421
X1.254 Y6.577 Z9.51
X1.249 Y6.572 Z9.6
G0 X-1.237 Y1.862
Z9.5
G3 X-3.729 Y1.029 Z9.4 I-0.763 J-1.862 F600
X-3.272 Y-1.557 Z9.3 I1.728 J-1.028
X-0.65 Y-1.486 Z9.2 I1.27 J1.557
X-0.334 Y1.116 Z9.1 I-1.351 J1.484
X-2.86 Y1.811 Z9 I-1.665 J-1.117
X-3.917 Y-0.583 Z8.9 I0.859 J-1.81
X-1.707 Y-1.98 Z8.8 I1.915 J0.583
X-0.002 Y-0.002 Z8.7 I-0.294 J1.978
X-4.002 Y-0.002 I-2 J0
X-0.002 Y-0.002 I2 J0
G1 X0.001 Y0.113 F1300
X0.33 Y0.967
X0.438 Y1.113
X0.536 Y1.296
X0.615 Y1.516
X0.667 Y1.77
X0.683 Y2.055
X0.656 Y2.367
X0.578 Y2.697
X0.443 Y3.038
X0.247 Y3.381
X-0.013 Y3.713
X-0.339 Y4.024
X-0.729 Y4.301
X-1.18 Y4.532
X-1.684 Y4.704
X-2.235 Y4.807
X-2.819 Y4.831
X-3.425 Y4.767
X-4.037 Y4.612
X-4.64 Y4.363
X-5.216 Y4.02
X-5.749 Y3.588
X-6.224 Y3.072
X-6.628 Y2.484
X-6.947 Y1.834
X-7.173 Y1.136
X-7.296 Y0.405
X-7.314 Y-0.342
X-7.223 Y-1.089
X-7.025 Y-1.82
X-6.723 Y-2.517
X-6.321 Y-3.167
X-5.829 Y-3.753
X-5.256 Y-4.264
X-4.615 Y-4.688
X-3.918 Y-5.016
X-3.18 Y-5.241
X-2.416 Y-5.357
X-1.643 Y-5.363
X-0.877 Y-5.257
X-0.134 Y-5.041
X0.571 Y-4.721
X1.223 Y-4.303
X1.808 Y-3.795
X2.405 Y-3.102
X2.913 Y-2.34
X3.374 Y-1.55
X3.757 Y-0.718
X4.038 Y0.153
X4.202 Y1.054
X4.24 Y1.968
X4.148 Y2.879
X3.926 Y3.767
X3.579 Y4.614
X3.116 Y5.404
X2.548 Y6.122
X2.066 Y6.586
X2.037 Y6.612
X2.006 Y6.636
X1.974 Y6.658
X1.764 Y6.794
X1.556 Y6.922
X1.474 Y6.957
X0.311 Y7.423
X0.207 Y7.462
X0.104 Y7.487
X-1.141 Y7.727
X-1.245 Y7.746
X-1.349 Y7.75
X-2.697
X-2.801 Y7.738
X-4.15 Y7.478
X-4.253 Y7.446
X-5.498 Y6.948
X-5.602 Y6.897
X-6.743 Y6.164
X-6.799 Y6.127
X-6.951 Y5.988
X-7.781 Y5.197
X-7.888 Y5.088
X-7.988 Y4.952
X-8.704 Y3.946
X-8.765 Y3.842
X-9.334 Y2.596
X-9.37 Y2.492
X-9.697 Y1.142
X-9.714 Y0.935
X-9.774 Y-0.312
X-9.77 Y-0.415
X-9.576 Y-1.765
X-9.554 Y-1.869
X-9.441 Y-2.198
X-9.159 Y-3.011
X-9.086 Y-3.219
X-9.026 Y-3.332
X-8.371 Y-4.465
X-8.337 Y-4.517
X-8.296 Y-4.569
X-7.486 Y-5.504
X-7.366 Y-5.636
X-7.275 Y-5.711
X-6.328 Y-6.456
X-6.215 Y-6.542
X-6.121 Y-6.595
X-5.015 Y-7.165
X-4.876 Y-7.231
X-4.668 Y-7.294
X-3.631 Y-7.598
X-3.423 Y-7.649
X-2.179 Y-7.768
X-1.971 Y-7.782
X-1.764 Y-7.763
X-0.726 Y-7.664
X-0.519 Y-7.64
X-0.308 Y-7.58
X0.726 Y-7.277
X0.934 Y-7.207
X1.971 Y-6.672
X2.179 Y-6.564
X2.215 Y-6.542
X2.386 Y-6.41
X3.275 Y-5.711
X3.349 Y-5.651
X3.423 Y-5.576
X4.253 Y-4.618
X4.319 Y-4.542
X4.371 Y-4.465
X4.971 Y-3.427
X5.085 Y-3.219
X5.159 Y-3.011
X5.518 Y-1.973
X5.554 Y-1.869
X5.576 Y-1.765
X5.77 Y-0.415
X5.774 Y-0.312
X5.714 Y0.935
X5.706 Y1.088
X5.697 Y1.142
X5.37 Y2.492
X5.334 Y2.596
X4.765 Y3.842
X4.722 Y3.919
X4.631 Y4.05
X4.039 Y4.881
X3.888 Y5.088
X3.838 Y5.142
X3.009 Y5.933
X2.798 Y6.127
X2.594 Y6.261
X1.974 Y6.658
X1.891 Y6.7 F800
X1.803 Y6.727
X1.735 Y6.735 Z8.704
X1.668 Y6.743 Z8.716
X1.592 Y6.729 Z8.739
X1.521 Y6.716 Z8.773
X1.454 Y6.703 Z8.816
X1.393 Y6.666 Z8.878
X1.341 Y6.635 Z8.951
X1.299 Y6.609 Z9.033
X1.269 Y6.591 Z9.121
X1.254 Y6.577 Z9.21
X1.249 Y6.572 Z9.3
G0 X-1.237 Y1.862
Z9.2
G3 X-3.729 Y1.029 Z9.1 I-0.763 J-1.862 F600
X-3.272 Y-1.557 Z9 I1.728 J-1.028
X-0.65 Y-1.486 Z8.9 I1.27 J1.557
X-0.334 Y1.116 Z8.8 I-1.351 J1.484
X-2.86 Y1.811 Z8.7 I-1.665 J-1.117
X-3.917 Y-0.583 Z8.6 I0.859 J-1.81
X-1.707 Y-1.98 Z8.5 I1.915 J0.583
X-0.002 Y-0.002 Z8.4 I-0.294 J1.978
X-4.002 Y-0.002 I-2 J0
X-0.002 Y-0.002 I2 J0
G1 X0.001 Y0.113 F1300
X0.33 Y0.967
X0.438 Y1.113
X0.536 Y1.296
X0.615 Y1.516
X0.667 Y1.77
X0.683 Y2.055
X0.656 Y2.367
X0.578 Y2.697
X0.443 Y3.038
X0.247 Y3.381
X-0.013 Y3.713
X-0.339 Y4.024
X-0.729 Y4.301
X-1.18 Y4.532
X-1.684 Y4.704
X-2.235 Y4.807
X-2.819 Y4.831
X-3.425 Y4.767
X-4.037 Y4.612
X-4.64 Y4.363
X-5.216 Y4.02
X-5.749 Y3.588
X-6.224 Y3.072
X-6.628 Y2.484
X-6.947 Y1.834
X-7.173 Y1.136
X-7.296 Y0.405
X-7.314 Y-0.342
X-7.223 Y-1.089
X-7.025 Y-1.82
X-6.723 Y-2.517
X-6.321 Y-3.167
X-5.829 Y-3.753
X-5.256 Y-4.264
X-4.615 Y-4.688
X-3.918 Y-5.016
X-3.18 Y-5.241
X-2.416 Y-5.357
X-1.643 Y-5.363
X-0.877 Y-5.257
X-0.134 Y-5.041
X0.571 Y-4.721
X1.223 Y-4.303
X1.808 Y-3.795
X2.405 Y-3.102
X2.913 Y-2.34
X3.374 Y-1.55
X3.757 Y-0.718
X4.038 Y0.153
X4.202 Y1.054
X4.24 Y1.968
X4.148 Y2.879
X3.926 Y3.767
X3.579 Y4.614
X3.116 Y5.404
X2.548 Y6.122
X2.066 Y6.586
X2.037 Y6.612
X2.006 Y6.636
X1.974 Y6.658
X1.764 Y6.794
X1.556 Y6.922
X1.474 Y6.957
X0.311 Y7.423
X0.207 Y7.462
X0.104 Y7.487
X-1.141 Y7.727
X-1.245 Y7.746
X-1.349 Y7.75
X-2.697
X-2.801 Y7.738
X-4.15 Y7.478
X-4.253 Y7.446
X-5.498 Y6.948
X-5.602 Y6.897
X-6.743 Y6.164
X-6.799 Y6.127
X-6.951 Y5.988
X-7.781 Y5.197
X-7.888 Y5.088
X-7.988 Y4.952
X-8.704 Y3.946
X-8.765 Y3.842
X-9.334 Y2.596
X-9.37 Y2.492
X-9.697 Y1.142
X-9.714 Y0.935
X-9.774 Y-0.312
X-9.77 Y-0.415
X-9.576 Y-1.765
X-9.554 Y-1.869
X-9.441 Y-2.198
X-9.159 Y-3.011
X-9.086 Y-3.219
X-9.026 Y-3.332
X-8.371 Y-4.465
X-8.337 Y-4.517
X-8.296 Y-4.569
X-7.486 Y-5.504
X-7.366 Y-5.636
X-7.275 Y-5.711
X-6.328 Y-6.456
X-6.215 Y-6.542
X-6.121 Y-6.595
X-5.015 Y-7.165
X-4.876 Y-7.231
X-4.668 Y-7.294
X-3.631 Y-7.598
X-3.423 Y-7.649
X-2.179 Y-7.768
X-1.971 Y-7.782
X-1.764 Y-7.763
X-0.726 Y-7.664
X-0.519 Y-7.64
X-0.308 Y-7.58
X0.726 Y-7.277
X0.934 Y-7.207
X1.971 Y-6.672
X2.179 Y-6.564
X2.215 Y-6.542
X2.386 Y-6.41
X3.275 Y-5.711
X3.349 Y-5.651
X3.423 Y-5.576
X4.253 Y-4.618
X4.319 Y-4.542
X4.371 Y-4.465
X4.971 Y-3.427
X5.085 Y-3.219
X5.159 Y-3.011
X5.518 Y-1.973
X5.554 Y-1.869
X5.576 Y-1.765
X5.77 Y-0.415
X5.774 Y-0.312
X5.714 Y0.935
X5.706 Y1.088
X5.697 Y1.142
X5.37 Y2.492
X5.334 Y2.596
X4.765 Y3.842
X4.722 Y3.919
X4.631 Y4.05
X4.039 Y4.881
X3.888 Y5.088
X3.838 Y5.142
X3.009 Y5.933
X2.798 Y6.127
X2.594 Y6.261
X1.974 Y6.658
X1.891 Y6.7 F800
X1.803 Y6.727
X1.735 Y6.735 Z8.404
X1.668 Y6.743 Z8.416
X1.592 Y6.729 Z8.439
X1.521 Y6.716 Z8.473
X1.454 Y6.703 Z8.516
X1.393 Y6.666 Z8.578
X1.341 Y6.635 Z8.651
X1.299 Y6.609 Z8.733
X1.269 Y6.591 Z8.821
X1.254 Y6.577 Z8.91
X1.249 Y6.572 Z9
G0 X-1.237 Y1.862
Z8.9
G3 X-3.729 Y1.029 Z8.8 I-0.763 J-1.862 F600
X-3.272 Y-1.557 Z8.7 I1.728 J-1.028
X-0.65 Y-1.486 Z8.6 I1.27 J1.557
X-0.334 Y1.116 Z8.5 I-1.351 J1.484
X-2.86 Y1.811 Z8.4 I-1.665 J-1.117
X-3.917 Y-0.583 Z8.3 I0.859 J-1.81
X-1.707 Y-1.98 Z8.2 I1.915 J0.583
X-0.002 Y-0.002 Z8.1 I-0.294 J1.978
X-4.002 Y-0.002 I-2 J0
X-0.002 Y-0.002 I2 J0
G1 X0.001 Y0.113 F1300
X0.33 Y0.967
X0.438 Y1.113
X0.536 Y1.296
X0.615 Y1.516
X0.667 Y1.77
X0.683 Y2.055
X0.656 Y2.367
X0.578 Y2.697
X0.443 Y3.038
X0.247 Y3.381
X-0.013 Y3.713
X-0.339 Y4.024
X-0.729 Y4.301
X-1.18 Y4.532
X-1.684 Y4.704
X-2.235 Y4.807
X-2.819 Y4.831
X-3.425 Y4.767
X-4.037 Y4.612
X-4.64 Y4.363
X-5.216 Y4.02
X-5.749 Y3.588
X-6.224 Y3.072
X-6.628 Y2.484
X-6.947 Y1.834
X-7.173 Y1.136
X-7.296 Y0.405
X-7.314 Y-0.342
X-7.223 Y-1.089
X-7.025 Y-1.82
X-6.723 Y-2.517
X-6.321 Y-3.167
X-5.829 Y-3.753
X-5.256 Y-4.264
X-4.615 Y-4.688
X-3.918 Y-5.016
X-3.18 Y-5.241
X-2.416 Y-5.357
X-1.643 Y-5.363
X-0.877 Y-5.257
X-0.134 Y-5.041
X0.571 Y-4.721
X1.223 Y-4.303
X1.808 Y-3.795
X2.405 Y-3.102
X2.913 Y-2.34
X3.374 Y-1.55
X3.757 Y-0.718
X4.038 Y0.153
X4.202 Y1.054
X4.24 Y1.968
X4.148 Y2.879
X3.926 Y3.767
X3.579 Y4.614
X3.116 Y5.404
X2.548 Y6.122
X2.066 Y6.586
X2.037 Y6.612
X2.006 Y6.636
X1.974 Y6.658
X1.764 Y6.794
X1.556 Y6.922
X1.474 Y6.957
X0.311 Y7.423
X0.207 Y7.462
X0.104 Y7.487
X-1.141 Y7.727
X-1.245 Y7.746
X-1.349 Y7.75
X-2.697
X-2.801 Y7.738
X-4.15 Y7.478
X-4.253 Y7.446
X-5.498 Y6.948
X-5.602 Y6.897
X-6.743 Y6.164
X-6.799 Y6.127
X-6.951 Y5.988
X-7.781 Y5.197
X-7.888 Y5.088
X-7.988 Y4.952
X-8.704 Y3.946
X-8.765 Y3.842
X-9.334 Y2.596
X-9.37 Y2.492
X-9.697 Y1.142
X-9.714 Y0.935
X-9.774 Y-0.312
X-9.77 Y-0.415
X-9.576 Y-1.765
X-9.554 Y-1.869
X-9.441 Y-2.198
X-9.159 Y-3.011
X-9.086 Y-3.219
X-9.026 Y-3.332
X-8.371 Y-4.465
X-8.337 Y-4.517
X-8.296 Y-4.569
X-7.486 Y-5.504
X-7.366 Y-5.636
X-7.275 Y-5.711
X-6.328 Y-6.456
X-6.215 Y-6.542
X-6.121 Y-6.595
X-5.015 Y-7.165
X-4.876 Y-7.231
X-4.668 Y-7.294
X-3.631 Y-7.598
X-3.423 Y-7.649
X-2.179 Y-7.768
X-1.971 Y-7.782
X-1.764 Y-7.763
X-0.726 Y-7.664
X-0.519 Y-7.64
X-0.308 Y-7.58
X0.726 Y-7.277
X0.934 Y-7.207
X1.971 Y-6.672
X2.179 Y-6.564
X2.215 Y-6.542
X2.386 Y-6.41
X3.275 Y-5.711
X3.349 Y-5.651
X3.423 Y-5.576
X4.253 Y-4.618
X4.319 Y-4.542
X4.371 Y-4.465
X4.971 Y-3.427
X5.085 Y-3.219
X5.159 Y-3.011
X5.518 Y-1.973
X5.554 Y-1.869
X5.576 Y-1.765
X5.77 Y-0.415
X5.774 Y-0.312
X5.714 Y0.935
X5.706 Y1.088
X5.697 Y1.142
X5.37 Y2.492
X5.334 Y2.596
X4.765 Y3.842
X4.722 Y3.919
X4.631 Y4.05
X4.039 Y4.881
X3.888 Y5.088
X3.838 Y5.142
X3.009 Y5.933
X2.798 Y6.127
X2.594 Y6.261
X1.974 Y6.658
X1.891 Y6.7 F800
X1.803 Y6.727
X1.735 Y6.735 Z8.104
X1.668 Y6.743 Z8.116
X1.592 Y6.729 Z8.139
X1.521 Y6.716 Z8.173
X1.454 Y6.703 Z8.216
X1.393 Y6.666 Z8.278
X1.341 Y6.635 Z8.351
X1.299 Y6.609 Z8.433
X1.269 Y6.591 Z8.521
X1.254 Y6.577 Z8.61
X1.249 Y6.572 Z8.7
G0 X-1.237 Y1.862
Z8.6
G3 X-3.729 Y1.029 Z8.5 I-0.763 J-1.862 F600
X-3.272 Y-1.557 Z8.4 I1.728 J-1.028
X-0.65 Y-1.486 Z8.3 I1.27 J1.557
X-0.334 Y1.116 Z8.2 I-1.351 J1.484
X-2.86 Y1.811 Z8.1 I-1.665 J-1.117
X-3.917 Y-0.583 Z8 I0.859 J-1.81
X-1.707 Y-1.98 Z7.9 I1.915 J0.583
X-0.002 Y-0.002 Z7.8 I-0.294 J1.978
X-4.002 Y-0.002 I-2 J0
X-0.002 Y-0.002 I2 J0
G1 X0.001 Y0.113 F1300
X0.33 Y0.967
X0.438 Y1.113
X0.536 Y1.296
X0.615 Y1.516
X0.667 Y1.77
X0.683 Y2.055
X0.656 Y2.367
X0.578 Y2.697
X0.443 Y3.038
X0.247 Y3.381
X-0.013 Y3.713
X-0.339 Y4.024
X-0.729 Y4.301
X-1.18 Y4.532
X-1.684 Y4.704
X-2.235 Y4.807
X-2.819 Y4.831
X-3.425 Y4.767
X-4.037 Y4.612
X-4.64 Y4.363
X-5.216 Y4.02
X-5.749 Y3.588
X-6.224 Y3.072
X-6.628 Y2.484
X-6.947 Y1.834
X-7.173 Y1.136
X-7.296 Y0.405
X-7.314 Y-0.342
X-7.223 Y-1.089
X-7.025 Y-1.82
X-6.723 Y-2.517
X-6.321 Y-3.167
X-5.829 Y-3.753
X-5.256 Y-4.264
X-4.615 Y-4.688
X-3.918 Y-5.016
X-3.18 Y-5.241
X-2.416 Y-5.357
X-1.643 Y-5.363
X-0.877 Y-5.257
X-0.134 Y-5.041
X0.571 Y-4.721
X1.223 Y-4.303
X1.808 Y-3.795
X2.405 Y-3.102
X2.913 Y-2.34
X3.374 Y-1.55
X3.757 Y-0.718
X4.038 Y0.153
X4.202 Y1.054
X4.24 Y1.968
X4.148 Y2.879
X3.926 Y3.767
X3.579 Y4.614
X3.116 Y5.404
X2.548 Y6.122
X2.066 Y6.586
X2.037 Y6.612
X2.006 Y6.636
X1.974 Y6.658
X1.764 Y6.794
X1.556 Y6.922
X1.474 Y6.957
X0.311 Y7.423
X0.207 Y7.462
X0.104 Y7.487
X-1.141 Y7.727
X-1.245 Y7.746
X-1.349 Y7.75
X-2.697
X-2.801 Y7.738
X-4.15 Y7.478
X-4.253 Y7.446
X-5.498 Y6.948
X-5.602 Y6.897
X-6.743 Y6.164
X-6.799 Y6.127
X-6.951 Y5.988
X-7.781 Y5.197
X-7.888 Y5.088
X-7.988 Y4.952
X-8.704 Y3.946
X-8.765 Y3.842
X-9.334 Y2.596
X-9.37 Y2.492
X-9.697 Y1.142
X-9.714 Y0.935
X-9.774 Y-0.312
X-9.77 Y-0.415
X-9.576 Y-1.765
X-9.554 Y-1.869
X-9.441 Y-2.198
X-9.159 Y-3.011
X-9.086 Y-3.219
X-9.026 Y-3.332
X-8.371 Y-4.465
X-8.337 Y-4.517
X-8.296 Y-4.569
X-7.486 Y-5.504
X-7.366 Y-5.636
X-7.275 Y-5.711
X-6.328 Y-6.456
X-6.215 Y-6.542
X-6.121 Y-6.595
X-5.015 Y-7.165
X-4.876 Y-7.231
X-4.668 Y-7.294
X-3.631 Y-7.598
X-3.423 Y-7.649
X-2.179 Y-7.768
X-1.971 Y-7.782
X-1.764 Y-7.763
X-0.726 Y-7.664
X-0.519 Y-7.64
X-0.308 Y-7.58
X0.726 Y-7.277
X0.934 Y-7.207
X1.971 Y-6.672
X2.179 Y-6.564
X2.215 Y-6.542
X2.386 Y-6.41
X3.275 Y-5.711
X3.349 Y-5.651
X3.423 Y-5.576
X4.253 Y-4.618
X4.319 Y-4.542
X4.371 Y-4.465
X4.971 Y-3.427
X5.085 Y-3.219
X5.159 Y-3.011
X5.518 Y-1.973
X5.554 Y-1.869
X5.576 Y-1.765
X5.77 Y-0.415
X5.774 Y-0.312
X5.714 Y0.935
X5.706 Y1.088
X5.697 Y1.142
X5.37 Y2.492
X5.334 Y2.596
X4.765 Y3.842
X4.722 Y3.919
X4.631 Y4.05
X4.039 Y4.881
X3.888 Y5.088
X3.838 Y5.142
X3.009 Y5.933
X2.798 Y6.127
X2.594 Y6.261
X1.974 Y6.658
X1.891 Y6.7 F800
X1.803 Y6.727
X1.735 Y6.735 Z7.804
X1.668 Y6.743 Z7.816
X1.592 Y6.729 Z7.839
X1.521 Y6.716 Z7.873
X1.454 Y6.703 Z7.916
X1.393 Y6.666 Z7.978
X1.341 Y6.635 Z8.051
X1.299 Y6.609 Z8.133
X1.269 Y6.591 Z8.221
X1.254 Y6.577 Z8.31
X1.249 Y6.572 Z8.4
G0 X-1.237 Y1.862
Z8.3
G3 X-3.729 Y1.029 Z8.2 I-0.763 J-1.862 F600
X-3.272 Y-1.557 Z8.1 I1.728 J-1.028
X-0.65 Y-1.486 Z8 I1.27 J1.557
X-0.334 Y1.116 Z7.9 I-1.351 J1.484
X-2.86 Y1.811 Z7.8 I-1.665 J-1.117
X-3.917 Y-0.583 Z7.7 I0.859 J-1.81
X-1.707 Y-1.98 Z7.6 I1.915 J0.583
X-0.002 Y-0.002 Z7.5 I-0.294 J1.978
X-4.002 Y-0.002 I-2 J0
X-0.002 Y-0.002 I2 J0
G1 X0.001 Y0.113 F1300
X0.33 Y0.967
X0.438 Y1.113
X0.536 Y1.296
X0.615 Y1.516
X0.667 Y1.77
X0.683 Y2.055
X0.656 Y2.367
X0.578 Y2.697
X0.443 Y3.038
X0.247 Y3.381
X-0.013 Y3.713
X-0.339 Y4.024
X-0.729 Y4.301
X-1.18 Y4.532
X-1.684 Y4.704
X-2.235 Y4.807
X-2.819 Y4.831
X-3.425 Y4.767
X-4.037 Y4.612
X-4.64 Y4.363
X-5.216 Y4.02
X-5.749 Y3.588
X-6.224 Y3.072
X-6.628 Y2.484
X-6.947 Y1.834
X-7.173 Y1.136
X-7.296 Y0.405
X-7.314 Y-0.342
X-7.223 Y-1.089
X-7.025 Y-1.82
X-6.723 Y-2.517
X-6.321 Y-3.167
X-5.829 Y-3.753
X-5.256 Y-4.264
X-4.615 Y-4.688
X-3.918 Y-5.016
X-3.18 Y-5.241
X-2.416 Y-5.357
X-1.643 Y-5.363
X-0.877 Y-5.257
X-0.134 Y-5.041
X0.571 Y-4.721
X1.223 Y-4.303
X1.808 Y-3.795
X2.405 Y-3.102
X2.913 Y-2.34
X3.374 Y-1.55
X3.757 Y-0.718
X4.038 Y0.153
X4.202 Y1.054
X4.24 Y1.968
X4.148 Y2.879
X3.926 Y3.767
X3.579 Y4.614
X3.116 Y5.404
X2.548 Y6.122
X2.066 Y6.586
X2.037 Y6.612
X2.006 Y6.636
X1.974 Y6.658
X1.764 Y6.794
X1.556 Y6.922
X1.474 Y6.957
X0.311 Y7.423
X0.207 Y7.462
X0.104 Y7.487
X-1.141 Y7.727
X-1.245 Y7.746
X-1.349 Y7.75
X-2.697
X-2.801 Y7.738
X-4.15 Y7.478
X-4.253 Y7.446
X-5.498 Y6.948
X-5.602 Y6.897
X-6.743 Y6.164
X-6.799 Y6.127
X-6.951 Y5.988
X-7.781 Y5.197
X-7.888 Y5.088
X-7.988 Y4.952
X-8.704 Y3.946
X-8.765 Y3.842
X-9.334 Y2.596
X-9.37 Y2.492
X-9.697 Y1.142
X-9.714 Y0.935
X-9.774 Y-0.312
X-9.77 Y-0.415
X-9.576 Y-1.765
X-9.554 Y-1.869
X-9.441 Y-2.198
X-9.159 Y-3.011
X-9.086 Y-3.219
X-9.026 Y-3.332
X-8.371 Y-4.465
X-8.337 Y-4.517
X-8.296 Y-4.569
X-7.486 Y-5.504
X-7.366 Y-5.636
X-7.275 Y-5.711
X-6.328 Y-6.456
X-6.215 Y-6.542
X-6.121 Y-6.595
X-5.015 Y-7.165
X-4.876 Y-7.231
X-4.668 Y-7.294
X-3.631 Y-7.598
X-3.423 Y-7.649
X-2.179 Y-7.768
X-1.971 Y-7.782
X-1.764 Y-7.763
X-0.726 Y-7.664
X-0.519 Y-7.64
X-0.308 Y-7.58
X0.726 Y-7.277
X0.934 Y-7.207
X1.971 Y-6.672
X2.179 Y-6.564
X2.215 Y-6.542
X2.386 Y-6.41
X3.275 Y-5.711
X3.349 Y-5.651
X3.423 Y-5.576
X4.253 Y-4.618
X4.319 Y-4.542
X4.371 Y-4.465
X4.971 Y-3.427
X5.085 Y-3.219
X5.159 Y-3.011
X5.518 Y-1.973
X5.554 Y-1.869
X5.576 Y-1.765
X5.77 Y-0.415
X5.774 Y-0.312
X5.714 Y0.935
X5.706 Y1.088
X5.697 Y1.142
X5.37 Y2.492
X5.334 Y2.596
X4.765 Y3.842
X4.722 Y3.919
X4.631 Y4.05
X4.039 Y4.881
X3.888 Y5.088
X3.838 Y5.142
X3.009 Y5.933
X2.798 Y6.127
X2.594 Y6.261
X1.974 Y6.658
X1.891 Y6.7 F800
X1.803 Y6.727
X1.735 Y6.735 Z7.504
X1.668 Y6.743 Z7.516
X1.592 Y6.729 Z7.539
X1.521 Y6.716 Z7.573
X1.454 Y6.703 Z7.616
X1.393 Y6.666 Z7.678
X1.341 Y6.635 Z7.751
X1.299 Y6.609 Z7.833
X1.269 Y6.591 Z7.921
X1.254 Y6.577 Z8.01
X1.249 Y6.572 Z8.1
G0 X-1.237 Y1.862
Z8
G3 X-3.729 Y1.029 Z7.9 I-0.763 J-1.862 F600
X-3.272 Y-1.557 Z7.8 I1.728 J-1.028
X-0.65 Y-1.486 Z7.7 I1.27 J1.557
X-0.334 Y1.116 Z7.6 I-1.351 J1.484
X-2.86 Y1.811 Z7.5 I-1.665 J-1.117
X-3.917 Y-0.583 Z7.4 I0.859 J-1.81
X-1.707 Y-1.98 Z7.3 I1.915 J0.583
X-0.002 Y-0.002 Z7.2 I-0.294 J1.978
X-4.002 Y-0.002 I-2 J0
X-0.002 Y-0.002 I2 J0
G1 X0.001 Y0.113 F1300
X0.33 Y0.967
X0.438 Y1.113
X0.536 Y1.296
X0.615 Y1.516
X0.667 Y1.77
X0.683 Y2.055
X0.656 Y2.367
X0.578 Y2.697
X0.443 Y3.038
X0.247 Y3.381
X-0.013 Y3.713
X-0.339 Y4.024
X-0.729 Y4.301
X-1.18 Y4.532
X-1.684 Y4.704
X-2.235 Y4.807
X-2.819 Y4.831
X-3.425 Y4.767
X-4.037 Y4.612
X-4.64 Y4.363
X-5.216 Y4.02
X-5.749 Y3.588
X-6.224 Y3.072
X-6.628 Y2.484
X-6.947 Y1.834
X-7.173 Y1.136
X-7.296 Y0.405
X-7.314 Y-0.342
X-7.223 Y-1.089
X-7.025 Y-1.82
X-6.723 Y-2.517
X-6.321 Y-3.167
X-5.829 Y-3.753
X-5.256 Y-4.264
X-4.615 Y-4.688
X-3.918 Y-5.016
X-3.18 Y-5.241
X-2.416 Y-5.357
X-1.643 Y-5.363
X-0.877 Y-5.257
X-0.134 Y-5.041
X0.571 Y-4.721
X1.223 Y-4.303
X1.808 Y-3.795
X2.405 Y-3.102
X2.913 Y-2.34
X3.374 Y-1.55
X3.757 Y-0.718
X4.038 Y0.153
X4.202 Y1.054
X4.24 Y1.968
X4.148 Y2.879
X3.926 Y3.767
X3.579 Y4.614
X3.116 Y5.404
X2.548 Y6.122
X2.066 Y6.586
X2.037 Y6.612
X2.006 Y6.636
X1.974 Y6.658
X1.764 Y6.794
X1.556 Y6.922
X1.474 Y6.957
X0.311 Y7.423
X0.207 Y7.462
X0.104 Y7.487
X-1.141 Y7.727
X-1.245 Y7.746
X-1.349 Y7.75
X-2.697
X-2.801 Y7.738
X-4.15 Y7.478
X-4.253 Y7.446
X-5.498 Y6.948
X-5.602 Y6.897
X-6.743 Y6.164
X-6.799 Y6.127
X-6.951 Y5.988
X-7.781 Y5.197
X-7.888 Y5.088
X-7.988 Y4.952
X-8.704 Y3.946
X-8.765 Y3.842
X-9.334 Y2.596
X-9.37 Y2.492
X-9.697 Y1.142
X-9.714 Y0.935
X-9.774 Y-0.312
X-9.77 Y-0.415
X-9.576 Y-1.765
X-9.554 Y-1.869
X-9.441 Y-2.198
X-9.159 Y-3.011
X-9.086 Y-3.219
X-9.026 Y-3.332
X-8.371 Y-4.465
X-8.337 Y-4.517
X-8.296 Y-4.569
X-7.486 Y-5.504
X-7.366 Y-5.636
X-7.275 Y-5.711
X-6.328 Y-6.456
X-6.215 Y-6.542
X-6.121 Y-6.595
X-5.015 Y-7.165
X-4.876 Y-7.231
X-4.668 Y-7.294
X-3.631 Y-7.598
X-3.423 Y-7.649
X-2.179 Y-7.768
X-1.971 Y-7.782
X-1.764 Y-7.763
X-0.726 Y-7.664
X-0.519 Y-7.64
X-0.308 Y-7.58
X0.726 Y-7.277
X0.934 Y-7.207
X1.971 Y-6.672
X2.179 Y-6.564
X2.215 Y-6.542
X2.386 Y-6.41
X3.275 Y-5.711
X3.349 Y-5.651
X3.423 Y-5.576
X4.253 Y-4.618
X4.319 Y-4.542
X4.371 Y-4.465
X4.971 Y-3.427
X5.085 Y-3.219
X5.159 Y-3.011
X5.518 Y-1.973
X5.554 Y-1.869
X5.576 Y-1.765
X5.77 Y-0.415
X5.774 Y-0.312
X5.714 Y0.935
X5.706 Y1.088
X5.697 Y1.142
X5.37 Y2.492
X5.334 Y2.596
X4.765 Y3.842
X4.722 Y3.919
X4.631 Y4.05
X4.039 Y4.881
X3.888 Y5.088
X3.838 Y5.142
X3.009 Y5.933
X2.798 Y6.127
X2.594 Y6.261
X1.974 Y6.658
X1.891 Y6.7 F800
X1.803 Y6.727
X1.735 Y6.735 Z7.204
X1.668 Y6.743 Z7.216
X1.592 Y6.729 Z7.239
X1.521 Y6.716 Z7.273
X1.454 Y6.703 Z7.316
X1.393 Y6.666 Z7.378
X1.341 Y6.635 Z7.451
X1.299 Y6.609 Z7.533
X1.269 Y6.591 Z7.621
X1.254 Y6.577 Z7.71
X1.249 Y6.572 Z7.8
G0 X-1.237 Y1.862
Z7.7
G3 X-3.729 Y1.029 Z7.6 I-0.763 J-1.862 F600
X-3.272 Y-1.557 Z7.5 I1.728 J-1.028
X-0.65 Y-1.486 Z7.4 I1.27 J1.557
X-0.334 Y1.116 Z7.3 I-1.351 J1.484
X-2.86 Y1.811 Z7.2 I-1.665 J-1.117
X-3.917 Y-0.583 Z7.1 I0.859 J-1.81
X-1.707 Y-1.98 Z7 I1.915 J0.583
X-0.002 Y-0.002 Z6.9 I-0.294 J1.978
X-4.002 Y-0.002 I-2 J0
X-0.002 Y-0.002 I2 J0
G1 X0.001 Y0.113 F1300
X0.33 Y0.967
X0.438 Y1.113
X0.536 Y1.296
X0.615 Y1.516
X0.667 Y1.77
X0.683 Y2.055
X0.656 Y2.367
X0.578 Y2.697
X0.443 Y3.038
X0.247 Y3.381
X-0.013 Y3.713
X-0.339 Y4.024
X-0.729 Y4.301
X-1.18 Y4.532
X-1.684 Y4.704
X-2.235 Y4.807
X-2.819 Y4.831
X-3.425 Y4.767
X-4.037 Y4.612
X-4.64 Y4.363
X-5.216 Y4.02
X-5.749 Y3.588
X-6.224 Y3.072
X-6.628 Y2.484
X-6.947 Y1.834
X-7.173 Y1.136
X-7.296 Y0.405
X-7.314 Y-0.342
X-7.223 Y-1.089
X-7.025 Y-1.82
X-6.723 Y-2.517
X-6.321 Y-3.167
X-5.829 Y-3.753
X-5.256 Y-4.264
X-4.615 Y-4.688
X-3.918 Y-5.016
X-3.18 Y-5.241
X-2.416 Y-5.357
X-1.643 Y-5.363
X-0.877 Y-5.257
X-0.134 Y-5.041
X0.571 Y-4.721
X1.223 Y-4.303
X1.808 Y-3.795
X2.405 Y-3.102
X2.913 Y-2.34
X3.374 Y-1.55
X3.757 Y-0.718
X4.038 Y0.153
X4.202 Y1.054
X4.24 Y1.968
X4.148 Y2.879
X3.926 Y3.767
X3.579 Y4.614
X3.116 Y5.404
X2.548 Y6.122
X2.066 Y6.586
X2.037 Y6.612
X2.006 Y6.636
X1.974 Y6.658
X1.764 Y6.794
X1.556 Y6.922
X1.474 Y6.957
X0.311 Y7.423
X0.207 Y7.462
X0.104 Y7.487
X-1.141 Y7.727
X-1.245 Y7.746
X-1.349 Y7.75
X-2.697
X-2.801 Y7.738
X-4.15 Y7.478
X-4.253 Y7.446
X-5.498 Y6.948
X-5.602 Y6.897
X-6.743 Y6.164
X-6.799 Y6.127
X-6.951 Y5.988
X-7.781 Y5.197
X-7.888 Y5.088
X-7.988 Y4.952
X-8.704 Y3.946
X-8.765 Y3.842
X-9.334 Y2.596
X-9.37 Y2.492
X-9.697 Y1.142
X-9.714 Y0.935
X-9.774 Y-0.312
X-9.77 Y-0.415
X-9.576 Y-1.765
X-9.554 Y-1.869
X-9.441 Y-2.198
X-9.159 Y-3.011
X-9.086 Y-3.219
X-9.026 Y-3.332
X-8.371 Y-4.465
X-8.337 Y-4.517
X-8.296 Y-4.569
X-7.486 Y-5.504
X-7.366 Y-5.636
X-7.275 Y-5.711
X-6.328 Y-6.456
X-6.215 Y-6.542
X-6.121 Y-6.595
X-5.015 Y-7.165
X-4.876 Y-7.231
X-4.668 Y-7.294
X-3.631 Y-7.598
X-3.423 Y-7.649
X-2.179 Y-7.768
X-1.971 Y-7.782
X-1.764 Y-7.763
X-0.726 Y-7.664
X-0.519 Y-7.64
X-0.308 Y-7.58
X0.726 Y-7.277
X0.934 Y-7.207
X1.971 Y-6.672
X2.179 Y-6.564
X2.215 Y-6.542
X2.386 Y-6.41
X3.275 Y-5.711
X3.349 Y-5.651
X3.423 Y-5.576
X4.253 Y-4.618
X4.319 Y-4.542
X4.371 Y-4.465
X4.971 Y-3.427
X5.085 Y-3.219
X5.159 Y-3.011
X5.518 Y-1.973
X5.554 Y-1.869
X5.576 Y-1.765
X5.77 Y-0.415
X5.774 Y-0.312
X5.714 Y0.935
X5.706 Y1.088
X5.697 Y1.142
X5.37 Y2.492
X5.334 Y2.596
X4.765 Y3.842
X4.722 Y3.919
X4.631 Y4.05
X4.039 Y4.881
X3.888 Y5.088
X3.838 Y5.142
X3.009 Y5.933
X2.798 Y6.127
X2.594 Y6.261
X1.974 Y6.658
X1.891 Y6.7 F800
X1.803 Y6.727
X1.735 Y6.735 Z6.904
X1.668 Y6.743 Z6.916
X1.592 Y6.729 Z6.939
X1.521 Y6.716 Z6.973
X1.454 Y6.703 Z7.016
X1.393 Y6.666 Z7.078
X1.341 Y6.635 Z7.151
X1.299 Y6.609 Z7.233
X1.269 Y6.591 Z7.321
X1.254 Y6.577 Z7.41
X1.249 Y6.572 Z7.5
G0 X-1.237 Y1.862
Z7.4
G3 X-3.729 Y1.029 Z7.3 I-0.763 J-1.862 F600
X-3.272 Y-1.557 Z7.2 I1.728 J-1.028
X-0.65 Y-1.486 Z7.1 I1.27 J1.557
X-0.334 Y1.116 Z7 I-1.351 J1.484
X-2.86 Y1.811 Z6.9 I-1.665 J-1.117
X-3.917 Y-0.583 Z6.8 I0.859 J-1.81
X-1.707 Y-1.98 Z6.7 I1.915 J0.583
X-0.002 Y-0.002 Z6.6 I-0.294 J1.978
X-4.002 Y-0.002 I-2 J0
X-0.002 Y-0.002 I2 J0
G1 X0.001 Y0.113 F1300
X0.33 Y0.967
X0.438 Y1.113
X0.536 Y1.296
X0.615 Y1.516
X0.667 Y1.77
X0.683 Y2.055
X0.656 Y2.367
X0.578 Y2.697
X0.443 Y3.038
X0.247 Y3.381
X-0.013 Y3.713
X-0.339 Y4.024
X-0.729 Y4.301
X-1.18 Y4.532
X-1.684 Y4.704
X-2.235 Y4.807
X-2.819 Y4.831
X-3.425 Y4.767
X-4.037 Y4.612
X-4.64 Y4.363
X-5.216 Y4.02
X-5.749 Y3.588
X-6.224 Y3.072
X-6.628 Y2.484
X-6.947 Y1.834
X-7.173 Y1.136
X-7.296 Y0.405
X-7.314 Y-0.342
X-7.223 Y-1.089
X-7.025 Y-1.82
X-6.723 Y-2.517
X-6.321 Y-3.167
X-5.829 Y-3.753
X-5.256 Y-4.264
X-4.615 Y-4.688
X-3.918 Y-5.016
X-3.18 Y-5.241
X-2.416 Y-5.357
X-1.643 Y-5.363
X-0.877 Y-5.257
X-0.134 Y-5.041
X0.571 Y-4.721
X1.223 Y-4.303
X1.808 Y-3.795
X2.405 Y-3.102
X2.913 Y-2.34
X3.374 Y-1.55
X3.757 Y-0.718
X4.038 Y0.153
X4.202 Y1.054
X4.24 Y1.968
X4.148 Y2.879
X3.926 Y3.767
X3.579 Y4.614
X3.116 Y5.404
X2.548 Y6.122
X2.066 Y6.586
X2.037 Y6.612
X2.006 Y6.636
X1.974 Y6.658
X1.764 Y6.794
X1.556 Y6.922
X1.474 Y6.957
X0.311 Y7.423
X0.207 Y7.462
X0.104 Y7.487
X-1.141 Y7.727
X-1.245 Y7.746
X-1.349 Y7.75
X-2.697
X-2.801 Y7.738
X-4.15 Y7.478
X-4.253 Y7.446
X-5.498 Y6.948
X-5.602 Y6.897
X-6.743 Y6.164
X-6.799 Y6.127
X-6.951 Y5.988
X-7.781 Y5.197
X-7.888 Y5.088
X-7.988 Y4.952
X-8.704 Y3.946
X-8.765 Y3.842
X-9.334 Y2.596
X-9.37 Y2.492
X-9.697 Y1.142
X-9.714 Y0.935
X-9.774 Y-0.312
X-9.77 Y-0.415
X-9.576 Y-1.765
X-9.554 Y-1.869
X-9.441 Y-2.198
X-9.159 Y-3.011
X-9.086 Y-3.219
X-9.026 Y-3.332
X-8.371 Y-4.465
X-8.337 Y-4.517
X-8.296 Y-4.569
X-7.486 Y-5.504
X-7.366 Y-5.636
X-7.275 Y-5.711
X-6.328 Y-6.456
X-6.215 Y-6.542
X-6.121 Y-6.595
X-5.015 Y-7.165
X-4.876 Y-7.231
X-4.668 Y-7.294
X-3.631 Y-7.598
X-3.423 Y-7.649
X-2.179 Y-7.768
X-1.971 Y-7.782
X-1.764 Y-7.763
X-0.726 Y-7.664
X-0.519 Y-7.64
X-0.308 Y-7.58
X0.726 Y-7.277
X0.934 Y-7.207
X1.971 Y-6.672
X2.179 Y-6.564
X2.215 Y-6.542
X2.386 Y-6.41
X3.275 Y-5.711
X3.349 Y-5.651
X3.423 Y-5.576
X4.253 Y-4.618
X4.319 Y-4.542
X4.371 Y-4.465
X4.971 Y-3.427
X5.085 Y-3.219
X5.159 Y-3.011
X5.518 Y-1.973
X5.554 Y-1.869
X5.576 Y-1.765
X5.77 Y-0.415
X5.774 Y-0.312
X5.714 Y0.935
X5.706 Y1.088
X5.697 Y1.142
X5.37 Y2.492
X5.334 Y2.596
X4.765 Y3.842
X4.722 Y3.919
X4.631 Y4.05
X4.039 Y4.881
X3.888 Y5.088
X3.838 Y5.142
X3.009 Y5.933
X2.798 Y6.127
X2.594 Y6.261
X1.974 Y6.658
X1.891 Y6.7 F800
X1.803 Y6.727
X1.735 Y6.735 Z6.604
X1.668 Y6.743 Z6.616
X1.592 Y6.729 Z6.639
X1.521 Y6.716 Z6.673
X1.454 Y6.703 Z6.716
X1.393 Y6.666 Z6.778
X1.341 Y6.635 Z6.851
X1.299 Y6.609 Z6.933
X1.269 Y6.591 Z7.021
X1.254 Y6.577 Z7.11
X1.249 Y6.572 Z7.2
G0 X-1.237 Y1.862
Z7.1
G3 X-3.729 Y1.029 Z7 I-0.763 J-1.862 F600
X-3.272 Y-1.557 Z6.9 I1.728 J-1.028
X-0.65 Y-1.486 Z6.8 I1.27 J1.557
X-0.334 Y1.116 Z6.7 I-1.351 J1.484
X-2.86 Y1.811 Z6.6 I-1.665 J-1.117
X-3.917 Y-0.583 Z6.5 I0.859 J-1.81
X-1.707 Y-1.98 Z6.4 I1.915 J0.583
X-0.002 Y-0.002 Z6.3 I-0.294 J1.978
X-4.002 Y-0.002 I-2 J0
X-0.002 Y-0.002 I2 J0
G1 X0.001 Y0.113 F1300
X0.33 Y0.967
X0.438 Y1.113
X0.536 Y1.296
X0.615 Y1.516
X0.667 Y1.77
X0.683 Y2.055
X0.656 Y2.367
X0.578 Y2.697
X0.443 Y3.038
X0.247 Y3.381
X-0.013 Y3.713
X-0.339 Y4.024
X-0.729 Y4.301
X-1.18 Y4.532
X-1.684 Y4.704
X-2.235 Y4.807
X-2.819 Y4.831
X-3.425 Y4.767
X-4.037 Y4.612
X-4.64 Y4.363
X-5.216 Y4.02
X-5.749 Y3.588
X-6.224 Y3.072
X-6.628 Y2.484
X-6.947 Y1.834
X-7.173 Y1.136
X-7.296 Y0.405
X-7.314 Y-0.342
X-7.223 Y-1.089
X-7.025 Y-1.82
X-6.723 Y-2.517
X-6.321 Y-3.167
X-5.829 Y-3.753
X-5.256 Y-4.264
X-4.615 Y-4.688
X-3.918 Y-5.016
X-3.18 Y-5.241
X-2.416 Y-5.357
X-1.643 Y-5.363
X-0.877 Y-5.257
X-0.134 Y-5.041
X0.571 Y-4.721
X1.223 Y-4.303
X1.808 Y-3.795
X2.405 Y-3.102
X2.913 Y-2.34
X3.374 Y-1.55
X3.757 Y-0.718
X4.038 Y0.153
X4.202 Y1.054
X4.24 Y1.968
X4.148 Y2.879
X3.926 Y3.767
X3.579 Y4.614
X3.116 Y5.404
X2.548 Y6.122
X2.066 Y6.586
X2.037 Y6.612
X2.006 Y6.636
X1.974 Y6.658
X1.764 Y6.794
X1.556 Y6.922
X1.474 Y6.957
X0.311 Y7.423
X0.207 Y7.462
X0.104 Y7.487
X-1.141 Y7.727
X-1.245 Y7.746
X-1.349 Y7.75
X-2.697
X-2.801 Y7.738
X-4.15 Y7.478
X-4.253 Y7.446
X-5.498 Y6.948
X-5.602 Y6.897
X-6.743 Y6.164
X-6.799 Y6.127
X-6.951 Y5.988
X-7.781 Y5.197
X-7.888 Y5.088
X-7.988 Y4.952
X-8.704 Y3.946
X-8.765 Y3.842
X-9.334 Y2.596
X-9.37 Y2.492
X-9.697 Y1.142
X-9.714 Y0.935
X-9.774 Y-0.312
X-9.77 Y-0.415
X-9.576 Y-1.765
X-9.554 Y-1.869
X-9.441 Y-2.198
X-9.159 Y-3.011
X-9.086 Y-3.219
X-9.026 Y-3.332
X-8.371 Y-4.465
X-8.337 Y-4.517
X-8.296 Y-4.569
X-7.486 Y-5.504
X-7.366 Y-5.636
X-7.275 Y-5.711
X-6.328 Y-6.456
X-6.215 Y-6.542
X-6.121 Y-6.595
X-5.015 Y-7.165
X-4.876 Y-7.231
X-4.668 Y-7.294
X-3.631 Y-7.598
X-3.423 Y-7.649
X-2.179 Y-7.768
X-1.971 Y-7.782
X-1.764 Y-7.763
X-0.726 Y-7.664
X-0.519 Y-7.64
X-0.308 Y-7.58
X0.726 Y-7.277
X0.934 Y-7.207
X1.971 Y-6.672
X2.179 Y-6.564
X2.215 Y-6.542
X2.386 Y-6.41
X3.275 Y-5.711
X3.349 Y-5.651
X3.423 Y-5.576
X4.253 Y-4.618
X4.319 Y-4.542
X4.371 Y-4.465
X4.971 Y-3.427
X5.085 Y-3.219
X5.159 Y-3.011
X5.518 Y-1.973
X5.554 Y-1.869
X5.576 Y-1.765
X5.77 Y-0.415
X5.774 Y-0.312
X5.714 Y0.935
X5.706 Y1.088
X5.697 Y1.142
X5.37 Y2.492
X5.334 Y2.596
X4.765 Y3.842
X4.722 Y3.919
X4.631 Y4.05
X4.039 Y4.881
X3.888 Y5.088
X3.838 Y5.142
X3.009 Y5.933
X2.798 Y6.127
X2.594 Y6.261
X1.974 Y6.658
X1.891 Y6.7 F800
X1.803 Y6.727
X1.735 Y6.735 Z6.304
X1.668 Y6.743 Z6.316
X1.592 Y6.729 Z6.339
X1.521 Y6.716 Z6.373
X1.454 Y6.703 Z6.416
X1.393 Y6.666 Z6.478
X1.341 Y6.635 Z6.551
X1.299 Y6.609 Z6.633
X1.269 Y6.591 Z6.721
X1.254 Y6.577 Z6.81
X1.249 Y6.572 Z6.9
G0 X-1.237 Y1.862
Z6.8
G3 X-3.729 Y1.029 Z6.7 I-0.763 J-1.862 F600
X-3.272 Y-1.557 Z6.6 I1.728 J-1.028
X-0.65 Y-1.486 Z6.5 I1.27 J1.557
X-0.334 Y1.116 Z6.4 I-1.351 J1.484
X-2.86 Y1.811 Z6.3 I-1.665 J-1.117
X-3.917 Y-0.583 Z6.2 I0.859 J-1.81
X-1.707 Y-1.98 Z6.1 I1.915 J0.583
X-0.002 Y-0.002 Z6 I-0.294 J1.978
X-4.002 Y-0.002 I-2 J0
X-0.002 Y-0.002 I2 J0
G1 X0.001 Y0.113 F1300
X0.33 Y0.967
X0.438 Y1.113
X0.536 Y1.296
X0.615 Y1.516
X0.667 Y1.77
X0.683 Y2.055
X0.656 Y2.367
X0.578 Y2.697
X0.443 Y3.038
X0.247 Y3.381
X-0.013 Y3.713
X-0.339 Y4.024
X-0.729 Y4.301
X-1.18 Y4.532
X-1.684 Y4.704
X-2.235 Y4.807
X-2.819 Y4.831
X-3.425 Y4.767
X-4.037 Y4.612
X-4.64 Y4.363
X-5.216 Y4.02
X-5.749 Y3.588
X-6.224 Y3.072
X-6.628 Y2.484
X-6.947 Y1.834
X-7.173 Y1.136
X-7.296 Y0.405
X-7.314 Y-0.342
X-7.223 Y-1.089
X-7.025 Y-1.82
X-6.723 Y-2.517
X-6.321 Y-3.167
X-5.829 Y-3.753
X-5.256 Y-4.264
X-4.615 Y-4.688
X-3.918 Y-5.016
X-3.18 Y-5.241
X-2.416 Y-5.357
X-1.643 Y-5.363
X-0.877 Y-5.257
X-0.134 Y-5.041
X0.571 Y-4.721
X1.223 Y-4.303
X1.808 Y-3.795
X2.405 Y-3.102
X2.913 Y-2.34
X3.374 Y-1.55
X3.757 Y-0.718
X4.038 Y0.153
X4.202 Y1.054
X4.24 Y1.968
X4.148 Y2.879
X3.926 Y3.767
X3.579 Y4.614
X3.116 Y5.404
X2.548 Y6.122
X2.066 Y6.586
X2.037 Y6.612
X2.006 Y6.636
X1.974 Y6.658
X1.764 Y6.794
X1.556 Y6.922
X1.474 Y6.957
X0.311 Y7.423
X0.207 Y7.462
X0.104 Y7.487
X-1.141 Y7.727
X-1.245 Y7.746
X-1.349 Y7.75
X-2.697
X-2.801 Y7.738
X-4.15 Y7.478
X-4.253 Y7.446
X-5.498 Y6.948
X-5.602 Y6.897
X-6.743 Y6.164
X-6.799 Y6.127
X-6.951 Y5.988
X-7.781 Y5.197
X-7.888 Y5.088
X-7.988 Y4.952
X-8.704 Y3.946
X-8.765 Y3.842
X-9.334 Y2.596
X-9.37 Y2.492
X-9.697 Y1.142
X-9.714 Y0.935
X-9.774 Y-0.312
X-9.77 Y-0.415
X-9.576 Y-1.765
X-9.554 Y-1.869
X-9.441 Y-2.198
X-9.159 Y-3.011
X-9.086 Y-3.219
X-9.026 Y-3.332
X-8.371 Y-4.465
X-8.337 Y-4.517
X-8.296 Y-4.569
X-7.486 Y-5.504
X-7.366 Y-5.636
X-7.275 Y-5.711
X-6.328 Y-6.456
X-6.215 Y-6.542
X-6.121 Y-6.595
X-5.015 Y-7.165
X-4.876 Y-7.231
X-4.668 Y-7.294
X-3.631 Y-7.598
X-3.423 Y-7.649
X-2.179 Y-7.768
X-1.971 Y-7.782
X-1.764 Y-7.763
X-0.726 Y-7.664
X-0.519 Y-7.64
X-0.308 Y-7.58
X0.726 Y-7.277
X0.934 Y-7.207
X1.971 Y-6.672
X2.179 Y-6.564
X2.215 Y-6.542
X2.386 Y-6.41
X3.275 Y-5.711
X3.349 Y-5.651
X3.423 Y-5.576
X4.253 Y-4.618
X4.319 Y-4.542
X4.371 Y-4.465
X4.971 Y-3.427
X5.085 Y-3.219
X5.159 Y-3.011
X5.518 Y-1.973
X5.554 Y-1.869
X5.576 Y-1.765
X5.77 Y-0.415
X5.774 Y-0.312
X5.714 Y0.935
X5.706 Y1.088
X5.697 Y1.142
X5.37 Y2.492
X5.334 Y2.596
X4.765 Y3.842
X4.722 Y3.919
X4.631 Y4.05
X4.039 Y4.881
X3.888 Y5.088
X3.838 Y5.142
X3.009 Y5.933
X2.798 Y6.127
X2.594 Y6.261
X1.974 Y6.658
X1.891 Y6.7 F800
X1.803 Y6.727
X1.735 Y6.735 Z6.004
X1.668 Y6.743 Z6.016
X1.592 Y6.729 Z6.039
X1.521 Y6.716 Z6.073
X1.454 Y6.703 Z6.116
X1.393 Y6.666 Z6.178
X1.341 Y6.635 Z6.251
X1.299 Y6.609 Z6.333
X1.269 Y6.591 Z6.421
X1.254 Y6.577 Z6.51
X1.249 Y6.572 Z6.6
G0 X-1.237 Y1.862
Z6.5
G3 X-3.729 Y1.029 Z6.4 I-0.763 J-1.862 F600
X-3.272 Y-1.557 Z6.3 I1.728 J-1.028
X-0.65 Y-1.486 Z6.2 I1.27 J1.557
X-0.334 Y1.116 Z6.1 I-1.351 J1.484
X-2.86 Y1.811 Z6 I-1.665 J-1.117
X-3.917 Y-0.583 Z5.9 I0.859 J-1.81
X-1.707 Y-1.98 Z5.8 I1.915 J0.583
X-0.002 Y-0.002 Z5.7 I-0.294 J1.978
X-4.002 Y-0.002 I-2 J0
X-0.002 Y-0.002 I2 J0
G1 X0.001 Y0.113 F1300
X0.33 Y0.967
X0.438 Y1.113
X0.536 Y1.296
X0.615 Y1.516
X0.667 Y1.77
X0.683 Y2.055
X0.656 Y2.367
X0.578 Y2.697
X0.443 Y3.038
X0.247 Y3.381
X-0.013 Y3.713
X-0.339 Y4.024
X-0.729 Y4.301
X-1.18 Y4.532
X-1.684 Y4.704
X-2.235 Y4.807
X-2.819 Y4.831
X-3.425 Y4.767
X-4.037 Y4.612
X-4.64 Y4.363
X-5.216 Y4.02
X-5.749 Y3.588
X-6.224 Y3.072
X-6.628 Y2.484
X-6.947 Y1.834
X-7.173 Y1.136
X-7.296 Y0.405
X-7.314 Y-0.342
X-7.223 Y-1.089
X-7.025 Y-1.82
X-6.723 Y-2.517
X-6.321 Y-3.167
X-5.829 Y-3.753
X-5.256 Y-4.264
X-4.615 Y-4.688
X-3.918 Y-5.016
X-3.18 Y-5.241
X-2.416 Y-5.357
X-1.643 Y-5.363
X-0.877 Y-5.257
X-0.134 Y-5.041
X0.571 Y-4.721
X1.223 Y-4.303
X1.808 Y-3.795
X2.405 Y-3.102
X2.913 Y-2.34
X3.374 Y-1.55
X3.757 Y-0.718
X4.038 Y0.153
X4.202 Y1.054
X4.24 Y1.968
X4.148 Y2.879
X3.926 Y3.767
X3.579 Y4.614
X3.116 Y5.404
X2.548 Y6.122
X2.066 Y6.586
X2.037 Y6.612
X2.006 Y6.636
X1.974 Y6.658
X1.764 Y6.794
X1.556 Y6.922
X1.474 Y6.957
X0.311 Y7.423
X0.207 Y7.462
X0.104 Y7.487
X-1.141 Y7.727
X-1.245 Y7.746
X-1.349 Y7.75
X-2.697
X-2.801 Y7.738
X-4.15 Y7.478
X-4.253 Y7.446
X-5.498 Y6.948
X-5.602 Y6.897
X-6.743 Y6.164
X-6.799 Y6.127
X-6.951 Y5.988
X-7.781 Y5.197
X-7.888 Y5.088
X-7.988 Y4.952
X-8.704 Y3.946
X-8.765 Y3.842
X-9.334 Y2.596
X-9.37 Y2.492
X-9.697 Y1.142
X-9.714 Y0.935
X-9.774 Y-0.312
X-9.77 Y-0.415
X-9.576 Y-1.765
X-9.554 Y-1.869
X-9.441 Y-2.198
X-9.159 Y-3.011
X-9.086 Y-3.219
X-9.026 Y-3.332
X-8.371 Y-4.465
X-8.337 Y-4.517
X-8.296 Y-4.569
X-7.486 Y-5.504
X-7.366 Y-5.636
X-7.275 Y-5.711
X-6.328 Y-6.456
X-6.215 Y-6.542
X-6.121 Y-6.595
X-5.015 Y-7.165
X-4.876 Y-7.231
X-4.668 Y-7.294
X-3.631 Y-7.598
X-3.423 Y-7.649
X-2.179 Y-7.768
X-1.971 Y-7.782
X-1.764 Y-7.763
X-0.726 Y-7.664
X-0.519 Y-7.64
X-0.308 Y-7.58
X0.726 Y-7.277
X0.934 Y-7.207
X1.971 Y-6.672
X2.179 Y-6.564
X2.215 Y-6.542
X2.386 Y-6.41
X3.275 Y-5.711
X3.349 Y-5.651
X3.423 Y-5.576
X4.253 Y-4.618
X4.319 Y-4.542
X4.371 Y-4.465
X4.971 Y-3.427
X5.085 Y-3.219
X5.159 Y-3.011
X5.518 Y-1.973
X5.554 Y-1.869
X5.576 Y-1.765
X5.77 Y-0.415
X5.774 Y-0.312
X5.714 Y0.935
X5.706 Y1.088
X5.697 Y1.142
X5.37 Y2.492
X5.334 Y2.596
X4.765 Y3.842
X4.722 Y3.919
X4.631 Y4.05
X4.039 Y4.881
X3.888 Y5.088
X3.838 Y5.142
X3.009 Y5.933
X2.798 Y6.127
X2.594 Y6.261
X1.974 Y6.658
X1.891 Y6.7 F800
X1.803 Y6.727
X1.735 Y6.735 Z5.704
X1.668 Y6.743 Z5.716
X1.592 Y6.729 Z5.739
X1.521 Y6.716 Z5.773
X1.454 Y6.703 Z5.816
X1.393 Y6.666 Z5.878
X1.341 Y6.635 Z5.951
X1.299 Y6.609 Z6.033
X1.269 Y6.591 Z6.121
X1.254 Y6.577 Z6.21
X1.249 Y6.572 Z6.3
G0 X-1.237 Y1.862
Z6.2
G3 X-3.729 Y1.029 Z6.1 I-0.763 J-1.862 F600
X-3.272 Y-1.557 Z6 I1.728 J-1.028
X-0.65 Y-1.486 Z5.9 I1.27 J1.557
X-0.334 Y1.116 Z5.8 I-1.351 J1.484
X-2.86 Y1.811 Z5.7 I-1.665 J-1.117
X-3.917 Y-0.583 Z5.6 I0.859 J-1.81
X-1.707 Y-1.98 Z5.5 I1.915 J0.583
X-0.002 Y-0.002 Z5.4 I-0.294 J1.978
X-4.002 Y-0.002 I-2 J0
X-0.002 Y-0.002 I2 J0
G1 X0.001 Y0.113 F1300
X0.33 Y0.967
X0.438 Y1.113
X0.536 Y1.296
X0.615 Y1.516
X0.667 Y1.77
X0.683 Y2.055
X0.656 Y2.367
X0.578 Y2.697
X0.443 Y3.038
X0.247 Y3.381
X-0.013 Y3.713
X-0.339 Y4.024
X-0.729 Y4.301
X-1.18 Y4.532
X-1.684 Y4.704
X-2.235 Y4.807
X-2.819 Y4.831
X-3.425 Y4.767
X-4.037 Y4.612
X-4.64 Y4.363
X-5.216 Y4.02
X-5.749 Y3.588
X-6.224 Y3.072
X-6.628 Y2.484
X-6.947 Y1.834
X-7.173 Y1.136
X-7.296 Y0.405
X-7.314 Y-0.342
X-7.223 Y-1.089
X-7.025 Y-1.82
X-6.723 Y-2.517
X-6.321 Y-3.167
X-5.829 Y-3.753
X-5.256 Y-4.264
X-4.615 Y-4.688
X-3.918 Y-5.016
X-3.18 Y-5.241
X-2.416 Y-5.357
X-1.643 Y-5.363
X-0.877 Y-5.257
X-0.134 Y-5.041
X0.571 Y-4.721
X1.223 Y-4.303
X1.808 Y-3.795
X2.405 Y-3.102
X2.913 Y-2.34
X3.374 Y-1.55
X3.757 Y-0.718
X4.038 Y0.153
X4.202 Y1.054
X4.24 Y1.968
X4.148 Y2.879
X3.926 Y3.767
X3.579 Y4.614
X3.116 Y5.404
X2.548 Y6.122
X2.066 Y6.586
X2.037 Y6.612
X2.006 Y6.636
X1.974 Y6.658
X1.764 Y6.794
X1.556 Y6.922
X1.474 Y6.957
X0.311 Y7.423
X0.207 Y7.462
X0.104 Y7.487
X-1.141 Y7.727
X-1.245 Y7.746
X-1.349 Y7.75
X-2.697
X-2.801 Y7.738
X-4.15 Y7.478
X-4.253 Y7.446
X-5.498 Y6.948
X-5.602 Y6.897
X-6.743 Y6.164
X-6.799 Y6.127
X-6.951 Y5.988
X-7.781 Y5.197
X-7.888 Y5.088
X-7.988 Y4.952
X-8.704 Y3.946
X-8.765 Y3.842
X-9.334 Y2.596
X-9.37 Y2.492
X-9.697 Y1.142
X-9.714 Y0.935
X-9.774 Y-0.312
X-9.77 Y-0.415
X-9.576 Y-1.765
X-9.554 Y-1.869
X-9.441 Y-2.198
X-9.159 Y-3.011
X-9.086 Y-3.219
X-9.026 Y-3.332
X-8.371 Y-4.465
X-8.337 Y-4.517
X-8.296 Y-4.569
X-7.486 Y-5.504
X-7.366 Y-5.636
X-7.275 Y-5.711
X-6.328 Y-6.456
X-6.215 Y-6.542
X-6.121 Y-6.595
X-5.015 Y-7.165
X-4.876 Y-7.231
X-4.668 Y-7.294
X-3.631 Y-7.598
X-3.423 Y-7.649
X-2.179 Y-7.768
X-1.971 Y-7.782
X-1.764 Y-7.763
X-0.726 Y-7.664
X-0.519 Y-7.64
X-0.308 Y-7.58
X0.726 Y-7.277
X0.934 Y-7.207
X1.971 Y-6.672
X2.179 Y-6.564
X2.215 Y-6.542
X2.386 Y-6.41
X3.275 Y-5.711
X3.349 Y-5.651
X3.423 Y-5.576
X4.253 Y-4.618
X4.319 Y-4.542
X4.371 Y-4.465
X4.971 Y-3.427
X5.085 Y-3.219
X5.159 Y-3.011
X5.518 Y-1.973
X5.554 Y-1.869
X5.576 Y-1.765
X5.77 Y-0.415
X5.774 Y-0.312
X5.714 Y0.935
X5.706 Y1.088
X5.697 Y1.142
X5.37 Y2.492
X5.334 Y2.596
X4.765 Y3.842
X4.722 Y3.919
X4.631 Y4.05
X4.039 Y4.881
X3.888 Y5.088
X3.838 Y5.142
X3.009 Y5.933
X2.798 Y6.127
X2.594 Y6.261
X1.974 Y6.658
X1.891 Y6.7 F800
X1.803 Y6.727
X1.735 Y6.735 Z5.404
X1.668 Y6.743 Z5.416
X1.592 Y6.729 Z5.439
X1.521 Y6.716 Z5.473
X1.454 Y6.703 Z5.516
X1.393 Y6.666 Z5.578
X1.341 Y6.635 Z5.651
X1.299 Y6.609 Z5.733
X1.269 Y6.591 Z5.821
X1.254 Y6.577 Z5.91
X1.249 Y6.572 Z6
G0 X-1.237 Y1.862
Z5.9
G3 X-3.729 Y1.029 Z5.8 I-0.763 J-1.862 F600
X-3.272 Y-1.557 Z5.7 I1.728 J-1.028
X-0.65 Y-1.486 Z5.6 I1.27 J1.557
X-0.334 Y1.116 Z5.5 I-1.351 J1.484
X-2.86 Y1.811 Z5.4 I-1.665 J-1.117
X-3.917 Y-0.583 Z5.3 I0.859 J-1.81
X-1.707 Y-1.98 Z5.2 I1.915 J0.583
X-0.002 Y-0.002 Z5.1 I-0.294 J1.978
X-4.002 Y-0.002 I-2 J0
X-0.002 Y-0.002 I2 J0
G1 X0.001 Y0.113 F1300
X0.33 Y0.967
X0.438 Y1.113
X0.536 Y1.296
X0.615 Y1.516
X0.667 Y1.77
X0.683 Y2.055
X0.656 Y2.367
X0.578 Y2.697
X0.443 Y3.038
X0.247 Y3.381
X-0.013 Y3.713
X-0.339 Y4.024
X-0.729 Y4.301
X-1.18 Y4.532
X-1.684 Y4.704
X-2.235 Y4.807
X-2.819 Y4.831
X-3.425 Y4.767
X-4.037 Y4.612
X-4.64 Y4.363
X-5.216 Y4.02
X-5.749 Y3.588
X-6.224 Y3.072
X-6.628 Y2.484
X-6.947 Y1.834
X-7.173 Y1.136
X-7.296 Y0.405
X-7.314 Y-0.342
X-7.223 Y-1.089
X-7.025 Y-1.82
X-6.723 Y-2.517
X-6.321 Y-3.167
X-5.829 Y-3.753
X-5.256 Y-4.264
X-4.615 Y-4.688
X-3.918 Y-5.016
X-3.18 Y-5.241
X-2.416 Y-5.357
X-1.643 Y-5.363
X-0.877 Y-5.257
X-0.134 Y-5.041
X0.571 Y-4.721
X1.223 Y-4.303
X1.808 Y-3.795
X2.405 Y-3.102
X2.913 Y-2.34
X3.374 Y-1.55
X3.757 Y-0.718
X4.038 Y0.153
X4.202 Y1.054
X4.24 Y1.968
X4.148 Y2.879
X3.926 Y3.767
X3.579 Y4.614
X3.116 Y5.404
X2.548 Y6.122
X2.066 Y6.586
X2.037 Y6.612
X2.006 Y6.636
X1.974 Y6.658
X1.764 Y6.794
X1.556 Y6.922
X1.474 Y6.957
X0.311 Y7.423
X0.207 Y7.462
X0.104 Y7.487
X-1.141 Y7.727
X-1.245 Y7.746
X-1.349 Y7.75
X-2.697
X-2.801 Y7.738
X-4.15 Y7.478
X-4.253 Y7.446
X-5.498 Y6.948
X-5.602 Y6.897
X-6.743 Y6.164
X-6.799 Y6.127
X-6.951 Y5.988
X-7.781 Y5.197
X-7.888 Y5.088
X-7.988 Y4.952
X-8.704 Y3.946
X-8.765 Y3.842
X-9.334 Y2.596
X-9.37 Y2.492
X-9.697 Y1.142
X-9.714 Y0.935
X-9.774 Y-0.312
X-9.77 Y-0.415
X-9.576 Y-1.765
X-9.554 Y-1.869
X-9.441 Y-2.198
X-9.159 Y-3.011
X-9.086 Y-3.219
X-9.026 Y-3.332
X-8.371 Y-4.465
X-8.337 Y-4.517
X-8.296 Y-4.569
X-7.486 Y-5.504
X-7.366 Y-5.636
X-7.275 Y-5.711
X-6.328 Y-6.456
X-6.215 Y-6.542
X-6.121 Y-6.595
X-5.015 Y-7.165
X-4.876 Y-7.231
X-4.668 Y-7.294
X-3.631 Y-7.598
X-3.423 Y-7.649
X-2.179 Y-7.768
X-1.971 Y-7.782
X-1.764 Y-7.763
X-0.726 Y-7.664
X-0.519 Y-7.64
X-0.308 Y-7.58
X0.726 Y-7.277
X0.934 Y-7.207
X1.971 Y-6.672
X2.179 Y-6.564
X2.215 Y-6.542
X2.386 Y-6.41
X3.275 Y-5.711
X3.349 Y-5.651
X3.423 Y-5.576
X4.253 Y-4.618
X4.319 Y-4.542
X4.371 Y-4.465
X4.971 Y-3.427
X5.085 Y-3.219
X5.159 Y-3.011
X5.518 Y-1.973
X5.554 Y-1.869
X5.576 Y-1.765
X5.77 Y-0.415
X5.774 Y-0.312
X5.714 Y0.935
X5.706 Y1.088
X5.697 Y1.142
X5.37 Y2.492
X5.334 Y2.596
X4.765 Y3.842
X4.722 Y3.919
X4.631 Y4.05
X4.039 Y4.881
X3.888 Y5.088
X3.838 Y5.142
X3.009 Y5.933
X2.798 Y6.127
X2.594 Y6.261
X1.974 Y6.658
X1.891 Y6.7 F800
X1.803 Y6.727
X1.735 Y6.735 Z5.104
X1.668 Y6.743 Z5.116
X1.592 Y6.729 Z5.139
X1.521 Y6.716 Z5.173
X1.454 Y6.703 Z5.216
X1.393 Y6.666 Z5.278
X1.341 Y6.635 Z5.351
X1.299 Y6.609 Z5.433
X1.269 Y6.591 Z5.521
X1.254 Y6.577 Z5.61
X1.249 Y6.572 Z5.7
G0 X-1.237 Y1.862
Z5.6
G3 X-3.729 Y1.029 Z5.5 I-0.763 J-1.862 F600
X-3.272 Y-1.557 Z5.4 I1.728 J-1.028
X-0.65 Y-1.486 Z5.3 I1.27 J1.557
X-0.334 Y1.116 Z5.2 I-1.351 J1.484
X-2.86 Y1.811 Z5.1 I-1.665 J-1.117
X-3.917 Y-0.583 Z5 I0.859 J-1.81
X-1.707 Y-1.98 Z4.9 I1.915 J0.583
X-0.002 Y-0.002 Z4.8 I-0.294 J1.978
X-4.002 Y-0.002 I-2 J0
X-0.002 Y-0.002 I2 J0
G1 X0.001 Y0.113 F1300
X0.33 Y0.967
X0.438 Y1.113
X0.536 Y1.296
X0.615 Y1.516
X0.667 Y1.77
X0.683 Y2.055
X0.656 Y2.367
X0.578 Y2.697
X0.443 Y3.038
X0.247 Y3.381
X-0.013 Y3.713
X-0.339 Y4.024
X-0.729 Y4.301
X-1.18 Y4.532
X-1.684 Y4.704
X-2.235 Y4.807
X-2.819 Y4.831
X-3.425 Y4.767
X-4.037 Y4.612
X-4.64 Y4.363
X-5.216 Y4.02
X-5.749 Y3.588
X-6.224 Y3.072
X-6.628 Y2.484
X-6.947 Y1.834
X-7.173 Y1.136
X-7.296 Y0.405
X-7.314 Y-0.342
X-7.223 Y-1.089
X-7.025 Y-1.82
X-6.723 Y-2.517
X-6.321 Y-3.167
X-5.829 Y-3.753
X-5.256 Y-4.264
X-4.615 Y-4.688
X-3.918 Y-5.016
X-3.18 Y-5.241
X-2.416 Y-5.357
X-1.643 Y-5.363
X-0.877 Y-5.257
X-0.134 Y-5.041
X0.571 Y-4.721
X1.223 Y-4.303
X1.808 Y-3.795
X2.405 Y-3.102
X2.913 Y-2.34
X3.374 Y-1.55
X3.757 Y-0.718
X4.038 Y0.153
X4.202 Y1.054
X4.24 Y1.968
X4.148 Y2.879
X3.926 Y3.767
X3.579 Y4.614
X3.116 Y5.404
X2.548 Y6.122
X2.066 Y6.586
X2.037 Y6.612
X2.006 Y6.636
X1.974 Y6.658
X1.764 Y6.794
X1.556 Y6.922
X1.474 Y6.957
X0.311 Y7.423
X0.207 Y7.462
X0.104 Y7.487
X-1.141 Y7.727
X-1.245 Y7.746
X-1.349 Y7.75
X-2.697
X-2.801 Y7.738
X-4.15 Y7.478
X-4.253 Y7.446
X-5.498 Y6.948
X-5.602 Y6.897
X-6.743 Y6.164
X-6.799 Y6.127
X-6.951 Y5.988
X-7.781 Y5.197
X-7.888 Y5.088
X-7.988 Y4.952
X-8.704 Y3.946
X-8.765 Y3.842
X-9.334 Y2.596
X-9.37 Y2.492
X-9.697 Y1.142
X-9.714 Y0.935
X-9.774 Y-0.312
X-9.77 Y-0.415
X-9.576 Y-1.765
X-9.554 Y-1.869
X-9.441 Y-2.198
X-9.159 Y-3.011
X-9.086 Y-3.219
X-9.026 Y-3.332
X-8.371 Y-4.465
X-8.337 Y-4.517
X-8.296 Y-4.569
X-7.486 Y-5.504
X-7.366 Y-5.636
X-7.275 Y-5.711
X-6.328 Y-6.456
X-6.215 Y-6.542
X-6.121 Y-6.595
X-5.015 Y-7.165
X-4.876 Y-7.231
X-4.668 Y-7.294
X-3.631 Y-7.598
X-3.423 Y-7.649
X-2.179 Y-7.768
X-1.971 Y-7.782
X-1.764 Y-7.763
X-0.726 Y-7.664
X-0.519 Y-7.64
X-0.308 Y-7.58
X0.726 Y-7.277
X0.934 Y-7.207
X1.971 Y-6.672
X2.179 Y-6.564
X2.215 Y-6.542
X2.386 Y-6.41
X3.275 Y-5.711
X3.349 Y-5.651
X3.423 Y-5.576
X4.253 Y-4.618
X4.319 Y-4.542
X4.371 Y-4.465
X4.971 Y-3.427
X5.085 Y-3.219
X5.159 Y-3.011
X5.518 Y-1.973
X5.554 Y-1.869
X5.576 Y-1.765
X5.77 Y-0.415
X5.774 Y-0.312
X5.714 Y0.935
X5.706 Y1.088
X5.697 Y1.142
X5.37 Y2.492
X5.334 Y2.596
X4.765 Y3.842
X4.722 Y3.919
X4.631 Y4.05
X4.039 Y4.881
X3.888 Y5.088
X3.838 Y5.142
X3.009 Y5.933
X2.798 Y6.127
X2.594 Y6.261
X1.974 Y6.658
X1.891 Y6.7 F800
X1.803 Y6.727
X1.735 Y6.735 Z4.804
X1.668 Y6.743 Z4.816
X1.592 Y6.729 Z4.839
X1.521 Y6.716 Z4.873
X1.454 Y6.703 Z4.916
X1.393 Y6.666 Z4.978
X1.341 Y6.635 Z5.051
X1.299 Y6.609 Z5.133
X1.269 Y6.591 Z5.221
X1.254 Y6.577 Z5.31
X1.249 Y6.572 Z5.4
G0 X-1.237 Y1.862
Z5.3
G3 X-3.729 Y1.029 Z5.2 I-0.763 J-1.862 F600
X-3.272 Y-1.557 Z5.1 I1.728 J-1.028
X-0.65 Y-1.486 Z5 I1.27 J1.557
X-0.334 Y1.116 Z4.9 I-1.351 J1.484
X-2.86 Y1.811 Z4.8 I-1.665 J-1.117
X-3.917 Y-0.583 Z4.7 I0.859 J-1.81
X-1.707 Y-1.98 Z4.6 I1.915 J0.583
X-0.002 Y-0.002 Z4.5 I-0.294 J1.978
X-4.002 Y-0.002 I-2 J0
X-0.002 Y-0.002 I2 J0
G1 X0.001 Y0.113 F1300
X0.33 Y0.967
X0.438 Y1.113
X0.536 Y1.296
X0.615 Y1.516
X0.667 Y1.77
X0.683 Y2.055
X0.656 Y2.367
X0.578 Y2.697
X0.443 Y3.038
X0.247 Y3.381
X-0.013 Y3.713
X-0.339 Y4.024
X-0.729 Y4.301
X-1.18 Y4.532
X-1.684 Y4.704
X-2.235 Y4.807
X-2.819 Y4.831
X-3.425 Y4.767
X-4.037 Y4.612
X-4.64 Y4.363
X-5.216 Y4.02
X-5.749 Y3.588
X-6.224 Y3.072
X-6.628 Y2.484
X-6.947 Y1.834
X-7.173 Y1.136
X-7.296 Y0.405
X-7.314 Y-0.342
X-7.223 Y-1.089
X-7.025 Y-1.82
X-6.723 Y-2.517
X-6.321 Y-3.167
X-5.829 Y-3.753
X-5.256 Y-4.264
X-4.615 Y-4.688
X-3.918 Y-5.016
X-3.18 Y-5.241
X-2.416 Y-5.357
X-1.643 Y-5.363
X-0.877 Y-5.257
X-0.134 Y-5.041
X0.571 Y-4.721
X1.223 Y-4.303
X1.808 Y-3.795
X2.405 Y-3.102
X2.913 Y-2.34
X3.374 Y-1.55
X3.757 Y-0.718
X4.038 Y0.153
X4.202 Y1.054
X4.24 Y1.968
X4.148 Y2.879
X3.926 Y3.767
X3.579 Y4.614
X3.116 Y5.404
X2.548 Y6.122
X2.066 Y6.586
X2.037 Y6.612
X2.006 Y6.636
X1.974 Y6.658
X1.764 Y6.794
X1.556 Y6.922
X1.474 Y6.957
X0.311 Y7.423
X0.207 Y7.462
X0.104 Y7.487
X-1.141 Y7.727
X-1.245 Y7.746
X-1.349 Y7.75
X-2.697
X-2.801 Y7.738
X-4.15 Y7.478
X-4.253 Y7.446
X-5.498 Y6.948
X-5.602 Y6.897
X-6.743 Y6.164
X-6.799 Y6.127
X-6.951 Y5.988
X-7.781 Y5.197
X-7.888 Y5.088
X-7.988 Y4.952
X-8.704 Y3.946
X-8.765 Y3.842
X-9.334 Y2.596
X-9.37 Y2.492
X-9.697 Y1.142
X-9.714 Y0.935
X-9.774 Y-0.312
X-9.77 Y-0.415
X-9.576 Y-1.765
X-9.554 Y-1.869
X-9.441 Y-2.198
X-9.159 Y-3.011
X-9.086 Y-3.219
X-9.026 Y-3.332
X-8.371 Y-4.465
X-8.337 Y-4.517
X-8.296 Y-4.569
X-7.486 Y-5.504
X-7.366 Y-5.636
X-7.275 Y-5.711
X-6.328 Y-6.456
X-6.215 Y-6.542
X-6.121 Y-6.595
X-5.015 Y-7.165
X-4.876 Y-7.231
X-4.668 Y-7.294
X-3.631 Y-7.598
X-3.423 Y-7.649
X-2.179 Y-7.768
X-1.971 Y-7.782
X-1.764 Y-7.763
X-0.726 Y-7.664
X-0.519 Y-7.64
X-0.308 Y-7.58
X0.726 Y-7.277
X0.934 Y-7.207
X1.971 Y-6.672
X2.179 Y-6.564
X2.215 Y-6.542
X2.386 Y-6.41
X3.275 Y-5.711
X3.349 Y-5.651
X3.423 Y-5.576
X4.253 Y-4.618
X4.319 Y-4.542
X4.371 Y-4.465
X4.971 Y-3.427
X5.085 Y-3.219
X5.159 Y-3.011
X5.518 Y-1.973
X5.554 Y-1.869
X5.576 Y-1.765
X5.77 Y-0.415
X5.774 Y-0.312
X5.714 Y0.935
X5.706 Y1.088
X5.697 Y1.142
X5.37 Y2.492
X5.334 Y2.596
X4.765 Y3.842
X4.722 Y3.919
X4.631 Y4.05
X4.039 Y4.881
X3.888 Y5.088
X3.838 Y5.142
X3.009 Y5.933
X2.798 Y6.127
X2.594 Y6.261
X1.974 Y6.658
X1.891 Y6.7 F800
X1.803 Y6.727
X1.735 Y6.735 Z4.504
X1.668 Y6.743 Z4.516
X1.592 Y6.729 Z4.539
X1.521 Y6.716 Z4.573
X1.454 Y6.703 Z4.616
X1.393 Y6.666 Z4.678
X1.341 Y6.635 Z4.751
X1.299 Y6.609 Z4.833
X1.269 Y6.591 Z4.921
X1.254 Y6.577 Z5.01
X1.249 Y6.572 Z5.1
G0 X-1.237 Y1.862
Z5
G3 X-3.729 Y1.029 Z4.9 I-0.763 J-1.862 F600
X-3.272 Y-1.557 Z4.8 I1.728 J-1.028
X-0.65 Y-1.486 Z4.7 I1.27 J1.557
X-0.334 Y1.116 Z4.6 I-1.351 J1.484
X-2.86 Y1.811 Z4.5 I-1.665 J-1.117
X-3.917 Y-0.583 Z4.4 I0.859 J-1.81
X-1.707 Y-1.98 Z4.3 I1.915 J0.583
X-0.002 Y-0.002 Z4.2 I-0.294 J1.978
X-4.002 Y-0.002 I-2 J0
X-0.002 Y-0.002 I2 J0
G1 X0.001 Y0.113 F1300
X0.33 Y0.967
X0.438 Y1.113
X0.536 Y1.296
X0.615 Y1.516
X0.667 Y1.77
X0.683 Y2.055
X0.656 Y2.367
X0.578 Y2.697
X0.443 Y3.038
X0.247 Y3.381
X-0.013 Y3.713
X-0.339 Y4.024
X-0.729 Y4.301
X-1.18 Y4.532
X-1.684 Y4.704
X-2.235 Y4.807
X-2.819 Y4.831
X-3.425 Y4.767
X-4.037 Y4.612
X-4.64 Y4.363
X-5.216 Y4.02
X-5.749 Y3.588
X-6.224 Y3.072
X-6.628 Y2.484
X-6.947 Y1.834
X-7.173 Y1.136
X-7.296 Y0.405
X-7.314 Y-0.342
X-7.223 Y-1.089
X-7.025 Y-1.82
X-6.723 Y-2.517
X-6.321 Y-3.167
X-5.829 Y-3.753
X-5.256 Y-4.264
X-4.615 Y-4.688
X-3.918 Y-5.016
X-3.18 Y-5.241
X-2.416 Y-5.357
X-1.643 Y-5.363
X-0.877 Y-5.257
X-0.134 Y-5.041
X0.571 Y-4.721
X1.223 Y-4.303
X1.808 Y-3.795
X2.405 Y-3.102
X2.913 Y-2.34
X3.374 Y-1.55
X3.757 Y-0.718
X4.038 Y0.153
X4.202 Y1.054
X4.24 Y1.968
X4.148 Y2.879
X3.926 Y3.767
X3.579 Y4.614
X3.116 Y5.404
X2.548 Y6.122
X2.066 Y6.586
X2.037 Y6.612
X2.006 Y6.636
X1.974 Y6.658
X1.764 Y6.794
X1.556 Y6.922
X1.474 Y6.957
X0.311 Y7.423
X0.207 Y7.462
X0.104 Y7.487
X-1.141 Y7.727
X-1.245 Y7.746
X-1.349 Y7.75
X-2.697
X-2.801 Y7.738
X-4.15 Y7.478
X-4.253 Y7.446
X-5.498 Y6.948
X-5.602 Y6.897
X-6.743 Y6.164
X-6.799 Y6.127
X-6.951 Y5.988
X-7.781 Y5.197
X-7.888 Y5.088
X-7.988 Y4.952
X-8.704 Y3.946
X-8.765 Y3.842
X-9.334 Y2.596
X-9.37 Y2.492
X-9.697 Y1.142
X-9.714 Y0.935
X-9.774 Y-0.312
X-9.77 Y-0.415
X-9.576 Y-1.765
X-9.554 Y-1.869
X-9.441 Y-2.198
X-9.159 Y-3.011
X-9.086 Y-3.219
X-9.026 Y-3.332
X-8.371 Y-4.465
X-8.337 Y-4.517
X-8.296 Y-4.569
X-7.486 Y-5.504
X-7.366 Y-5.636
X-7.275 Y-5.711
X-6.328 Y-6.456
X-6.215 Y-6.542
X-6.121 Y-6.595
X-5.015 Y-7.165
X-4.876 Y-7.231
X-4.668 Y-7.294
X-3.631 Y-7.598
X-3.423 Y-7.649
X-2.179 Y-7.768
X-1.971 Y-7.782
X-1.764 Y-7.763
X-0.726 Y-7.664
X-0.519 Y-7.64
X-0.308 Y-7.58
X0.726 Y-7.277
X0.934 Y-7.207
X1.971 Y-6.672
X2.179 Y-6.564
X2.215 Y-6.542
X2.386 Y-6.41
X3.275 Y-5.711
X3.349 Y-5.651
X3.423 Y-5.576
X4.253 Y-4.618
X4.319 Y-4.542
X4.371 Y-4.465
X4.971 Y-3.427
X5.085 Y-3.219
X5.159 Y-3.011
X5.518 Y-1.973
X5.554 Y-1.869
X5.576 Y-1.765
X5.77 Y-0.415
X5.774 Y-0.312
X5.714 Y0.935
X5.706 Y1.088
X5.697 Y1.142
X5.37 Y2.492
X5.334 Y2.596
X4.765 Y3.842
X4.722 Y3.919
X4.631 Y4.05
X4.039 Y4.881
X3.888 Y5.088
X3.838 Y5.142
X3.009 Y5.933
X2.798 Y6.127
X2.594 Y6.261
X1.974 Y6.658
X1.891 Y6.7 F800
X1.803 Y6.727
X1.735 Y6.735 Z4.204
X1.668 Y6.743 Z4.216
X1.592 Y6.729 Z4.239
X1.521 Y6.716 Z4.273
X1.454 Y6.703 Z4.316
X1.393 Y6.666 Z4.378
X1.341 Y6.635 Z4.451
X1.299 Y6.609 Z4.533
X1.269 Y6.591 Z4.621
X1.254 Y6.577 Z4.71
X1.249 Y6.572 Z4.8
G0 X-1.237 Y1.862
Z4.7
G3 X-3.729 Y1.029 Z4.6 I-0.763 J-1.862 F600
X-3.272 Y-1.557 Z4.5 I1.728 J-1.028
X-0.65 Y-1.486 Z4.4 I1.27 J1.557
X-0.334 Y1.116 Z4.3 I-1.351 J1.484
X-2.86 Y1.811 Z4.2 I-1.665 J-1.117
X-3.917 Y-0.583 Z4.1 I0.859 J-1.81
X-1.707 Y-1.98 Z4 I1.915 J0.583
X-0.002 Y-0.002 Z3.9 I-0.294 J1.978
X-4.002 Y-0.002 I-2 J0
X-0.002 Y-0.002 I2 J0
G1 X0.001 Y0.113 F1300
X0.33 Y0.967
X0.438 Y1.113
X0.536 Y1.296
X0.615 Y1.516
X0.667 Y1.77
X0.683 Y2.055
X0.656 Y2.367
X0.578 Y2.697
X0.443 Y3.038
X0.247 Y3.381
X-0.013 Y3.713
X-0.339 Y4.024
X-0.729 Y4.301
X-1.18 Y4.532
X-1.684 Y4.704
X-2.235 Y4.807
X-2.819 Y4.831
X-3.425 Y4.767
X-4.037 Y4.612
X-4.64 Y4.363
X-5.216 Y4.02
X-5.749 Y3.588
X-6.224 Y3.072
X-6.628 Y2.484
X-6.947 Y1.834
X-7.173 Y1.136
X-7.296 Y0.405
X-7.314 Y-0.342
X-7.223 Y-1.089
X-7.025 Y-1.82
X-6.723 Y-2.517
X-6.321 Y-3.167
X-5.829 Y-3.753
X-5.256 Y-4.264
X-4.615 Y-4.688
X-3.918 Y-5.016
X-3.18 Y-5.241
X-2.416 Y-5.357
X-1.643 Y-5.363
X-0.877 Y-5.257
X-0.134 Y-5.041
X0.571 Y-4.721
X1.223 Y-4.303
X1.808 Y-3.795
X2.405 Y-3.102
X2.913 Y-2.34
X3.374 Y-1.55
X3.757 Y-0.718
X4.038 Y0.153
X4.202 Y1.054
X4.24 Y1.968
X4.148 Y2.879
X3.926 Y3.767
X3.579 Y4.614
X3.116 Y5.404
X2.548 Y6.122
X2.066 Y6.586
X2.037 Y6.612
X2.006 Y6.636
X1.974 Y6.658
X1.764 Y6.794
X1.556 Y6.922
X1.474 Y6.957
X0.311 Y7.423
X0.207 Y7.462
X0.104 Y7.487
X-1.141 Y7.727
X-1.245 Y7.746
X-1.349 Y7.75
X-2.697
X-2.801 Y7.738
X-4.15 Y7.478
X-4.253 Y7.446
X-5.498 Y6.948
X-5.602 Y6.897
X-6.743 Y6.164
X-6.799 Y6.127
X-6.951 Y5.988
X-7.781 Y5.197
X-7.888 Y5.088
X-7.988 Y4.952
X-8.704 Y3.946
X-8.765 Y3.842
X-9.334 Y2.596
X-9.37 Y2.492
X-9.697 Y1.142
X-9.714 Y0.935
X-9.774 Y-0.312
X-9.77 Y-0.415
X-9.576 Y-1.765
X-9.554 Y-1.869
X-9.441 Y-2.198
X-9.159 Y-3.011
X-9.086 Y-3.219
X-9.026 Y-3.332
X-8.371 Y-4.465
X-8.337 Y-4.517
X-8.296 Y-4.569
X-7.486 Y-5.504
X-7.366 Y-5.636
X-7.275 Y-5.711
X-6.328 Y-6.456
X-6.215 Y-6.542
X-6.121 Y-6.595
X-5.015 Y-7.165
X-4.876 Y-7.231
X-4.668 Y-7.294
X-3.631 Y-7.598
X-3.423 Y-7.649
X-2.179 Y-7.768
X-1.971 Y-7.782
X-1.764 Y-7.763
X-0.726 Y-7.664
X-0.519 Y-7.64
X-0.308 Y-7.58
X0.726 Y-7.277
X0.934 Y-7.207
X1.971 Y-6.672
X2.179 Y-6.564
X2.215 Y-6.542
X2.386 Y-6.41
X3.275 Y-5.711
X3.349 Y-5.651
X3.423 Y-5.576
X4.253 Y-4.618
X4.319 Y-4.542
X4.371 Y-4.465
X4.971 Y-3.427
X5.085 Y-3.219
X5.159 Y-3.011
X5.518 Y-1.973
X5.554 Y-1.869
X5.576 Y-1.765
X5.77 Y-0.415
X5.774 Y-0.312
X5.714 Y0.935
X5.706 Y1.088
X5.697 Y1.142
X5.37 Y2.492
X5.334 Y2.596
X4.765 Y3.842
X4.722 Y3.919
X4.631 Y4.05
X4.039 Y4.881
X3.888 Y5.088
X3.838 Y5.142
X3.009 Y5.933
X2.798 Y6.127
X2.594 Y6.261
X1.974 Y6.658
X1.891 Y6.7 F800
X1.803 Y6.727
X1.735 Y6.735 Z3.904
X1.668 Y6.743 Z3.916
X1.592 Y6.729 Z3.939
X1.521 Y6.716 Z3.973
X1.454 Y6.703 Z4.016
X1.393 Y6.666 Z4.078
X1.341 Y6.635 Z4.151
X1.299 Y6.609 Z4.233
X1.269 Y6.591 Z4.321
X1.254 Y6.577 Z4.41
X1.249 Y6.572 Z4.5
G0 X-1.237 Y1.862
Z4.4
G3 X-3.729 Y1.029 Z4.3 I-0.763 J-1.862 F600
X-3.272 Y-1.557 Z4.2 I1.728 J-1.028
X-0.65 Y-1.486 Z4.1 I1.27 J1.557
X-0.334 Y1.116 Z4 I-1.351 J1.484
X-2.86 Y1.811 Z3.9 I-1.665 J-1.117
X-3.917 Y-0.583 Z3.8 I0.859 J-1.81
X-1.707 Y-1.98 Z3.7 I1.915 J0.583
X-0.002 Y-0.002 Z3.6 I-0.294 J1.978
X-4.002 Y-0.002 I-2 J0
X-0.002 Y-0.002 I2 J0
G1 X0.001 Y0.113 F1300
X0.33 Y0.967
X0.438 Y1.113
X0.536 Y1.296
X0.615 Y1.516
X0.667 Y1.77
X0.683 Y2.055
X0.656 Y2.367
X0.578 Y2.697
X0.443 Y3.038
X0.247 Y3.381
X-0.013 Y3.713
X-0.339 Y4.024
X-0.729 Y4.301
X-1.18 Y4.532
X-1.684 Y4.704
X-2.235 Y4.807
X-2.819 Y4.831
X-3.425 Y4.767
X-4.037 Y4.612
X-4.64 Y4.363
X-5.216 Y4.02
X-5.749 Y3.588
X-6.224 Y3.072
X-6.628 Y2.484
X-6.947 Y1.834
X-7.173 Y1.136
X-7.296 Y0.405
X-7.314 Y-0.342
X-7.223 Y-1.089
X-7.025 Y-1.82
X-6.723 Y-2.517
X-6.321 Y-3.167
X-5.829 Y-3.753
X-5.256 Y-4.264
X-4.615 Y-4.688
X-3.918 Y-5.016
X-3.18 Y-5.241
X-2.416 Y-5.357
X-1.643 Y-5.363
X-0.877 Y-5.257
X-0.134 Y-5.041
X0.571 Y-4.721
X1.223 Y-4.303
X1.808 Y-3.795
X2.405 Y-3.102
X2.913 Y-2.34
X3.374 Y-1.55
X3.757 Y-0.718
X4.038 Y0.153
X4.202 Y1.054
X4.24 Y1.968
X4.148 Y2.879
X3.926 Y3.767
X3.579 Y4.614
X3.116 Y5.404
X2.548 Y6.122
X2.066 Y6.586
X2.037 Y6.612
X2.006 Y6.636
X1.974 Y6.658
X1.764 Y6.794
X1.556 Y6.922
X1.474 Y6.957
X0.311 Y7.423
X0.207 Y7.462
X0.104 Y7.487
X-1.141 Y7.727
X-1.245 Y7.746
X-1.349 Y7.75
X-2.697
X-2.801 Y7.738
X-4.15 Y7.478
X-4.253 Y7.446
X-5.498 Y6.948
X-5.602 Y6.897
X-6.743 Y6.164
X-6.799 Y6.127
X-6.951 Y5.988
X-7.781 Y5.197
X-7.888 Y5.088
X-7.988 Y4.952
X-8.704 Y3.946
X-8.765 Y3.842
X-9.334 Y2.596
X-9.37 Y2.492
X-9.697 Y1.142
X-9.714 Y0.935
X-9.774 Y-0.312
X-9.77 Y-0.415
X-9.576 Y-1.765
X-9.554 Y-1.869
X-9.441 Y-2.198
X-9.159 Y-3.011
X-9.086 Y-3.219
X-9.026 Y-3.332
X-8.371 Y-4.465
X-8.337 Y-4.517
X-8.296 Y-4.569
X-7.486 Y-5.504
X-7.366 Y-5.636
X-7.275 Y-5.711
X-6.328 Y-6.456
X-6.215 Y-6.542
X-6.121 Y-6.595
X-5.015 Y-7.165
X-4.876 Y-7.231
X-4.668 Y-7.294
X-3.631 Y-7.598
X-3.423 Y-7.649
X-2.179 Y-7.768
X-1.971 Y-7.782
X-1.764 Y-7.763
X-0.726 Y-7.664
X-0.519 Y-7.64
X-0.308 Y-7.58
X0.726 Y-7.277
X0.934 Y-7.207
X1.971 Y-6.672
X2.179 Y-6.564
X2.215 Y-6.542
X2.386 Y-6.41
X3.275 Y-5.711
X3.349 Y-5.651
X3.423 Y-5.576
X4.253 Y-4.618
X4.319 Y-4.542
X4.371 Y-4.465
X4.971 Y-3.427
X5.085 Y-3.219
X5.159 Y-3.011
X5.518 Y-1.973
X5.554 Y-1.869
X5.576 Y-1.765
X5.77 Y-0.415
X5.774 Y-0.312
X5.714 Y0.935
X5.706 Y1.088
X5.697 Y1.142
X5.37 Y2.492
X5.334 Y2.596
X4.765 Y3.842
X4.722 Y3.919
X4.631 Y4.05
X4.039 Y4.881
X3.888 Y5.088
X3.838 Y5.142
X3.009 Y5.933
X2.798 Y6.127
X2.594 Y6.261
X1.974 Y6.658
X1.891 Y6.7 F800
X1.803 Y6.727
X1.735 Y6.735 Z3.604
X1.668 Y6.743 Z3.616
X1.592 Y6.729 Z3.639
X1.521 Y6.716 Z3.673
X1.454 Y6.703 Z3.716
X1.393 Y6.666 Z3.778
X1.341 Y6.635 Z3.851
X1.299 Y6.609 Z3.933
X1.269 Y6.591 Z4.021
X1.254 Y6.577 Z4.11
X1.249 Y6.572 Z4.2
G0 X-1.237 Y1.862
Z4.1
G3 X-3.729 Y1.029 Z4 I-0.763 J-1.862 F600
X-3.272 Y-1.557 Z3.9 I1.728 J-1.028
X-0.65 Y-1.486 Z3.8 I1.27 J1.557
X-0.334 Y1.116 Z3.7 I-1.351 J1.484
X-2.86 Y1.811 Z3.6 I-1.665 J-1.117
X-3.917 Y-0.583 Z3.5 I0.859 J-1.81
X-1.707 Y-1.98 Z3.4 I1.915 J0.583
X-0.002 Y-0.002 Z3.3 I-0.294 J1.978
X-4.002 Y-0.002 I-2 J0
X-0.002 Y-0.002 I2 J0
G1 X0.001 Y0.113 F1300
X0.33 Y0.967
X0.438 Y1.113
X0.536 Y1.296
X0.615 Y1.516
X0.667 Y1.77
X0.683 Y2.055
X0.656 Y2.367
X0.578 Y2.697
X0.443 Y3.038
X0.247 Y3.381
X-0.013 Y3.713
X-0.339 Y4.024
X-0.729 Y4.301
X-1.18 Y4.532
X-1.684 Y4.704
X-2.235 Y4.807
X-2.819 Y4.831
X-3.425 Y4.767
X-4.037 Y4.612
X-4.64 Y4.363
X-5.216 Y4.02
X-5.749 Y3.588
X-6.224 Y3.072
X-6.628 Y2.484
X-6.947 Y1.834
X-7.173 Y1.136
X-7.296 Y0.405
X-7.314 Y-0.342
X-7.223 Y-1.089
X-7.025 Y-1.82
X-6.723 Y-2.517
X-6.321 Y-3.167
X-5.829 Y-3.753
X-5.256 Y-4.264
X-4.615 Y-4.688
X-3.918 Y-5.016
X-3.18 Y-5.241
X-2.416 Y-5.357
X-1.643 Y-5.363
X-0.877 Y-5.257
X-0.134 Y-5.041
X0.571 Y-4.721
X1.223 Y-4.303
X1.808 Y-3.795
X2.405 Y-3.102
X2.913 Y-2.34
X3.374 Y-1.55
X3.757 Y-0.718
X4.038 Y0.153
X4.202 Y1.054
X4.24 Y1.968
X4.148 Y2.879
X3.926 Y3.767
X3.579 Y4.614
X3.116 Y5.404
X2.548 Y6.122
X2.066 Y6.586
X2.037 Y6.612
X2.006 Y6.636
X1.974 Y6.658
X1.764 Y6.794
X1.556 Y6.922
X1.474 Y6.957
X0.311 Y7.423
X0.207 Y7.462
X0.104 Y7.487
X-1.141 Y7.727
X-1.245 Y7.746
X-1.349 Y7.75
X-2.697
X-2.801 Y7.738
X-4.15 Y7.478
X-4.253 Y7.446
X-5.498 Y6.948
X-5.602 Y6.897
X-6.743 Y6.164
X-6.799 Y6.127
X-6.951 Y5.988
X-7.781 Y5.197
X-7.888 Y5.088
X-7.988 Y4.952
X-8.704 Y3.946
X-8.765 Y3.842
X-9.334 Y2.596
X-9.37 Y2.492
X-9.697 Y1.142
X-9.714 Y0.935
X-9.774 Y-0.312
X-9.77 Y-0.415
X-9.576 Y-1.765
X-9.554 Y-1.869
X-9.441 Y-2.198
X-9.159 Y-3.011
X-9.086 Y-3.219
X-9.026 Y-3.332
X-8.371 Y-4.465
X-8.337 Y-4.517
X-8.296 Y-4.569
X-7.486 Y-5.504
X-7.366 Y-5.636
X-7.275 Y-5.711
X-6.328 Y-6.456
X-6.215 Y-6.542
X-6.121 Y-6.595
X-5.015 Y-7.165
X-4.876 Y-7.231
X-4.668 Y-7.294
X-3.631 Y-7.598
X-3.423 Y-7.649
X-2.179 Y-7.768
X-1.971 Y-7.782
X-1.764 Y-7.763
X-0.726 Y-7.664
X-0.519 Y-7.64
X-0.308 Y-7.58
X0.726 Y-7.277
X0.934 Y-7.207
X1.971 Y-6.672
X2.179 Y-6.564
X2.215 Y-6.542
X2.386 Y-6.41
X3.275 Y-5.711
X3.349 Y-5.651
X3.423 Y-5.576
X4.253 Y-4.618
X4.319 Y-4.542
X4.371 Y-4.465
X4.971 Y-3.427
X5.085 Y-3.219
X5.159 Y-3.011
X5.518 Y-1.973
X5.554 Y-1.869
X5.576 Y-1.765
X5.77 Y-0.415
X5.774 Y-0.312
X5.714 Y0.935
X5.706 Y1.088
X5.697 Y1.142
X5.37 Y2.492
X5.334 Y2.596
X4.765 Y3.842
X4.722 Y3.919
X4.631 Y4.05
X4.039 Y4.881
X3.888 Y5.088
X3.838 Y5.142
X3.009 Y5.933
X2.798 Y6.127
X2.594 Y6.261
X1.974 Y6.658
X1.891 Y6.7 F800
X1.803 Y6.727
X1.735 Y6.735 Z3.304
X1.668 Y6.743 Z3.316
X1.592 Y6.729 Z3.339
X1.521 Y6.716 Z3.373
X1.454 Y6.703 Z3.416
X1.393 Y6.666 Z3.478
X1.341 Y6.635 Z3.551
X1.299 Y6.609 Z3.633
X1.269 Y6.591 Z3.721
X1.254 Y6.577 Z3.81
X1.249 Y6.572 Z3.9
G0 X-1.237 Y1.862
Z3.8
G3 X-3.729 Y1.028 Z3.7 I-0.763 J-1.862 F600
X-3.272 Y-1.557 Z3.6 I1.728 J-1.028
X-0.65 Y-1.486 Z3.5 I1.27 J1.557
X-0.334 Y1.116 Z3.4 I-1.352 J1.484
X-2.86 Y1.811 Z3.3 I-1.665 J-1.117
X-3.917 Y-0.583 Z3.2 I0.859 J-1.81
X-1.707 Y-1.98 Z3.1 I1.915 J0.583
X-0.002 Y-0.002 Z3 I-0.294 J1.978
X-4.002 Y-0.002 I-2 J0
X-0.002 Y-0.002 I2 J0
G1 X0.001 Y0.113 F1300
X0.33 Y0.967
X0.438 Y1.113
X0.536 Y1.296
X0.615 Y1.516
X0.667 Y1.77
X0.683 Y2.055
X0.656 Y2.367
X0.578 Y2.697
X0.443 Y3.038
X0.247 Y3.381
X-0.013 Y3.713
X-0.339 Y4.024
X-0.729 Y4.301
X-1.18 Y4.532
X-1.684 Y4.704
X-2.235 Y4.807
X-2.819 Y4.831
X-3.425 Y4.767
X-4.037 Y4.612
X-4.64 Y4.363
X-5.216 Y4.02
X-5.749 Y3.588
X-6.224 Y3.072
X-6.628 Y2.484
X-6.947 Y1.834
X-7.173 Y1.136
X-7.296 Y0.405
X-7.314 Y-0.342
X-7.223 Y-1.089
X-7.025 Y-1.82
X-6.723 Y-2.517
X-6.321 Y-3.167
X-5.829 Y-3.753
X-5.256 Y-4.264
X-4.615 Y-4.688
X-3.918 Y-5.016
X-3.18 Y-5.241
X-2.416 Y-5.357
X-1.643 Y-5.363
X-0.877 Y-5.257
X-0.134 Y-5.041
X0.571 Y-4.721
X1.223 Y-4.303
X1.808 Y-3.795
X2.405 Y-3.102
X2.913 Y-2.34
X3.374 Y-1.55
X3.757 Y-0.718
X4.038 Y0.153
X4.202 Y1.054
X4.24 Y1.968
X4.148 Y2.879
X3.926 Y3.767
X3.579 Y4.614
X3.116 Y5.404
X2.548 Y6.122
X2.066 Y6.586
X2.037 Y6.612
X2.006 Y6.636
X1.974 Y6.658
X1.764 Y6.794
X1.556 Y6.922
X1.474 Y6.957
X0.311 Y7.423
X0.207 Y7.462
X0.104 Y7.487
X-1.141 Y7.727
X-1.245 Y7.746
X-1.349 Y7.75
X-2.697
X-2.801 Y7.738
X-4.15 Y7.478
X-4.253 Y7.446
X-5.498 Y6.948
X-5.602 Y6.897
X-6.743 Y6.164
X-6.799 Y6.127
X-6.951 Y5.988
X-7.781 Y5.197
X-7.888 Y5.088
X-7.988 Y4.952
X-8.704 Y3.946
X-8.765 Y3.842
X-9.334 Y2.596
X-9.37 Y2.492
X-9.697 Y1.142
X-9.714 Y0.935
X-9.774 Y-0.312
X-9.77 Y-0.415
X-9.576 Y-1.765
X-9.554 Y-1.869
X-9.441 Y-2.198
X-9.159 Y-3.011
X-9.086 Y-3.219
X-9.026 Y-3.332
X-8.371 Y-4.465
X-8.337 Y-4.517
X-8.296 Y-4.569
X-7.486 Y-5.504
X-7.366 Y-5.636
X-7.275 Y-5.711
X-6.328 Y-6.456
X-6.215 Y-6.542
X-6.121 Y-6.595
X-5.015 Y-7.165
X-4.876 Y-7.231
X-4.668 Y-7.294
X-3.631 Y-7.598
X-3.423 Y-7.649
X-2.179 Y-7.768
X-1.971 Y-7.782
X-1.764 Y-7.763
X-0.726 Y-7.664
X-0.519 Y-7.64
X-0.308 Y-7.58
X0.726 Y-7.277
X0.934 Y-7.207
X1.971 Y-6.672
X2.179 Y-6.564
X2.215 Y-6.542
X2.386 Y-6.41
X3.275 Y-5.711
X3.349 Y-5.651
X3.423 Y-5.576
X4.253 Y-4.618
X4.319 Y-4.542
X4.371 Y-4.465
X4.971 Y-3.427
X5.085 Y-3.219
X5.159 Y-3.011
X5.518 Y-1.973
X5.554 Y-1.869
X5.576 Y-1.765
X5.77 Y-0.415
X5.774 Y-0.312
X5.714 Y0.935
X5.706 Y1.088
X5.697 Y1.142
X5.37 Y2.492
X5.334 Y2.596
X4.765 Y3.842
X4.722 Y3.919
X4.631 Y4.05
X4.039 Y4.881
X3.888 Y5.088
X3.838 Y5.142
X3.009 Y5.933
X2.798 Y6.127
X2.594 Y6.261
X1.974 Y6.658
X1.891 Y6.7 F800
X1.803 Y6.727
X1.735 Y6.735 Z3.004
X1.668 Y6.743 Z3.016
X1.592 Y6.729 Z3.039
X1.521 Y6.716 Z3.073
X1.454 Y6.703 Z3.116
X1.393 Y6.666 Z3.178
X1.341 Y6.635 Z3.251
X1.299 Y6.609 Z3.333
X1.269 Y6.591 Z3.421
X1.254 Y6.577 Z3.51
X1.249 Y6.572 Z3.6
G0 X-3.178 Y-0.97
Z3.5
G3 X-1.114 Y-1.241 Z3.42 I1.177 J0.97 F600
X-0.701 Y0.797 Z3.34 I-0.885 J1.24
X-2.704 Y1.348 Z3.26 I-1.297 J-0.797
X-3.392 Y-0.61 Z3.18 I0.705 J-1.348
X-1.487 Y-1.43 Z3.1 I1.392 J0.61
X-0.538 Y0.412 Z3.02 I-0.513 J1.429
X-2.309 Y1.484 Z2.94 I-1.46 J-0.413
X-3.5 Y-0.207 Z2.86 I0.311 J-1.483
X-1.896 Y-1.51 Z2.78 I1.5 J0.208
X-0.487 Y-0.001 Z2.7 I-0.104 J1.509
X-3.512 Y-0.001 I-1.513 J0
X-0.487 Y-0.001 I1.513 J0
G1 X-0.484 Y0.105 F1300
X-0.445 Y0.215
X-0.362 Y0.364
X-0.342 Y0.533
X-0.387 Y0.697
X-0.402 Y0.727
X-0.519 Y0.952
X-0.582 Y1.047
X-0.668 Y1.142
X-0.726 Y1.205
X-0.866 Y1.35
X-0.934 Y1.403
X-1.187 Y1.558
X-1.268 Y1.604
X-1.349 Y1.638
X-1.556 Y1.697
X-1.764 Y1.748
X-1.971 Y1.753
X-2.179
X-2.282 Y1.74
X-2.386 Y1.713
X-2.594 Y1.655
X-2.697 Y1.62
X-2.801 Y1.565
X-3.009 Y1.439
X-3.134 Y1.35
X-3.216 Y1.267
X-3.332 Y1.142
X-3.423 Y1.041
X-3.461 Y0.988
X-3.491 Y0.935
X-3.631 Y0.663
X-3.662 Y0.591
X-3.683 Y0.519
X-3.726 Y0.312
X-3.761 Y0.104
X-3.75 Y-0.104
X-3.735 Y-0.312
X-3.726 Y-0.363
X-3.712 Y-0.415
X-3.603 Y-0.727
X-3.556 Y-0.831
X-3.487 Y-0.935
X-3.34 Y-1.142
X-3.286 Y-1.207
X-3.216 Y-1.271
X-3.009 Y-1.44
X-2.912 Y-1.51
X-2.815 Y-1.558
X-2.594 Y-1.654
X-2.49 Y-1.695
X-2.386 Y-1.717
X-2.075 Y-1.76
X-1.971 Y-1.763
X-1.764 Y-1.737
X-1.556 Y-1.706
X-1.452 Y-1.674
X-1.141 Y-1.538
X-1.089 Y-1.51
X-1.037 Y-1.476
X-0.881 Y-1.35
X-0.726 Y-1.219
X-0.66 Y-1.142
X-0.513 Y-0.935
X-0.444 Y-0.831
X-0.418 Y-0.779
X-0.397 Y-0.727
X-0.311 Y-0.484
X-0.282 Y-0.398
X-0.265 Y-0.312
X-0.25 Y-0.104
X-0.239 Y0.104
X-0.274 Y0.312
X-0.317 Y0.519
X-0.35 Y0.623
X-0.387 Y0.697
X-0.437 Y0.775 F800
X-0.499 Y0.844
X-0.56 Y0.885 Z2.705
X-0.621 Y0.925 Z2.718
X-0.68 Y0.964 Z2.741
X-0.757 Y0.981 Z2.779
X-0.828 Y0.997 Z2.829
X-0.891 Y1.011 Z2.888
X-0.915 Y1.012 Z2.915
X-0.963 Y1.006 Z2.982
X-1.002 Y1.001 Z3.056
X-1.031 Y0.998 Z3.135
X-1.048 Y0.996 Z3.216
X-1.054 Y0.995 Z3.3
G0 X-3.178 Y-0.97
Z3.2
G3 X-1.114 Y-1.241 Z3.12 I1.177 J0.97 F600
X-0.701 Y0.797 Z3.04 I-0.885 J1.24
X-2.704 Y1.348 Z2.96 I-1.297 J-0.797
X-3.392 Y-0.61 Z2.88 I0.705 J-1.348
X-1.487 Y-1.43 Z2.8 I1.392 J0.61
X-0.538 Y0.412 Z2.72 I-0.513 J1.429
X-2.309 Y1.484 Z2.64 I-1.46 J-0.413
X-3.5 Y-0.207 Z2.56 I0.311 J-1.483
X-1.896 Y-1.51 Z2.48 I1.5 J0.208
X-0.487 Y-0.001 Z2.4 I-0.104 J1.509
X-3.512 Y-0.001 I-1.513 J0
X-0.487 Y-0.001 I1.513 J0
G1 X-0.484 Y0.105 F1300
X-0.445 Y0.215
X-0.362 Y0.364
X-0.342 Y0.533
X-0.387 Y0.697
X-0.402 Y0.727
X-0.519 Y0.952
X-0.582 Y1.047
X-0.668 Y1.142
X-0.726 Y1.205
X-0.866 Y1.35
X-0.934 Y1.403
X-1.187 Y1.558
X-1.268 Y1.604
X-1.349 Y1.638
X-1.556 Y1.697
X-1.764 Y1.748
X-1.971 Y1.753
X-2.179
X-2.282 Y1.74
X-2.386 Y1.713
X-2.594 Y1.655
X-2.697 Y1.62
X-2.801 Y1.565
X-3.009 Y1.439
X-3.134 Y1.35
X-3.216 Y1.267
X-3.332 Y1.142
X-3.423 Y1.041
X-3.461 Y0.988
X-3.491 Y0.935
X-3.631 Y0.663
X-3.662 Y0.591
X-3.683 Y0.519
X-3.726 Y0.312
X-3.761 Y0.104
X-3.75 Y-0.104
X-3.735 Y-0.312
X-3.726 Y-0.363
X-3.712 Y-0.415
X-3.603 Y-0.727
X-3.556 Y-0.831
X-3.487 Y-0.935
X-3.34 Y-1.142
X-3.286 Y-1.207
X-3.216 Y-1.271
X-3.009 Y-1.44
X-2.912 Y-1.51
X-2.815 Y-1.558
X-2.594 Y-1.654
X-2.49 Y-1.695
X-2.386 Y-1.717
X-2.075 Y-1.76
X-1.971 Y-1.763
X-1.764 Y-1.737
X-1.556 Y-1.706
X-1.452 Y-1.674
X-1.141 Y-1.538
X-1.089 Y-1.51
X-1.037 Y-1.476
X-0.881 Y-1.35
X-0.726 Y-1.219
X-0.66 Y-1.142
X-0.513 Y-0.935
X-0.444 Y-0.831
X-0.418 Y-0.779
X-0.397 Y-0.727
X-0.311 Y-0.484
X-0.282 Y-0.398
X-0.265 Y-0.312
X-0.25 Y-0.104
X-0.239 Y0.104
X-0.274 Y0.312
X-0.317 Y0.519
X-0.35 Y0.623
X-0.387 Y0.697
X-0.437 Y0.775 F800
X-0.499 Y0.844
X-0.56 Y0.885 Z2.405
X-0.621 Y0.925 Z2.418
X-0.68 Y0.964 Z2.441
X-0.757 Y0.981 Z2.479
X-0.828 Y0.997 Z2.529
X-0.891 Y1.011 Z2.588
X-0.915 Y1.012 Z2.615
X-0.963 Y1.006 Z2.682
X-1.002 Y1.001 Z2.756
X-1.031 Y0.998 Z2.835
X-1.048 Y0.996 Z2.916
X-1.054 Y0.995 Z3
G0 X-3.178 Y-0.97
Z2.9
G3 X-1.114 Y-1.241 Z2.82 I1.177 J0.97 F600
X-0.701 Y0.797 Z2.74 I-0.885 J1.24
X-2.704 Y1.348 Z2.66 I-1.297 J-0.797
X-3.392 Y-0.61 Z2.58 I0.705 J-1.348
X-1.487 Y-1.43 Z2.5 I1.392 J0.61
X-0.538 Y0.412 Z2.42 I-0.513 J1.429
X-2.309 Y1.484 Z2.34 I-1.46 J-0.413
X-3.5 Y-0.207 Z2.26 I0.311 J-1.483
X-1.896 Y-1.51 Z2.18 I1.5 J0.208
X-0.487 Y-0.001 Z2.1 I-0.104 J1.509
X-3.512 Y-0.001 I-1.513 J0
X-0.487 Y-0.001 I1.513 J0
G1 X-0.484 Y0.105 F1300
X-0.445 Y0.215
X-0.362 Y0.364
X-0.342 Y0.533
X-0.387 Y0.697
X-0.402 Y0.727
X-0.519 Y0.952
X-0.582 Y1.047
X-0.668 Y1.142
X-0.726 Y1.205
X-0.866 Y1.35
X-0.934 Y1.403
X-1.187 Y1.558
X-1.268 Y1.604
X-1.349 Y1.638
X-1.556 Y1.697
X-1.764 Y1.748
X-1.971 Y1.753
X-2.179
X-2.282 Y1.74
X-2.386 Y1.713
X-2.594 Y1.655
X-2.697 Y1.62
X-2.801 Y1.565
X-3.009 Y1.439
X-3.134 Y1.35
X-3.216 Y1.267
X-3.332 Y1.142
X-3.423 Y1.041
X-3.461 Y0.988
X-3.491 Y0.935
X-3.631 Y0.663
X-3.662 Y0.591
X-3.683 Y0.519
X-3.726 Y0.312
X-3.761 Y0.104
X-3.75 Y-0.104
X-3.735 Y-0.312
X-3.726 Y-0.363
X-3.712 Y-0.415
X-3.603 Y-0.727
X-3.556 Y-0.831
X-3.487 Y-0.935
X-3.34 Y-1.142
X-3.286 Y-1.207
X-3.216 Y-1.271
X-3.009 Y-1.44
X-2.912 Y-1.51
X-2.815 Y-1.558
X-2.594 Y-1.654
X-2.49 Y-1.695
X-2.386 Y-1.717
X-2.075 Y-1.76
X-1.971 Y-1.763
X-1.764 Y-1.737
X-1.556 Y-1.706
X-1.452 Y-1.674
X-1.141 Y-1.538
X-1.089 Y-1.51
X-1.037 Y-1.476
X-0.881 Y-1.35
X-0.726 Y-1.219
X-0.66 Y-1.142
X-0.513 Y-0.935
X-0.444 Y-0.831
X-0.418 Y-0.779
X-0.397 Y-0.727
X-0.311 Y-0.484
X-0.282 Y-0.398
X-0.265 Y-0.312
X-0.25 Y-0.104
X-0.239 Y0.104
X-0.274 Y0.312
X-0.317 Y0.519
X-0.35 Y0.623
X-0.387 Y0.697
X-0.437 Y0.775 F800
X-0.499 Y0.844
X-0.56 Y0.885 Z2.105
X-0.621 Y0.925 Z2.118
X-0.68 Y0.964 Z2.141
X-0.757 Y0.981 Z2.179
X-0.828 Y0.997 Z2.229
X-0.891 Y1.011 Z2.288
X-0.915 Y1.012 Z2.315
X-0.963 Y1.006 Z2.382
X-1.002 Y1.001 Z2.456
X-1.031 Y0.998 Z2.535
X-1.048 Y0.996 Z2.616
X-1.054 Y0.995 Z2.7
G0 X-3.178 Y-0.97
Z2.6
G3 X-1.114 Y-1.241 Z2.52 I1.177 J0.97 F600
X-0.701 Y0.797 Z2.44 I-0.885 J1.24
X-2.704 Y1.348 Z2.36 I-1.297 J-0.797
X-3.392 Y-0.61 Z2.28 I0.705 J-1.348
X-1.487 Y-1.43 Z2.2 I1.392 J0.61
X-0.538 Y0.412 Z2.12 I-0.513 J1.429
X-2.309 Y1.484 Z2.04 I-1.46 J-0.413
X-3.5 Y-0.207 Z1.96 I0.311 J-1.483
X-1.896 Y-1.51 Z1.88 I1.5 J0.208
X-0.487 Y-0.001 Z1.8 I-0.104 J1.509
X-3.512 Y-0.001 I-1.513 J0
X-0.487 Y-0.001 I1.513 J0
G1 X-0.484 Y0.105 F1300
X-0.445 Y0.215
X-0.362 Y0.364
X-0.342 Y0.533
X-0.387 Y0.697
X-0.402 Y0.727
X-0.519 Y0.952
X-0.582 Y1.047
X-0.668 Y1.142
X-0.726 Y1.205
X-0.866 Y1.35
X-0.934 Y1.403
X-1.187 Y1.558
X-1.268 Y1.604
X-1.349 Y1.638
X-1.556 Y1.697
X-1.764 Y1.748
X-1.971 Y1.753
X-2.179
X-2.282 Y1.74
X-2.386 Y1.713
X-2.594 Y1.655
X-2.697 Y1.62
X-2.801 Y1.565
X-3.009 Y1.439
X-3.134 Y1.35
X-3.216 Y1.267
X-3.332 Y1.142
X-3.423 Y1.041
X-3.461 Y0.988
X-3.491 Y0.935
X-3.631 Y0.663
X-3.662 Y0.591
X-3.683 Y0.519
X-3.726 Y0.312
X-3.761 Y0.104
X-3.75 Y-0.104
X-3.735 Y-0.312
X-3.726 Y-0.363
X-3.712 Y-0.415
X-3.603 Y-0.727
X-3.556 Y-0.831
X-3.487 Y-0.935
X-3.34 Y-1.142
X-3.286 Y-1.207
X-3.216 Y-1.271
X-3.009 Y-1.44
X-2.912 Y-1.51
X-2.815 Y-1.558
X-2.594 Y-1.654
X-2.49 Y-1.695
X-2.386 Y-1.717
X-2.075 Y-1.76
X-1.971 Y-1.763
X-1.764 Y-1.737
X-1.556 Y-1.706
X-1.452 Y-1.674
X-1.141 Y-1.538
X-1.089 Y-1.51
X-1.037 Y-1.476
X-0.881 Y-1.35
X-0.726 Y-1.219
X-0.66 Y-1.142
X-0.513 Y-0.935
X-0.444 Y-0.831
X-0.418 Y-0.779
X-0.397 Y-0.727
X-0.311 Y-0.484
X-0.282 Y-0.398
X-0.265 Y-0.312
X-0.25 Y-0.104
X-0.239 Y0.104
X-0.274 Y0.312
X-0.317 Y0.519
X-0.35 Y0.623
X-0.387 Y0.697
X-0.437 Y0.775 F800
X-0.499 Y0.844
X-0.56 Y0.885 Z1.805
X-0.621 Y0.925 Z1.818
X-0.68 Y0.964 Z1.841
X-0.757 Y0.981 Z1.879
X-0.828 Y0.997 Z1.929
X-0.891 Y1.011 Z1.988
X-0.915 Y1.012 Z2.015
X-0.963 Y1.006 Z2.082
X-1.002 Y1.001 Z2.156
X-1.031 Y0.998 Z2.235
X-1.048 Y0.996 Z2.316
X-1.054 Y0.995 Z2.4
G0 X-3.178 Y-0.97
Z2.3
G3 X-1.114 Y-1.241 Z2.22 I1.177 J0.97 F600
X-0.701 Y0.797 Z2.14 I-0.885 J1.24
X-2.704 Y1.348 Z2.06 I-1.297 J-0.797
X-3.392 Y-0.61 Z1.98 I0.705 J-1.348
X-1.487 Y-1.43 Z1.9 I1.392 J0.61
X-0.538 Y0.412 Z1.82 I-0.513 J1.429
X-2.309 Y1.484 Z1.74 I-1.46 J-0.413
X-3.5 Y-0.207 Z1.66 I0.311 J-1.483
X-1.896 Y-1.51 Z1.58 I1.5 J0.208
X-0.487 Y-0.001 Z1.5 I-0.104 J1.509
X-3.512 Y-0.001 I-1.513 J0
X-0.487 Y-0.001 I1.513 J0
G1 X-0.484 Y0.105 F1300
X-0.445 Y0.215
X-0.362 Y0.364
X-0.342 Y0.533
X-0.387 Y0.697
X-0.402 Y0.727
X-0.519 Y0.952
X-0.582 Y1.047
X-0.668 Y1.142
X-0.726 Y1.205
X-0.866 Y1.35
X-0.934 Y1.403
X-1.187 Y1.558
X-1.268 Y1.604
X-1.349 Y1.638
X-1.556 Y1.697
X-1.764 Y1.748
X-1.971 Y1.753
X-2.179
X-2.282 Y1.74
X-2.386 Y1.713
X-2.594 Y1.655
X-2.697 Y1.62
X-2.801 Y1.565
X-3.009 Y1.439
X-3.134 Y1.35
X-3.216 Y1.267
X-3.332 Y1.142
X-3.423 Y1.041
X-3.461 Y0.988
X-3.491 Y0.935
X-3.631 Y0.663
X-3.662 Y0.591
X-3.683 Y0.519
X-3.726 Y0.312
X-3.761 Y0.104
X-3.75 Y-0.104
X-3.735 Y-0.312
X-3.726 Y-0.363
X-3.712 Y-0.415
X-3.603 Y-0.727
X-3.556 Y-0.831
X-3.487 Y-0.935
X-3.34 Y-1.142
X-3.286 Y-1.207
X-3.216 Y-1.271
X-3.009 Y-1.44
X-2.912 Y-1.51
X-2.815 Y-1.558
X-2.594 Y-1.654
X-2.49 Y-1.695
X-2.386 Y-1.717
X-2.075 Y-1.76
X-1.971 Y-1.763
X-1.764 Y-1.737
X-1.556 Y-1.706
X-1.452 Y-1.674
X-1.141 Y-1.538
X-1.089 Y-1.51
X-1.037 Y-1.476
X-0.881 Y-1.35
X-0.726 Y-1.219
X-0.66 Y-1.142
X-0.513 Y-0.935
X-0.444 Y-0.831
X-0.418 Y-0.779
X-0.397 Y-0.727
X-0.311 Y-0.484
X-0.282 Y-0.398
X-0.265 Y-0.312
X-0.25 Y-0.104
X-0.239 Y0.104
X-0.274 Y0.312
X-0.317 Y0.519
X-0.35 Y0.623
X-0.387 Y0.697
X-0.437 Y0.775 F800
X-0.499 Y0.844
X-0.56 Y0.885 Z1.505
X-0.621 Y0.925 Z1.518
X-0.68 Y0.964 Z1.541
X-0.757 Y0.981 Z1.579
X-0.828 Y0.997 Z1.629
X-0.891 Y1.011 Z1.688
X-0.915 Y1.012 Z1.715
X-0.963 Y1.006 Z1.782
X-1.002 Y1.001 Z1.856
X-1.031 Y0.998 Z1.935
X-1.048 Y0.996 Z2.016
X-1.054 Y0.995 Z2.1
G0 X-3.178 Y-0.97
Z2
G3 X-1.114 Y-1.241 Z1.92 I1.177 J0.97 F600
X-0.701 Y0.797 Z1.84 I-0.885 J1.24
X-2.704 Y1.348 Z1.76 I-1.297 J-0.797
X-3.392 Y-0.61 Z1.68 I0.705 J-1.348
X-1.487 Y-1.43 Z1.6 I1.392 J0.61
X-0.538 Y0.412 Z1.52 I-0.513 J1.429
X-2.309 Y1.484 Z1.44 I-1.46 J-0.413
X-3.5 Y-0.207 Z1.36 I0.311 J-1.483
X-1.896 Y-1.51 Z1.28 I1.5 J0.208
X-0.487 Y-0.001 Z1.2 I-0.104 J1.509
X-3.512 Y-0.001 I-1.513 J0
X-0.487 Y-0.001 I1.513 J0
G1 X-0.484 Y0.105 F1300
X-0.445 Y0.215
X-0.362 Y0.364
X-0.342 Y0.533
X-0.387 Y0.697
X-0.402 Y0.727
X-0.519 Y0.952
X-0.582 Y1.047
X-0.668 Y1.142
X-0.726 Y1.205
X-0.866 Y1.35
X-0.934 Y1.403
X-1.187 Y1.558
X-1.268 Y1.604
X-1.349 Y1.638
X-1.556 Y1.697
X-1.764 Y1.748
X-1.971 Y1.753
X-2.179
X-2.282 Y1.74
X-2.386 Y1.713
X-2.594 Y1.655
X-2.697 Y1.62
X-2.801 Y1.565
X-3.009 Y1.439
X-3.134 Y1.35
X-3.216 Y1.267
X-3.332 Y1.142
X-3.423 Y1.041
X-3.461 Y0.988
X-3.491 Y0.935
X-3.631 Y0.663
X-3.662 Y0.591
X-3.683 Y0.519
X-3.726 Y0.312
X-3.761 Y0.104
X-3.75 Y-0.104
X-3.735 Y-0.312
X-3.726 Y-0.363
X-3.712 Y-0.415
X-3.603 Y-0.727
X-3.556 Y-0.831
X-3.487 Y-0.935
X-3.34 Y-1.142
X-3.286 Y-1.207
X-3.216 Y-1.271
X-3.009 Y-1.44
X-2.912 Y-1.51
X-2.815 Y-1.558
X-2.594 Y-1.654
X-2.49 Y-1.695
X-2.386 Y-1.717
X-2.075 Y-1.76
X-1.971 Y-1.763
X-1.764 Y-1.737
X-1.556 Y-1.706
X-1.452 Y-1.674
X-1.141 Y-1.538
X-1.089 Y-1.51
X-1.037 Y-1.476
X-0.881 Y-1.35
X-0.726 Y-1.219
X-0.66 Y-1.142
X-0.513 Y-0.935
X-0.444 Y-0.831
X-0.418 Y-0.779
X-0.397 Y-0.727
X-0.311 Y-0.484
X-0.282 Y-0.398
X-0.265 Y-0.312
X-0.25 Y-0.104
X-0.239 Y0.104
X-0.274 Y0.312
X-0.317 Y0.519
X-0.35 Y0.623
X-0.387 Y0.697
X-0.437 Y0.775 F800
X-0.499 Y0.844
X-0.56 Y0.885 Z1.205
X-0.621 Y0.925 Z1.218
X-0.68 Y0.964 Z1.241
X-0.757 Y0.981 Z1.279
X-0.828 Y0.997 Z1.329
X-0.891 Y1.011 Z1.388
X-0.915 Y1.012 Z1.415
X-0.963 Y1.006 Z1.482
X-1.002 Y1.001 Z1.556
X-1.031 Y0.998 Z1.635
X-1.048 Y0.996 Z1.716
X-1.054 Y0.995 Z1.8
G0 X-3.178 Y-0.97
Z1.7
G3 X-1.114 Y-1.241 Z1.62 I1.177 J0.97 F600
X-0.701 Y0.797 Z1.54 I-0.885 J1.24
X-2.704 Y1.348 Z1.46 I-1.297 J-0.797
X-3.392 Y-0.61 Z1.38 I0.705 J-1.348
X-1.487 Y-1.43 Z1.3 I1.392 J0.61
X-0.538 Y0.412 Z1.22 I-0.513 J1.429
X-2.309 Y1.484 Z1.14 I-1.46 J-0.413
X-3.5 Y-0.207 Z1.06 I0.311 J-1.483
X-1.896 Y-1.51 Z0.98 I1.5 J0.208
X-0.487 Y-0.001 Z0.9 I-0.104 J1.509
X-3.512 Y-0.001 I-1.513 J0
X-0.487 Y-0.001 I1.513 J0
G1 X-0.484 Y0.105 F1300
X-0.445 Y0.215
X-0.362 Y0.364
X-0.342 Y0.533
X-0.387 Y0.697
X-0.402 Y0.727
X-0.519 Y0.952
X-0.582 Y1.047
X-0.668 Y1.142
X-0.726 Y1.205
X-0.866 Y1.35
X-0.934 Y1.403
X-1.187 Y1.558
X-1.268 Y1.604
X-1.349 Y1.638
X-1.556 Y1.697
X-1.764 Y1.748
X-1.971 Y1.753
X-2.179
X-2.282 Y1.74
X-2.386 Y1.713
X-2.594 Y1.655
X-2.697 Y1.62
X-2.801 Y1.565
X-3.009 Y1.439
X-3.134 Y1.35
X-3.216 Y1.267
X-3.332 Y1.142
X-3.423 Y1.041
X-3.461 Y0.988
X-3.491 Y0.935
X-3.631 Y0.663
X-3.662 Y0.591
X-3.683 Y0.519
X-3.726 Y0.312
X-3.761 Y0.104
X-3.75 Y-0.104
X-3.735 Y-0.312
X-3.726 Y-0.363
X-3.712 Y-0.415
X-3.603 Y-0.727
X-3.556 Y-0.831
X-3.487 Y-0.935
X-3.34 Y-1.142
X-3.286 Y-1.207
X-3.216 Y-1.271
X-3.009 Y-1.44
X-2.912 Y-1.51
X-2.815 Y-1.558
X-2.594 Y-1.654
X-2.49 Y-1.695
X-2.386 Y-1.717
X-2.075 Y-1.76
X-1.971 Y-1.763
X-1.764 Y-1.737
X-1.556 Y-1.706
X-1.452 Y-1.674
X-1.141 Y-1.538
X-1.089 Y-1.51
X-1.037 Y-1.476
X-0.881 Y-1.35
X-0.726 Y-1.219
X-0.66 Y-1.142
X-0.513 Y-0.935
X-0.444 Y-0.831
X-0.418 Y-0.779
X-0.397 Y-0.727
X-0.311 Y-0.484
X-0.282 Y-0.398
X-0.265 Y-0.312
X-0.25 Y-0.104
X-0.239 Y0.104
X-0.274 Y0.312
X-0.317 Y0.519
X-0.35 Y0.623
X-0.387 Y0.697
X-0.437 Y0.775 F800
X-0.499 Y0.844
X-0.56 Y0.885 Z0.905
X-0.621 Y0.925 Z0.918
X-0.68 Y0.964 Z0.941
X-0.757 Y0.981 Z0.979
X-0.828 Y0.997 Z1.029
X-0.891 Y1.011 Z1.088
X-0.915 Y1.012 Z1.115
X-0.963 Y1.006 Z1.182
X-1.002 Y1.001 Z1.256
X-1.031 Y0.998 Z1.335
X-1.048 Y0.996 Z1.416
X-1.054 Y0.995 Z1.5
G0 X-3.178 Y-0.97
Z1.4
G3 X-1.114 Y-1.241 Z1.32 I1.177 J0.97 F600
X-0.701 Y0.797 Z1.24 I-0.885 J1.24
X-2.704 Y1.348 Z1.16 I-1.297 J-0.797
X-3.392 Y-0.61 Z1.08 I0.705 J-1.348
X-1.487 Y-1.43 Z1 I1.392 J0.61
X-0.538 Y0.412 Z0.92 I-0.513 J1.429
X-2.309 Y1.484 Z0.84 I-1.46 J-0.413
X-3.5 Y-0.207 Z0.76 I0.311 J-1.483
X-1.896 Y-1.51 Z0.68 I1.5 J0.208
X-0.487 Y-0.001 Z0.6 I-0.104 J1.509
X-3.512 Y-0.001 I-1.513 J0
X-0.487 Y-0.001 I1.513 J0
G1 X-0.484 Y0.105 F1300
X-0.445 Y0.215
X-0.362 Y0.364
X-0.342 Y0.533
X-0.387 Y0.697
X-0.402 Y0.727
X-0.519 Y0.952
X-0.582 Y1.047
X-0.668 Y1.142
X-0.726 Y1.205
X-0.866 Y1.35
X-0.934 Y1.403
X-1.187 Y1.558
X-1.268 Y1.604
X-1.349 Y1.638
X-1.556 Y1.697
X-1.764 Y1.748
X-1.971 Y1.753
X-2.179
X-2.282 Y1.74
X-2.386 Y1.713
X-2.594 Y1.655
X-2.697 Y1.62
X-2.801 Y1.565
X-3.009 Y1.439
X-3.134 Y1.35
X-3.216 Y1.267
X-3.332 Y1.142
X-3.423 Y1.041
X-3.461 Y0.988
X-3.491 Y0.935
X-3.631 Y0.663
X-3.662 Y0.591
X-3.683 Y0.519
X-3.726 Y0.312
X-3.761 Y0.104
X-3.75 Y-0.104
X-3.735 Y-0.312
X-3.726 Y-0.363
X-3.712 Y-0.415
X-3.603 Y-0.727
X-3.556 Y-0.831
X-3.487 Y-0.935
X-3.34 Y-1.142
X-3.286 Y-1.207
X-3.216 Y-1.271
X-3.009 Y-1.44
X-2.912 Y-1.51
X-2.815 Y-1.558
X-2.594 Y-1.654
X-2.49 Y-1.695
X-2.386 Y-1.717
X-2.075 Y-1.76
X-1.971 Y-1.763
X-1.764 Y-1.737
X-1.556 Y-1.706
X-1.452 Y-1.674
X-1.141 Y-1.538
X-1.089 Y-1.51
X-1.037 Y-1.476
X-0.881 Y-1.35
X-0.726 Y-1.219
X-0.66 Y-1.142
X-0.513 Y-0.935
X-0.444 Y-0.831
X-0.418 Y-0.779
X-0.397 Y-0.727
X-0.311 Y-0.484
X-0.282 Y-0.398
X-0.265 Y-0.312
X-0.25 Y-0.104
X-0.239 Y0.104
X-0.274 Y0.312
X-0.317 Y0.519
X-0.35 Y0.623
X-0.387 Y0.697
X-0.437 Y0.775 F800
X-0.499 Y0.844
X-0.56 Y0.885 Z0.605
X-0.621 Y0.925 Z0.618
X-0.68 Y0.964 Z0.641
X-0.757 Y0.981 Z0.679
X-0.828 Y0.997 Z0.729
X-0.891 Y1.011 Z0.788
X-0.915 Y1.012 Z0.815
X-0.963 Y1.006 Z0.882
X-1.002 Y1.001 Z0.956
X-1.031 Y0.998 Z1.035
X-1.048 Y0.996 Z1.116
X-1.054 Y0.995 Z1.2
G0 X-3.178 Y-0.97
Z1.1
G3 X-1.114 Y-1.241 Z1.02 I1.177 J0.97 F600
X-0.701 Y0.797 Z0.94 I-0.885 J1.24
X-2.704 Y1.348 Z0.86 I-1.297 J-0.797
X-3.392 Y-0.61 Z0.78 I0.705 J-1.348
X-1.487 Y-1.43 Z0.7 I1.392 J0.61
X-0.538 Y0.412 Z0.62 I-0.513 J1.429
X-2.309 Y1.484 Z0.54 I-1.46 J-0.413
X-3.5 Y-0.207 Z0.46 I0.311 J-1.483
X-1.896 Y-1.51 Z0.38 I1.5 J0.208
X-0.487 Y-0.001 Z0.3 I-0.104 J1.509
X-3.512 Y-0.001 I-1.513 J0
X-0.487 Y-0.001 I1.513 J0
G1 X-0.484 Y0.105 F1300
X-0.445 Y0.215
X-0.362 Y0.364
X-0.342 Y0.533
X-0.387 Y0.697
X-0.402 Y0.727
X-0.519 Y0.952
X-0.582 Y1.047
X-0.668 Y1.142
X-0.726 Y1.205
X-0.866 Y1.35
X-0.934 Y1.403
X-1.187 Y1.558
X-1.268 Y1.604
X-1.349 Y1.638
X-1.556 Y1.697
X-1.764 Y1.748
X-1.971 Y1.753
X-2.179
X-2.282 Y1.74
X-2.386 Y1.713
X-2.594 Y1.655
X-2.697 Y1.62
X-2.801 Y1.565
X-3.009 Y1.439
X-3.134 Y1.35
X-3.216 Y1.267
X-3.332 Y1.142
X-3.423 Y1.041
X-3.461 Y0.988
X-3.491 Y0.935
X-3.631 Y0.663
X-3.662 Y0.591
X-3.683 Y0.519
X-3.726 Y0.312
X-3.761 Y0.104
X-3.75 Y-0.104
X-3.735 Y-0.312
X-3.726 Y-0.363
X-3.712 Y-0.415
X-3.603 Y-0.727
X-3.556 Y-0.831
X-3.487 Y-0.935
X-3.34 Y-1.142
X-3.286 Y-1.207
X-3.216 Y-1.271
X-3.009 Y-1.44
X-2.912 Y-1.51
X-2.815 Y-1.558
X-2.594 Y-1.654
X-2.49 Y-1.695
X-2.386 Y-1.717
X-2.075 Y-1.76
X-1.971 Y-1.763
X-1.764 Y-1.737
X-1.556 Y-1.706
X-1.452 Y-1.674
X-1.141 Y-1.538
X-1.089 Y-1.51
X-1.037 Y-1.476
X-0.881 Y-1.35
X-0.726 Y-1.219
X-0.66 Y-1.142
X-0.513 Y-0.935
X-0.444 Y-0.831
X-0.418 Y-0.779
X-0.397 Y-0.727
X-0.311 Y-0.484
X-0.282 Y-0.398
X-0.265 Y-0.312
X-0.25 Y-0.104
X-0.239 Y0.104
X-0.274 Y0.312
X-0.317 Y0.519
X-0.35 Y0.623
X-0.387 Y0.697
X-0.437 Y0.775 F800
X-0.499 Y0.844
X-0.56 Y0.885 Z0.305
X-0.621 Y0.925 Z0.318
X-0.68 Y0.964 Z0.341
X-0.757 Y0.981 Z0.379
X-0.828 Y0.997 Z0.429
X-0.891 Y1.011 Z0.488
X-0.915 Y1.012 Z0.515
X-0.963 Y1.006 Z0.582
X-1.002 Y1.001 Z0.656
X-1.031 Y0.998 Z0.735
X-1.048 Y0.996 Z0.816
X-1.054 Y0.995 Z0.9
G0 X-3.178 Y-0.97
Z0.8
G3 X-1.114 Y-1.241 Z0.72 I1.178 J0.97 F600
X-0.701 Y0.797 Z0.64 I-0.885 J1.24
X-2.704 Y1.349 Z0.56 I-1.297 J-0.797
X-3.392 Y-0.61 Z0.48 I0.705 J-1.348
X-1.487 Y-1.43 Z0.4 I1.392 J0.61
X-0.538 Y0.412 Z0.32 I-0.513 J1.429
X-2.309 Y1.484 Z0.24 I-1.46 J-0.413
X-3.5 Y-0.207 Z0.16 I0.311 J-1.483
X-1.896 Y-1.51 Z0.08 I1.5 J0.208
X-0.487 Y-0.001 Z0 I-0.104 J1.509
X-3.512 Y-0.001 I-1.513 J0
X-0.487 Y-0.001 I1.513 J0
G1 X-0.484 Y0.105 F1300
X-0.445 Y0.215
X-0.362 Y0.364
X-0.342 Y0.533
X-0.387 Y0.697
X-0.402 Y0.727
X-0.519 Y0.952
X-0.582 Y1.047
X-0.668 Y1.142
X-0.726 Y1.205
X-0.866 Y1.35
X-0.934 Y1.403
X-1.187 Y1.558
X-1.268 Y1.604
X-1.349 Y1.638
X-1.556 Y1.697
X-1.764 Y1.748
X-1.971 Y1.753
X-2.179
X-2.282 Y1.74
X-2.386 Y1.713
X-2.594 Y1.655
X-2.697 Y1.62
X-2.801 Y1.565
X-3.009 Y1.439
X-3.134 Y1.35
X-3.216 Y1.267
X-3.332 Y1.142
X-3.423 Y1.041
X-3.461 Y0.988
X-3.491 Y0.935
X-3.631 Y0.663
X-3.662 Y0.591
X-3.683 Y0.519
X-3.726 Y0.312
X-3.761 Y0.104
X-3.75 Y-0.104
X-3.735 Y-0.312
X-3.726 Y-0.363
X-3.712 Y-0.415
X-3.603 Y-0.727
X-3.556 Y-0.831
X-3.487 Y-0.935
X-3.34 Y-1.142
X-3.286 Y-1.207
X-3.216 Y-1.271
X-3.009 Y-1.44
X-2.912 Y-1.51
X-2.815 Y-1.558
X-2.594 Y-1.654
X-2.49 Y-1.695
X-2.386 Y-1.717
X-2.075 Y-1.76
X-1.971 Y-1.763
X-1.764 Y-1.737
X-1.556 Y-1.706
X-1.452 Y-1.674
X-1.141 Y-1.538
X-1.089 Y-1.51
X-1.037 Y-1.476
X-0.881 Y-1.35
X-0.726 Y-1.219
X-0.66 Y-1.142
X-0.513 Y-0.935
X-0.444 Y-0.831
X-0.418 Y-0.779
X-0.397 Y-0.727
X-0.311 Y-0.484
X-0.282 Y-0.398
X-0.265 Y-0.312
X-0.25 Y-0.104
X-0.239 Y0.104
X-0.274 Y0.312
X-0.317 Y0.519
X-0.35 Y0.623
X-0.387 Y0.697
G3 X-1.054 Y0.995 I-0.528 J-0.285 F800
G1 X-1.145 Y0.974 Z0.007
X-1.234 Y0.952 Z0.029
X-1.319 Y0.932 Z0.065
X-1.397 Y0.914 Z0.115
X-1.466 Y0.897 Z0.176
X-1.526 Y0.883 Z0.247
X-1.574 Y0.871 Z0.328
X-1.609 Y0.863 Z0.415
X-1.63 Y0.858 Z0.506
X-1.637 Y0.856 Z0.6
G0 Z25.2
G28 G91 Z0
G90
G28 G91 X0 Y0
G90
M5
M30
