(motormount_bore_2)
(T1  D=6 CR=0 - ZMIN=6 - flat end mill)
G90 G94
G17
G21
G28 G91 Z0
G90

(Bore1 4)
T1
S18000 M3
G54
G0 X-2.5 Y-21.6
Z25.2
Z12.5
G1 Z11.1 F300
G19 G2 Y-22.2 Z10.5 J-0.6 K0
G1 Y-22.5
G17 G3 X-2 Y-23 I0.5 J0
X-2 Y-21 Z10.4 I0 J1 F350
X-2 Y-23 Z10.3 I0 J-1
X-2 Y-21 Z10.2 I0 J1
X-2 Y-23 Z10.1 I0 J-1
X-2 Y-21 Z10 I0 J1
X-2 Y-23 Z9.9 I0 J-1
X-2 Y-21 Z9.8 I0 J1
X-2 Y-23 Z9.7 I0 J-1
X-2 Y-21 Z9.6 I0 J1
X-2 Y-23 Z9.5 I0 J-1
X-2 Y-21 Z9.4 I0 J1
X-2 Y-23 Z9.3 I0 J-1
X-2 Y-21 Z9.2 I0 J1
X-2 Y-23 Z9.1 I0 J-1
X-2 Y-21 Z9 I0 J1
X-2 Y-23 Z8.9 I0 J-1
X-2 Y-21 Z8.8 I0 J1
X-2 Y-23 Z8.7 I0 J-1
X-2 Y-21 Z8.6 I0 J1
X-2 Y-23 Z8.5 I0 J-1
X-2 Y-21 Z8.4 I0 J1
X-2 Y-23 Z8.3 I0 J-1
X-2 Y-21 Z8.2 I0 J1
X-2 Y-23 Z8.1 I0 J-1
X-2 Y-21 Z8 I0 J1
X-2 Y-23 Z7.9 I0 J-1
X-2 Y-21 Z7.8 I0 J1
X-2 Y-23 Z7.7 I0 J-1
X-2 Y-21 Z7.6 I0 J1
X-2 Y-23 Z7.5 I0 J-1
X-2 Y-21 Z7.4 I0 J1
X-2 Y-23 Z7.3 I0 J-1
X-2 Y-21 Z7.2 I0 J1
X-2 Y-23 Z7.1 I0 J-1
X-2 Y-21 Z7 I0 J1
X-2 Y-23 Z6.9 I0 J-1
X-2 Y-21 Z6.8 I0 J1
X-2 Y-23 Z6.7 I0 J-1
X-2 Y-21 Z6.6 I0 J1
X-2 Y-23 Z6.5 I0 J-1
X-2 Y-21 Z6.4 I0 J1
X-2 Y-23 Z6.3 I0 J-1
X-2 Y-21 Z6.2 I0 J1
X-2 Y-23 Z6.1 I0 J-1
X-2 Y-21 Z6 I0 J1
X-2 Y-23 I0 J-1
X-2 Y-21 I0 J1
X-2.5 Y-21.5 I0 J-0.5 F300
G1 Y-21.8
G19 G2 Y-22.4 Z6.6 J0 K0.6
G0 Z19.2
Y22.4
Z12.5
G1 Z11.1 F300
G2 Y21.8 Z10.5 J-0.6 K0
G1 Y21.5
G17 G3 X-2 Y21 I0.5 J0
X-2 Y23 Z10.4 I0 J1 F350
X-2 Y21 Z10.3 I0 J-1
X-2 Y23 Z10.2 I0 J1
X-2 Y21 Z10.1 I0 J-1
X-2 Y23 Z10 I0 J1
X-2 Y21 Z9.9 I0 J-1
X-2 Y23 Z9.8 I0 J1
X-2 Y21 Z9.7 I0 J-1
X-2 Y23 Z9.6 I0 J1
X-2 Y21 Z9.5 I0 J-1
X-2 Y23 Z9.4 I0 J1
X-2 Y21 Z9.3 I0 J-1
X-2 Y23 Z9.2 I0 J1
X-2 Y21 Z9.1 I0 J-1
X-2 Y23 Z9 I0 J1
X-2 Y21 Z8.9 I0 J-1
X-2 Y23 Z8.8 I0 J1
X-2 Y21 Z8.7 I0 J-1
X-2 Y23 Z8.6 I0 J1
X-2 Y21 Z8.5 I0 J-1
X-2 Y23 Z8.4 I0 J1
X-2 Y21 Z8.3 I0 J-1
X-2 Y23 Z8.2 I0 J1
X-2 Y21 Z8.1 I0 J-1
X-2 Y23 Z8 I0 J1
X-2 Y21 Z7.9 I0 J-1
X-2 Y23 Z7.8 I0 J1
X-2 Y21 Z7.7 I0 J-1
X-2 Y23 Z7.6 I0 J1
X-2 Y21 Z7.5 I0 J-1
X-2 Y23 Z7.4 I0 J1
X-2 Y21 Z7.3 I0 J-1
X-2 Y23 Z7.2 I0 J1
X-2 Y21 Z7.1 I0 J-1
X-2 Y23 Z7 I0 J1
X-2 Y21 Z6.9 I0 J-1
X-2 Y23 Z6.8 I0 J1
X-2 Y21 Z6.7 I0 J-1
X-2 Y23 Z6.6 I0 J1
X-2 Y21 Z6.5 I0 J-1
X-2 Y23 Z6.4 I0 J1
X-2 Y21 Z6.3 I0 J-1
X-2 Y23 Z6.2 I0 J1
X-2 Y21 Z6.1 I0 J-1
X-2 Y23 Z6 I0 J1
X-2 Y21 I0 J-1
X-2 Y23 I0 J1
X-2.5 Y22.5 I0 J-0.5 F300
G1 Y22.2
G19 G2 Y21.6 Z6.6 J0 K0.6
G0 Z25.2
G17
G28 G91 Z0
G90
G28 G91 X0 Y0
G90
M5
M30
