(motormount_bearing_25um)
(T1  D=6 CR=0 - ZMIN=3 - flat end mill)
G90 G94
G17
G21
G28 G91 Z0
G90

(Bore1 5)
T1
S18000 M3
G54
G0 X-1.4 Y6.475
Z25.2
Z12.5
G1 Z11.1 F700
G19 G3 Y7.075 Z10.5 J0.6 K0
G1 Y7.375
G17 G3 X-2 Y7.975 I-0.6 J0
X-2 Y-7.975 Z10.4 I0 J-7.975
X-2 Y7.975 Z10.3 I0 J7.975
X-2 Y-7.975 Z10.2 I0 J-7.975
X-2 Y7.975 Z10.1 I0 J7.975
X-2 Y-7.975 Z10 I0 J-7.975
X-2 Y7.975 Z9.9 I0 J7.975
X-2 Y-7.975 Z9.8 I0 J-7.975
X-2 Y7.975 Z9.7 I0 J7.975
X-2 Y-7.975 Z9.6 I0 J-7.975
X-2 Y7.975 Z9.5 I0 J7.975
X-2 Y-7.975 Z9.4 I0 J-7.975
X-2 Y7.975 Z9.3 I0 J7.975
X-2 Y-7.975 Z9.2 I0 J-7.975
X-2 Y7.975 Z9.1 I0 J7.975
X-2 Y-7.975 Z9 I0 J-7.975
X-2 Y7.975 Z8.9 I0 J7.975
X-2 Y-7.975 Z8.8 I0 J-7.975
X-2 Y7.975 Z8.7 I0 J7.975
X-2 Y-7.975 Z8.6 I0 J-7.975
X-2 Y7.975 Z8.5 I0 J7.975
X-2 Y-7.975 Z8.4 I0 J-7.975
X-2 Y7.975 Z8.3 I0 J7.975
X-2 Y-7.975 Z8.2 I0 J-7.975
X-2 Y7.975 Z8.1 I0 J7.975
X-2 Y-7.975 Z8 I0 J-7.975
X-2 Y7.975 Z7.9 I0 J7.975
X-2 Y-7.975 Z7.8 I0 J-7.975
X-2 Y7.975 Z7.7 I0 J7.975
X-2 Y-7.975 Z7.6 I0 J-7.975
X-2 Y7.975 Z7.5 I0 J7.975
X-2 Y-7.975 Z7.4 I0 J-7.975
X-2 Y7.975 Z7.3 I0 J7.975
X-2 Y-7.975 Z7.2 I0 J-7.975
X-2 Y7.975 Z7.1 I0 J7.975
X-2 Y-7.975 Z7 I0 J-7.975
X-2 Y7.975 Z6.9 I0 J7.975
X-2 Y-7.975 Z6.8 I0 J-7.975
X-2 Y7.975 Z6.7 I0 J7.975
X-2 Y-7.975 Z6.6 I0 J-7.975
X-2 Y7.975 Z6.5 I0 J7.975
X-2 Y-7.975 Z6.4 I0 J-7.975
X-2 Y7.975 Z6.3 I0 J7.975
X-2 Y-7.975 Z6.2 I0 J-7.975
X-2 Y7.975 Z6.1 I0 J7.975
X-2 Y-7.975 Z6 I0 J-7.975
X-2 Y7.975 Z5.9 I0 J7.975
X-2 Y-7.975 Z5.8 I0 J-7.975
X-2 Y7.975 Z5.7 I0 J7.975
X-2 Y-7.975 Z5.6 I0 J-7.975
X-2 Y7.975 Z5.5 I0 J7.975
X-2 Y-7.975 Z5.4 I0 J-7.975
X-2 Y7.975 Z5.3 I0 J7.975
X-2 Y-7.975 Z5.2 I0 J-7.975
X-2 Y7.975 Z5.1 I0 J7.975
X-2 Y-7.975 Z5 I0 J-7.975
X-2 Y7.975 Z4.9 I0 J7.975
X-2 Y-7.975 Z4.8 I0 J-7.975
X-2 Y7.975 Z4.7 I0 J7.975
X-2 Y-7.975 Z4.6 I0 J-7.975
X-2 Y7.975 Z4.5 I0 J7.975
X-2 Y-7.975 Z4.4 I0 J-7.975
X-2 Y7.975 Z4.3 I0 J7.975
X-2 Y-7.975 Z4.2 I0 J-7.975
X-2 Y7.975 Z4.1 I0 J7.975
X-2 Y-7.975 Z4 I0 J-7.975
X-2 Y7.975 Z3.9 I0 J7.975
X-2 Y-7.975 Z3.8 I0 J-7.975
X-2 Y7.975 Z3.7 I0 J7.975
X-2 Y-7.975 Z3.6 I0 J-7.975
X-2 Y7.975 Z3.5 I0 J7.975
X-2 Y-7.975 Z3.4 I0 J-7.975
X-2 Y7.975 Z3.3 I0 J7.975
X-2 Y-7.975 Z3.2 I0 J-7.975
X-2 Y7.975 Z3.1 I0 J7.975
X-2 Y-7.975 Z3 I0 J-7.975
X-2 Y7.975 I0 J7.975
X-2 Y-7.975 I0 J-7.975
X-1.4 Y-7.375 I0 J0.6
G1 Y-7.075
G19 G3 Y-6.475 Z3.6 J0 K0.6
G0 Z25.2
G17
G28 G91 Z0
G90
G28 G91 X0 Y0
G90
M5
M30
