(motormount_contour_1)
(T1  D=6 CR=0 - ZMIN=0 - flat end mill)
G90 G94
G17
G21
G28 G91 Z0
G90

(2D Contour1 2)
T1
S18000 M3
G54
G0 X31.2 Y29.6
Z25.2
Z15.2
G1 Z10.6 F500
G18 G3 X30.6 Z10 I-0.6 K0 F600
G1 X23.6
G17 G3 X23 Y29 I0 J-0.6
G1 Y-29 F1300
G2 X19 Y-33 I-4 J0
G1 X-19
G2 X-23 Y-29 I0 J4
G1 Y29
G2 X-19 Y33 I4 J0
G1 X19
G2 X23 Y29 I0 J-4
G3 X23.6 Y28.4 I0.6 J0 F800
G1 X30.6
G18 G2 X31.2 Z10.6 I0 K0.6
G1 Y29.6 F1300
Z10.4 F500
G3 X30.6 Z9.8 I-0.6 K0 F600
G1 X23.6
G17 G3 X23 Y29 I0 J-0.6
G1 Y-29 F1300
G2 X19 Y-33 I-4 J0
G1 X-19
G2 X-23 Y-29 I0 J4
G1 Y29
G2 X-19 Y33 I4 J0
G1 X19
G2 X23 Y29 I0 J-4
G3 X23.6 Y28.4 I0.6 J0 F800
G1 X30.6
G18 G2 X31.2 Z10.4 I0 K0.6
G1 Y29.6 F1300
Z10.2 F500
G3 X30.6 Z9.6 I-0.6 K0 F600
G1 X23.6
G17 G3 X23 Y29 I0 J-0.6
G1 Y-29 F1300
G2 X19 Y-33 I-4 J0
G1 X-19
G2 X-23 Y-29 I0 J4
G1 Y29
G2 X-19 Y33 I4 J0
G1 X19
G2 X23 Y29 I0 J-4
G3 X23.6 Y28.4 I0.6 J0 F800
G1 X30.6
G18 G2 X31.2 Z10.2 I0 K0.6
G1 Y29.6 F1300
Z10 F500
G3 X30.6 Z9.4 I-0.6 K0 F600
G1 X23.6
G17 G3 X23 Y29 I0 J-0.6
G1 Y-29 F1300
G2 X19 Y-33 I-4 J0
G1 X-19
G2 X-23 Y-29 I0 J4
G1 Y29
G2 X-19 Y33 I4 J0
G1 X19
G2 X23 Y29 I0 J-4
G3 X23.6 Y28.4 I0.6 J0 F800
G1 X30.6
G18 G2 X31.2 Z10 I0 K0.6
G1 Y29.6 F1300
Z9.8 F500
G3 X30.6 Z9.2 I-0.6 K0 F600
G1 X23.6
G17 G3 X23 Y29 I0 J-0.6
G1 Y-29 F1300
G2 X19 Y-33 I-4 J0
G1 X-19
G2 X-23 Y-29 I0 J4
G1 Y29
G2 X-19 Y33 I4 J0
G1 X19
G2 X23 Y29 I0 J-4
G3 X23.6 Y28.4 I0.6 J0 F800
G1 X30.6
G18 G2 X31.2 Z9.8 I0 K0.6
G1 Y29.6 F1300
Z9.6 F500
G3 X30.6 Z9 I-0.6 K0 F600
G1 X23.6
G17 G3 X23 Y29 I0 J-0.6
G1 Y-29 F1300
G2 X19 Y-33 I-4 J0
G1 X-19
G2 X-23 Y-29 I0 J4
G1 Y29
G2 X-19 Y33 I4 J0
G1 X19
G2 X23 Y29 I0 J-4
G3 X23.6 Y28.4 I0.6 J0 F800
G1 X30.6
G18 G2 X31.2 Z9.6 I0 K0.6
G1 Y29.6 F1300
Z9.4 F500
G3 X30.6 Z8.8 I-0.6 K0 F600
G1 X23.6
G17 G3 X23 Y29 I0 J-0.6
G1 Y-29 F1300
G2 X19 Y-33 I-4 J0
G1 X-19
G2 X-23 Y-29 I0 J4
G1 Y29
G2 X-19 Y33 I4 J0
G1 X19
G2 X23 Y29 I0 J-4
G3 X23.6 Y28.4 I0.6 J0 F800
G1 X30.6
G18 G2 X31.2 Z9.4 I0 K0.6
G1 Y29.6 F1300
Z9.2 F500
G3 X30.6 Z8.6 I-0.6 K0 F600
G1 X23.6
G17 G3 X23 Y29 I0 J-0.6
G1 Y-29 F1300
G2 X19 Y-33 I-4 J0
G1 X-19
G2 X-23 Y-29 I0 J4
G1 Y29
G2 X-19 Y33 I4 J0
G1 X19
G2 X23 Y29 I0 J-4
G3 X23.6 Y28.4 I0.6 J0 F800
G1 X30.6
G18 G2 X31.2 Z9.2 I0 K0.6
G1 Y29.6 F1300
Z9 F500
G3 X30.6 Z8.4 I-0.6 K0 F600
G1 X23.6
G17 G3 X23 Y29 I0 J-0.6
G1 Y-29 F1300
G2 X19 Y-33 I-4 J0
G1 X-19
G2 X-23 Y-29 I0 J4
G1 Y29
G2 X-19 Y33 I4 J0
G1 X19
G2 X23 Y29 I0 J-4
G3 X23.6 Y28.4 I0.6 J0 F800
G1 X30.6
G18 G2 X31.2 Z9 I0 K0.6
G1 Y29.6 F1300
Z8.8 F500
G3 X30.6 Z8.2 I-0.6 K0 F600
G1 X23.6
G17 G3 X23 Y29 I0 J-0.6
G1 Y-29 F1300
G2 X19 Y-33 I-4 J0
G1 X-19
G2 X-23 Y-29 I0 J4
G1 Y29
G2 X-19 Y33 I4 J0
G1 X19
G2 X23 Y29 I0 J-4
G3 X23.6 Y28.4 I0.6 J0 F800
G1 X30.6
G18 G2 X31.2 Z8.8 I0 K0.6
G1 Y29.6 F1300
Z8.6 F500
G3 X30.6 Z8 I-0.6 K0 F600
G1 X23.6
G17 G3 X23 Y29 I0 J-0.6
G1 Y-29 F1300
G2 X19 Y-33 I-4 J0
G1 X-19
G2 X-23 Y-29 I0 J4
G1 Y29
G2 X-19 Y33 I4 J0
G1 X19
G2 X23 Y29 I0 J-4
G3 X23.6 Y28.4 I0.6 J0 F800
G1 X30.6
G18 G2 X31.2 Z8.6 I0 K0.6
G1 Y29.6 F1300
Z8.4 F500
G3 X30.6 Z7.8 I-0.6 K0 F600
G1 X23.6
G17 G3 X23 Y29 I0 J-0.6
G1 Y-29 F1300
G2 X19 Y-33 I-4 J0
G1 X-19
G2 X-23 Y-29 I0 J4
G1 Y29
G2 X-19 Y33 I4 J0
G1 X19
G2 X23 Y29 I0 J-4
G3 X23.6 Y28.4 I0.6 J0 F800
G1 X30.6
G18 G2 X31.2 Z8.4 I0 K0.6
G1 Y29.6 F1300
Z8.2 F500
G3 X30.6 Z7.6 I-0.6 K0 F600
G1 X23.6
G17 G3 X23 Y29 I0 J-0.6
G1 Y-29 F1300
G2 X19 Y-33 I-4 J0
G1 X-19
G2 X-23 Y-29 I0 J4
G1 Y29
G2 X-19 Y33 I4 J0
G1 X19
G2 X23 Y29 I0 J-4
G3 X23.6 Y28.4 I0.6 J0 F800
G1 X30.6
G18 G2 X31.2 Z8.2 I0 K0.6
G1 Y29.6 F1300
Z8 F500
G3 X30.6 Z7.4 I-0.6 K0 F600
G1 X23.6
G17 G3 X23 Y29 I0 J-0.6
G1 Y-29 F1300
G2 X19 Y-33 I-4 J0
G1 X-19
G2 X-23 Y-29 I0 J4
G1 Y29
G2 X-19 Y33 I4 J0
G1 X19
G2 X23 Y29 I0 J-4
G3 X23.6 Y28.4 I0.6 J0 F800
G1 X30.6
G18 G2 X31.2 Z8 I0 K0.6
G1 Y29.6 F1300
Z7.8 F500
G3 X30.6 Z7.2 I-0.6 K0 F600
G1 X23.6
G17 G3 X23 Y29 I0 J-0.6
G1 Y-29 F1300
G2 X19 Y-33 I-4 J0
G1 X-19
G2 X-23 Y-29 I0 J4
G1 Y29
G2 X-19 Y33 I4 J0
G1 X19
G2 X23 Y29 I0 J-4
G3 X23.6 Y28.4 I0.6 J0 F800
G1 X30.6
G18 G2 X31.2 Z7.8 I0 K0.6
G1 Y29.6 F1300
Z7.6 F500
G3 X30.6 Z7 I-0.6 K0 F600
G1 X23.6
G17 G3 X23 Y29 I0 J-0.6
G1 Y-29 F1300
G2 X19 Y-33 I-4 J0
G1 X-19
G2 X-23 Y-29 I0 J4
G1 Y29
G2 X-19 Y33 I4 J0
G1 X19
G2 X23 Y29 I0 J-4
G3 X23.6 Y28.4 I0.6 J0 F800
G1 X30.6
G18 G2 X31.2 Z7.6 I0 K0.6
G1 Y29.6 F1300
Z7.4 F500
G3 X30.6 Z6.8 I-0.6 K0 F600
G1 X23.6
G17 G3 X23 Y29 I0 J-0.6
G1 Y-29 F1300
G2 X19 Y-33 I-4 J0
G1 X-19
G2 X-23 Y-29 I0 J4
G1 Y29
G2 X-19 Y33 I4 J0
G1 X19
G2 X23 Y29 I0 J-4
G3 X23.6 Y28.4 I0.6 J0 F800
G1 X30.6
G18 G2 X31.2 Z7.4 I0 K0.6
G1 Y29.6 F1300
Z7.2 F500
G3 X30.6 Z6.6 I-0.6 K0 F600
G1 X23.6
G17 G3 X23 Y29 I0 J-0.6
G1 Y-29 F1300
G2 X19 Y-33 I-4 J0
G1 X-19
G2 X-23 Y-29 I0 J4
G1 Y29
G2 X-19 Y33 I4 J0
G1 X19
G2 X23 Y29 I0 J-4
G3 X23.6 Y28.4 I0.6 J0 F800
G1 X30.6
G18 G2 X31.2 Z7.2 I0 K0.6
G1 Y29.6 F1300
Z7 F500
G3 X30.6 Z6.4 I-0.6 K0 F600
G1 X23.6
G17 G3 X23 Y29 I0 J-0.6
G1 Y-29 F1300
G2 X19 Y-33 I-4 J0
G1 X-19
G2 X-23 Y-29 I0 J4
G1 Y29
G2 X-19 Y33 I4 J0
G1 X19
G2 X23 Y29 I0 J-4
G3 X23.6 Y28.4 I0.6 J0 F800
G1 X30.6
G18 G2 X31.2 Z7 I0 K0.6
G1 Y29.6 F1300
Z6.8 F500
G3 X30.6 Z6.2 I-0.6 K0 F600
G1 X23.6
G17 G3 X23 Y29 I0 J-0.6
G1 Y-29 F1300
G2 X19 Y-33 I-4 J0
G1 X-19
G2 X-23 Y-29 I0 J4
G1 Y29
G2 X-19 Y33 I4 J0
G1 X19
G2 X23 Y29 I0 J-4
G3 X23.6 Y28.4 I0.6 J0 F800
G1 X30.6
G18 G2 X31.2 Z6.8 I0 K0.6
G1 Y29.6 F1300
Z6.6 F500
G3 X30.6 Z6 I-0.6 K0 F600
G1 X23.6
G17 G3 X23 Y29 I0 J-0.6
G1 Y-29 F1300
G2 X19 Y-33 I-4 J0
G1 X-19
G2 X-23 Y-29 I0 J4
G1 Y29
G2 X-19 Y33 I4 J0
G1 X19
G2 X23 Y29 I0 J-4
G3 X23.6 Y28.4 I0.6 J0 F800
G1 X30.6
G18 G2 X31.2 Z6.6 I0 K0.6
G1 Y29.6 F1300
Z6.4 F500
G3 X30.6 Z5.8 I-0.6 K0 F600
G1 X23.6
G17 G3 X23 Y29 I0 J-0.6
G1 Y-29 F1300
G2 X19 Y-33 I-4 J0
G1 X-19
G2 X-23 Y-29 I0 J4
G1 Y29
G2 X-19 Y33 I4 J0
G1 X19
G2 X23 Y29 I0 J-4
G3 X23.6 Y28.4 I0.6 J0 F800
G1 X30.6
G18 G2 X31.2 Z6.4 I0 K0.6
G1 Y29.6 F1300
Z6.2 F500
G3 X30.6 Z5.6 I-0.6 K0 F600
G1 X23.6
G17 G3 X23 Y29 I0 J-0.6
G1 Y-29 F1300
G2 X19 Y-33 I-4 J0
G1 X-19
G2 X-23 Y-29 I0 J4
G1 Y29
G2 X-19 Y33 I4 J0
G1 X19
G2 X23 Y29 I0 J-4
G3 X23.6 Y28.4 I0.6 J0 F800
G1 X30.6
G18 G2 X31.2 Z6.2 I0 K0.6
G1 Y29.6 F1300
Z6 F500
G3 X30.6 Z5.4 I-0.6 K0 F600
G1 X23.6
G17 G3 X23 Y29 I0 J-0.6
G1 Y-29 F1300
G2 X19 Y-33 I-4 J0
G1 X-19
G2 X-23 Y-29 I0 J4
G1 Y29
G2 X-19 Y33 I4 J0
G1 X19
G2 X23 Y29 I0 J-4
G3 X23.6 Y28.4 I0.6 J0 F800
G1 X30.6
G18 G2 X31.2 Z6 I0 K0.6
G1 Y29.6 F1300
Z5.8 F500
G3 X30.6 Z5.2 I-0.6 K0 F600
G1 X23.6
G17 G3 X23 Y29 I0 J-0.6
G1 Y-29 F1300
G2 X19 Y-33 I-4 J0
G1 X-19
G2 X-23 Y-29 I0 J4
G1 Y29
G2 X-19 Y33 I4 J0
G1 X19
G2 X23 Y29 I0 J-4
G3 X23.6 Y28.4 I0.6 J0 F800
G1 X30.6
G18 G2 X31.2 Z5.8 I0 K0.6
G1 Y29.6 F1300
Z5.6 F500
G3 X30.6 Z5 I-0.6 K0 F600
G1 X23.6
G17 G3 X23 Y29 I0 J-0.6
G1 Y-29 F1300
G2 X19 Y-33 I-4 J0
G1 X-19
G2 X-23 Y-29 I0 J4
G1 Y29
G2 X-19 Y33 I4 J0
G1 X19
G2 X23 Y29 I0 J-4
G3 X23.6 Y28.4 I0.6 J0 F800
G1 X30.6
G18 G2 X31.2 Z5.6 I0 K0.6
G1 Y29.6 F1300
Z5.4 F500
G3 X30.6 Z4.8 I-0.6 K0 F600
G1 X23.6
G17 G3 X23 Y29 I0 J-0.6
G1 Y-29 F1300
G2 X19 Y-33 I-4 J0
G1 X-19
G2 X-23 Y-29 I0 J4
G1 Y29
G2 X-19 Y33 I4 J0
G1 X19
G2 X23 Y29 I0 J-4
G3 X23.6 Y28.4 I0.6 J0 F800
G1 X30.6
G18 G2 X31.2 Z5.4 I0 K0.6
G1 Y29.6 F1300
Z5.2 F500
G3 X30.6 Z4.6 I-0.6 K0 F600
G1 X23.6
G17 G3 X23 Y29 I0 J-0.6
G1 Y-29 F1300
G2 X19 Y-33 I-4 J0
G1 X-19
G2 X-23 Y-29 I0 J4
G1 Y29
G2 X-19 Y33 I4 J0
G1 X19
G2 X23 Y29 I0 J-4
G3 X23.6 Y28.4 I0.6 J0 F800
G1 X30.6
G18 G2 X31.2 Z5.2 I0 K0.6
G1 Y29.6 F1300
Z5 F500
G3 X30.6 Z4.4 I-0.6 K0 F600
G1 X23.6
G17 G3 X23 Y29 I0 J-0.6
G1 Y-29 F1300
G2 X19 Y-33 I-4 J0
G1 X-19
G2 X-23 Y-29 I0 J4
G1 Y29
G2 X-19 Y33 I4 J0
G1 X19
G2 X23 Y29 I0 J-4
G3 X23.6 Y28.4 I0.6 J0 F800
G1 X30.6
G18 G2 X31.2 Z5 I0 K0.6
G1 Y29.6 F1300
Z4.8 F500
G3 X30.6 Z4.2 I-0.6 K0 F600
G1 X23.6
G17 G3 X23 Y29 I0 J-0.6
G1 Y-29 F1300
G2 X19 Y-33 I-4 J0
G1 X-19
G2 X-23 Y-29 I0 J4
G1 Y29
G2 X-19 Y33 I4 J0
G1 X19
G2 X23 Y29 I0 J-4
G3 X23.6 Y28.4 I0.6 J0 F800
G1 X30.6
G18 G2 X31.2 Z4.8 I0 K0.6
G1 Y29.6 F1300
Z4.6 F500
G3 X30.6 Z4 I-0.6 K0 F600
G1 X23.6
G17 G3 X23 Y29 I0 J-0.6
G1 Y-29 F1300
G2 X19 Y-33 I-4 J0
G1 X-19
G2 X-23 Y-29 I0 J4
G1 Y29
G2 X-19 Y33 I4 J0
G1 X19
G2 X23 Y29 I0 J-4
G3 X23.6 Y28.4 I0.6 J0 F800
G1 X30.6
G18 G2 X31.2 Z4.6 I0 K0.6
G1 Y29.6 F1300
Z4.4 F500
G3 X30.6 Z3.8 I-0.6 K0 F600
G1 X23.6
G17 G3 X23 Y29 I0 J-0.6
G1 Y-29 F1300
G2 X19 Y-33 I-4 J0
G1 X-19
G2 X-23 Y-29 I0 J4
G1 Y29
G2 X-19 Y33 I4 J0
G1 X19
G2 X23 Y29 I0 J-4
G3 X23.6 Y28.4 I0.6 J0 F800
G1 X30.6
G18 G2 X31.2 Z4.4 I0 K0.6
G1 Y29.6 F1300
Z4.2 F500
G3 X30.6 Z3.6 I-0.6 K0 F600
G1 X23.6
G17 G3 X23 Y29 I0 J-0.6
G1 Y-29 F1300
G2 X19 Y-33 I-4 J0
G1 X-19
G2 X-23 Y-29 I0 J4
G1 Y29
G2 X-19 Y33 I4 J0
G1 X19
G2 X23 Y29 I0 J-4
G3 X23.6 Y28.4 I0.6 J0 F800
G1 X30.6
G18 G2 X31.2 Z4.2 I0 K0.6
G1 Y29.6 F1300
Z4 F500
G3 X30.6 Z3.4 I-0.6 K0 F600
G1 X23.6
G17 G3 X23 Y29 I0 J-0.6
G1 Y-29 F1300
G2 X19 Y-33 I-4 J0
G1 X-19
G2 X-23 Y-29 I0 J4
G1 Y29
G2 X-19 Y33 I4 J0
G1 X19
G2 X23 Y29 I0 J-4
G3 X23.6 Y28.4 I0.6 J0 F800
G1 X30.6
G18 G2 X31.2 Z4 I0 K0.6
G1 Y29.6 F1300
Z3.8 F500
G3 X30.6 Z3.2 I-0.6 K0 F600
G1 X23.6
G17 G3 X23 Y29 I0 J-0.6
G1 Y-29 F1300
G2 X19 Y-33 I-4 J0
G1 X-19
G2 X-23 Y-29 I0 J4
G1 Y29
G2 X-19 Y33 I4 J0
G1 X19
G2 X23 Y29 I0 J-4
G3 X23.6 Y28.4 I0.6 J0 F800
G1 X30.6
G18 G2 X31.2 Z3.8 I0 K0.6
G1 Y29.6 F1300
Z3.6 F500
G3 X30.6 Z3 I-0.6 K0 F600
G1 X23.6
G17 G3 X23 Y29 I0 J-0.6
G1 Y-29 F1300
G2 X19 Y-33 I-4 J0
G1 X-19
G2 X-23 Y-29 I0 J4
G1 Y29
G2 X-19 Y33 I4 J0
G1 X19
G2 X23 Y29 I0 J-4
G3 X23.6 Y28.4 I0.6 J0 F800
G1 X30.6
G18 G2 X31.2 Z3.6 I0 K0.6
G1 Y29.6 F1300
Z3.4 F500
G3 X30.6 Z2.8 I-0.6 K0 F600
G1 X23.6
G17 G3 X23 Y29 I0 J-0.6
G1 Y-29 F1300
G2 X19 Y-33 I-4 J0
G1 X-19
G2 X-23 Y-29 I0 J4
G1 Y29
G2 X-19 Y33 I4 J0
G1 X19
G2 X23 Y29 I0 J-4
G3 X23.6 Y28.4 I0.6 J0 F800
G1 X30.6
G18 G2 X31.2 Z3.4 I0 K0.6
G1 Y29.6 F1300
Z3.2 F500
G3 X30.6 Z2.6 I-0.6 K0 F600
G1 X23.6
G17 G3 X23 Y29 I0 J-0.6
G1 Y-29 F1300
G2 X19 Y-33 I-4 J0
G1 X-19
G2 X-23 Y-29 I0 J4
G1 Y29
G2 X-19 Y33 I4 J0
G1 X19
G2 X23 Y29 I0 J-4
G3 X23.6 Y28.4 I0.6 J0 F800
G1 X30.6
G18 G2 X31.2 Z3.2 I0 K0.6
G1 Y29.6 F1300
Z3 F500
G3 X30.6 Z2.4 I-0.6 K0 F600
G1 X23.6
G17 G3 X23 Y29 I0 J-0.6
G1 Y-29 F1300
G2 X19 Y-33 I-4 J0
G1 X-19
G2 X-23 Y-29 I0 J4
G1 Y29
G2 X-19 Y33 I4 J0
G1 X19
G2 X23 Y29 I0 J-4
G3 X23.6 Y28.4 I0.6 J0 F800
G1 X30.6
G18 G2 X31.2 Z3 I0 K0.6
G1 Y29.6 F1300
Z2.8 F500
G3 X30.6 Z2.2 I-0.6 K0 F600
G1 X23.6
G17 G3 X23 Y29 I0 J-0.6
G1 Y-29 F1300
G2 X19 Y-33 I-4 J0
G1 X-19
G2 X-23 Y-29 I0 J4
G1 Y29
G2 X-19 Y33 I4 J0
G1 X19
G2 X23 Y29 I0 J-4
G3 X23.6 Y28.4 I0.6 J0 F800
G1 X30.6
G18 G2 X31.2 Z2.8 I0 K0.6
G1 Y29.6 F1300
Z2.6 F500
G3 X30.6 Z2 I-0.6 K0 F600
G1 X23.6
G17 G3 X23 Y29 I0 J-0.6
G1 Y-29 F1300
G2 X19 Y-33 I-4 J0
G1 X-19
G2 X-23 Y-29 I0 J4
G1 Y29
G2 X-19 Y33 I4 J0
G1 X19
G2 X23 Y29 I0 J-4
G3 X23.6 Y28.4 I0.6 J0 F800
G1 X30.6
G18 G2 X31.2 Z2.6 I0 K0.6
G1 Y29.6 F1300
Z2.4 F500
G3 X30.6 Z1.8 I-0.6 K0 F600
G1 X23.6
G17 G3 X23 Y29 I0 J-0.6
G1 Y-29 F1300
G2 X19 Y-33 I-4 J0
G1 X-19
G2 X-23 Y-29 I0 J4
G1 Y29
G2 X-19 Y33 I4 J0
G1 X19
G2 X23 Y29 I0 J-4
G3 X23.6 Y28.4 I0.6 J0 F800
G1 X30.6
G18 G2 X31.2 Z2.4 I0 K0.6
G1 Y29.6 F1300
Z2.2 F500
G3 X30.6 Z1.6 I-0.6 K0 F600
G1 X23.6
G17 G3 X23 Y29 I0 J-0.6
G1 Y-29 F1300
G2 X19 Y-33 I-4 J0
G1 X-19
G2 X-23 Y-29 I0 J4
G1 Y29
G2 X-19 Y33 I4 J0
G1 X19
G2 X23 Y29 I0 J-4
G3 X23.6 Y28.4 I0.6 J0 F800
G1 X30.6
G18 G2 X31.2 Z2.2 I0 K0.6
G1 Y29.6 F1300
Z2 F500
G3 X30.6 Z1.4 I-0.6 K0 F600
G1 X23.6
G17 G3 X23 Y29 I0 J-0.6
G1 Y-29 F1300
G2 X19 Y-33 I-4 J0
G1 X-19
G2 X-23 Y-29 I0 J4
G1 Y29
G2 X-19 Y33 I4 J0
G1 X19
G2 X23 Y29 I0 J-4
G3 X23.6 Y28.4 I0.6 J0 F800
G1 X30.6
G18 G2 X31.2 Z2 I0 K0.6
G1 Y29.6 F1300
Z1.8 F500
G3 X30.6 Z1.2 I-0.6 K0 F600
G1 X23.6
G17 G3 X23 Y29 I0 J-0.6
G1 Y-29 F1300
G2 X19 Y-33 I-4 J0
G1 X-19
G2 X-23 Y-29 I0 J4
G1 Y29
G2 X-19 Y33 I4 J0
G1 X19
G2 X23 Y29 I0 J-4
G3 X23.6 Y28.4 I0.6 J0 F800
G1 X30.6
G18 G2 X31.2 Z1.8 I0 K0.6
G1 Y29.6 F1300
Z1.6 F500
G3 X30.6 Z1 I-0.6 K0 F600
G1 X23.6
G17 G3 X23 Y29 I0 J-0.6
G1 Y-29 F1300
G2 X19 Y-33 I-4 J0
G1 X-19
G2 X-23 Y-29 I0 J4
G1 Y29
G2 X-19 Y33 I4 J0
G1 X19
G2 X23 Y29 I0 J-4
G3 X23.6 Y28.4 I0.6 J0 F800
G1 X30.6
G18 G2 X31.2 Z1.6 I0 K0.6
G1 Y29.6 F1300
Z1.4 F500
G3 X30.6 Z0.8 I-0.6 K0 F600
G1 X23.6
G17 G3 X23 Y29 I0 J-0.6
G1 Y-29 F1300
G2 X19 Y-33 I-4 J0
G1 X-19
G2 X-23 Y-29 I0 J4
G1 Y29
G2 X-19 Y33 I4 J0
G1 X19
G2 X23 Y29 I0 J-4
G3 X23.6 Y28.4 I0.6 J0 F800
G1 X30.6
G18 G2 X31.2 Z1.4 I0 K0.6
G1 Y29.6 F1300
Z1.2 F500
G3 X30.6 Z0.6 I-0.6 K0 F600
G1 X23.6
G17 G3 X23 Y29 I0 J-0.6
G1 Y-29 F1300
G2 X19 Y-33 I-4 J0
G1 X-19
G2 X-23 Y-29 I0 J4
G1 Y29
G2 X-19 Y33 I4 J0
G1 X19
G2 X23 Y29 I0 J-4
G3 X23.6 Y28.4 I0.6 J0 F800
G1 X30.6
G18 G2 X31.2 Z1.2 I0 K0.6
G1 Y29.6 F1300
Z1 F500
G3 X30.6 Z0.4 I-0.6 K0 F600
G1 X23.6
G17 G3 X23 Y29 I0 J-0.6
G1 Y-29 F1300
G2 X19 Y-33 I-4 J0
G1 X-19
G2 X-23 Y-29 I0 J4
G1 Y29
G2 X-19 Y33 I4 J0
G1 X19
G2 X23 Y29 I0 J-4
G3 X23.6 Y28.4 I0.6 J0 F800
G1 X30.6
G18 G2 X31.2 Z1 I0 K0.6
G1 Y29.6 F1300
Z0.8 F500
G3 X30.6 Z0.2 I-0.6 K0 F600
G1 X23.6
G17 G3 X23 Y29 I0 J-0.6
G1 Y-29 F1300
G2 X19 Y-33 I-4 J0
G1 X-19
G2 X-23 Y-29 I0 J4
G1 Y29
G2 X-19 Y33 I4 J0
G1 X19
G2 X23 Y29 I0 J-4
G3 X23.6 Y28.4 I0.6 J0 F800
G1 X30.6
G18 G2 X31.2 Z0.8 I0 K0.6
G1 Y29.6 F1300
Z0.6 F500
G3 X30.6 Z0 I-0.6 K0 F600
G1 X23.6
G17 G3 X23 Y29 I0 J-0.6
G1 Y-29 F1300
G2 X19 Y-33 I-4 J0
G1 X-19
G2 X-23 Y-29 I0 J4
G1 Y29
G2 X-19 Y33 I4 J0
G1 X19
G2 X23 Y29 I0 J-4
G3 X23.6 Y28.4 I0.6 J0 F800
G1 X30.6
G18 G2 X31.2 Z0.6 I0 K0.6
G0 Z25.2
G17
G28 G91 Z0
G90
G28 G91 X0 Y0
G90
M5
M30
