(ycarA)
(T1  D=6 CR=0 - ZMIN=0 - flat end mill)
G90 G94
G17
G21
G28 G91 Z0
G90

(2D Contour1)
T1
S18000 M3
G54
G0 X100.6 Y-40.2
Z25.2
Z15.2
G1 Z10.6 F500
G19 G3 Y-39.6 Z10 J0.6 K0 F600
G1 Y-32.6
G17 G3 X100 Y-32 I-0.6 J0
G1 X-100 F1000
G2 X-103 Y-29 I0 J3
G1 Y29
G2 X-100 Y32 I3 J0
G1 X100
G2 X103 Y29 I0 J-3
G1 Y-29
G2 X100 Y-32 I-3 J0
G3 X99.4 Y-32.6 I0 J-0.6 F800
G1 Y-39.6
G19 G2 Y-40.2 Z10.6 J0 K0.6
G1 X100.6 F1000
Z10.4 F500
G3 Y-39.6 Z9.8 J0.6 K0 F600
G1 Y-32.6
G17 G3 X100 Y-32 I-0.6 J0
G1 X-100 F1000
G2 X-103 Y-29 I0 J3
G1 Y29
G2 X-100 Y32 I3 J0
G1 X100
G2 X103 Y29 I0 J-3
G1 Y-29
G2 X100 Y-32 I-3 J0
G3 X99.4 Y-32.6 I0 J-0.6 F800
G1 Y-39.6
G19 G2 Y-40.2 Z10.4 J0 K0.6
G1 X100.6 F1000
Z10.2 F500
G3 Y-39.6 Z9.6 J0.6 K0 F600
G1 Y-32.6
G17 G3 X100 Y-32 I-0.6 J0
G1 X-100 F1000
G2 X-103 Y-29 I0 J3
G1 Y29
G2 X-100 Y32 I3 J0
G1 X100
G2 X103 Y29 I0 J-3
G1 Y-29
G2 X100 Y-32 I-3 J0
G3 X99.4 Y-32.6 I0 J-0.6 F800
G1 Y-39.6
G19 G2 Y-40.2 Z10.2 J0 K0.6
G1 X100.6 F1000
Z10 F500
G3 Y-39.6 Z9.4 J0.6 K0 F600
G1 Y-32.6
G17 G3 X100 Y-32 I-0.6 J0
G1 X-100 F1000
G2 X-103 Y-29 I0 J3
G1 Y29
G2 X-100 Y32 I3 J0
G1 X100
G2 X103 Y29 I0 J-3
G1 Y-29
G2 X100 Y-32 I-3 J0
G3 X99.4 Y-32.6 I0 J-0.6 F800
G1 Y-39.6
G19 G2 Y-40.2 Z10 J0 K0.6
G1 X100.6 F1000
Z9.8 F500
G3 Y-39.6 Z9.2 J0.6 K0 F600
G1 Y-32.6
G17 G3 X100 Y-32 I-0.6 J0
G1 X-100 F1000
G2 X-103 Y-29 I0 J3
G1 Y29
G2 X-100 Y32 I3 J0
G1 X100
G2 X103 Y29 I0 J-3
G1 Y-29
G2 X100 Y-32 I-3 J0
G3 X99.4 Y-32.6 I0 J-0.6 F800
G1 Y-39.6
G19 G2 Y-40.2 Z9.8 J0 K0.6
G1 X100.6 F1000
Z9.6 F500
G3 Y-39.6 Z9 J0.6 K0 F600
G1 Y-32.6
G17 G3 X100 Y-32 I-0.6 J0
G1 X-100 F1000
G2 X-103 Y-29 I0 J3
G1 Y29
G2 X-100 Y32 I3 J0
G1 X100
G2 X103 Y29 I0 J-3
G1 Y-29
G2 X100 Y-32 I-3 J0
G3 X99.4 Y-32.6 I0 J-0.6 F800
G1 Y-39.6
G19 G2 Y-40.2 Z9.6 J0 K0.6
G1 X100.6 F1000
Z9.4 F500
G3 Y-39.6 Z8.8 J0.6 K0 F600
G1 Y-32.6
G17 G3 X100 Y-32 I-0.6 J0
G1 X-100 F1000
G2 X-103 Y-29 I0 J3
G1 Y29
G2 X-100 Y32 I3 J0
G1 X100
G2 X103 Y29 I0 J-3
G1 Y-29
G2 X100 Y-32 I-3 J0
G3 X99.4 Y-32.6 I0 J-0.6 F800
G1 Y-39.6
G19 G2 Y-40.2 Z9.4 J0 K0.6
G1 X100.6 F1000
Z9.2 F500
G3 Y-39.6 Z8.6 J0.6 K0 F600
G1 Y-32.6
G17 G3 X100 Y-32 I-0.6 J0
G1 X-100 F1000
G2 X-103 Y-29 I0 J3
G1 Y29
G2 X-100 Y32 I3 J0
G1 X100
G2 X103 Y29 I0 J-3
G1 Y-29
G2 X100 Y-32 I-3 J0
G3 X99.4 Y-32.6 I0 J-0.6 F800
G1 Y-39.6
G19 G2 Y-40.2 Z9.2 J0 K0.6
G1 X100.6 F1000
Z9 F500
G3 Y-39.6 Z8.4 J0.6 K0 F600
G1 Y-32.6
G17 G3 X100 Y-32 I-0.6 J0
G1 X-100 F1000
G2 X-103 Y-29 I0 J3
G1 Y29
G2 X-100 Y32 I3 J0
G1 X100
G2 X103 Y29 I0 J-3
G1 Y-29
G2 X100 Y-32 I-3 J0
G3 X99.4 Y-32.6 I0 J-0.6 F800
G1 Y-39.6
G19 G2 Y-40.2 Z9 J0 K0.6
G1 X100.6 F1000
Z8.8 F500
G3 Y-39.6 Z8.2 J0.6 K0 F600
G1 Y-32.6
G17 G3 X100 Y-32 I-0.6 J0
G1 X-100 F1000
G2 X-103 Y-29 I0 J3
G1 Y29
G2 X-100 Y32 I3 J0
G1 X100
G2 X103 Y29 I0 J-3
G1 Y-29
G2 X100 Y-32 I-3 J0
G3 X99.4 Y-32.6 I0 J-0.6 F800
G1 Y-39.6
G19 G2 Y-40.2 Z8.8 J0 K0.6
G1 X100.6 F1000
Z8.6 F500
G3 Y-39.6 Z8 J0.6 K0 F600
G1 Y-32.6
G17 G3 X100 Y-32 I-0.6 J0
G1 X-100 F1000
G2 X-103 Y-29 I0 J3
G1 Y29
G2 X-100 Y32 I3 J0
G1 X100
G2 X103 Y29 I0 J-3
G1 Y-29
G2 X100 Y-32 I-3 J0
G3 X99.4 Y-32.6 I0 J-0.6 F800
G1 Y-39.6
G19 G2 Y-40.2 Z8.6 J0 K0.6
G1 X100.6 F1000
Z8.4 F500
G3 Y-39.6 Z7.8 J0.6 K0 F600
G1 Y-32.6
G17 G3 X100 Y-32 I-0.6 J0
G1 X-100 F1000
G2 X-103 Y-29 I0 J3
G1 Y29
G2 X-100 Y32 I3 J0
G1 X100
G2 X103 Y29 I0 J-3
G1 Y-29
G2 X100 Y-32 I-3 J0
G3 X99.4 Y-32.6 I0 J-0.6 F800
G1 Y-39.6
G19 G2 Y-40.2 Z8.4 J0 K0.6
G1 X100.6 F1000
Z8.2 F500
G3 Y-39.6 Z7.6 J0.6 K0 F600
G1 Y-32.6
G17 G3 X100 Y-32 I-0.6 J0
G1 X-100 F1000
G2 X-103 Y-29 I0 J3
G1 Y29
G2 X-100 Y32 I3 J0
G1 X100
G2 X103 Y29 I0 J-3
G1 Y-29
G2 X100 Y-32 I-3 J0
G3 X99.4 Y-32.6 I0 J-0.6 F800
G1 Y-39.6
G19 G2 Y-40.2 Z8.2 J0 K0.6
G1 X100.6 F1000
Z8 F500
G3 Y-39.6 Z7.4 J0.6 K0 F600
G1 Y-32.6
G17 G3 X100 Y-32 I-0.6 J0
G1 X-100 F1000
G2 X-103 Y-29 I0 J3
G1 Y29
G2 X-100 Y32 I3 J0
G1 X100
G2 X103 Y29 I0 J-3
G1 Y-29
G2 X100 Y-32 I-3 J0
G3 X99.4 Y-32.6 I0 J-0.6 F800
G1 Y-39.6
G19 G2 Y-40.2 Z8 J0 K0.6
G1 X100.6 F1000
Z7.8 F500
G3 Y-39.6 Z7.2 J0.6 K0 F600
G1 Y-32.6
G17 G3 X100 Y-32 I-0.6 J0
G1 X-100 F1000
G2 X-103 Y-29 I0 J3
G1 Y29
G2 X-100 Y32 I3 J0
G1 X100
G2 X103 Y29 I0 J-3
G1 Y-29
G2 X100 Y-32 I-3 J0
G3 X99.4 Y-32.6 I0 J-0.6 F800
G1 Y-39.6
G19 G2 Y-40.2 Z7.8 J0 K0.6
G1 X100.6 F1000
Z7.6 F500
G3 Y-39.6 Z7 J0.6 K0 F600
G1 Y-32.6
G17 G3 X100 Y-32 I-0.6 J0
G1 X-100 F1000
G2 X-103 Y-29 I0 J3
G1 Y29
G2 X-100 Y32 I3 J0
G1 X100
G2 X103 Y29 I0 J-3
G1 Y-29
G2 X100 Y-32 I-3 J0
G3 X99.4 Y-32.6 I0 J-0.6 F800
G1 Y-39.6
G19 G2 Y-40.2 Z7.6 J0 K0.6
G1 X100.6 F1000
Z7.4 F500
G3 Y-39.6 Z6.8 J0.6 K0 F600
G1 Y-32.6
G17 G3 X100 Y-32 I-0.6 J0
G1 X-100 F1000
G2 X-103 Y-29 I0 J3
G1 Y29
G2 X-100 Y32 I3 J0
G1 X100
G2 X103 Y29 I0 J-3
G1 Y-29
G2 X100 Y-32 I-3 J0
G3 X99.4 Y-32.6 I0 J-0.6 F800
G1 Y-39.6
G19 G2 Y-40.2 Z7.4 J0 K0.6
G1 X100.6 F1000
Z7.2 F500
G3 Y-39.6 Z6.6 J0.6 K0 F600
G1 Y-32.6
G17 G3 X100 Y-32 I-0.6 J0
G1 X-100 F1000
G2 X-103 Y-29 I0 J3
G1 Y29
G2 X-100 Y32 I3 J0
G1 X100
G2 X103 Y29 I0 J-3
G1 Y-29
G2 X100 Y-32 I-3 J0
G3 X99.4 Y-32.6 I0 J-0.6 F800
G1 Y-39.6
G19 G2 Y-40.2 Z7.2 J0 K0.6
G1 X100.6 F1000
Z7 F500
G3 Y-39.6 Z6.4 J0.6 K0 F600
G1 Y-32.6
G17 G3 X100 Y-32 I-0.6 J0
G1 X-100 F1000
G2 X-103 Y-29 I0 J3
G1 Y29
G2 X-100 Y32 I3 J0
G1 X100
G2 X103 Y29 I0 J-3
G1 Y-29
G2 X100 Y-32 I-3 J0
G3 X99.4 Y-32.6 I0 J-0.6 F800
G1 Y-39.6
G19 G2 Y-40.2 Z7 J0 K0.6
G1 X100.6 F1000
Z6.8 F500
G3 Y-39.6 Z6.2 J0.6 K0 F600
G1 Y-32.6
G17 G3 X100 Y-32 I-0.6 J0
G1 X-100 F1000
G2 X-103 Y-29 I0 J3
G1 Y29
G2 X-100 Y32 I3 J0
G1 X100
G2 X103 Y29 I0 J-3
G1 Y-29
G2 X100 Y-32 I-3 J0
G3 X99.4 Y-32.6 I0 J-0.6 F800
G1 Y-39.6
G19 G2 Y-40.2 Z6.8 J0 K0.6
G1 X100.6 F1000
Z6.6 F500
G3 Y-39.6 Z6 J0.6 K0 F600
G1 Y-32.6
G17 G3 X100 Y-32 I-0.6 J0
G1 X-100 F1000
G2 X-103 Y-29 I0 J3
G1 Y29
G2 X-100 Y32 I3 J0
G1 X100
G2 X103 Y29 I0 J-3
G1 Y-29
G2 X100 Y-32 I-3 J0
G3 X99.4 Y-32.6 I0 J-0.6 F800
G1 Y-39.6
G19 G2 Y-40.2 Z6.6 J0 K0.6
G1 X100.6 F1000
Z6.4 F500
G3 Y-39.6 Z5.8 J0.6 K0 F600
G1 Y-32.6
G17 G3 X100 Y-32 I-0.6 J0
G1 X-100 F1000
G2 X-103 Y-29 I0 J3
G1 Y29
G2 X-100 Y32 I3 J0
G1 X100
G2 X103 Y29 I0 J-3
G1 Y-29
G2 X100 Y-32 I-3 J0
G3 X99.4 Y-32.6 I0 J-0.6 F800
G1 Y-39.6
G19 G2 Y-40.2 Z6.4 J0 K0.6
G1 X100.6 F1000
Z6.2 F500
G3 Y-39.6 Z5.6 J0.6 K0 F600
G1 Y-32.6
G17 G3 X100 Y-32 I-0.6 J0
G1 X-100 F1000
G2 X-103 Y-29 I0 J3
G1 Y29
G2 X-100 Y32 I3 J0
G1 X100
G2 X103 Y29 I0 J-3
G1 Y-29
G2 X100 Y-32 I-3 J0
G3 X99.4 Y-32.6 I0 J-0.6 F800
G1 Y-39.6
G19 G2 Y-40.2 Z6.2 J0 K0.6
G1 X100.6 F1000
Z6 F500
G3 Y-39.6 Z5.4 J0.6 K0 F600
G1 Y-32.6
G17 G3 X100 Y-32 I-0.6 J0
G1 X-100 F1000
G2 X-103 Y-29 I0 J3
G1 Y29
G2 X-100 Y32 I3 J0
G1 X100
G2 X103 Y29 I0 J-3
G1 Y-29
G2 X100 Y-32 I-3 J0
G3 X99.4 Y-32.6 I0 J-0.6 F800
G1 Y-39.6
G19 G2 Y-40.2 Z6 J0 K0.6
G1 X100.6 F1000
Z5.8 F500
G3 Y-39.6 Z5.2 J0.6 K0 F600
G1 Y-32.6
G17 G3 X100 Y-32 I-0.6 J0
G1 X-100 F1000
G2 X-103 Y-29 I0 J3
G1 Y29
G2 X-100 Y32 I3 J0
G1 X100
G2 X103 Y29 I0 J-3
G1 Y-29
G2 X100 Y-32 I-3 J0
G3 X99.4 Y-32.6 I0 J-0.6 F800
G1 Y-39.6
G19 G2 Y-40.2 Z5.8 J0 K0.6
G1 X100.6 F1000
Z5.6 F500
G3 Y-39.6 Z5 J0.6 K0 F600
G1 Y-32.6
G17 G3 X100 Y-32 I-0.6 J0
G1 X-100 F1000
G2 X-103 Y-29 I0 J3
G1 Y29
G2 X-100 Y32 I3 J0
G1 X100
G2 X103 Y29 I0 J-3
G1 Y-29
G2 X100 Y-32 I-3 J0
G3 X99.4 Y-32.6 I0 J-0.6 F800
G1 Y-39.6
G19 G2 Y-40.2 Z5.6 J0 K0.6
G1 X100.6 F1000
Z5.4 F500
G3 Y-39.6 Z4.8 J0.6 K0 F600
G1 Y-32.6
G17 G3 X100 Y-32 I-0.6 J0
G1 X-100 F1000
G2 X-103 Y-29 I0 J3
G1 Y29
G2 X-100 Y32 I3 J0
G1 X100
G2 X103 Y29 I0 J-3
G1 Y-29
G2 X100 Y-32 I-3 J0
G3 X99.4 Y-32.6 I0 J-0.6 F800
G1 Y-39.6
G19 G2 Y-40.2 Z5.4 J0 K0.6
G1 X100.6 F1000
Z5.2 F500
G3 Y-39.6 Z4.6 J0.6 K0 F600
G1 Y-32.6
G17 G3 X100 Y-32 I-0.6 J0
G1 X-100 F1000
G2 X-103 Y-29 I0 J3
G1 Y29
G2 X-100 Y32 I3 J0
G1 X100
G2 X103 Y29 I0 J-3
G1 Y-29
G2 X100 Y-32 I-3 J0
G3 X99.4 Y-32.6 I0 J-0.6 F800
G1 Y-39.6
G19 G2 Y-40.2 Z5.2 J0 K0.6
G1 X100.6 F1000
Z5 F500
G3 Y-39.6 Z4.4 J0.6 K0 F600
G1 Y-32.6
G17 G3 X100 Y-32 I-0.6 J0
G1 X-100 F1000
G2 X-103 Y-29 I0 J3
G1 Y29
G2 X-100 Y32 I3 J0
G1 X100
G2 X103 Y29 I0 J-3
G1 Y-29
G2 X100 Y-32 I-3 J0
G3 X99.4 Y-32.6 I0 J-0.6 F800
G1 Y-39.6
G19 G2 Y-40.2 Z5 J0 K0.6
G1 X100.6 F1000
Z4.8 F500
G3 Y-39.6 Z4.2 J0.6 K0 F600
G1 Y-32.6
G17 G3 X100 Y-32 I-0.6 J0
G1 X-100 F1000
G2 X-103 Y-29 I0 J3
G1 Y29
G2 X-100 Y32 I3 J0
G1 X100
G2 X103 Y29 I0 J-3
G1 Y-29
G2 X100 Y-32 I-3 J0
G3 X99.4 Y-32.6 I0 J-0.6 F800
G1 Y-39.6
G19 G2 Y-40.2 Z4.8 J0 K0.6
G1 X100.6 F1000
Z4.6 F500
G3 Y-39.6 Z4 J0.6 K0 F600
G1 Y-32.6
G17 G3 X100 Y-32 I-0.6 J0
G1 X-100 F1000
G2 X-103 Y-29 I0 J3
G1 Y29
G2 X-100 Y32 I3 J0
G1 X100
G2 X103 Y29 I0 J-3
G1 Y-29
G2 X100 Y-32 I-3 J0
G3 X99.4 Y-32.6 I0 J-0.6 F800
G1 Y-39.6
G19 G2 Y-40.2 Z4.6 J0 K0.6
G1 X100.6 F1000
Z4.4 F500
G3 Y-39.6 Z3.8 J0.6 K0 F600
G1 Y-32.6
G17 G3 X100 Y-32 I-0.6 J0
G1 X-100 F1000
G2 X-103 Y-29 I0 J3
G1 Y29
G2 X-100 Y32 I3 J0
G1 X100
G2 X103 Y29 I0 J-3
G1 Y-29
G2 X100 Y-32 I-3 J0
G3 X99.4 Y-32.6 I0 J-0.6 F800
G1 Y-39.6
G19 G2 Y-40.2 Z4.4 J0 K0.6
G1 X100.6 F1000
Z4.2 F500
G3 Y-39.6 Z3.6 J0.6 K0 F600
G1 Y-32.6
G17 G3 X100 Y-32 I-0.6 J0
G1 X-100 F1000
G2 X-103 Y-29 I0 J3
G1 Y29
G2 X-100 Y32 I3 J0
G1 X100
G2 X103 Y29 I0 J-3
G1 Y-29
G2 X100 Y-32 I-3 J0
G3 X99.4 Y-32.6 I0 J-0.6 F800
G1 Y-39.6
G19 G2 Y-40.2 Z4.2 J0 K0.6
G1 X100.6 F1000
Z4 F500
G3 Y-39.6 Z3.4 J0.6 K0 F600
G1 Y-32.6
G17 G3 X100 Y-32 I-0.6 J0
G1 X-100 F1000
G2 X-103 Y-29 I0 J3
G1 Y29
G2 X-100 Y32 I3 J0
G1 X100
G2 X103 Y29 I0 J-3
G1 Y-29
G2 X100 Y-32 I-3 J0
G3 X99.4 Y-32.6 I0 J-0.6 F800
G1 Y-39.6
G19 G2 Y-40.2 Z4 J0 K0.6
G1 X100.6 F1000
Z3.8 F500
G3 Y-39.6 Z3.2 J0.6 K0 F600
G1 Y-32.6
G17 G3 X100 Y-32 I-0.6 J0
G1 X-100 F1000
G2 X-103 Y-29 I0 J3
G1 Y29
G2 X-100 Y32 I3 J0
G1 X100
G2 X103 Y29 I0 J-3
G1 Y-29
G2 X100 Y-32 I-3 J0
G3 X99.4 Y-32.6 I0 J-0.6 F800
G1 Y-39.6
G19 G2 Y-40.2 Z3.8 J0 K0.6
G1 X100.6 F1000
Z3.6 F500
G3 Y-39.6 Z3 J0.6 K0 F600
G1 Y-32.6
G17 G3 X100 Y-32 I-0.6 J0
G1 X-100 F1000
G2 X-103 Y-29 I0 J3
G1 Y29
G2 X-100 Y32 I3 J0
G1 X100
G2 X103 Y29 I0 J-3
G1 Y-29
G2 X100 Y-32 I-3 J0
G3 X99.4 Y-32.6 I0 J-0.6 F800
G1 Y-39.6
G19 G2 Y-40.2 Z3.6 J0 K0.6
G1 X100.6 F1000
Z3.4 F500
G3 Y-39.6 Z2.8 J0.6 K0 F600
G1 Y-32.6
G17 G3 X100 Y-32 I-0.6 J0
G1 X-100 F1000
G2 X-103 Y-29 I0 J3
G1 Y29
G2 X-100 Y32 I3 J0
G1 X100
G2 X103 Y29 I0 J-3
G1 Y-29
G2 X100 Y-32 I-3 J0
G3 X99.4 Y-32.6 I0 J-0.6 F800
G1 Y-39.6
G19 G2 Y-40.2 Z3.4 J0 K0.6
G1 X100.6 F1000
Z3.2 F500
G3 Y-39.6 Z2.6 J0.6 K0 F600
G1 Y-32.6
G17 G3 X100 Y-32 I-0.6 J0
G1 X-100 F1000
G2 X-103 Y-29 I0 J3
G1 Y29
G2 X-100 Y32 I3 J0
G1 X100
G2 X103 Y29 I0 J-3
G1 Y-29
G2 X100 Y-32 I-3 J0
G3 X99.4 Y-32.6 I0 J-0.6 F800
G1 Y-39.6
G19 G2 Y-40.2 Z3.2 J0 K0.6
G1 X100.6 F1000
Z3 F500
G3 Y-39.6 Z2.4 J0.6 K0 F600
G1 Y-32.6
G17 G3 X100 Y-32 I-0.6 J0
G1 X-100 F1000
G2 X-103 Y-29 I0 J3
G1 Y29
G2 X-100 Y32 I3 J0
G1 X100
G2 X103 Y29 I0 J-3
G1 Y-29
G2 X100 Y-32 I-3 J0
G3 X99.4 Y-32.6 I0 J-0.6 F800
G1 Y-39.6
G19 G2 Y-40.2 Z3 J0 K0.6
G1 X100.6 F1000
Z2.8 F500
G3 Y-39.6 Z2.2 J0.6 K0 F600
G1 Y-32.6
G17 G3 X100 Y-32 I-0.6 J0
G1 X-100 F1000
G2 X-103 Y-29 I0 J3
G1 Y29
G2 X-100 Y32 I3 J0
G1 X100
G2 X103 Y29 I0 J-3
G1 Y-29
G2 X100 Y-32 I-3 J0
G3 X99.4 Y-32.6 I0 J-0.6 F800
G1 Y-39.6
G19 G2 Y-40.2 Z2.8 J0 K0.6
G1 X100.6 F1000
Z2.6 F500
G3 Y-39.6 Z2 J0.6 K0 F600
G1 Y-32.6
G17 G3 X100 Y-32 I-0.6 J0
G1 X-100 F1000
G2 X-103 Y-29 I0 J3
G1 Y29
G2 X-100 Y32 I3 J0
G1 X100
G2 X103 Y29 I0 J-3
G1 Y-29
G2 X100 Y-32 I-3 J0
G3 X99.4 Y-32.6 I0 J-0.6 F800
G1 Y-39.6
G19 G2 Y-40.2 Z2.6 J0 K0.6
G1 X100.6 F1000
Z2.4 F500
G3 Y-39.6 Z1.8 J0.6 K0 F600
G1 Y-32.6
G17 G3 X100 Y-32 I-0.6 J0
G1 X-100 F1000
G2 X-103 Y-29 I0 J3
G1 Y29
G2 X-100 Y32 I3 J0
G1 X100
G2 X103 Y29 I0 J-3
G1 Y-29
G2 X100 Y-32 I-3 J0
G3 X99.4 Y-32.6 I0 J-0.6 F800
G1 Y-39.6
G19 G2 Y-40.2 Z2.4 J0 K0.6
G1 X100.6 F1000
Z2.2 F500
G3 Y-39.6 Z1.6 J0.6 K0 F600
G1 Y-32.6
G17 G3 X100 Y-32 I-0.6 J0
G1 X-100 F1000
G2 X-103 Y-29 I0 J3
G1 Y29
G2 X-100 Y32 I3 J0
G1 X100
G2 X103 Y29 I0 J-3
G1 Y-29
G2 X100 Y-32 I-3 J0
G3 X99.4 Y-32.6 I0 J-0.6 F800
G1 Y-39.6
G19 G2 Y-40.2 Z2.2 J0 K0.6
G1 X100.6 F1000
Z2 F500
G3 Y-39.6 Z1.4 J0.6 K0 F600
G1 Y-32.6
G17 G3 X100 Y-32 I-0.6 J0
G1 X-100 F1000
G2 X-103 Y-29 I0 J3
G1 Y29
G2 X-100 Y32 I3 J0
G1 X100
G2 X103 Y29 I0 J-3
G1 Y-29
G2 X100 Y-32 I-3 J0
G3 X99.4 Y-32.6 I0 J-0.6 F800
G1 Y-39.6
G19 G2 Y-40.2 Z2 J0 K0.6
G1 X100.6 F1000
Z1.8 F500
G3 Y-39.6 Z1.2 J0.6 K0 F600
G1 Y-32.6
G17 G3 X100 Y-32 I-0.6 J0
G1 X-100 F1000
G2 X-103 Y-29 I0 J3
G1 Y29
G2 X-100 Y32 I3 J0
G1 X100
G2 X103 Y29 I0 J-3
G1 Y-29
G2 X100 Y-32 I-3 J0
G3 X99.4 Y-32.6 I0 J-0.6 F800
G1 Y-39.6
G19 G2 Y-40.2 Z1.8 J0 K0.6
G1 X100.6 F1000
Z1.6 F500
G3 Y-39.6 Z1 J0.6 K0 F600
G1 Y-32.6
G17 G3 X100 Y-32 I-0.6 J0
G1 X-100 F1000
G2 X-103 Y-29 I0 J3
G1 Y29
G2 X-100 Y32 I3 J0
G1 X100
G2 X103 Y29 I0 J-3
G1 Y-29
G2 X100 Y-32 I-3 J0
G3 X99.4 Y-32.6 I0 J-0.6 F800
G1 Y-39.6
G19 G2 Y-40.2 Z1.6 J0 K0.6
G1 X100.6 F1000
Z1.4 F500
G3 Y-39.6 Z0.8 J0.6 K0 F600
G1 Y-32.6
G17 G3 X100 Y-32 I-0.6 J0
G1 X-100 F1000
G2 X-103 Y-29 I0 J3
G1 Y29
G2 X-100 Y32 I3 J0
G1 X100
G2 X103 Y29 I0 J-3
G1 Y-29
G2 X100 Y-32 I-3 J0
G3 X99.4 Y-32.6 I0 J-0.6 F800
G1 Y-39.6
G19 G2 Y-40.2 Z1.4 J0 K0.6
G1 X100.6 F1000
Z1.2 F500
G3 Y-39.6 Z0.6 J0.6 K0 F600
G1 Y-32.6
G17 G3 X100 Y-32 I-0.6 J0
G1 X-100 F1000
G2 X-103 Y-29 I0 J3
G1 Y29
G2 X-100 Y32 I3 J0
G1 X100
G2 X103 Y29 I0 J-3
G1 Y-29
G2 X100 Y-32 I-3 J0
G3 X99.4 Y-32.6 I0 J-0.6 F800
G1 Y-39.6
G19 G2 Y-40.2 Z1.2 J0 K0.6
G1 X100.6 F1000
Z1 F500
G3 Y-39.6 Z0.4 J0.6 K0 F600
G1 Y-32.6
G17 G3 X100 Y-32 I-0.6 J0
G1 X-100 F1000
G2 X-103 Y-29 I0 J3
G1 Y29
G2 X-100 Y32 I3 J0
G1 X100
G2 X103 Y29 I0 J-3
G1 Y-29
G2 X100 Y-32 I-3 J0
G3 X99.4 Y-32.6 I0 J-0.6 F800
G1 Y-39.6
G19 G2 Y-40.2 Z1 J0 K0.6
G1 X100.6 F1000
Z0.8 F500
G3 Y-39.6 Z0.2 J0.6 K0 F600
G1 Y-32.6
G17 G3 X100 Y-32 I-0.6 J0
G1 X-100 F1000
G2 X-103 Y-29 I0 J3
G1 Y29
G2 X-100 Y32 I3 J0
G1 X100
G2 X103 Y29 I0 J-3
G1 Y-29
G2 X100 Y-32 I-3 J0
G3 X99.4 Y-32.6 I0 J-0.6 F800
G1 Y-39.6
G19 G2 Y-40.2 Z0.8 J0 K0.6
G1 X100.6 F1000
Z0.6 F500
G3 Y-39.6 Z0 J0.6 K0 F600
G1 Y-32.6
G17 G3 X100 Y-32 I-0.6 J0
G1 X-100 F1000
G2 X-103 Y-29 I0 J3
G1 Y29
G2 X-100 Y32 I3 J0
G1 X100
G2 X103 Y29 I0 J-3
G1 Y-29
G2 X100 Y-32 I-3 J0
G3 X99.4 Y-32.6 I0 J-0.6 F800
G1 Y-39.6
G19 G2 Y-40.2 Z0.6 J0 K0.6
G0 Z25.2
G17
G28 G91 Z0
G90
G28 G91 X0 Y0
G90
M5
M30
