(ycar_bore_1)
(T6  D=3.175 CR=0 - ZMIN=0 - flat end mill)
G90 G94
G17
G21
G28 G91 Z0
G90

(Bore1)
T6
(1/8" Flat-45 degree helix)
S18000 M3
G54
G0 X-90.369 Y-14.682
Z25.2
Z12.5
G1 Z10.818 F500
G18 G3 X-90.686 Z10.5 I-0.317 K0
G1 X-90.845
G17 G3 X-91.162 Y-15 I0 J-0.318
X-88.838 Y-15 Z10.4 I1.162 J0
X-91.162 Y-15 Z10.3 I-1.162 J0
X-88.838 Y-15 Z10.2 I1.162 J0
X-91.162 Y-15 Z10.1 I-1.162 J0
X-88.838 Y-15 Z10 I1.162 J0
X-91.162 Y-15 Z9.9 I-1.162 J0
X-88.838 Y-15 Z9.8 I1.162 J0
X-91.162 Y-15 Z9.7 I-1.162 J0
X-88.838 Y-15 Z9.6 I1.162 J0
X-91.162 Y-15 Z9.5 I-1.162 J0
X-88.838 Y-15 Z9.4 I1.162 J0
X-91.162 Y-15 Z9.3 I-1.162 J0
X-88.838 Y-15 Z9.2 I1.162 J0
X-91.162 Y-15 Z9.1 I-1.162 J0
X-88.838 Y-15 Z9 I1.162 J0
X-91.162 Y-15 Z8.9 I-1.162 J0
X-88.838 Y-15 Z8.8 I1.162 J0
X-91.162 Y-15 Z8.7 I-1.162 J0
X-88.838 Y-15 Z8.6 I1.162 J0
X-91.162 Y-15 Z8.5 I-1.162 J0
X-88.838 Y-15 Z8.4 I1.162 J0
X-91.162 Y-15 Z8.3 I-1.162 J0
X-88.838 Y-15 Z8.2 I1.162 J0
X-91.162 Y-15 Z8.1 I-1.162 J0
X-88.838 Y-15 Z8 I1.162 J0
X-91.162 Y-15 Z7.9 I-1.162 J0
X-88.838 Y-15 Z7.8 I1.162 J0
X-91.162 Y-15 Z7.7 I-1.162 J0
X-88.838 Y-15 Z7.6 I1.162 J0
X-91.162 Y-15 Z7.5 I-1.162 J0
X-88.838 Y-15 Z7.4 I1.162 J0
X-91.162 Y-15 Z7.3 I-1.162 J0
X-88.838 Y-15 Z7.2 I1.162 J0
X-91.162 Y-15 Z7.1 I-1.162 J0
X-88.838 Y-15 Z7 I1.162 J0
X-91.162 Y-15 Z6.9 I-1.162 J0
X-88.838 Y-15 Z6.8 I1.162 J0
X-91.162 Y-15 Z6.7 I-1.162 J0
X-88.838 Y-15 Z6.6 I1.162 J0
X-91.162 Y-15 Z6.5 I-1.162 J0
X-88.838 Y-15 Z6.4 I1.162 J0
X-91.162 Y-15 Z6.3 I-1.162 J0
X-88.838 Y-15 Z6.2 I1.162 J0
X-91.162 Y-15 Z6.1 I-1.162 J0
X-88.838 Y-15 Z6 I1.162 J0
X-91.162 Y-15 Z5.9 I-1.162 J0
X-88.838 Y-15 Z5.8 I1.162 J0
X-91.162 Y-15 Z5.7 I-1.162 J0
X-88.838 Y-15 Z5.6 I1.162 J0
X-91.162 Y-15 Z5.5 I-1.162 J0
X-88.838 Y-15 Z5.4 I1.162 J0
X-91.162 Y-15 Z5.3 I-1.162 J0
X-88.838 Y-15 Z5.2 I1.162 J0
X-91.162 Y-15 Z5.1 I-1.162 J0
X-88.838 Y-15 Z5 I1.162 J0
X-91.162 Y-15 Z4.9 I-1.162 J0
X-88.838 Y-15 Z4.8 I1.162 J0
X-91.162 Y-15 Z4.7 I-1.162 J0
X-88.838 Y-15 Z4.6 I1.162 J0
X-91.162 Y-15 Z4.5 I-1.162 J0
X-88.838 Y-15 Z4.4 I1.162 J0
X-91.162 Y-15 Z4.3 I-1.162 J0
X-88.838 Y-15 Z4.2 I1.162 J0
X-91.162 Y-15 Z4.1 I-1.162 J0
X-88.838 Y-15 Z4 I1.162 J0
X-91.162 Y-15 Z3.9 I-1.162 J0
X-88.838 Y-15 Z3.8 I1.162 J0
X-91.162 Y-15 Z3.7 I-1.162 J0
X-88.838 Y-15 Z3.6 I1.162 J0
X-91.162 Y-15 Z3.5 I-1.162 J0
X-88.838 Y-15 Z3.4 I1.162 J0
X-91.162 Y-15 Z3.3 I-1.162 J0
X-88.838 Y-15 Z3.2 I1.162 J0
X-91.162 Y-15 Z3.1 I-1.162 J0
X-88.838 Y-15 Z3 I1.162 J0
X-91.162 Y-15 Z2.9 I-1.162 J0
X-88.838 Y-15 Z2.8 I1.162 J0
X-91.162 Y-15 Z2.7 I-1.162 J0
X-88.838 Y-15 Z2.6 I1.162 J0
X-91.162 Y-15 Z2.5 I-1.162 J0
X-88.838 Y-15 Z2.4 I1.162 J0
X-91.162 Y-15 Z2.3 I-1.162 J0
X-88.838 Y-15 Z2.2 I1.162 J0
X-91.162 Y-15 Z2.1 I-1.162 J0
X-88.838 Y-15 Z2 I1.162 J0
X-91.162 Y-15 Z1.9 I-1.162 J0
X-88.838 Y-15 Z1.8 I1.162 J0
X-91.162 Y-15 Z1.7 I-1.162 J0
X-88.838 Y-15 Z1.6 I1.162 J0
X-91.162 Y-15 Z1.5 I-1.162 J0
X-88.838 Y-15 Z1.4 I1.162 J0
X-91.162 Y-15 Z1.3 I-1.162 J0
X-88.838 Y-15 Z1.2 I1.162 J0
X-91.162 Y-15 Z1.1 I-1.162 J0
X-88.838 Y-15 Z1 I1.162 J0
X-91.162 Y-15 Z0.9 I-1.162 J0
X-88.838 Y-15 Z0.8 I1.162 J0
X-91.162 Y-15 Z0.7 I-1.162 J0
X-88.838 Y-15 Z0.6 I1.162 J0
X-91.162 Y-15 Z0.5 I-1.162 J0
X-88.838 Y-15 Z0.4 I1.162 J0
X-91.162 Y-15 Z0.3 I-1.162 J0
X-88.838 Y-15 Z0.2 I1.162 J0
X-91.162 Y-15 Z0.1 I-1.162 J0
X-88.838 Y-15 Z0 I1.162 J0
X-91.162 Y-15 I-1.162 J0
X-88.838 Y-15 I1.162 J0
X-89.155 Y-14.682 I-0.317 J0
G1 X-89.314
G18 G3 X-89.631 Z0.317 I0 K0.317
G0 Z19.2
X-90.369 Y15.318
Z12.5
G1 Z10.818 F500
G3 X-90.686 Z10.5 I-0.317 K0
G1 X-90.845
G17 G3 X-91.162 Y15 I0 J-0.318
X-88.838 Y15 Z10.4 I1.162 J0
X-91.162 Y15 Z10.3 I-1.162 J0
X-88.838 Y15 Z10.2 I1.162 J0
X-91.162 Y15 Z10.1 I-1.162 J0
X-88.838 Y15 Z10 I1.162 J0
X-91.162 Y15 Z9.9 I-1.162 J0
X-88.838 Y15 Z9.8 I1.162 J0
X-91.162 Y15 Z9.7 I-1.162 J0
X-88.838 Y15 Z9.6 I1.162 J0
X-91.162 Y15 Z9.5 I-1.162 J0
X-88.838 Y15 Z9.4 I1.162 J0
X-91.162 Y15 Z9.3 I-1.162 J0
X-88.838 Y15 Z9.2 I1.162 J0
X-91.162 Y15 Z9.1 I-1.162 J0
X-88.838 Y15 Z9 I1.162 J0
X-91.162 Y15 Z8.9 I-1.162 J0
X-88.838 Y15 Z8.8 I1.162 J0
X-91.162 Y15 Z8.7 I-1.162 J0
X-88.838 Y15 Z8.6 I1.162 J0
X-91.162 Y15 Z8.5 I-1.162 J0
X-88.838 Y15 Z8.4 I1.162 J0
X-91.162 Y15 Z8.3 I-1.162 J0
X-88.838 Y15 Z8.2 I1.162 J0
X-91.162 Y15 Z8.1 I-1.162 J0
X-88.838 Y15 Z8 I1.162 J0
X-91.162 Y15 Z7.9 I-1.162 J0
X-88.838 Y15 Z7.8 I1.162 J0
X-91.162 Y15 Z7.7 I-1.162 J0
X-88.838 Y15 Z7.6 I1.162 J0
X-91.162 Y15 Z7.5 I-1.162 J0
X-88.838 Y15 Z7.4 I1.162 J0
X-91.162 Y15 Z7.3 I-1.162 J0
X-88.838 Y15 Z7.2 I1.162 J0
X-91.162 Y15 Z7.1 I-1.162 J0
X-88.838 Y15 Z7 I1.162 J0
X-91.162 Y15 Z6.9 I-1.162 J0
X-88.838 Y15 Z6.8 I1.162 J0
X-91.162 Y15 Z6.7 I-1.162 J0
X-88.838 Y15 Z6.6 I1.162 J0
X-91.162 Y15 Z6.5 I-1.162 J0
X-88.838 Y15 Z6.4 I1.162 J0
X-91.162 Y15 Z6.3 I-1.162 J0
X-88.838 Y15 Z6.2 I1.162 J0
X-91.162 Y15 Z6.1 I-1.162 J0
X-88.838 Y15 Z6 I1.162 J0
X-91.162 Y15 Z5.9 I-1.162 J0
X-88.838 Y15 Z5.8 I1.162 J0
X-91.162 Y15 Z5.7 I-1.162 J0
X-88.838 Y15 Z5.6 I1.162 J0
X-91.162 Y15 Z5.5 I-1.162 J0
X-88.838 Y15 Z5.4 I1.162 J0
X-91.162 Y15 Z5.3 I-1.162 J0
X-88.838 Y15 Z5.2 I1.162 J0
X-91.162 Y15 Z5.1 I-1.162 J0
X-88.838 Y15 Z5 I1.162 J0
X-91.162 Y15 Z4.9 I-1.162 J0
X-88.838 Y15 Z4.8 I1.162 J0
X-91.162 Y15 Z4.7 I-1.162 J0
X-88.838 Y15 Z4.6 I1.162 J0
X-91.162 Y15 Z4.5 I-1.162 J0
X-88.838 Y15 Z4.4 I1.162 J0
X-91.162 Y15 Z4.3 I-1.162 J0
X-88.838 Y15 Z4.2 I1.162 J0
X-91.162 Y15 Z4.1 I-1.162 J0
X-88.838 Y15 Z4 I1.162 J0
X-91.162 Y15 Z3.9 I-1.162 J0
X-88.838 Y15 Z3.8 I1.162 J0
X-91.162 Y15 Z3.7 I-1.162 J0
X-88.838 Y15 Z3.6 I1.162 J0
X-91.162 Y15 Z3.5 I-1.162 J0
X-88.838 Y15 Z3.4 I1.162 J0
X-91.162 Y15 Z3.3 I-1.162 J0
X-88.838 Y15 Z3.2 I1.162 J0
X-91.162 Y15 Z3.1 I-1.162 J0
X-88.838 Y15 Z3 I1.162 J0
X-91.162 Y15 Z2.9 I-1.162 J0
X-88.838 Y15 Z2.8 I1.162 J0
X-91.162 Y15 Z2.7 I-1.162 J0
X-88.838 Y15 Z2.6 I1.162 J0
X-91.162 Y15 Z2.5 I-1.162 J0
X-88.838 Y15 Z2.4 I1.162 J0
X-91.162 Y15 Z2.3 I-1.162 J0
X-88.838 Y15 Z2.2 I1.162 J0
X-91.162 Y15 Z2.1 I-1.162 J0
X-88.838 Y15 Z2 I1.162 J0
X-91.162 Y15 Z1.9 I-1.162 J0
X-88.838 Y15 Z1.8 I1.162 J0
X-91.162 Y15 Z1.7 I-1.162 J0
X-88.838 Y15 Z1.6 I1.162 J0
X-91.162 Y15 Z1.5 I-1.162 J0
X-88.838 Y15 Z1.4 I1.162 J0
X-91.162 Y15 Z1.3 I-1.162 J0
X-88.838 Y15 Z1.2 I1.162 J0
X-91.162 Y15 Z1.1 I-1.162 J0
X-88.838 Y15 Z1 I1.162 J0
X-91.162 Y15 Z0.9 I-1.162 J0
X-88.838 Y15 Z0.8 I1.162 J0
X-91.162 Y15 Z0.7 I-1.162 J0
X-88.838 Y15 Z0.6 I1.162 J0
X-91.162 Y15 Z0.5 I-1.162 J0
X-88.838 Y15 Z0.4 I1.162 J0
X-91.162 Y15 Z0.3 I-1.162 J0
X-88.838 Y15 Z0.2 I1.162 J0
X-91.162 Y15 Z0.1 I-1.162 J0
X-88.838 Y15 Z0 I1.162 J0
X-91.162 Y15 I-1.162 J0
X-88.838 Y15 I1.162 J0
X-89.155 Y15.318 I-0.317 J0
G1 X-89.314
G18 G3 X-89.631 Z0.317 I0 K0.317
G0 Z19.2
X-15.369
Z12.5
G1 Z10.818 F500
G3 X-15.686 Z10.5 I-0.318 K0
G1 X-15.845
G17 G3 X-16.163 Y15 I0 J-0.318
X-13.837 Y15 Z10.4 I1.163 J0
X-16.163 Y15 Z10.3 I-1.163 J0
X-13.837 Y15 Z10.2 I1.163 J0
X-16.163 Y15 Z10.1 I-1.163 J0
X-13.837 Y15 Z10 I1.163 J0
X-16.163 Y15 Z9.9 I-1.163 J0
X-13.837 Y15 Z9.8 I1.163 J0
X-16.163 Y15 Z9.7 I-1.163 J0
X-13.837 Y15 Z9.6 I1.163 J0
X-16.163 Y15 Z9.5 I-1.163 J0
X-13.837 Y15 Z9.4 I1.163 J0
X-16.163 Y15 Z9.3 I-1.163 J0
X-13.837 Y15 Z9.2 I1.163 J0
X-16.163 Y15 Z9.1 I-1.163 J0
X-13.837 Y15 Z9 I1.163 J0
X-16.163 Y15 Z8.9 I-1.163 J0
X-13.837 Y15 Z8.8 I1.163 J0
X-16.163 Y15 Z8.7 I-1.163 J0
X-13.837 Y15 Z8.6 I1.163 J0
X-16.163 Y15 Z8.5 I-1.163 J0
X-13.837 Y15 Z8.4 I1.163 J0
X-16.163 Y15 Z8.3 I-1.163 J0
X-13.837 Y15 Z8.2 I1.163 J0
X-16.163 Y15 Z8.1 I-1.163 J0
X-13.837 Y15 Z8 I1.163 J0
X-16.163 Y15 Z7.9 I-1.163 J0
X-13.837 Y15 Z7.8 I1.163 J0
X-16.163 Y15 Z7.7 I-1.163 J0
X-13.837 Y15 Z7.6 I1.163 J0
X-16.163 Y15 Z7.5 I-1.163 J0
X-13.837 Y15 Z7.4 I1.163 J0
X-16.163 Y15 Z7.3 I-1.163 J0
X-13.837 Y15 Z7.2 I1.163 J0
X-16.163 Y15 Z7.1 I-1.163 J0
X-13.837 Y15 Z7 I1.163 J0
X-16.163 Y15 Z6.9 I-1.163 J0
X-13.837 Y15 Z6.8 I1.163 J0
X-16.163 Y15 Z6.7 I-1.163 J0
X-13.837 Y15 Z6.6 I1.163 J0
X-16.163 Y15 Z6.5 I-1.163 J0
X-13.837 Y15 Z6.4 I1.163 J0
X-16.163 Y15 Z6.3 I-1.163 J0
X-13.837 Y15 Z6.2 I1.163 J0
X-16.163 Y15 Z6.1 I-1.163 J0
X-13.837 Y15 Z6 I1.163 J0
X-16.163 Y15 Z5.9 I-1.163 J0
X-13.837 Y15 Z5.8 I1.163 J0
X-16.163 Y15 Z5.7 I-1.163 J0
X-13.837 Y15 Z5.6 I1.163 J0
X-16.163 Y15 Z5.5 I-1.163 J0
X-13.837 Y15 Z5.4 I1.163 J0
X-16.163 Y15 Z5.3 I-1.163 J0
X-13.837 Y15 Z5.2 I1.163 J0
X-16.163 Y15 Z5.1 I-1.163 J0
X-13.837 Y15 Z5 I1.163 J0
X-16.163 Y15 Z4.9 I-1.163 J0
X-13.837 Y15 Z4.8 I1.163 J0
X-16.163 Y15 Z4.7 I-1.163 J0
X-13.837 Y15 Z4.6 I1.163 J0
X-16.163 Y15 Z4.5 I-1.163 J0
X-13.837 Y15 Z4.4 I1.163 J0
X-16.163 Y15 Z4.3 I-1.163 J0
X-13.837 Y15 Z4.2 I1.163 J0
X-16.163 Y15 Z4.1 I-1.163 J0
X-13.837 Y15 Z4 I1.163 J0
X-16.163 Y15 Z3.9 I-1.163 J0
X-13.837 Y15 Z3.8 I1.163 J0
X-16.163 Y15 Z3.7 I-1.163 J0
X-13.837 Y15 Z3.6 I1.163 J0
X-16.163 Y15 Z3.5 I-1.163 J0
X-13.837 Y15 Z3.4 I1.163 J0
X-16.163 Y15 Z3.3 I-1.163 J0
X-13.837 Y15 Z3.2 I1.163 J0
X-16.163 Y15 Z3.1 I-1.163 J0
X-13.837 Y15 Z3 I1.163 J0
X-16.163 Y15 Z2.9 I-1.163 J0
X-13.837 Y15 Z2.8 I1.163 J0
X-16.163 Y15 Z2.7 I-1.163 J0
X-13.837 Y15 Z2.6 I1.163 J0
X-16.163 Y15 Z2.5 I-1.163 J0
X-13.837 Y15 Z2.4 I1.163 J0
X-16.163 Y15 Z2.3 I-1.163 J0
X-13.837 Y15 Z2.2 I1.163 J0
X-16.163 Y15 Z2.1 I-1.163 J0
X-13.837 Y15 Z2 I1.163 J0
X-16.163 Y15 Z1.9 I-1.163 J0
X-13.837 Y15 Z1.8 I1.163 J0
X-16.163 Y15 Z1.7 I-1.163 J0
X-13.837 Y15 Z1.6 I1.163 J0
X-16.163 Y15 Z1.5 I-1.163 J0
X-13.837 Y15 Z1.4 I1.163 J0
X-16.163 Y15 Z1.3 I-1.163 J0
X-13.837 Y15 Z1.2 I1.163 J0
X-16.163 Y15 Z1.1 I-1.163 J0
X-13.837 Y15 Z1 I1.163 J0
X-16.163 Y15 Z0.9 I-1.163 J0
X-13.837 Y15 Z0.8 I1.163 J0
X-16.163 Y15 Z0.7 I-1.163 J0
X-13.837 Y15 Z0.6 I1.163 J0
X-16.163 Y15 Z0.5 I-1.163 J0
X-13.837 Y15 Z0.4 I1.163 J0
X-16.163 Y15 Z0.3 I-1.163 J0
X-13.837 Y15 Z0.2 I1.163 J0
X-16.163 Y15 Z0.1 I-1.163 J0
X-13.837 Y15 Z0 I1.163 J0
X-16.163 Y15 I-1.163 J0
X-13.837 Y15 I1.163 J0
X-14.155 Y15.318 I-0.318 J0
G1 X-14.314
G18 G3 X-14.631 Z0.317 I0 K0.317
G0 Z19.2
X-32.031 Y13.318
Z12.5
G1 Z10.818 F500
G3 X-32.349 Z10.5 I-0.318 K0
G1 X-32.507
G17 G3 X-32.825 Y13 I0 J-0.318
X-31.175 Y13 Z10.4 I0.825 J0
X-32.825 Y13 Z10.3 I-0.825 J0
X-31.175 Y13 Z10.2 I0.825 J0
X-32.825 Y13 Z10.1 I-0.825 J0
X-31.175 Y13 Z10 I0.825 J0
X-32.825 Y13 Z9.9 I-0.825 J0
X-31.175 Y13 Z9.8 I0.825 J0
X-32.825 Y13 Z9.7 I-0.825 J0
X-31.175 Y13 Z9.6 I0.825 J0
X-32.825 Y13 Z9.5 I-0.825 J0
X-31.175 Y13 Z9.4 I0.825 J0
X-32.825 Y13 Z9.3 I-0.825 J0
X-31.175 Y13 Z9.2 I0.825 J0
X-32.825 Y13 Z9.1 I-0.825 J0
X-31.175 Y13 Z9 I0.825 J0
X-32.825 Y13 Z8.9 I-0.825 J0
X-31.175 Y13 Z8.8 I0.825 J0
X-32.825 Y13 Z8.7 I-0.825 J0
X-31.175 Y13 Z8.6 I0.825 J0
X-32.825 Y13 Z8.5 I-0.825 J0
X-31.175 Y13 Z8.4 I0.825 J0
X-32.825 Y13 Z8.3 I-0.825 J0
X-31.175 Y13 Z8.2 I0.825 J0
X-32.825 Y13 Z8.1 I-0.825 J0
X-31.175 Y13 Z8 I0.825 J0
X-32.825 Y13 Z7.9 I-0.825 J0
X-31.175 Y13 Z7.8 I0.825 J0
X-32.825 Y13 Z7.7 I-0.825 J0
X-31.175 Y13 Z7.6 I0.825 J0
X-32.825 Y13 Z7.5 I-0.825 J0
X-31.175 Y13 Z7.4 I0.825 J0
X-32.825 Y13 Z7.3 I-0.825 J0
X-31.175 Y13 Z7.2 I0.825 J0
X-32.825 Y13 Z7.1 I-0.825 J0
X-31.175 Y13 Z7 I0.825 J0
X-32.825 Y13 Z6.9 I-0.825 J0
X-31.175 Y13 Z6.8 I0.825 J0
X-32.825 Y13 Z6.7 I-0.825 J0
X-31.175 Y13 Z6.6 I0.825 J0
X-32.825 Y13 Z6.5 I-0.825 J0
X-31.175 Y13 Z6.4 I0.825 J0
X-32.825 Y13 Z6.3 I-0.825 J0
X-31.175 Y13 Z6.2 I0.825 J0
X-32.825 Y13 Z6.1 I-0.825 J0
X-31.175 Y13 Z6 I0.825 J0
X-32.825 Y13 Z5.9 I-0.825 J0
X-31.175 Y13 Z5.8 I0.825 J0
X-32.825 Y13 Z5.7 I-0.825 J0
X-31.175 Y13 Z5.6 I0.825 J0
X-32.825 Y13 Z5.5 I-0.825 J0
X-31.175 Y13 Z5.4 I0.825 J0
X-32.825 Y13 Z5.3 I-0.825 J0
X-31.175 Y13 Z5.2 I0.825 J0
X-32.825 Y13 Z5.1 I-0.825 J0
X-31.175 Y13 Z5 I0.825 J0
X-32.825 Y13 I-0.825 J0
X-31.175 Y13 I0.825 J0
X-31.493 Y13.318 I-0.318 J0
G1 X-31.651
G18 G3 X-31.969 Z5.318 I0 K0.318
G0 Z19.2
X-33.619
Z12.5
G1 Z10.818 F500
G3 X-33.936 Z10.5 I-0.317 K0
G1 X-34.095
G17 G3 X-34.412 Y13 I0 J-0.318
X-29.588 Y13 Z10.4 I2.412 J0
X-34.412 Y13 Z10.3 I-2.412 J0
X-29.588 Y13 Z10.2 I2.412 J0
X-34.412 Y13 Z10.1 I-2.412 J0
X-29.588 Y13 Z10 I2.412 J0
X-34.412 Y13 Z9.9 I-2.412 J0
X-29.588 Y13 Z9.8 I2.412 J0
X-34.412 Y13 Z9.7 I-2.412 J0
X-29.588 Y13 Z9.6 I2.412 J0
X-34.412 Y13 Z9.5 I-2.412 J0
X-29.588 Y13 Z9.4 I2.412 J0
X-34.412 Y13 Z9.3 I-2.412 J0
X-29.588 Y13 Z9.2 I2.412 J0
X-34.412 Y13 Z9.1 I-2.412 J0
X-29.588 Y13 Z9 I2.412 J0
X-34.412 Y13 Z8.9 I-2.412 J0
X-29.588 Y13 Z8.8 I2.412 J0
X-34.412 Y13 Z8.7 I-2.412 J0
X-29.588 Y13 Z8.6 I2.412 J0
X-34.412 Y13 Z8.5 I-2.412 J0
X-29.588 Y13 Z8.4 I2.412 J0
X-34.412 Y13 Z8.3 I-2.412 J0
X-29.588 Y13 Z8.2 I2.412 J0
X-34.412 Y13 Z8.1 I-2.412 J0
X-29.588 Y13 Z8 I2.412 J0
X-34.412 Y13 Z7.9 I-2.412 J0
X-29.588 Y13 Z7.8 I2.412 J0
X-34.412 Y13 Z7.7 I-2.412 J0
X-29.588 Y13 Z7.6 I2.412 J0
X-34.412 Y13 Z7.5 I-2.412 J0
X-29.588 Y13 Z7.4 I2.412 J0
X-34.412 Y13 Z7.3 I-2.412 J0
X-29.588 Y13 Z7.2 I2.412 J0
X-34.412 Y13 Z7.1 I-2.412 J0
X-29.588 Y13 Z7 I2.412 J0
X-34.412 Y13 Z6.9 I-2.412 J0
X-29.588 Y13 Z6.8 I2.412 J0
X-34.412 Y13 Z6.7 I-2.412 J0
X-29.588 Y13 Z6.6 I2.412 J0
X-34.412 Y13 Z6.5 I-2.412 J0
X-29.588 Y13 Z6.4 I2.412 J0
X-34.412 Y13 Z6.3 I-2.412 J0
X-29.588 Y13 Z6.2 I2.412 J0
X-34.413 Y13 Z6.1 I-2.412 J0
X-29.587 Y13 Z6 I2.413 J0
X-34.413 Y13 Z5.9 I-2.413 J0
X-29.587 Y13 Z5.8 I2.413 J0
X-34.413 Y13 Z5.7 I-2.413 J0
X-29.587 Y13 Z5.6 I2.413 J0
X-34.413 Y13 Z5.5 I-2.413 J0
X-29.587 Y13 Z5.4 I2.413 J0
X-34.413 Y13 Z5.3 I-2.413 J0
X-29.587 Y13 Z5.2 I2.413 J0
X-34.413 Y13 Z5.1 I-2.413 J0
X-29.587 Y13 Z5 I2.413 J0
X-34.413 Y13 I-2.413 J0
X-29.587 Y13 I2.413 J0
X-29.905 Y13.318 I-0.318 J0
G1 X-30.064
G18 G3 X-30.381 Z5.318 I0 K0.318
G0 Z19.2
X-58.031
Z12.5
G1 Z10.818 F500
G3 X-58.349 Z10.5 I-0.318 K0
G1 X-58.507
G17 G3 X-58.825 Y13 I0 J-0.318
X-57.175 Y13 Z10.4 I0.825 J0
X-58.825 Y13 Z10.3 I-0.825 J0
X-57.175 Y13 Z10.2 I0.825 J0
X-58.825 Y13 Z10.1 I-0.825 J0
X-57.175 Y13 Z10 I0.825 J0
X-58.825 Y13 Z9.9 I-0.825 J0
X-57.175 Y13 Z9.8 I0.825 J0
X-58.825 Y13 Z9.7 I-0.825 J0
X-57.175 Y13 Z9.6 I0.825 J0
X-58.825 Y13 Z9.5 I-0.825 J0
X-57.175 Y13 Z9.4 I0.825 J0
X-58.825 Y13 Z9.3 I-0.825 J0
X-57.175 Y13 Z9.2 I0.825 J0
X-58.825 Y13 Z9.1 I-0.825 J0
X-57.175 Y13 Z9 I0.825 J0
X-58.825 Y13 Z8.9 I-0.825 J0
X-57.175 Y13 Z8.8 I0.825 J0
X-58.825 Y13 Z8.7 I-0.825 J0
X-57.175 Y13 Z8.6 I0.825 J0
X-58.825 Y13 Z8.5 I-0.825 J0
X-57.175 Y13 Z8.4 I0.825 J0
X-58.825 Y13 Z8.3 I-0.825 J0
X-57.175 Y13 Z8.2 I0.825 J0
X-58.825 Y13 Z8.1 I-0.825 J0
X-57.175 Y13 Z8 I0.825 J0
X-58.825 Y13 Z7.9 I-0.825 J0
X-57.175 Y13 Z7.8 I0.825 J0
X-58.825 Y13 Z7.7 I-0.825 J0
X-57.175 Y13 Z7.6 I0.825 J0
X-58.825 Y13 Z7.5 I-0.825 J0
X-57.175 Y13 Z7.4 I0.825 J0
X-58.825 Y13 Z7.3 I-0.825 J0
X-57.175 Y13 Z7.2 I0.825 J0
X-58.825 Y13 Z7.1 I-0.825 J0
X-57.175 Y13 Z7 I0.825 J0
X-58.825 Y13 Z6.9 I-0.825 J0
X-57.175 Y13 Z6.8 I0.825 J0
X-58.825 Y13 Z6.7 I-0.825 J0
X-57.175 Y13 Z6.6 I0.825 J0
X-58.825 Y13 Z6.5 I-0.825 J0
X-57.175 Y13 Z6.4 I0.825 J0
X-58.825 Y13 Z6.3 I-0.825 J0
X-57.175 Y13 Z6.2 I0.825 J0
X-58.825 Y13 Z6.1 I-0.825 J0
X-57.175 Y13 Z6 I0.825 J0
X-58.825 Y13 Z5.9 I-0.825 J0
X-57.175 Y13 Z5.8 I0.825 J0
X-58.825 Y13 Z5.7 I-0.825 J0
X-57.175 Y13 Z5.6 I0.825 J0
X-58.825 Y13 Z5.5 I-0.825 J0
X-57.175 Y13 Z5.4 I0.825 J0
X-58.825 Y13 Z5.3 I-0.825 J0
X-57.175 Y13 Z5.2 I0.825 J0
X-58.825 Y13 Z5.1 I-0.825 J0
X-57.175 Y13 Z5 I0.825 J0
X-58.825 Y13 I-0.825 J0
X-57.175 Y13 I0.825 J0
X-57.493 Y13.318 I-0.318 J0
G1 X-57.651
G18 G3 X-57.969 Z5.318 I0 K0.318
G0 Z19.2
X-59.619
Z12.5
G1 Z10.818 F500
G3 X-59.936 Z10.5 I-0.317 K0
G1 X-60.095
G17 G3 X-60.412 Y13 I0 J-0.318
X-55.588 Y13 Z10.4 I2.412 J0
X-60.412 Y13 Z10.3 I-2.412 J0
X-55.588 Y13 Z10.2 I2.412 J0
X-60.412 Y13 Z10.1 I-2.412 J0
X-55.588 Y13 Z10 I2.412 J0
X-60.412 Y13 Z9.9 I-2.412 J0
X-55.588 Y13 Z9.8 I2.412 J0
X-60.412 Y13 Z9.7 I-2.412 J0
X-55.588 Y13 Z9.6 I2.412 J0
X-60.412 Y13 Z9.5 I-2.412 J0
X-55.588 Y13 Z9.4 I2.412 J0
X-60.412 Y13 Z9.3 I-2.412 J0
X-55.588 Y13 Z9.2 I2.412 J0
X-60.412 Y13 Z9.1 I-2.412 J0
X-55.588 Y13 Z9 I2.412 J0
X-60.412 Y13 Z8.9 I-2.412 J0
X-55.588 Y13 Z8.8 I2.412 J0
X-60.412 Y13 Z8.7 I-2.412 J0
X-55.588 Y13 Z8.6 I2.412 J0
X-60.412 Y13 Z8.5 I-2.412 J0
X-55.588 Y13 Z8.4 I2.412 J0
X-60.412 Y13 Z8.3 I-2.412 J0
X-55.588 Y13 Z8.2 I2.412 J0
X-60.412 Y13 Z8.1 I-2.412 J0
X-55.588 Y13 Z8 I2.412 J0
X-60.412 Y13 Z7.9 I-2.412 J0
X-55.588 Y13 Z7.8 I2.412 J0
X-60.412 Y13 Z7.7 I-2.412 J0
X-55.588 Y13 Z7.6 I2.412 J0
X-60.412 Y13 Z7.5 I-2.412 J0
X-55.588 Y13 Z7.4 I2.412 J0
X-60.412 Y13 Z7.3 I-2.412 J0
X-55.588 Y13 Z7.2 I2.412 J0
X-60.412 Y13 Z7.1 I-2.412 J0
X-55.588 Y13 Z7 I2.412 J0
X-60.412 Y13 Z6.9 I-2.412 J0
X-55.588 Y13 Z6.8 I2.412 J0
X-60.412 Y13 Z6.7 I-2.412 J0
X-55.588 Y13 Z6.6 I2.412 J0
X-60.412 Y13 Z6.5 I-2.412 J0
X-55.588 Y13 Z6.4 I2.412 J0
X-60.412 Y13 Z6.3 I-2.412 J0
X-55.588 Y13 Z6.2 I2.412 J0
X-60.412 Y13 Z6.1 I-2.412 J0
X-55.588 Y13 Z6 I2.412 J0
X-60.412 Y13 Z5.9 I-2.412 J0
X-55.588 Y13 Z5.8 I2.412 J0
X-60.412 Y13 Z5.7 I-2.412 J0
X-55.588 Y13 Z5.6 I2.412 J0
X-60.412 Y13 Z5.5 I-2.412 J0
X-55.588 Y13 Z5.4 I2.412 J0
X-60.412 Y13 Z5.3 I-2.412 J0
X-55.588 Y13 Z5.2 I2.412 J0
X-60.412 Y13 Z5.1 I-2.412 J0
X-55.588 Y13 Z5 I2.412 J0
X-60.412 Y13 I-2.412 J0
X-55.588 Y13 I2.412 J0
X-55.905 Y13.318 I-0.317 J0
G1 X-56.064
G18 G3 X-56.381 Z5.318 I0 K0.318
G0 Z19.2
X-58.031 Y-12.682
Z12.5
G1 Z10.818 F500
G3 X-58.349 Z10.5 I-0.318 K0
G1 X-58.507
G17 G3 X-58.825 Y-13 I0 J-0.318
X-57.175 Y-13 Z10.4 I0.825 J0
X-58.825 Y-13 Z10.3 I-0.825 J0
X-57.175 Y-13 Z10.2 I0.825 J0
X-58.825 Y-13 Z10.1 I-0.825 J0
X-57.175 Y-13 Z10 I0.825 J0
X-58.825 Y-13 Z9.9 I-0.825 J0
X-57.175 Y-13 Z9.8 I0.825 J0
X-58.825 Y-13 Z9.7 I-0.825 J0
X-57.175 Y-13 Z9.6 I0.825 J0
X-58.825 Y-13 Z9.5 I-0.825 J0
X-57.175 Y-13 Z9.4 I0.825 J0
X-58.825 Y-13 Z9.3 I-0.825 J0
X-57.175 Y-13 Z9.2 I0.825 J0
X-58.825 Y-13 Z9.1 I-0.825 J0
X-57.175 Y-13 Z9 I0.825 J0
X-58.825 Y-13 Z8.9 I-0.825 J0
X-57.175 Y-13 Z8.8 I0.825 J0
X-58.825 Y-13 Z8.7 I-0.825 J0
X-57.175 Y-13 Z8.6 I0.825 J0
X-58.825 Y-13 Z8.5 I-0.825 J0
X-57.175 Y-13 Z8.4 I0.825 J0
X-58.825 Y-13 Z8.3 I-0.825 J0
X-57.175 Y-13 Z8.2 I0.825 J0
X-58.825 Y-13 Z8.1 I-0.825 J0
X-57.175 Y-13 Z8 I0.825 J0
X-58.825 Y-13 Z7.9 I-0.825 J0
X-57.175 Y-13 Z7.8 I0.825 J0
X-58.825 Y-13 Z7.7 I-0.825 J0
X-57.175 Y-13 Z7.6 I0.825 J0
X-58.825 Y-13 Z7.5 I-0.825 J0
X-57.175 Y-13 Z7.4 I0.825 J0
X-58.825 Y-13 Z7.3 I-0.825 J0
X-57.175 Y-13 Z7.2 I0.825 J0
X-58.825 Y-13 Z7.1 I-0.825 J0
X-57.175 Y-13 Z7 I0.825 J0
X-58.825 Y-13 Z6.9 I-0.825 J0
X-57.175 Y-13 Z6.8 I0.825 J0
X-58.825 Y-13 Z6.7 I-0.825 J0
X-57.175 Y-13 Z6.6 I0.825 J0
X-58.825 Y-13 Z6.5 I-0.825 J0
X-57.175 Y-13 Z6.4 I0.825 J0
X-58.825 Y-13 Z6.3 I-0.825 J0
X-57.175 Y-13 Z6.2 I0.825 J0
X-58.825 Y-13 Z6.1 I-0.825 J0
X-57.175 Y-13 Z6 I0.825 J0
X-58.825 Y-13 Z5.9 I-0.825 J0
X-57.175 Y-13 Z5.8 I0.825 J0
X-58.825 Y-13 Z5.7 I-0.825 J0
X-57.175 Y-13 Z5.6 I0.825 J0
X-58.825 Y-13 Z5.5 I-0.825 J0
X-57.175 Y-13 Z5.4 I0.825 J0
X-58.825 Y-13 Z5.3 I-0.825 J0
X-57.175 Y-13 Z5.2 I0.825 J0
X-58.825 Y-13 Z5.1 I-0.825 J0
X-57.175 Y-13 Z5 I0.825 J0
X-58.825 Y-13 I-0.825 J0
X-57.175 Y-13 I0.825 J0
X-57.493 Y-12.682 I-0.318 J0
G1 X-57.651
G18 G3 X-57.969 Z5.318 I0 K0.318
G0 Z19.2
X-59.619
Z12.5
G1 Z10.818 F500
G3 X-59.936 Z10.5 I-0.317 K0
G1 X-60.095
G17 G3 X-60.412 Y-13 I0 J-0.318
X-55.588 Y-13 Z10.4 I2.412 J0
X-60.412 Y-13 Z10.3 I-2.412 J0
X-55.588 Y-13 Z10.2 I2.412 J0
X-60.412 Y-13 Z10.1 I-2.412 J0
X-55.588 Y-13 Z10 I2.412 J0
X-60.412 Y-13 Z9.9 I-2.412 J0
X-55.588 Y-13 Z9.8 I2.412 J0
X-60.412 Y-13 Z9.7 I-2.412 J0
X-55.588 Y-13 Z9.6 I2.412 J0
X-60.412 Y-13 Z9.5 I-2.412 J0
X-55.588 Y-13 Z9.4 I2.412 J0
X-60.412 Y-13 Z9.3 I-2.412 J0
X-55.588 Y-13 Z9.2 I2.412 J0
X-60.412 Y-13 Z9.1 I-2.412 J0
X-55.588 Y-13 Z9 I2.412 J0
X-60.412 Y-13 Z8.9 I-2.412 J0
X-55.588 Y-13 Z8.8 I2.412 J0
X-60.412 Y-13 Z8.7 I-2.412 J0
X-55.588 Y-13 Z8.6 I2.412 J0
X-60.412 Y-13 Z8.5 I-2.412 J0
X-55.588 Y-13 Z8.4 I2.412 J0
X-60.412 Y-13 Z8.3 I-2.412 J0
X-55.588 Y-13 Z8.2 I2.412 J0
X-60.412 Y-13 Z8.1 I-2.412 J0
X-55.588 Y-13 Z8 I2.412 J0
X-60.412 Y-13 Z7.9 I-2.412 J0
X-55.588 Y-13 Z7.8 I2.412 J0
X-60.412 Y-13 Z7.7 I-2.412 J0
X-55.588 Y-13 Z7.6 I2.412 J0
X-60.412 Y-13 Z7.5 I-2.412 J0
X-55.588 Y-13 Z7.4 I2.412 J0
X-60.412 Y-13 Z7.3 I-2.412 J0
X-55.588 Y-13 Z7.2 I2.412 J0
X-60.412 Y-13 Z7.1 I-2.412 J0
X-55.588 Y-13 Z7 I2.412 J0
X-60.412 Y-13 Z6.9 I-2.412 J0
X-55.588 Y-13 Z6.8 I2.412 J0
X-60.412 Y-13 Z6.7 I-2.412 J0
X-55.588 Y-13 Z6.6 I2.412 J0
X-60.412 Y-13 Z6.5 I-2.412 J0
X-55.588 Y-13 Z6.4 I2.412 J0
X-60.412 Y-13 Z6.3 I-2.412 J0
X-55.588 Y-13 Z6.2 I2.412 J0
X-60.412 Y-13 Z6.1 I-2.412 J0
X-55.588 Y-13 Z6 I2.412 J0
X-60.412 Y-13 Z5.9 I-2.412 J0
X-55.588 Y-13 Z5.8 I2.412 J0
X-60.412 Y-13 Z5.7 I-2.412 J0
X-55.588 Y-13 Z5.6 I2.412 J0
X-60.412 Y-13 Z5.5 I-2.412 J0
X-55.588 Y-13 Z5.4 I2.412 J0
X-60.412 Y-13 Z5.3 I-2.412 J0
X-55.588 Y-13 Z5.2 I2.412 J0
X-60.412 Y-13 Z5.1 I-2.412 J0
X-55.588 Y-13 Z5 I2.412 J0
X-60.412 Y-13 I-2.412 J0
X-55.588 Y-13 I2.412 J0
X-55.905 Y-12.682 I-0.317 J0
G1 X-56.064
G18 G3 X-56.381 Z5.318 I0 K0.318
G0 Z19.2
X-32.031
Z12.5
G1 Z10.818 F500
G3 X-32.349 Z10.5 I-0.318 K0
G1 X-32.507
G17 G3 X-32.825 Y-13 I0 J-0.318
X-31.175 Y-13 Z10.4 I0.825 J0
X-32.825 Y-13 Z10.3 I-0.825 J0
X-31.175 Y-13 Z10.2 I0.825 J0
X-32.825 Y-13 Z10.1 I-0.825 J0
X-31.175 Y-13 Z10 I0.825 J0
X-32.825 Y-13 Z9.9 I-0.825 J0
X-31.175 Y-13 Z9.8 I0.825 J0
X-32.825 Y-13 Z9.7 I-0.825 J0
X-31.175 Y-13 Z9.6 I0.825 J0
X-32.825 Y-13 Z9.5 I-0.825 J0
X-31.175 Y-13 Z9.4 I0.825 J0
X-32.825 Y-13 Z9.3 I-0.825 J0
X-31.175 Y-13 Z9.2 I0.825 J0
X-32.825 Y-13 Z9.1 I-0.825 J0
X-31.175 Y-13 Z9 I0.825 J0
X-32.825 Y-13 Z8.9 I-0.825 J0
X-31.175 Y-13 Z8.8 I0.825 J0
X-32.825 Y-13 Z8.7 I-0.825 J0
X-31.175 Y-13 Z8.6 I0.825 J0
X-32.825 Y-13 Z8.5 I-0.825 J0
X-31.175 Y-13 Z8.4 I0.825 J0
X-32.825 Y-13 Z8.3 I-0.825 J0
X-31.175 Y-13 Z8.2 I0.825 J0
X-32.825 Y-13 Z8.1 I-0.825 J0
X-31.175 Y-13 Z8 I0.825 J0
X-32.825 Y-13 Z7.9 I-0.825 J0
X-31.175 Y-13 Z7.8 I0.825 J0
X-32.825 Y-13 Z7.7 I-0.825 J0
X-31.175 Y-13 Z7.6 I0.825 J0
X-32.825 Y-13 Z7.5 I-0.825 J0
X-31.175 Y-13 Z7.4 I0.825 J0
X-32.825 Y-13 Z7.3 I-0.825 J0
X-31.175 Y-13 Z7.2 I0.825 J0
X-32.825 Y-13 Z7.1 I-0.825 J0
X-31.175 Y-13 Z7 I0.825 J0
X-32.825 Y-13 Z6.9 I-0.825 J0
X-31.175 Y-13 Z6.8 I0.825 J0
X-32.825 Y-13 Z6.7 I-0.825 J0
X-31.175 Y-13 Z6.6 I0.825 J0
X-32.825 Y-13 Z6.5 I-0.825 J0
X-31.175 Y-13 Z6.4 I0.825 J0
X-32.825 Y-13 Z6.3 I-0.825 J0
X-31.175 Y-13 Z6.2 I0.825 J0
X-32.825 Y-13 Z6.1 I-0.825 J0
X-31.175 Y-13 Z6 I0.825 J0
X-32.825 Y-13 Z5.9 I-0.825 J0
X-31.175 Y-13 Z5.8 I0.825 J0
X-32.825 Y-13 Z5.7 I-0.825 J0
X-31.175 Y-13 Z5.6 I0.825 J0
X-32.825 Y-13 Z5.5 I-0.825 J0
X-31.175 Y-13 Z5.4 I0.825 J0
X-32.825 Y-13 Z5.3 I-0.825 J0
X-31.175 Y-13 Z5.2 I0.825 J0
X-32.825 Y-13 Z5.1 I-0.825 J0
X-31.175 Y-13 Z5 I0.825 J0
X-32.825 Y-13 I-0.825 J0
X-31.175 Y-13 I0.825 J0
X-31.493 Y-12.682 I-0.318 J0
G1 X-31.651
G18 G3 X-31.969 Z5.318 I0 K0.318
G0 Z19.2
X-33.619
Z12.5
G1 Z10.818 F500
G3 X-33.936 Z10.5 I-0.317 K0
G1 X-34.095
G17 G3 X-34.412 Y-13 I0 J-0.318
X-29.588 Y-13 Z10.4 I2.412 J0
X-34.412 Y-13 Z10.3 I-2.412 J0
X-29.588 Y-13 Z10.2 I2.412 J0
X-34.412 Y-13 Z10.1 I-2.412 J0
X-29.588 Y-13 Z10 I2.412 J0
X-34.412 Y-13 Z9.9 I-2.412 J0
X-29.588 Y-13 Z9.8 I2.412 J0
X-34.412 Y-13 Z9.7 I-2.412 J0
X-29.588 Y-13 Z9.6 I2.412 J0
X-34.412 Y-13 Z9.5 I-2.412 J0
X-29.588 Y-13 Z9.4 I2.412 J0
X-34.412 Y-13 Z9.3 I-2.412 J0
X-29.588 Y-13 Z9.2 I2.412 J0
X-34.412 Y-13 Z9.1 I-2.412 J0
X-29.588 Y-13 Z9 I2.412 J0
X-34.412 Y-13 Z8.9 I-2.412 J0
X-29.588 Y-13 Z8.8 I2.412 J0
X-34.412 Y-13 Z8.7 I-2.412 J0
X-29.588 Y-13 Z8.6 I2.412 J0
X-34.412 Y-13 Z8.5 I-2.412 J0
X-29.588 Y-13 Z8.4 I2.412 J0
X-34.412 Y-13 Z8.3 I-2.412 J0
X-29.588 Y-13 Z8.2 I2.412 J0
X-34.412 Y-13 Z8.1 I-2.412 J0
X-29.588 Y-13 Z8 I2.412 J0
X-34.412 Y-13 Z7.9 I-2.412 J0
X-29.588 Y-13 Z7.8 I2.412 J0
X-34.412 Y-13 Z7.7 I-2.412 J0
X-29.588 Y-13 Z7.6 I2.412 J0
X-34.412 Y-13 Z7.5 I-2.412 J0
X-29.588 Y-13 Z7.4 I2.412 J0
X-34.412 Y-13 Z7.3 I-2.412 J0
X-29.588 Y-13 Z7.2 I2.412 J0
X-34.412 Y-13 Z7.1 I-2.412 J0
X-29.588 Y-13 Z7 I2.412 J0
X-34.412 Y-13 Z6.9 I-2.412 J0
X-29.588 Y-13 Z6.8 I2.412 J0
X-34.412 Y-13 Z6.7 I-2.412 J0
X-29.588 Y-13 Z6.6 I2.412 J0
X-34.412 Y-13 Z6.5 I-2.412 J0
X-29.588 Y-13 Z6.4 I2.412 J0
X-34.412 Y-13 Z6.3 I-2.412 J0
X-29.588 Y-13 Z6.2 I2.412 J0
X-34.413 Y-13 Z6.1 I-2.412 J0
X-29.587 Y-13 Z6 I2.413 J0
X-34.413 Y-13 Z5.9 I-2.413 J0
X-29.587 Y-13 Z5.8 I2.413 J0
X-34.413 Y-13 Z5.7 I-2.413 J0
X-29.587 Y-13 Z5.6 I2.413 J0
X-34.413 Y-13 Z5.5 I-2.413 J0
X-29.587 Y-13 Z5.4 I2.413 J0
X-34.413 Y-13 Z5.3 I-2.413 J0
X-29.587 Y-13 Z5.2 I2.413 J0
X-34.413 Y-13 Z5.1 I-2.413 J0
X-29.587 Y-13 Z5 I2.413 J0
X-34.413 Y-13 I-2.413 J0
X-29.587 Y-13 I2.413 J0
X-29.905 Y-12.682 I-0.318 J0
G1 X-30.064
G18 G3 X-30.381 Z5.318 I0 K0.318
G0 Z19.2
X-10.781 Y-22.282
Z12.5
G1 Z10.818 F500
G3 X-11.099 Z10.5 I-0.318 K0
G1 X-11.257
G17 G3 X-11.575 Y-22.6 I0 J-0.318
X-8.425 Y-22.6 Z10.4 I1.575 J0
X-11.575 Y-22.6 Z10.3 I-1.575 J0
X-8.425 Y-22.6 Z10.2 I1.575 J0
X-11.575 Y-22.6 Z10.1 I-1.575 J0
X-8.425 Y-22.6 Z10 I1.575 J0
X-11.575 Y-22.6 Z9.9 I-1.575 J0
X-8.425 Y-22.6 Z9.8 I1.575 J0
X-11.575 Y-22.6 Z9.7 I-1.575 J0
X-8.425 Y-22.6 Z9.6 I1.575 J0
X-11.575 Y-22.6 Z9.5 I-1.575 J0
X-8.425 Y-22.6 Z9.4 I1.575 J0
X-11.575 Y-22.6 Z9.3 I-1.575 J0
X-8.425 Y-22.6 Z9.2 I1.575 J0
X-11.575 Y-22.6 Z9.1 I-1.575 J0
X-8.425 Y-22.6 Z9 I1.575 J0
X-11.575 Y-22.6 Z8.9 I-1.575 J0
X-8.425 Y-22.6 Z8.8 I1.575 J0
X-11.575 Y-22.6 Z8.7 I-1.575 J0
X-8.425 Y-22.6 Z8.6 I1.575 J0
X-11.575 Y-22.6 Z8.5 I-1.575 J0
X-8.425 Y-22.6 Z8.4 I1.575 J0
X-11.575 Y-22.6 Z8.3 I-1.575 J0
X-8.425 Y-22.6 Z8.2 I1.575 J0
X-11.575 Y-22.6 Z8.1 I-1.575 J0
X-8.425 Y-22.6 Z8 I1.575 J0
X-11.575 Y-22.6 Z7.9 I-1.575 J0
X-8.425 Y-22.6 Z7.8 I1.575 J0
X-11.575 Y-22.6 Z7.7 I-1.575 J0
X-8.425 Y-22.6 Z7.6 I1.575 J0
X-11.575 Y-22.6 Z7.5 I-1.575 J0
X-8.425 Y-22.6 Z7.4 I1.575 J0
X-11.575 Y-22.6 Z7.3 I-1.575 J0
X-8.425 Y-22.6 Z7.2 I1.575 J0
X-11.575 Y-22.6 Z7.1 I-1.575 J0
X-8.425 Y-22.6 Z7 I1.575 J0
X-11.575 Y-22.6 Z6.9 I-1.575 J0
X-8.425 Y-22.6 Z6.8 I1.575 J0
X-11.575 Y-22.6 Z6.7 I-1.575 J0
X-8.425 Y-22.6 Z6.6 I1.575 J0
X-11.575 Y-22.6 Z6.5 I-1.575 J0
X-8.425 Y-22.6 Z6.4 I1.575 J0
X-11.575 Y-22.6 Z6.3 I-1.575 J0
X-8.425 Y-22.6 Z6.2 I1.575 J0
X-11.575 Y-22.6 Z6.1 I-1.575 J0
X-8.425 Y-22.6 Z6 I1.575 J0
X-11.575 Y-22.6 Z5.9 I-1.575 J0
X-8.425 Y-22.6 Z5.8 I1.575 J0
X-11.575 Y-22.6 Z5.7 I-1.575 J0
X-8.425 Y-22.6 Z5.6 I1.575 J0
X-11.575 Y-22.6 Z5.5 I-1.575 J0
X-8.425 Y-22.6 Z5.4 I1.575 J0
X-11.575 Y-22.6 Z5.3 I-1.575 J0
X-8.425 Y-22.6 Z5.2 I1.575 J0
X-11.575 Y-22.6 Z5.1 I-1.575 J0
X-8.425 Y-22.6 Z5 I1.575 J0
X-11.575 Y-22.6 I-1.575 J0
X-8.425 Y-22.6 I1.575 J0
X-8.743 Y-22.282 I-0.318 J0
G1 X-8.901
G18 G3 X-9.219 Z5.318 I0 K0.318
G0 Z19.2
X-12.369
Z12.5
G1 Z10.818 F500
G3 X-12.686 Z10.5 I-0.318 K0
G1 X-12.845
G17 G3 X-13.163 Y-22.6 I0 J-0.318
X-6.837 Y-22.6 Z10.4 I3.163 J0
X-13.163 Y-22.6 Z10.3 I-3.163 J0
X-6.837 Y-22.6 Z10.2 I3.163 J0
X-13.163 Y-22.6 Z10.1 I-3.163 J0
X-6.837 Y-22.6 Z10 I3.163 J0
X-13.163 Y-22.6 Z9.9 I-3.163 J0
X-6.837 Y-22.6 Z9.8 I3.163 J0
X-13.163 Y-22.6 Z9.7 I-3.163 J0
X-6.837 Y-22.6 Z9.6 I3.163 J0
X-13.163 Y-22.6 Z9.5 I-3.163 J0
X-6.837 Y-22.6 Z9.4 I3.163 J0
X-13.163 Y-22.6 Z9.3 I-3.163 J0
X-6.837 Y-22.6 Z9.2 I3.163 J0
X-13.163 Y-22.6 Z9.1 I-3.163 J0
X-6.837 Y-22.6 Z9 I3.163 J0
X-13.163 Y-22.6 Z8.9 I-3.163 J0
X-6.837 Y-22.6 Z8.8 I3.163 J0
X-13.163 Y-22.6 Z8.7 I-3.163 J0
X-6.837 Y-22.6 Z8.6 I3.163 J0
X-13.163 Y-22.6 Z8.5 I-3.163 J0
X-6.837 Y-22.6 Z8.4 I3.163 J0
X-13.163 Y-22.6 Z8.3 I-3.163 J0
X-6.837 Y-22.6 Z8.2 I3.163 J0
X-13.163 Y-22.6 Z8.1 I-3.163 J0
X-6.837 Y-22.6 Z8 I3.163 J0
X-13.163 Y-22.6 Z7.9 I-3.163 J0
X-6.837 Y-22.6 Z7.8 I3.163 J0
X-13.163 Y-22.6 Z7.7 I-3.163 J0
X-6.837 Y-22.6 Z7.6 I3.163 J0
X-13.163 Y-22.6 Z7.5 I-3.163 J0
X-6.837 Y-22.6 Z7.4 I3.163 J0
X-13.163 Y-22.6 Z7.3 I-3.163 J0
X-6.837 Y-22.6 Z7.2 I3.163 J0
X-13.163 Y-22.6 Z7.1 I-3.163 J0
X-6.837 Y-22.6 Z7 I3.163 J0
X-13.163 Y-22.6 Z6.9 I-3.163 J0
X-6.837 Y-22.6 Z6.8 I3.163 J0
X-13.163 Y-22.6 Z6.7 I-3.163 J0
X-6.837 Y-22.6 Z6.6 I3.163 J0
X-13.163 Y-22.6 Z6.5 I-3.163 J0
X-6.837 Y-22.6 Z6.4 I3.163 J0
X-13.163 Y-22.6 Z6.3 I-3.163 J0
X-6.837 Y-22.6 Z6.2 I3.163 J0
X-13.162 Y-22.6 Z6.1 I-3.163 J0
X-6.838 Y-22.6 Z6 I3.162 J0
X-13.162 Y-22.6 Z5.9 I-3.162 J0
X-6.838 Y-22.6 Z5.8 I3.162 J0
X-13.162 Y-22.6 Z5.7 I-3.162 J0
X-6.838 Y-22.6 Z5.6 I3.162 J0
X-13.162 Y-22.6 Z5.5 I-3.162 J0
X-6.838 Y-22.6 Z5.4 I3.162 J0
X-13.162 Y-22.6 Z5.3 I-3.162 J0
X-6.838 Y-22.6 Z5.2 I3.162 J0
X-13.162 Y-22.6 Z5.1 I-3.162 J0
X-6.838 Y-22.6 Z5 I3.162 J0
X-13.162 Y-22.6 I-3.162 J0
X-6.838 Y-22.6 I3.162 J0
X-7.155 Y-22.282 I-0.318 J0
G1 X-7.314
G18 G3 X-7.631 Z5.318 I0 K0.318
G0 Z19.2
X9.219
Z12.5
G1 Z10.818 F500
G3 X8.901 Z10.5 I-0.318 K0
G1 X8.743
G17 G3 X8.425 Y-22.6 I0 J-0.318
X11.575 Y-22.6 Z10.4 I1.575 J0
X8.425 Y-22.6 Z10.3 I-1.575 J0
X11.575 Y-22.6 Z10.2 I1.575 J0
X8.425 Y-22.6 Z10.1 I-1.575 J0
X11.575 Y-22.6 Z10 I1.575 J0
X8.425 Y-22.6 Z9.9 I-1.575 J0
X11.575 Y-22.6 Z9.8 I1.575 J0
X8.425 Y-22.6 Z9.7 I-1.575 J0
X11.575 Y-22.6 Z9.6 I1.575 J0
X8.425 Y-22.6 Z9.5 I-1.575 J0
X11.575 Y-22.6 Z9.4 I1.575 J0
X8.425 Y-22.6 Z9.3 I-1.575 J0
X11.575 Y-22.6 Z9.2 I1.575 J0
X8.425 Y-22.6 Z9.1 I-1.575 J0
X11.575 Y-22.6 Z9 I1.575 J0
X8.425 Y-22.6 Z8.9 I-1.575 J0
X11.575 Y-22.6 Z8.8 I1.575 J0
X8.425 Y-22.6 Z8.7 I-1.575 J0
X11.575 Y-22.6 Z8.6 I1.575 J0
X8.425 Y-22.6 Z8.5 I-1.575 J0
X11.575 Y-22.6 Z8.4 I1.575 J0
X8.425 Y-22.6 Z8.3 I-1.575 J0
X11.575 Y-22.6 Z8.2 I1.575 J0
X8.425 Y-22.6 Z8.1 I-1.575 J0
X11.575 Y-22.6 Z8 I1.575 J0
X8.425 Y-22.6 Z7.9 I-1.575 J0
X11.575 Y-22.6 Z7.8 I1.575 J0
X8.425 Y-22.6 Z7.7 I-1.575 J0
X11.575 Y-22.6 Z7.6 I1.575 J0
X8.425 Y-22.6 Z7.5 I-1.575 J0
X11.575 Y-22.6 Z7.4 I1.575 J0
X8.425 Y-22.6 Z7.3 I-1.575 J0
X11.575 Y-22.6 Z7.2 I1.575 J0
X8.425 Y-22.6 Z7.1 I-1.575 J0
X11.575 Y-22.6 Z7 I1.575 J0
X8.425 Y-22.6 Z6.9 I-1.575 J0
X11.575 Y-22.6 Z6.8 I1.575 J0
X8.425 Y-22.6 Z6.7 I-1.575 J0
X11.575 Y-22.6 Z6.6 I1.575 J0
X8.425 Y-22.6 Z6.5 I-1.575 J0
X11.575 Y-22.6 Z6.4 I1.575 J0
X8.425 Y-22.6 Z6.3 I-1.575 J0
X11.575 Y-22.6 Z6.2 I1.575 J0
X8.425 Y-22.6 Z6.1 I-1.575 J0
X11.575 Y-22.6 Z6 I1.575 J0
X8.425 Y-22.6 Z5.9 I-1.575 J0
X11.575 Y-22.6 Z5.8 I1.575 J0
X8.425 Y-22.6 Z5.7 I-1.575 J0
X11.575 Y-22.6 Z5.6 I1.575 J0
X8.425 Y-22.6 Z5.5 I-1.575 J0
X11.575 Y-22.6 Z5.4 I1.575 J0
X8.425 Y-22.6 Z5.3 I-1.575 J0
X11.575 Y-22.6 Z5.2 I1.575 J0
X8.425 Y-22.6 Z5.1 I-1.575 J0
X11.575 Y-22.6 Z5 I1.575 J0
X8.425 Y-22.6 I-1.575 J0
X11.575 Y-22.6 I1.575 J0
X11.257 Y-22.282 I-0.318 J0
G1 X11.099
G18 G3 X10.781 Z5.318 I0 K0.318
G0 Z19.2
X7.631
Z12.5
G1 Z10.818 F500
G3 X7.314 Z10.5 I-0.318 K0
G1 X7.155
G17 G3 X6.838 Y-22.6 I0 J-0.318
X13.162 Y-22.6 Z10.4 I3.162 J0
X6.838 Y-22.6 Z10.3 I-3.162 J0
X13.162 Y-22.6 Z10.2 I3.162 J0
X6.838 Y-22.6 Z10.1 I-3.162 J0
X13.162 Y-22.6 Z10 I3.162 J0
X6.838 Y-22.6 Z9.9 I-3.162 J0
X13.162 Y-22.6 Z9.8 I3.162 J0
X6.838 Y-22.6 Z9.7 I-3.162 J0
X13.162 Y-22.6 Z9.6 I3.162 J0
X6.838 Y-22.6 Z9.5 I-3.162 J0
X13.162 Y-22.6 Z9.4 I3.162 J0
X6.837 Y-22.6 Z9.3 I-3.162 J0
X13.163 Y-22.6 Z9.2 I3.163 J0
X6.837 Y-22.6 Z9.1 I-3.163 J0
X13.163 Y-22.6 Z9 I3.163 J0
X6.837 Y-22.6 Z8.9 I-3.163 J0
X13.163 Y-22.6 Z8.8 I3.163 J0
X6.837 Y-22.6 Z8.7 I-3.163 J0
X13.163 Y-22.6 Z8.6 I3.163 J0
X6.837 Y-22.6 Z8.5 I-3.163 J0
X13.163 Y-22.6 Z8.4 I3.163 J0
X6.837 Y-22.6 Z8.3 I-3.163 J0
X13.163 Y-22.6 Z8.2 I3.163 J0
X6.837 Y-22.6 Z8.1 I-3.163 J0
X13.163 Y-22.6 Z8 I3.163 J0
X6.837 Y-22.6 Z7.9 I-3.163 J0
X13.163 Y-22.6 Z7.8 I3.163 J0
X6.837 Y-22.6 Z7.7 I-3.163 J0
X13.163 Y-22.6 Z7.6 I3.163 J0
X6.837 Y-22.6 Z7.5 I-3.163 J0
X13.163 Y-22.6 Z7.4 I3.163 J0
X6.837 Y-22.6 Z7.3 I-3.163 J0
X13.163 Y-22.6 Z7.2 I3.163 J0
X6.837 Y-22.6 Z7.1 I-3.163 J0
X13.163 Y-22.6 Z7 I3.163 J0
X6.837 Y-22.6 Z6.9 I-3.163 J0
X13.163 Y-22.6 Z6.8 I3.163 J0
X6.837 Y-22.6 Z6.7 I-3.163 J0
X13.163 Y-22.6 Z6.6 I3.163 J0
X6.837 Y-22.6 Z6.5 I-3.163 J0
X13.163 Y-22.6 Z6.4 I3.163 J0
X6.837 Y-22.6 Z6.3 I-3.163 J0
X13.163 Y-22.6 Z6.2 I3.163 J0
X6.837 Y-22.6 Z6.1 I-3.163 J0
X13.163 Y-22.6 Z6 I3.163 J0
X6.837 Y-22.6 Z5.9 I-3.163 J0
X13.163 Y-22.6 Z5.8 I3.163 J0
X6.837 Y-22.6 Z5.7 I-3.163 J0
X13.163 Y-22.6 Z5.6 I3.163 J0
X6.837 Y-22.6 Z5.5 I-3.163 J0
X13.163 Y-22.6 Z5.4 I3.163 J0
X6.837 Y-22.6 Z5.3 I-3.163 J0
X13.163 Y-22.6 Z5.2 I3.163 J0
X6.837 Y-22.6 Z5.1 I-3.163 J0
X13.163 Y-22.6 Z5 I3.163 J0
X6.837 Y-22.6 I-3.163 J0
X13.163 Y-22.6 I3.163 J0
X12.845 Y-22.282 I-0.318 J0
G1 X12.686
G18 G3 X12.369 Z5.318 I0 K0.318
G0 Z19.2
X31.969 Y-12.682
Z12.5
G1 Z10.818 F500
G3 X31.651 Z10.5 I-0.317 K0
G1 X31.493
G17 G3 X31.175 Y-13 I0 J-0.318
X32.825 Y-13 Z10.4 I0.825 J0
X31.175 Y-13 Z10.3 I-0.825 J0
X32.825 Y-13 Z10.2 I0.825 J0
X31.175 Y-13 Z10.1 I-0.825 J0
X32.825 Y-13 Z10 I0.825 J0
X31.175 Y-13 Z9.9 I-0.825 J0
X32.825 Y-13 Z9.8 I0.825 J0
X31.175 Y-13 Z9.7 I-0.825 J0
X32.825 Y-13 Z9.6 I0.825 J0
X31.175 Y-13 Z9.5 I-0.825 J0
X32.825 Y-13 Z9.4 I0.825 J0
X31.175 Y-13 Z9.3 I-0.825 J0
X32.825 Y-13 Z9.2 I0.825 J0
X31.175 Y-13 Z9.1 I-0.825 J0
X32.825 Y-13 Z9 I0.825 J0
X31.175 Y-13 Z8.9 I-0.825 J0
X32.825 Y-13 Z8.8 I0.825 J0
X31.175 Y-13 Z8.7 I-0.825 J0
X32.825 Y-13 Z8.6 I0.825 J0
X31.175 Y-13 Z8.5 I-0.825 J0
X32.825 Y-13 Z8.4 I0.825 J0
X31.175 Y-13 Z8.3 I-0.825 J0
X32.825 Y-13 Z8.2 I0.825 J0
X31.175 Y-13 Z8.1 I-0.825 J0
X32.825 Y-13 Z8 I0.825 J0
X31.175 Y-13 Z7.9 I-0.825 J0
X32.825 Y-13 Z7.8 I0.825 J0
X31.175 Y-13 Z7.7 I-0.825 J0
X32.825 Y-13 Z7.6 I0.825 J0
X31.175 Y-13 Z7.5 I-0.825 J0
X32.825 Y-13 Z7.4 I0.825 J0
X31.175 Y-13 Z7.3 I-0.825 J0
X32.825 Y-13 Z7.2 I0.825 J0
X31.175 Y-13 Z7.1 I-0.825 J0
X32.825 Y-13 Z7 I0.825 J0
X31.175 Y-13 Z6.9 I-0.825 J0
X32.825 Y-13 Z6.8 I0.825 J0
X31.175 Y-13 Z6.7 I-0.825 J0
X32.825 Y-13 Z6.6 I0.825 J0
X31.175 Y-13 Z6.5 I-0.825 J0
X32.825 Y-13 Z6.4 I0.825 J0
X31.175 Y-13 Z6.3 I-0.825 J0
X32.825 Y-13 Z6.2 I0.825 J0
X31.175 Y-13 Z6.1 I-0.825 J0
X32.825 Y-13 Z6 I0.825 J0
X31.175 Y-13 Z5.9 I-0.825 J0
X32.825 Y-13 Z5.8 I0.825 J0
X31.175 Y-13 Z5.7 I-0.825 J0
X32.825 Y-13 Z5.6 I0.825 J0
X31.175 Y-13 Z5.5 I-0.825 J0
X32.825 Y-13 Z5.4 I0.825 J0
X31.175 Y-13 Z5.3 I-0.825 J0
X32.825 Y-13 Z5.2 I0.825 J0
X31.175 Y-13 Z5.1 I-0.825 J0
X32.825 Y-13 Z5 I0.825 J0
X31.175 Y-13 I-0.825 J0
X32.825 Y-13 I0.825 J0
X32.507 Y-12.682 I-0.318 J0
G1 X32.349
G18 G3 X32.031 Z5.318 I0 K0.318
G0 Z19.2
X30.381
Z12.5
G1 Z10.818 F500
G3 X30.064 Z10.5 I-0.318 K0
G1 X29.905
G17 G3 X29.587 Y-13 I0 J-0.318
X34.413 Y-13 Z10.4 I2.413 J0
X29.587 Y-13 Z10.3 I-2.413 J0
X34.413 Y-13 Z10.2 I2.413 J0
X29.587 Y-13 Z10.1 I-2.413 J0
X34.413 Y-13 Z10 I2.413 J0
X29.587 Y-13 Z9.9 I-2.413 J0
X34.413 Y-13 Z9.8 I2.413 J0
X29.587 Y-13 Z9.7 I-2.413 J0
X34.413 Y-13 Z9.6 I2.413 J0
X29.587 Y-13 Z9.5 I-2.413 J0
X34.413 Y-13 Z9.4 I2.413 J0
X29.588 Y-13 Z9.3 I-2.413 J0
X34.412 Y-13 Z9.2 I2.412 J0
X29.588 Y-13 Z9.1 I-2.412 J0
X34.412 Y-13 Z9 I2.412 J0
X29.588 Y-13 Z8.9 I-2.412 J0
X34.412 Y-13 Z8.8 I2.412 J0
X29.588 Y-13 Z8.7 I-2.412 J0
X34.412 Y-13 Z8.6 I2.412 J0
X29.588 Y-13 Z8.5 I-2.412 J0
X34.412 Y-13 Z8.4 I2.412 J0
X29.588 Y-13 Z8.3 I-2.412 J0
X34.412 Y-13 Z8.2 I2.412 J0
X29.588 Y-13 Z8.1 I-2.412 J0
X34.412 Y-13 Z8 I2.412 J0
X29.588 Y-13 Z7.9 I-2.412 J0
X34.412 Y-13 Z7.8 I2.412 J0
X29.588 Y-13 Z7.7 I-2.412 J0
X34.412 Y-13 Z7.6 I2.412 J0
X29.588 Y-13 Z7.5 I-2.412 J0
X34.412 Y-13 Z7.4 I2.412 J0
X29.588 Y-13 Z7.3 I-2.412 J0
X34.412 Y-13 Z7.2 I2.412 J0
X29.588 Y-13 Z7.1 I-2.412 J0
X34.412 Y-13 Z7 I2.412 J0
X29.588 Y-13 Z6.9 I-2.412 J0
X34.412 Y-13 Z6.8 I2.412 J0
X29.588 Y-13 Z6.7 I-2.412 J0
X34.412 Y-13 Z6.6 I2.412 J0
X29.588 Y-13 Z6.5 I-2.412 J0
X34.412 Y-13 Z6.4 I2.412 J0
X29.588 Y-13 Z6.3 I-2.412 J0
X34.412 Y-13 Z6.2 I2.412 J0
X29.588 Y-13 Z6.1 I-2.412 J0
X34.412 Y-13 Z6 I2.412 J0
X29.588 Y-13 Z5.9 I-2.412 J0
X34.412 Y-13 Z5.8 I2.412 J0
X29.588 Y-13 Z5.7 I-2.412 J0
X34.412 Y-13 Z5.6 I2.412 J0
X29.588 Y-13 Z5.5 I-2.412 J0
X34.412 Y-13 Z5.4 I2.412 J0
X29.588 Y-13 Z5.3 I-2.412 J0
X34.412 Y-13 Z5.2 I2.412 J0
X29.588 Y-13 Z5.1 I-2.412 J0
X34.412 Y-13 Z5 I2.412 J0
X29.588 Y-13 I-2.412 J0
X34.412 Y-13 I2.412 J0
X34.095 Y-12.682 I-0.317 J0
G1 X33.936
G18 G3 X33.619 Z5.318 I0 K0.318
G0 Z19.2
X57.969
Z12.5
G1 Z10.818 F500
G3 X57.651 Z10.5 I-0.318 K0
G1 X57.493
G17 G3 X57.175 Y-13 I0 J-0.318
X58.825 Y-13 Z10.4 I0.825 J0
X57.175 Y-13 Z10.3 I-0.825 J0
X58.825 Y-13 Z10.2 I0.825 J0
X57.175 Y-13 Z10.1 I-0.825 J0
X58.825 Y-13 Z10 I0.825 J0
X57.175 Y-13 Z9.9 I-0.825 J0
X58.825 Y-13 Z9.8 I0.825 J0
X57.175 Y-13 Z9.7 I-0.825 J0
X58.825 Y-13 Z9.6 I0.825 J0
X57.175 Y-13 Z9.5 I-0.825 J0
X58.825 Y-13 Z9.4 I0.825 J0
X57.175 Y-13 Z9.3 I-0.825 J0
X58.825 Y-13 Z9.2 I0.825 J0
X57.175 Y-13 Z9.1 I-0.825 J0
X58.825 Y-13 Z9 I0.825 J0
X57.175 Y-13 Z8.9 I-0.825 J0
X58.825 Y-13 Z8.8 I0.825 J0
X57.175 Y-13 Z8.7 I-0.825 J0
X58.825 Y-13 Z8.6 I0.825 J0
X57.175 Y-13 Z8.5 I-0.825 J0
X58.825 Y-13 Z8.4 I0.825 J0
X57.175 Y-13 Z8.3 I-0.825 J0
X58.825 Y-13 Z8.2 I0.825 J0
X57.175 Y-13 Z8.1 I-0.825 J0
X58.825 Y-13 Z8 I0.825 J0
X57.175 Y-13 Z7.9 I-0.825 J0
X58.825 Y-13 Z7.8 I0.825 J0
X57.175 Y-13 Z7.7 I-0.825 J0
X58.825 Y-13 Z7.6 I0.825 J0
X57.175 Y-13 Z7.5 I-0.825 J0
X58.825 Y-13 Z7.4 I0.825 J0
X57.175 Y-13 Z7.3 I-0.825 J0
X58.825 Y-13 Z7.2 I0.825 J0
X57.175 Y-13 Z7.1 I-0.825 J0
X58.825 Y-13 Z7 I0.825 J0
X57.175 Y-13 Z6.9 I-0.825 J0
X58.825 Y-13 Z6.8 I0.825 J0
X57.175 Y-13 Z6.7 I-0.825 J0
X58.825 Y-13 Z6.6 I0.825 J0
X57.175 Y-13 Z6.5 I-0.825 J0
X58.825 Y-13 Z6.4 I0.825 J0
X57.175 Y-13 Z6.3 I-0.825 J0
X58.825 Y-13 Z6.2 I0.825 J0
X57.175 Y-13 Z6.1 I-0.825 J0
X58.825 Y-13 Z6 I0.825 J0
X57.175 Y-13 Z5.9 I-0.825 J0
X58.825 Y-13 Z5.8 I0.825 J0
X57.175 Y-13 Z5.7 I-0.825 J0
X58.825 Y-13 Z5.6 I0.825 J0
X57.175 Y-13 Z5.5 I-0.825 J0
X58.825 Y-13 Z5.4 I0.825 J0
X57.175 Y-13 Z5.3 I-0.825 J0
X58.825 Y-13 Z5.2 I0.825 J0
X57.175 Y-13 Z5.1 I-0.825 J0
X58.825 Y-13 Z5 I0.825 J0
X57.175 Y-13 I-0.825 J0
X58.825 Y-13 I0.825 J0
X58.507 Y-12.682 I-0.318 J0
G1 X58.349
G18 G3 X58.031 Z5.318 I0 K0.318
G0 Z19.2
X56.381
Z12.5
G1 Z10.818 F500
G3 X56.064 Z10.5 I-0.317 K0
G1 X55.905
G17 G3 X55.588 Y-13 I0 J-0.318
X60.412 Y-13 Z10.4 I2.412 J0
X55.588 Y-13 Z10.3 I-2.412 J0
X60.412 Y-13 Z10.2 I2.412 J0
X55.588 Y-13 Z10.1 I-2.412 J0
X60.412 Y-13 Z10 I2.412 J0
X55.588 Y-13 Z9.9 I-2.412 J0
X60.412 Y-13 Z9.8 I2.412 J0
X55.588 Y-13 Z9.7 I-2.412 J0
X60.412 Y-13 Z9.6 I2.412 J0
X55.588 Y-13 Z9.5 I-2.412 J0
X60.412 Y-13 Z9.4 I2.412 J0
X55.588 Y-13 Z9.3 I-2.412 J0
X60.412 Y-13 Z9.2 I2.412 J0
X55.588 Y-13 Z9.1 I-2.412 J0
X60.412 Y-13 Z9 I2.412 J0
X55.588 Y-13 Z8.9 I-2.412 J0
X60.412 Y-13 Z8.8 I2.412 J0
X55.588 Y-13 Z8.7 I-2.412 J0
X60.412 Y-13 Z8.6 I2.412 J0
X55.588 Y-13 Z8.5 I-2.412 J0
X60.412 Y-13 Z8.4 I2.412 J0
X55.588 Y-13 Z8.3 I-2.412 J0
X60.412 Y-13 Z8.2 I2.412 J0
X55.588 Y-13 Z8.1 I-2.412 J0
X60.412 Y-13 Z8 I2.412 J0
X55.588 Y-13 Z7.9 I-2.412 J0
X60.412 Y-13 Z7.8 I2.412 J0
X55.588 Y-13 Z7.7 I-2.412 J0
X60.412 Y-13 Z7.6 I2.412 J0
X55.588 Y-13 Z7.5 I-2.412 J0
X60.412 Y-13 Z7.4 I2.412 J0
X55.588 Y-13 Z7.3 I-2.412 J0
X60.412 Y-13 Z7.2 I2.412 J0
X55.588 Y-13 Z7.1 I-2.412 J0
X60.412 Y-13 Z7 I2.412 J0
X55.588 Y-13 Z6.9 I-2.412 J0
X60.412 Y-13 Z6.8 I2.412 J0
X55.588 Y-13 Z6.7 I-2.412 J0
X60.412 Y-13 Z6.6 I2.412 J0
X55.588 Y-13 Z6.5 I-2.412 J0
X60.412 Y-13 Z6.4 I2.412 J0
X55.588 Y-13 Z6.3 I-2.412 J0
X60.412 Y-13 Z6.2 I2.412 J0
X55.588 Y-13 Z6.1 I-2.412 J0
X60.412 Y-13 Z6 I2.412 J0
X55.588 Y-13 Z5.9 I-2.412 J0
X60.412 Y-13 Z5.8 I2.412 J0
X55.588 Y-13 Z5.7 I-2.412 J0
X60.412 Y-13 Z5.6 I2.412 J0
X55.588 Y-13 Z5.5 I-2.412 J0
X60.412 Y-13 Z5.4 I2.412 J0
X55.588 Y-13 Z5.3 I-2.412 J0
X60.412 Y-13 Z5.2 I2.412 J0
X55.588 Y-13 Z5.1 I-2.412 J0
X60.412 Y-13 Z5 I2.412 J0
X55.588 Y-13 I-2.412 J0
X60.412 Y-13 I2.412 J0
X60.095 Y-12.682 I-0.317 J0
G1 X59.936
G18 G3 X59.619 Z5.318 I0 K0.318
G0 Z19.2
X57.969 Y13.318
Z12.5
G1 Z10.818 F500
G3 X57.651 Z10.5 I-0.318 K0
G1 X57.493
G17 G3 X57.175 Y13 I0 J-0.318
X58.825 Y13 Z10.4 I0.825 J0
X57.175 Y13 Z10.3 I-0.825 J0
X58.825 Y13 Z10.2 I0.825 J0
X57.175 Y13 Z10.1 I-0.825 J0
X58.825 Y13 Z10 I0.825 J0
X57.175 Y13 Z9.9 I-0.825 J0
X58.825 Y13 Z9.8 I0.825 J0
X57.175 Y13 Z9.7 I-0.825 J0
X58.825 Y13 Z9.6 I0.825 J0
X57.175 Y13 Z9.5 I-0.825 J0
X58.825 Y13 Z9.4 I0.825 J0
X57.175 Y13 Z9.3 I-0.825 J0
X58.825 Y13 Z9.2 I0.825 J0
X57.175 Y13 Z9.1 I-0.825 J0
X58.825 Y13 Z9 I0.825 J0
X57.175 Y13 Z8.9 I-0.825 J0
X58.825 Y13 Z8.8 I0.825 J0
X57.175 Y13 Z8.7 I-0.825 J0
X58.825 Y13 Z8.6 I0.825 J0
X57.175 Y13 Z8.5 I-0.825 J0
X58.825 Y13 Z8.4 I0.825 J0
X57.175 Y13 Z8.3 I-0.825 J0
X58.825 Y13 Z8.2 I0.825 J0
X57.175 Y13 Z8.1 I-0.825 J0
X58.825 Y13 Z8 I0.825 J0
X57.175 Y13 Z7.9 I-0.825 J0
X58.825 Y13 Z7.8 I0.825 J0
X57.175 Y13 Z7.7 I-0.825 J0
X58.825 Y13 Z7.6 I0.825 J0
X57.175 Y13 Z7.5 I-0.825 J0
X58.825 Y13 Z7.4 I0.825 J0
X57.175 Y13 Z7.3 I-0.825 J0
X58.825 Y13 Z7.2 I0.825 J0
X57.175 Y13 Z7.1 I-0.825 J0
X58.825 Y13 Z7 I0.825 J0
X57.175 Y13 Z6.9 I-0.825 J0
X58.825 Y13 Z6.8 I0.825 J0
X57.175 Y13 Z6.7 I-0.825 J0
X58.825 Y13 Z6.6 I0.825 J0
X57.175 Y13 Z6.5 I-0.825 J0
X58.825 Y13 Z6.4 I0.825 J0
X57.175 Y13 Z6.3 I-0.825 J0
X58.825 Y13 Z6.2 I0.825 J0
X57.175 Y13 Z6.1 I-0.825 J0
X58.825 Y13 Z6 I0.825 J0
X57.175 Y13 Z5.9 I-0.825 J0
X58.825 Y13 Z5.8 I0.825 J0
X57.175 Y13 Z5.7 I-0.825 J0
X58.825 Y13 Z5.6 I0.825 J0
X57.175 Y13 Z5.5 I-0.825 J0
X58.825 Y13 Z5.4 I0.825 J0
X57.175 Y13 Z5.3 I-0.825 J0
X58.825 Y13 Z5.2 I0.825 J0
X57.175 Y13 Z5.1 I-0.825 J0
X58.825 Y13 Z5 I0.825 J0
X57.175 Y13 I-0.825 J0
X58.825 Y13 I0.825 J0
X58.507 Y13.318 I-0.318 J0
G1 X58.349
G18 G3 X58.031 Z5.318 I0 K0.318
G0 Z19.2
X56.381
Z12.5
G1 Z10.818 F500
G3 X56.064 Z10.5 I-0.317 K0
G1 X55.905
G17 G3 X55.588 Y13 I0 J-0.318
X60.412 Y13 Z10.4 I2.412 J0
X55.588 Y13 Z10.3 I-2.412 J0
X60.412 Y13 Z10.2 I2.412 J0
X55.588 Y13 Z10.1 I-2.412 J0
X60.412 Y13 Z10 I2.412 J0
X55.588 Y13 Z9.9 I-2.412 J0
X60.412 Y13 Z9.8 I2.412 J0
X55.588 Y13 Z9.7 I-2.412 J0
X60.412 Y13 Z9.6 I2.412 J0
X55.588 Y13 Z9.5 I-2.412 J0
X60.412 Y13 Z9.4 I2.412 J0
X55.588 Y13 Z9.3 I-2.412 J0
X60.412 Y13 Z9.2 I2.412 J0
X55.588 Y13 Z9.1 I-2.412 J0
X60.412 Y13 Z9 I2.412 J0
X55.588 Y13 Z8.9 I-2.412 J0
X60.412 Y13 Z8.8 I2.412 J0
X55.588 Y13 Z8.7 I-2.412 J0
X60.412 Y13 Z8.6 I2.412 J0
X55.588 Y13 Z8.5 I-2.412 J0
X60.412 Y13 Z8.4 I2.412 J0
X55.588 Y13 Z8.3 I-2.412 J0
X60.412 Y13 Z8.2 I2.412 J0
X55.588 Y13 Z8.1 I-2.412 J0
X60.412 Y13 Z8 I2.412 J0
X55.588 Y13 Z7.9 I-2.412 J0
X60.412 Y13 Z7.8 I2.412 J0
X55.588 Y13 Z7.7 I-2.412 J0
X60.412 Y13 Z7.6 I2.412 J0
X55.588 Y13 Z7.5 I-2.412 J0
X60.412 Y13 Z7.4 I2.412 J0
X55.588 Y13 Z7.3 I-2.412 J0
X60.412 Y13 Z7.2 I2.412 J0
X55.588 Y13 Z7.1 I-2.412 J0
X60.412 Y13 Z7 I2.412 J0
X55.588 Y13 Z6.9 I-2.412 J0
X60.412 Y13 Z6.8 I2.412 J0
X55.588 Y13 Z6.7 I-2.412 J0
X60.412 Y13 Z6.6 I2.412 J0
X55.588 Y13 Z6.5 I-2.412 J0
X60.412 Y13 Z6.4 I2.412 J0
X55.588 Y13 Z6.3 I-2.412 J0
X60.412 Y13 Z6.2 I2.412 J0
X55.588 Y13 Z6.1 I-2.412 J0
X60.412 Y13 Z6 I2.412 J0
X55.588 Y13 Z5.9 I-2.412 J0
X60.412 Y13 Z5.8 I2.412 J0
X55.588 Y13 Z5.7 I-2.412 J0
X60.412 Y13 Z5.6 I2.412 J0
X55.588 Y13 Z5.5 I-2.412 J0
X60.412 Y13 Z5.4 I2.412 J0
X55.588 Y13 Z5.3 I-2.412 J0
X60.412 Y13 Z5.2 I2.412 J0
X55.588 Y13 Z5.1 I-2.412 J0
X60.412 Y13 Z5 I2.412 J0
X55.588 Y13 I-2.412 J0
X60.412 Y13 I2.412 J0
X60.095 Y13.318 I-0.317 J0
G1 X59.936
G18 G3 X59.619 Z5.318 I0 K0.318
G0 Z19.2
X31.969
Z12.5
G1 Z10.818 F500
G3 X31.651 Z10.5 I-0.317 K0
G1 X31.493
G17 G3 X31.175 Y13 I0 J-0.318
X32.825 Y13 Z10.4 I0.825 J0
X31.175 Y13 Z10.3 I-0.825 J0
X32.825 Y13 Z10.2 I0.825 J0
X31.175 Y13 Z10.1 I-0.825 J0
X32.825 Y13 Z10 I0.825 J0
X31.175 Y13 Z9.9 I-0.825 J0
X32.825 Y13 Z9.8 I0.825 J0
X31.175 Y13 Z9.7 I-0.825 J0
X32.825 Y13 Z9.6 I0.825 J0
X31.175 Y13 Z9.5 I-0.825 J0
X32.825 Y13 Z9.4 I0.825 J0
X31.175 Y13 Z9.3 I-0.825 J0
X32.825 Y13 Z9.2 I0.825 J0
X31.175 Y13 Z9.1 I-0.825 J0
X32.825 Y13 Z9 I0.825 J0
X31.175 Y13 Z8.9 I-0.825 J0
X32.825 Y13 Z8.8 I0.825 J0
X31.175 Y13 Z8.7 I-0.825 J0
X32.825 Y13 Z8.6 I0.825 J0
X31.175 Y13 Z8.5 I-0.825 J0
X32.825 Y13 Z8.4 I0.825 J0
X31.175 Y13 Z8.3 I-0.825 J0
X32.825 Y13 Z8.2 I0.825 J0
X31.175 Y13 Z8.1 I-0.825 J0
X32.825 Y13 Z8 I0.825 J0
X31.175 Y13 Z7.9 I-0.825 J0
X32.825 Y13 Z7.8 I0.825 J0
X31.175 Y13 Z7.7 I-0.825 J0
X32.825 Y13 Z7.6 I0.825 J0
X31.175 Y13 Z7.5 I-0.825 J0
X32.825 Y13 Z7.4 I0.825 J0
X31.175 Y13 Z7.3 I-0.825 J0
X32.825 Y13 Z7.2 I0.825 J0
X31.175 Y13 Z7.1 I-0.825 J0
X32.825 Y13 Z7 I0.825 J0
X31.175 Y13 Z6.9 I-0.825 J0
X32.825 Y13 Z6.8 I0.825 J0
X31.175 Y13 Z6.7 I-0.825 J0
X32.825 Y13 Z6.6 I0.825 J0
X31.175 Y13 Z6.5 I-0.825 J0
X32.825 Y13 Z6.4 I0.825 J0
X31.175 Y13 Z6.3 I-0.825 J0
X32.825 Y13 Z6.2 I0.825 J0
X31.175 Y13 Z6.1 I-0.825 J0
X32.825 Y13 Z6 I0.825 J0
X31.175 Y13 Z5.9 I-0.825 J0
X32.825 Y13 Z5.8 I0.825 J0
X31.175 Y13 Z5.7 I-0.825 J0
X32.825 Y13 Z5.6 I0.825 J0
X31.175 Y13 Z5.5 I-0.825 J0
X32.825 Y13 Z5.4 I0.825 J0
X31.175 Y13 Z5.3 I-0.825 J0
X32.825 Y13 Z5.2 I0.825 J0
X31.175 Y13 Z5.1 I-0.825 J0
X32.825 Y13 Z5 I0.825 J0
X31.175 Y13 I-0.825 J0
X32.825 Y13 I0.825 J0
X32.507 Y13.318 I-0.318 J0
G1 X32.349
G18 G3 X32.031 Z5.318 I0 K0.318
G0 Z19.2
X30.381
Z12.5
G1 Z10.818 F500
G3 X30.064 Z10.5 I-0.318 K0
G1 X29.905
G17 G3 X29.587 Y13 I0 J-0.318
X34.413 Y13 Z10.4 I2.413 J0
X29.587 Y13 Z10.3 I-2.413 J0
X34.413 Y13 Z10.2 I2.413 J0
X29.587 Y13 Z10.1 I-2.413 J0
X34.413 Y13 Z10 I2.413 J0
X29.587 Y13 Z9.9 I-2.413 J0
X34.413 Y13 Z9.8 I2.413 J0
X29.587 Y13 Z9.7 I-2.413 J0
X34.413 Y13 Z9.6 I2.413 J0
X29.587 Y13 Z9.5 I-2.413 J0
X34.413 Y13 Z9.4 I2.413 J0
X29.588 Y13 Z9.3 I-2.413 J0
X34.412 Y13 Z9.2 I2.412 J0
X29.588 Y13 Z9.1 I-2.412 J0
X34.412 Y13 Z9 I2.412 J0
X29.588 Y13 Z8.9 I-2.412 J0
X34.412 Y13 Z8.8 I2.412 J0
X29.588 Y13 Z8.7 I-2.412 J0
X34.412 Y13 Z8.6 I2.412 J0
X29.588 Y13 Z8.5 I-2.412 J0
X34.412 Y13 Z8.4 I2.412 J0
X29.588 Y13 Z8.3 I-2.412 J0
X34.412 Y13 Z8.2 I2.412 J0
X29.588 Y13 Z8.1 I-2.412 J0
X34.412 Y13 Z8 I2.412 J0
X29.588 Y13 Z7.9 I-2.412 J0
X34.412 Y13 Z7.8 I2.412 J0
X29.588 Y13 Z7.7 I-2.412 J0
X34.412 Y13 Z7.6 I2.412 J0
X29.588 Y13 Z7.5 I-2.412 J0
X34.412 Y13 Z7.4 I2.412 J0
X29.588 Y13 Z7.3 I-2.412 J0
X34.412 Y13 Z7.2 I2.412 J0
X29.588 Y13 Z7.1 I-2.412 J0
X34.412 Y13 Z7 I2.412 J0
X29.588 Y13 Z6.9 I-2.412 J0
X34.412 Y13 Z6.8 I2.412 J0
X29.588 Y13 Z6.7 I-2.412 J0
X34.412 Y13 Z6.6 I2.412 J0
X29.588 Y13 Z6.5 I-2.412 J0
X34.412 Y13 Z6.4 I2.412 J0
X29.588 Y13 Z6.3 I-2.412 J0
X34.412 Y13 Z6.2 I2.412 J0
X29.588 Y13 Z6.1 I-2.412 J0
X34.412 Y13 Z6 I2.412 J0
X29.588 Y13 Z5.9 I-2.412 J0
X34.412 Y13 Z5.8 I2.412 J0
X29.588 Y13 Z5.7 I-2.412 J0
X34.412 Y13 Z5.6 I2.412 J0
X29.588 Y13 Z5.5 I-2.412 J0
X34.412 Y13 Z5.4 I2.412 J0
X29.588 Y13 Z5.3 I-2.412 J0
X34.412 Y13 Z5.2 I2.412 J0
X29.588 Y13 Z5.1 I-2.412 J0
X34.412 Y13 Z5 I2.412 J0
X29.588 Y13 I-2.412 J0
X34.412 Y13 I2.412 J0
X34.095 Y13.318 I-0.317 J0
G1 X33.936
G18 G3 X33.619 Z5.318 I0 K0.318
G0 Z19.2
X14.631 Y15.318
Z12.5
G1 Z10.818 F500
G3 X14.314 Z10.5 I-0.318 K0
G1 X14.155
G17 G3 X13.837 Y15 I0 J-0.318
X16.163 Y15 Z10.4 I1.163 J0
X13.837 Y15 Z10.3 I-1.163 J0
X16.163 Y15 Z10.2 I1.163 J0
X13.837 Y15 Z10.1 I-1.163 J0
X16.163 Y15 Z10 I1.163 J0
X13.837 Y15 Z9.9 I-1.163 J0
X16.163 Y15 Z9.8 I1.163 J0
X13.837 Y15 Z9.7 I-1.163 J0
X16.163 Y15 Z9.6 I1.163 J0
X13.837 Y15 Z9.5 I-1.163 J0
X16.163 Y15 Z9.4 I1.163 J0
X13.837 Y15 Z9.3 I-1.163 J0
X16.163 Y15 Z9.2 I1.163 J0
X13.837 Y15 Z9.1 I-1.163 J0
X16.163 Y15 Z9 I1.163 J0
X13.837 Y15 Z8.9 I-1.163 J0
X16.163 Y15 Z8.8 I1.163 J0
X13.837 Y15 Z8.7 I-1.163 J0
X16.163 Y15 Z8.6 I1.163 J0
X13.837 Y15 Z8.5 I-1.163 J0
X16.163 Y15 Z8.4 I1.163 J0
X13.837 Y15 Z8.3 I-1.163 J0
X16.163 Y15 Z8.2 I1.163 J0
X13.837 Y15 Z8.1 I-1.163 J0
X16.163 Y15 Z8 I1.163 J0
X13.837 Y15 Z7.9 I-1.163 J0
X16.163 Y15 Z7.8 I1.163 J0
X13.837 Y15 Z7.7 I-1.163 J0
X16.163 Y15 Z7.6 I1.163 J0
X13.837 Y15 Z7.5 I-1.163 J0
X16.163 Y15 Z7.4 I1.163 J0
X13.837 Y15 Z7.3 I-1.163 J0
X16.163 Y15 Z7.2 I1.163 J0
X13.837 Y15 Z7.1 I-1.163 J0
X16.163 Y15 Z7 I1.163 J0
X13.837 Y15 Z6.9 I-1.163 J0
X16.163 Y15 Z6.8 I1.163 J0
X13.837 Y15 Z6.7 I-1.163 J0
X16.163 Y15 Z6.6 I1.163 J0
X13.837 Y15 Z6.5 I-1.163 J0
X16.163 Y15 Z6.4 I1.163 J0
X13.837 Y15 Z6.3 I-1.163 J0
X16.163 Y15 Z6.2 I1.163 J0
X13.837 Y15 Z6.1 I-1.163 J0
X16.163 Y15 Z6 I1.163 J0
X13.837 Y15 Z5.9 I-1.163 J0
X16.163 Y15 Z5.8 I1.163 J0
X13.837 Y15 Z5.7 I-1.163 J0
X16.163 Y15 Z5.6 I1.163 J0
X13.837 Y15 Z5.5 I-1.163 J0
X16.163 Y15 Z5.4 I1.163 J0
X13.837 Y15 Z5.3 I-1.163 J0
X16.163 Y15 Z5.2 I1.163 J0
X13.837 Y15 Z5.1 I-1.163 J0
X16.163 Y15 Z5 I1.163 J0
X13.837 Y15 Z4.9 I-1.163 J0
X16.163 Y15 Z4.8 I1.163 J0
X13.837 Y15 Z4.7 I-1.163 J0
X16.163 Y15 Z4.6 I1.163 J0
X13.837 Y15 Z4.5 I-1.163 J0
X16.163 Y15 Z4.4 I1.163 J0
X13.837 Y15 Z4.3 I-1.163 J0
X16.163 Y15 Z4.2 I1.163 J0
X13.837 Y15 Z4.1 I-1.163 J0
X16.163 Y15 Z4 I1.163 J0
X13.837 Y15 Z3.9 I-1.163 J0
X16.163 Y15 Z3.8 I1.163 J0
X13.837 Y15 Z3.7 I-1.163 J0
X16.163 Y15 Z3.6 I1.163 J0
X13.837 Y15 Z3.5 I-1.163 J0
X16.163 Y15 Z3.4 I1.163 J0
X13.837 Y15 Z3.3 I-1.163 J0
X16.163 Y15 Z3.2 I1.163 J0
X13.837 Y15 Z3.1 I-1.163 J0
X16.163 Y15 Z3 I1.163 J0
X13.837 Y15 Z2.9 I-1.163 J0
X16.163 Y15 Z2.8 I1.163 J0
X13.837 Y15 Z2.7 I-1.163 J0
X16.163 Y15 Z2.6 I1.163 J0
X13.837 Y15 Z2.5 I-1.163 J0
X16.163 Y15 Z2.4 I1.163 J0
X13.837 Y15 Z2.3 I-1.163 J0
X16.163 Y15 Z2.2 I1.163 J0
X13.837 Y15 Z2.1 I-1.163 J0
X16.163 Y15 Z2 I1.163 J0
X13.837 Y15 Z1.9 I-1.163 J0
X16.163 Y15 Z1.8 I1.163 J0
X13.837 Y15 Z1.7 I-1.163 J0
X16.163 Y15 Z1.6 I1.163 J0
X13.837 Y15 Z1.5 I-1.163 J0
X16.163 Y15 Z1.4 I1.163 J0
X13.837 Y15 Z1.3 I-1.163 J0
X16.163 Y15 Z1.2 I1.163 J0
X13.837 Y15 Z1.1 I-1.163 J0
X16.163 Y15 Z1 I1.163 J0
X13.837 Y15 Z0.9 I-1.163 J0
X16.163 Y15 Z0.8 I1.163 J0
X13.837 Y15 Z0.7 I-1.163 J0
X16.163 Y15 Z0.6 I1.163 J0
X13.837 Y15 Z0.5 I-1.163 J0
X16.163 Y15 Z0.4 I1.163 J0
X13.837 Y15 Z0.3 I-1.163 J0
X16.163 Y15 Z0.2 I1.163 J0
X13.837 Y15 Z0.1 I-1.163 J0
X16.163 Y15 Z0 I1.163 J0
X13.837 Y15 I-1.163 J0
X16.163 Y15 I1.163 J0
X15.845 Y15.318 I-0.318 J0
G1 X15.686
G18 G3 X15.369 Z0.317 I0 K0.317
G0 Z19.2
X89.631
Z12.5
G1 Z10.818 F500
G3 X89.314 Z10.5 I-0.317 K0
G1 X89.155
G17 G3 X88.838 Y15 I0 J-0.318
X91.162 Y15 Z10.4 I1.162 J0
X88.838 Y15 Z10.3 I-1.162 J0
X91.162 Y15 Z10.2 I1.162 J0
X88.838 Y15 Z10.1 I-1.162 J0
X91.162 Y15 Z10 I1.162 J0
X88.838 Y15 Z9.9 I-1.162 J0
X91.162 Y15 Z9.8 I1.162 J0
X88.838 Y15 Z9.7 I-1.162 J0
X91.162 Y15 Z9.6 I1.162 J0
X88.838 Y15 Z9.5 I-1.162 J0
X91.162 Y15 Z9.4 I1.162 J0
X88.838 Y15 Z9.3 I-1.162 J0
X91.162 Y15 Z9.2 I1.162 J0
X88.838 Y15 Z9.1 I-1.162 J0
X91.162 Y15 Z9 I1.162 J0
X88.838 Y15 Z8.9 I-1.162 J0
X91.162 Y15 Z8.8 I1.162 J0
X88.838 Y15 Z8.7 I-1.162 J0
X91.162 Y15 Z8.6 I1.162 J0
X88.838 Y15 Z8.5 I-1.162 J0
X91.162 Y15 Z8.4 I1.162 J0
X88.838 Y15 Z8.3 I-1.162 J0
X91.162 Y15 Z8.2 I1.162 J0
X88.838 Y15 Z8.1 I-1.162 J0
X91.162 Y15 Z8 I1.162 J0
X88.838 Y15 Z7.9 I-1.162 J0
X91.162 Y15 Z7.8 I1.162 J0
X88.838 Y15 Z7.7 I-1.162 J0
X91.162 Y15 Z7.6 I1.162 J0
X88.838 Y15 Z7.5 I-1.162 J0
X91.162 Y15 Z7.4 I1.162 J0
X88.838 Y15 Z7.3 I-1.162 J0
X91.162 Y15 Z7.2 I1.162 J0
X88.838 Y15 Z7.1 I-1.162 J0
X91.162 Y15 Z7 I1.162 J0
X88.838 Y15 Z6.9 I-1.162 J0
X91.162 Y15 Z6.8 I1.162 J0
X88.838 Y15 Z6.7 I-1.162 J0
X91.162 Y15 Z6.6 I1.162 J0
X88.838 Y15 Z6.5 I-1.162 J0
X91.162 Y15 Z6.4 I1.162 J0
X88.838 Y15 Z6.3 I-1.162 J0
X91.162 Y15 Z6.2 I1.162 J0
X88.838 Y15 Z6.1 I-1.162 J0
X91.162 Y15 Z6 I1.162 J0
X88.838 Y15 Z5.9 I-1.162 J0
X91.162 Y15 Z5.8 I1.162 J0
X88.838 Y15 Z5.7 I-1.162 J0
X91.162 Y15 Z5.6 I1.162 J0
X88.838 Y15 Z5.5 I-1.162 J0
X91.162 Y15 Z5.4 I1.162 J0
X88.838 Y15 Z5.3 I-1.162 J0
X91.162 Y15 Z5.2 I1.162 J0
X88.838 Y15 Z5.1 I-1.162 J0
X91.162 Y15 Z5 I1.162 J0
X88.838 Y15 Z4.9 I-1.162 J0
X91.162 Y15 Z4.8 I1.162 J0
X88.838 Y15 Z4.7 I-1.162 J0
X91.162 Y15 Z4.6 I1.162 J0
X88.838 Y15 Z4.5 I-1.162 J0
X91.162 Y15 Z4.4 I1.162 J0
X88.838 Y15 Z4.3 I-1.162 J0
X91.162 Y15 Z4.2 I1.162 J0
X88.838 Y15 Z4.1 I-1.162 J0
X91.162 Y15 Z4 I1.162 J0
X88.838 Y15 Z3.9 I-1.162 J0
X91.162 Y15 Z3.8 I1.162 J0
X88.838 Y15 Z3.7 I-1.162 J0
X91.162 Y15 Z3.6 I1.162 J0
X88.838 Y15 Z3.5 I-1.162 J0
X91.162 Y15 Z3.4 I1.162 J0
X88.838 Y15 Z3.3 I-1.162 J0
X91.162 Y15 Z3.2 I1.162 J0
X88.838 Y15 Z3.1 I-1.162 J0
X91.162 Y15 Z3 I1.162 J0
X88.838 Y15 Z2.9 I-1.162 J0
X91.162 Y15 Z2.8 I1.162 J0
X88.838 Y15 Z2.7 I-1.162 J0
X91.162 Y15 Z2.6 I1.162 J0
X88.838 Y15 Z2.5 I-1.162 J0
X91.162 Y15 Z2.4 I1.162 J0
X88.838 Y15 Z2.3 I-1.162 J0
X91.162 Y15 Z2.2 I1.162 J0
X88.838 Y15 Z2.1 I-1.162 J0
X91.162 Y15 Z2 I1.162 J0
X88.838 Y15 Z1.9 I-1.162 J0
X91.162 Y15 Z1.8 I1.162 J0
X88.838 Y15 Z1.7 I-1.162 J0
X91.162 Y15 Z1.6 I1.162 J0
X88.838 Y15 Z1.5 I-1.162 J0
X91.162 Y15 Z1.4 I1.162 J0
X88.838 Y15 Z1.3 I-1.162 J0
X91.162 Y15 Z1.2 I1.162 J0
X88.838 Y15 Z1.1 I-1.162 J0
X91.162 Y15 Z1 I1.162 J0
X88.838 Y15 Z0.9 I-1.162 J0
X91.162 Y15 Z0.8 I1.162 J0
X88.838 Y15 Z0.7 I-1.162 J0
X91.162 Y15 Z0.6 I1.162 J0
X88.838 Y15 Z0.5 I-1.162 J0
X91.162 Y15 Z0.4 I1.162 J0
X88.838 Y15 Z0.3 I-1.162 J0
X91.162 Y15 Z0.2 I1.162 J0
X88.838 Y15 Z0.1 I-1.162 J0
X91.162 Y15 Z0 I1.162 J0
X88.838 Y15 I-1.162 J0
X91.162 Y15 I1.162 J0
X90.845 Y15.318 I-0.317 J0
G1 X90.686
G18 G3 X90.369 Z0.317 I0 K0.317
G0 Z19.2
X89.631 Y-14.682
Z12.5
G1 Z10.818 F500
G3 X89.314 Z10.5 I-0.317 K0
G1 X89.155
G17 G3 X88.838 Y-15 I0 J-0.318
X91.162 Y-15 Z10.4 I1.162 J0
X88.838 Y-15 Z10.3 I-1.162 J0
X91.162 Y-15 Z10.2 I1.162 J0
X88.838 Y-15 Z10.1 I-1.162 J0
X91.162 Y-15 Z10 I1.162 J0
X88.838 Y-15 Z9.9 I-1.162 J0
X91.162 Y-15 Z9.8 I1.162 J0
X88.838 Y-15 Z9.7 I-1.162 J0
X91.162 Y-15 Z9.6 I1.162 J0
X88.838 Y-15 Z9.5 I-1.162 J0
X91.162 Y-15 Z9.4 I1.162 J0
X88.838 Y-15 Z9.3 I-1.162 J0
X91.162 Y-15 Z9.2 I1.162 J0
X88.838 Y-15 Z9.1 I-1.162 J0
X91.162 Y-15 Z9 I1.162 J0
X88.838 Y-15 Z8.9 I-1.162 J0
X91.162 Y-15 Z8.8 I1.162 J0
X88.838 Y-15 Z8.7 I-1.162 J0
X91.162 Y-15 Z8.6 I1.162 J0
X88.838 Y-15 Z8.5 I-1.162 J0
X91.162 Y-15 Z8.4 I1.162 J0
X88.838 Y-15 Z8.3 I-1.162 J0
X91.162 Y-15 Z8.2 I1.162 J0
X88.838 Y-15 Z8.1 I-1.162 J0
X91.162 Y-15 Z8 I1.162 J0
X88.838 Y-15 Z7.9 I-1.162 J0
X91.162 Y-15 Z7.8 I1.162 J0
X88.838 Y-15 Z7.7 I-1.162 J0
X91.162 Y-15 Z7.6 I1.162 J0
X88.838 Y-15 Z7.5 I-1.162 J0
X91.162 Y-15 Z7.4 I1.162 J0
X88.838 Y-15 Z7.3 I-1.162 J0
X91.162 Y-15 Z7.2 I1.162 J0
X88.838 Y-15 Z7.1 I-1.162 J0
X91.162 Y-15 Z7 I1.162 J0
X88.838 Y-15 Z6.9 I-1.162 J0
X91.162 Y-15 Z6.8 I1.162 J0
X88.838 Y-15 Z6.7 I-1.162 J0
X91.162 Y-15 Z6.6 I1.162 J0
X88.838 Y-15 Z6.5 I-1.162 J0
X91.162 Y-15 Z6.4 I1.162 J0
X88.838 Y-15 Z6.3 I-1.162 J0
X91.162 Y-15 Z6.2 I1.162 J0
X88.838 Y-15 Z6.1 I-1.162 J0
X91.162 Y-15 Z6 I1.162 J0
X88.838 Y-15 Z5.9 I-1.162 J0
X91.162 Y-15 Z5.8 I1.162 J0
X88.838 Y-15 Z5.7 I-1.162 J0
X91.162 Y-15 Z5.6 I1.162 J0
X88.838 Y-15 Z5.5 I-1.162 J0
X91.162 Y-15 Z5.4 I1.162 J0
X88.838 Y-15 Z5.3 I-1.162 J0
X91.162 Y-15 Z5.2 I1.162 J0
X88.838 Y-15 Z5.1 I-1.162 J0
X91.162 Y-15 Z5 I1.162 J0
X88.838 Y-15 Z4.9 I-1.162 J0
X91.162 Y-15 Z4.8 I1.162 J0
X88.838 Y-15 Z4.7 I-1.162 J0
X91.162 Y-15 Z4.6 I1.162 J0
X88.838 Y-15 Z4.5 I-1.162 J0
X91.162 Y-15 Z4.4 I1.162 J0
X88.838 Y-15 Z4.3 I-1.162 J0
X91.162 Y-15 Z4.2 I1.162 J0
X88.838 Y-15 Z4.1 I-1.162 J0
X91.162 Y-15 Z4 I1.162 J0
X88.838 Y-15 Z3.9 I-1.162 J0
X91.162 Y-15 Z3.8 I1.162 J0
X88.838 Y-15 Z3.7 I-1.162 J0
X91.162 Y-15 Z3.6 I1.162 J0
X88.838 Y-15 Z3.5 I-1.162 J0
X91.162 Y-15 Z3.4 I1.162 J0
X88.838 Y-15 Z3.3 I-1.162 J0
X91.162 Y-15 Z3.2 I1.162 J0
X88.838 Y-15 Z3.1 I-1.162 J0
X91.162 Y-15 Z3 I1.162 J0
X88.838 Y-15 Z2.9 I-1.162 J0
X91.162 Y-15 Z2.8 I1.162 J0
X88.838 Y-15 Z2.7 I-1.162 J0
X91.162 Y-15 Z2.6 I1.162 J0
X88.838 Y-15 Z2.5 I-1.162 J0
X91.162 Y-15 Z2.4 I1.162 J0
X88.838 Y-15 Z2.3 I-1.162 J0
X91.162 Y-15 Z2.2 I1.162 J0
X88.838 Y-15 Z2.1 I-1.162 J0
X91.162 Y-15 Z2 I1.162 J0
X88.838 Y-15 Z1.9 I-1.162 J0
X91.162 Y-15 Z1.8 I1.162 J0
X88.838 Y-15 Z1.7 I-1.162 J0
X91.162 Y-15 Z1.6 I1.162 J0
X88.838 Y-15 Z1.5 I-1.162 J0
X91.162 Y-15 Z1.4 I1.162 J0
X88.838 Y-15 Z1.3 I-1.162 J0
X91.162 Y-15 Z1.2 I1.162 J0
X88.838 Y-15 Z1.1 I-1.162 J0
X91.162 Y-15 Z1 I1.162 J0
X88.838 Y-15 Z0.9 I-1.162 J0
X91.162 Y-15 Z0.8 I1.162 J0
X88.838 Y-15 Z0.7 I-1.162 J0
X91.162 Y-15 Z0.6 I1.162 J0
X88.838 Y-15 Z0.5 I-1.162 J0
X91.162 Y-15 Z0.4 I1.162 J0
X88.838 Y-15 Z0.3 I-1.162 J0
X91.162 Y-15 Z0.2 I1.162 J0
X88.838 Y-15 Z0.1 I-1.162 J0
X91.162 Y-15 Z0 I1.162 J0
X88.838 Y-15 I-1.162 J0
X91.162 Y-15 I1.162 J0
X90.845 Y-14.682 I-0.317 J0
G1 X90.686
G18 G3 X90.369 Z0.317 I0 K0.317
G0 Z25.2
G17
G28 G91 Z0
G90
G28 G91 X0 Y0
G90
M5
M30
