(ycar_bore_2)
(T6  D=3.175 CR=0 - ZMIN=0 - flat end mill)
G90 G94
G17
G21
G28 G91 Z0
G90

(Bore1 2)
T6
(1/8" Flat-45 degree helix)
S18000 M3
G54
G0 X-32.119 Y13.318
Z25.2
Z7.3
G1 Z5.617 F500
G18 G3 X-32.436 Z5.3 I-0.317 K0
G1 X-32.595
G17 G3 X-32.912 Y13 I0 J-0.318
X-31.088 Y13 Z5.2 I0.912 J0
X-32.912 Y13 Z5.1 I-0.912 J0
X-31.088 Y13 Z5 I0.912 J0
X-32.912 Y13 Z4.9 I-0.912 J0
X-31.088 Y13 Z4.8 I0.912 J0
X-32.912 Y13 Z4.7 I-0.912 J0
X-31.088 Y13 Z4.6 I0.912 J0
X-32.912 Y13 Z4.5 I-0.912 J0
X-31.088 Y13 Z4.4 I0.912 J0
X-32.912 Y13 Z4.3 I-0.912 J0
X-31.088 Y13 Z4.2 I0.912 J0
X-32.912 Y13 Z4.1 I-0.912 J0
X-31.088 Y13 Z4 I0.912 J0
X-32.912 Y13 Z3.9 I-0.912 J0
X-31.088 Y13 Z3.8 I0.912 J0
X-32.912 Y13 Z3.7 I-0.912 J0
X-31.088 Y13 Z3.6 I0.912 J0
X-32.912 Y13 Z3.5 I-0.912 J0
X-31.088 Y13 Z3.4 I0.912 J0
X-32.912 Y13 Z3.3 I-0.912 J0
X-31.088 Y13 Z3.2 I0.912 J0
X-32.912 Y13 Z3.1 I-0.912 J0
X-31.088 Y13 Z3 I0.912 J0
X-32.912 Y13 Z2.9 I-0.912 J0
X-31.088 Y13 Z2.8 I0.912 J0
X-32.912 Y13 Z2.7 I-0.912 J0
X-31.088 Y13 Z2.6 I0.912 J0
X-32.912 Y13 Z2.5 I-0.912 J0
X-31.088 Y13 Z2.4 I0.912 J0
X-32.912 Y13 Z2.3 I-0.912 J0
X-31.088 Y13 Z2.2 I0.912 J0
X-32.912 Y13 Z2.1 I-0.912 J0
X-31.088 Y13 Z2 I0.912 J0
X-32.912 Y13 Z1.9 I-0.912 J0
X-31.088 Y13 Z1.8 I0.912 J0
X-32.912 Y13 Z1.7 I-0.912 J0
X-31.088 Y13 Z1.6 I0.912 J0
X-32.912 Y13 Z1.5 I-0.912 J0
X-31.088 Y13 Z1.4 I0.912 J0
X-32.912 Y13 Z1.3 I-0.912 J0
X-31.088 Y13 Z1.2 I0.912 J0
X-32.912 Y13 Z1.1 I-0.912 J0
X-31.087 Y13 Z1 I0.912 J0
X-32.913 Y13 Z0.9 I-0.913 J0
X-31.087 Y13 Z0.8 I0.913 J0
X-32.913 Y13 Z0.7 I-0.913 J0
X-31.087 Y13 Z0.6 I0.913 J0
X-32.913 Y13 Z0.5 I-0.913 J0
X-31.087 Y13 Z0.4 I0.913 J0
X-32.913 Y13 Z0.3 I-0.913 J0
X-31.087 Y13 Z0.2 I0.913 J0
X-32.913 Y13 Z0.1 I-0.913 J0
X-31.087 Y13 Z0 I0.913 J0
X-32.913 Y13 I-0.913 J0
X-31.087 Y13 I0.913 J0
X-31.405 Y13.318 I-0.318 J0
G1 X-31.564
G18 G3 X-31.881 Z0.317 I0 K0.317
G0 Z19.2
X-58.119
Z7.3
G1 Z5.617 F500
G3 X-58.436 Z5.3 I-0.317 K0
G1 X-58.595
G17 G3 X-58.912 Y13 I0 J-0.318
X-57.088 Y13 Z5.2 I0.912 J0
X-58.912 Y13 Z5.1 I-0.912 J0
X-57.088 Y13 Z5 I0.912 J0
X-58.912 Y13 Z4.9 I-0.912 J0
X-57.088 Y13 Z4.8 I0.912 J0
X-58.912 Y13 Z4.7 I-0.912 J0
X-57.088 Y13 Z4.6 I0.912 J0
X-58.912 Y13 Z4.5 I-0.912 J0
X-57.088 Y13 Z4.4 I0.912 J0
X-58.912 Y13 Z4.3 I-0.912 J0
X-57.088 Y13 Z4.2 I0.912 J0
X-58.912 Y13 Z4.1 I-0.912 J0
X-57.088 Y13 Z4 I0.912 J0
X-58.912 Y13 Z3.9 I-0.912 J0
X-57.088 Y13 Z3.8 I0.912 J0
X-58.912 Y13 Z3.7 I-0.912 J0
X-57.088 Y13 Z3.6 I0.912 J0
X-58.912 Y13 Z3.5 I-0.912 J0
X-57.088 Y13 Z3.4 I0.912 J0
X-58.912 Y13 Z3.3 I-0.912 J0
X-57.088 Y13 Z3.2 I0.912 J0
X-58.912 Y13 Z3.1 I-0.912 J0
X-57.088 Y13 Z3 I0.912 J0
X-58.912 Y13 Z2.9 I-0.912 J0
X-57.088 Y13 Z2.8 I0.912 J0
X-58.912 Y13 Z2.7 I-0.912 J0
X-57.088 Y13 Z2.6 I0.912 J0
X-58.912 Y13 Z2.5 I-0.912 J0
X-57.088 Y13 Z2.4 I0.912 J0
X-58.912 Y13 Z2.3 I-0.912 J0
X-57.088 Y13 Z2.2 I0.912 J0
X-58.912 Y13 Z2.1 I-0.912 J0
X-57.088 Y13 Z2 I0.912 J0
X-58.912 Y13 Z1.9 I-0.912 J0
X-57.088 Y13 Z1.8 I0.912 J0
X-58.912 Y13 Z1.7 I-0.912 J0
X-57.088 Y13 Z1.6 I0.912 J0
X-58.912 Y13 Z1.5 I-0.912 J0
X-57.088 Y13 Z1.4 I0.912 J0
X-58.912 Y13 Z1.3 I-0.912 J0
X-57.088 Y13 Z1.2 I0.912 J0
X-58.912 Y13 Z1.1 I-0.912 J0
X-57.088 Y13 Z1 I0.912 J0
X-58.912 Y13 Z0.9 I-0.912 J0
X-57.088 Y13 Z0.8 I0.912 J0
X-58.912 Y13 Z0.7 I-0.912 J0
X-57.088 Y13 Z0.6 I0.912 J0
X-58.912 Y13 Z0.5 I-0.912 J0
X-57.088 Y13 Z0.4 I0.912 J0
X-58.912 Y13 Z0.3 I-0.912 J0
X-57.088 Y13 Z0.2 I0.912 J0
X-58.912 Y13 Z0.1 I-0.912 J0
X-57.088 Y13 Z0 I0.912 J0
X-58.912 Y13 I-0.912 J0
X-57.088 Y13 I0.912 J0
X-57.405 Y13.318 I-0.317 J0
G1 X-57.564
G18 G3 X-57.881 Z0.317 I0 K0.317
G0 Z19.2
X-58.119 Y-12.682
Z7.3
G1 Z5.617 F500
G3 X-58.436 Z5.3 I-0.317 K0
G1 X-58.595
G17 G3 X-58.912 Y-13 I0 J-0.318
X-57.088 Y-13 Z5.2 I0.912 J0
X-58.912 Y-13 Z5.1 I-0.912 J0
X-57.088 Y-13 Z5 I0.912 J0
X-58.912 Y-13 Z4.9 I-0.912 J0
X-57.088 Y-13 Z4.8 I0.912 J0
X-58.912 Y-13 Z4.7 I-0.912 J0
X-57.088 Y-13 Z4.6 I0.912 J0
X-58.912 Y-13 Z4.5 I-0.912 J0
X-57.088 Y-13 Z4.4 I0.912 J0
X-58.912 Y-13 Z4.3 I-0.912 J0
X-57.088 Y-13 Z4.2 I0.912 J0
X-58.912 Y-13 Z4.1 I-0.912 J0
X-57.088 Y-13 Z4 I0.912 J0
X-58.912 Y-13 Z3.9 I-0.912 J0
X-57.088 Y-13 Z3.8 I0.912 J0
X-58.912 Y-13 Z3.7 I-0.912 J0
X-57.088 Y-13 Z3.6 I0.912 J0
X-58.912 Y-13 Z3.5 I-0.912 J0
X-57.088 Y-13 Z3.4 I0.912 J0
X-58.912 Y-13 Z3.3 I-0.912 J0
X-57.088 Y-13 Z3.2 I0.912 J0
X-58.912 Y-13 Z3.1 I-0.912 J0
X-57.088 Y-13 Z3 I0.912 J0
X-58.912 Y-13 Z2.9 I-0.912 J0
X-57.088 Y-13 Z2.8 I0.912 J0
X-58.912 Y-13 Z2.7 I-0.912 J0
X-57.088 Y-13 Z2.6 I0.912 J0
X-58.912 Y-13 Z2.5 I-0.912 J0
X-57.088 Y-13 Z2.4 I0.912 J0
X-58.912 Y-13 Z2.3 I-0.912 J0
X-57.088 Y-13 Z2.2 I0.912 J0
X-58.912 Y-13 Z2.1 I-0.912 J0
X-57.088 Y-13 Z2 I0.912 J0
X-58.912 Y-13 Z1.9 I-0.912 J0
X-57.088 Y-13 Z1.8 I0.912 J0
X-58.912 Y-13 Z1.7 I-0.912 J0
X-57.088 Y-13 Z1.6 I0.912 J0
X-58.912 Y-13 Z1.5 I-0.912 J0
X-57.088 Y-13 Z1.4 I0.912 J0
X-58.912 Y-13 Z1.3 I-0.912 J0
X-57.088 Y-13 Z1.2 I0.912 J0
X-58.912 Y-13 Z1.1 I-0.912 J0
X-57.088 Y-13 Z1 I0.912 J0
X-58.912 Y-13 Z0.9 I-0.912 J0
X-57.088 Y-13 Z0.8 I0.912 J0
X-58.912 Y-13 Z0.7 I-0.912 J0
X-57.088 Y-13 Z0.6 I0.912 J0
X-58.912 Y-13 Z0.5 I-0.912 J0
X-57.088 Y-13 Z0.4 I0.912 J0
X-58.912 Y-13 Z0.3 I-0.912 J0
X-57.088 Y-13 Z0.2 I0.912 J0
X-58.912 Y-13 Z0.1 I-0.912 J0
X-57.088 Y-13 Z0 I0.912 J0
X-58.912 Y-13 I-0.912 J0
X-57.088 Y-13 I0.912 J0
X-57.405 Y-12.682 I-0.317 J0
G1 X-57.564
G18 G3 X-57.881 Z0.317 I0 K0.317
G0 Z19.2
X-32.119
Z7.3
G1 Z5.617 F500
G3 X-32.436 Z5.3 I-0.317 K0
G1 X-32.595
G17 G3 X-32.912 Y-13 I0 J-0.318
X-31.088 Y-13 Z5.2 I0.912 J0
X-32.912 Y-13 Z5.1 I-0.912 J0
X-31.088 Y-13 Z5 I0.912 J0
X-32.912 Y-13 Z4.9 I-0.912 J0
X-31.088 Y-13 Z4.8 I0.912 J0
X-32.912 Y-13 Z4.7 I-0.912 J0
X-31.088 Y-13 Z4.6 I0.912 J0
X-32.912 Y-13 Z4.5 I-0.912 J0
X-31.088 Y-13 Z4.4 I0.912 J0
X-32.912 Y-13 Z4.3 I-0.912 J0
X-31.088 Y-13 Z4.2 I0.912 J0
X-32.912 Y-13 Z4.1 I-0.912 J0
X-31.088 Y-13 Z4 I0.912 J0
X-32.912 Y-13 Z3.9 I-0.912 J0
X-31.088 Y-13 Z3.8 I0.912 J0
X-32.912 Y-13 Z3.7 I-0.912 J0
X-31.088 Y-13 Z3.6 I0.912 J0
X-32.912 Y-13 Z3.5 I-0.912 J0
X-31.088 Y-13 Z3.4 I0.912 J0
X-32.912 Y-13 Z3.3 I-0.912 J0
X-31.088 Y-13 Z3.2 I0.912 J0
X-32.912 Y-13 Z3.1 I-0.912 J0
X-31.088 Y-13 Z3 I0.912 J0
X-32.912 Y-13 Z2.9 I-0.912 J0
X-31.088 Y-13 Z2.8 I0.912 J0
X-32.912 Y-13 Z2.7 I-0.912 J0
X-31.088 Y-13 Z2.6 I0.912 J0
X-32.912 Y-13 Z2.5 I-0.912 J0
X-31.088 Y-13 Z2.4 I0.912 J0
X-32.912 Y-13 Z2.3 I-0.912 J0
X-31.088 Y-13 Z2.2 I0.912 J0
X-32.912 Y-13 Z2.1 I-0.912 J0
X-31.088 Y-13 Z2 I0.912 J0
X-32.912 Y-13 Z1.9 I-0.912 J0
X-31.088 Y-13 Z1.8 I0.912 J0
X-32.912 Y-13 Z1.7 I-0.912 J0
X-31.088 Y-13 Z1.6 I0.912 J0
X-32.912 Y-13 Z1.5 I-0.912 J0
X-31.088 Y-13 Z1.4 I0.912 J0
X-32.912 Y-13 Z1.3 I-0.912 J0
X-31.088 Y-13 Z1.2 I0.912 J0
X-32.912 Y-13 Z1.1 I-0.912 J0
X-31.087 Y-13 Z1 I0.912 J0
X-32.913 Y-13 Z0.9 I-0.913 J0
X-31.087 Y-13 Z0.8 I0.913 J0
X-32.913 Y-13 Z0.7 I-0.913 J0
X-31.087 Y-13 Z0.6 I0.913 J0
X-32.913 Y-13 Z0.5 I-0.913 J0
X-31.087 Y-13 Z0.4 I0.913 J0
X-32.913 Y-13 Z0.3 I-0.913 J0
X-31.087 Y-13 Z0.2 I0.913 J0
X-32.913 Y-13 Z0.1 I-0.913 J0
X-31.087 Y-13 Z0 I0.913 J0
X-32.913 Y-13 I-0.913 J0
X-31.087 Y-13 I0.913 J0
X-31.405 Y-12.682 I-0.318 J0
G1 X-31.564
G18 G3 X-31.881 Z0.317 I0 K0.317
G0 Z19.2
X31.881
Z7.3
G1 Z5.617 F500
G3 X31.564 Z5.3 I-0.318 K0
G1 X31.405
G17 G3 X31.087 Y-13 I0 J-0.318
X32.913 Y-13 Z5.2 I0.913 J0
X31.087 Y-13 Z5.1 I-0.913 J0
X32.913 Y-13 Z5 I0.913 J0
X31.087 Y-13 Z4.9 I-0.913 J0
X32.913 Y-13 Z4.8 I0.913 J0
X31.087 Y-13 Z4.7 I-0.913 J0
X32.913 Y-13 Z4.6 I0.913 J0
X31.087 Y-13 Z4.5 I-0.913 J0
X32.913 Y-13 Z4.4 I0.913 J0
X31.087 Y-13 Z4.3 I-0.913 J0
X32.912 Y-13 Z4.2 I0.913 J0
X31.088 Y-13 Z4.1 I-0.912 J0
X32.912 Y-13 Z4 I0.912 J0
X31.088 Y-13 Z3.9 I-0.912 J0
X32.912 Y-13 Z3.8 I0.912 J0
X31.088 Y-13 Z3.7 I-0.912 J0
X32.912 Y-13 Z3.6 I0.912 J0
X31.088 Y-13 Z3.5 I-0.912 J0
X32.912 Y-13 Z3.4 I0.912 J0
X31.088 Y-13 Z3.3 I-0.912 J0
X32.912 Y-13 Z3.2 I0.912 J0
X31.088 Y-13 Z3.1 I-0.912 J0
X32.912 Y-13 Z3 I0.912 J0
X31.088 Y-13 Z2.9 I-0.912 J0
X32.912 Y-13 Z2.8 I0.912 J0
X31.088 Y-13 Z2.7 I-0.912 J0
X32.912 Y-13 Z2.6 I0.912 J0
X31.088 Y-13 Z2.5 I-0.912 J0
X32.912 Y-13 Z2.4 I0.912 J0
X31.088 Y-13 Z2.3 I-0.912 J0
X32.912 Y-13 Z2.2 I0.912 J0
X31.088 Y-13 Z2.1 I-0.912 J0
X32.912 Y-13 Z2 I0.912 J0
X31.088 Y-13 Z1.9 I-0.912 J0
X32.912 Y-13 Z1.8 I0.912 J0
X31.088 Y-13 Z1.7 I-0.912 J0
X32.912 Y-13 Z1.6 I0.912 J0
X31.088 Y-13 Z1.5 I-0.912 J0
X32.912 Y-13 Z1.4 I0.912 J0
X31.088 Y-13 Z1.3 I-0.912 J0
X32.912 Y-13 Z1.2 I0.912 J0
X31.088 Y-13 Z1.1 I-0.912 J0
X32.912 Y-13 Z1 I0.912 J0
X31.088 Y-13 Z0.9 I-0.912 J0
X32.912 Y-13 Z0.8 I0.912 J0
X31.088 Y-13 Z0.7 I-0.912 J0
X32.912 Y-13 Z0.6 I0.912 J0
X31.088 Y-13 Z0.5 I-0.912 J0
X32.912 Y-13 Z0.4 I0.912 J0
X31.088 Y-13 Z0.3 I-0.912 J0
X32.912 Y-13 Z0.2 I0.912 J0
X31.088 Y-13 Z0.1 I-0.912 J0
X32.912 Y-13 Z0 I0.912 J0
X31.088 Y-13 I-0.912 J0
X32.912 Y-13 I0.912 J0
X32.595 Y-12.682 I-0.317 J0
G1 X32.436
G18 G3 X32.119 Z0.317 I0 K0.317
G0 Z19.2
X57.881
Z7.3
G1 Z5.617 F500
G3 X57.564 Z5.3 I-0.317 K0
G1 X57.405
G17 G3 X57.088 Y-13 I0 J-0.318
X58.912 Y-13 Z5.2 I0.912 J0
X57.088 Y-13 Z5.1 I-0.912 J0
X58.912 Y-13 Z5 I0.912 J0
X57.088 Y-13 Z4.9 I-0.912 J0
X58.912 Y-13 Z4.8 I0.912 J0
X57.088 Y-13 Z4.7 I-0.912 J0
X58.912 Y-13 Z4.6 I0.912 J0
X57.088 Y-13 Z4.5 I-0.912 J0
X58.912 Y-13 Z4.4 I0.912 J0
X57.088 Y-13 Z4.3 I-0.912 J0
X58.912 Y-13 Z4.2 I0.912 J0
X57.088 Y-13 Z4.1 I-0.912 J0
X58.912 Y-13 Z4 I0.912 J0
X57.088 Y-13 Z3.9 I-0.912 J0
X58.912 Y-13 Z3.8 I0.912 J0
X57.088 Y-13 Z3.7 I-0.912 J0
X58.912 Y-13 Z3.6 I0.912 J0
X57.088 Y-13 Z3.5 I-0.912 J0
X58.912 Y-13 Z3.4 I0.912 J0
X57.088 Y-13 Z3.3 I-0.912 J0
X58.912 Y-13 Z3.2 I0.912 J0
X57.088 Y-13 Z3.1 I-0.912 J0
X58.912 Y-13 Z3 I0.912 J0
X57.088 Y-13 Z2.9 I-0.912 J0
X58.912 Y-13 Z2.8 I0.912 J0
X57.088 Y-13 Z2.7 I-0.912 J0
X58.912 Y-13 Z2.6 I0.912 J0
X57.088 Y-13 Z2.5 I-0.912 J0
X58.912 Y-13 Z2.4 I0.912 J0
X57.088 Y-13 Z2.3 I-0.912 J0
X58.912 Y-13 Z2.2 I0.912 J0
X57.088 Y-13 Z2.1 I-0.912 J0
X58.912 Y-13 Z2 I0.912 J0
X57.088 Y-13 Z1.9 I-0.912 J0
X58.912 Y-13 Z1.8 I0.912 J0
X57.088 Y-13 Z1.7 I-0.912 J0
X58.912 Y-13 Z1.6 I0.912 J0
X57.088 Y-13 Z1.5 I-0.912 J0
X58.912 Y-13 Z1.4 I0.912 J0
X57.088 Y-13 Z1.3 I-0.912 J0
X58.912 Y-13 Z1.2 I0.912 J0
X57.088 Y-13 Z1.1 I-0.912 J0
X58.912 Y-13 Z1 I0.912 J0
X57.088 Y-13 Z0.9 I-0.912 J0
X58.912 Y-13 Z0.8 I0.912 J0
X57.088 Y-13 Z0.7 I-0.912 J0
X58.912 Y-13 Z0.6 I0.912 J0
X57.088 Y-13 Z0.5 I-0.912 J0
X58.912 Y-13 Z0.4 I0.912 J0
X57.088 Y-13 Z0.3 I-0.912 J0
X58.912 Y-13 Z0.2 I0.912 J0
X57.088 Y-13 Z0.1 I-0.912 J0
X58.912 Y-13 Z0 I0.912 J0
X57.088 Y-13 I-0.912 J0
X58.912 Y-13 I0.912 J0
X58.595 Y-12.682 I-0.317 J0
G1 X58.436
G18 G3 X58.119 Z0.317 I0 K0.317
G0 Z19.2
X57.881 Y13.318
Z7.3
G1 Z5.617 F500
G3 X57.564 Z5.3 I-0.317 K0
G1 X57.405
G17 G3 X57.088 Y13 I0 J-0.318
X58.912 Y13 Z5.2 I0.912 J0
X57.088 Y13 Z5.1 I-0.912 J0
X58.912 Y13 Z5 I0.912 J0
X57.088 Y13 Z4.9 I-0.912 J0
X58.912 Y13 Z4.8 I0.912 J0
X57.088 Y13 Z4.7 I-0.912 J0
X58.912 Y13 Z4.6 I0.912 J0
X57.088 Y13 Z4.5 I-0.912 J0
X58.912 Y13 Z4.4 I0.912 J0
X57.088 Y13 Z4.3 I-0.912 J0
X58.912 Y13 Z4.2 I0.912 J0
X57.088 Y13 Z4.1 I-0.912 J0
X58.912 Y13 Z4 I0.912 J0
X57.088 Y13 Z3.9 I-0.912 J0
X58.912 Y13 Z3.8 I0.912 J0
X57.088 Y13 Z3.7 I-0.912 J0
X58.912 Y13 Z3.6 I0.912 J0
X57.088 Y13 Z3.5 I-0.912 J0
X58.912 Y13 Z3.4 I0.912 J0
X57.088 Y13 Z3.3 I-0.912 J0
X58.912 Y13 Z3.2 I0.912 J0
X57.088 Y13 Z3.1 I-0.912 J0
X58.912 Y13 Z3 I0.912 J0
X57.088 Y13 Z2.9 I-0.912 J0
X58.912 Y13 Z2.8 I0.912 J0
X57.088 Y13 Z2.7 I-0.912 J0
X58.912 Y13 Z2.6 I0.912 J0
X57.088 Y13 Z2.5 I-0.912 J0
X58.912 Y13 Z2.4 I0.912 J0
X57.088 Y13 Z2.3 I-0.912 J0
X58.912 Y13 Z2.2 I0.912 J0
X57.088 Y13 Z2.1 I-0.912 J0
X58.912 Y13 Z2 I0.912 J0
X57.088 Y13 Z1.9 I-0.912 J0
X58.912 Y13 Z1.8 I0.912 J0
X57.088 Y13 Z1.7 I-0.912 J0
X58.912 Y13 Z1.6 I0.912 J0
X57.088 Y13 Z1.5 I-0.912 J0
X58.912 Y13 Z1.4 I0.912 J0
X57.088 Y13 Z1.3 I-0.912 J0
X58.912 Y13 Z1.2 I0.912 J0
X57.088 Y13 Z1.1 I-0.912 J0
X58.912 Y13 Z1 I0.912 J0
X57.088 Y13 Z0.9 I-0.912 J0
X58.912 Y13 Z0.8 I0.912 J0
X57.088 Y13 Z0.7 I-0.912 J0
X58.912 Y13 Z0.6 I0.912 J0
X57.088 Y13 Z0.5 I-0.912 J0
X58.912 Y13 Z0.4 I0.912 J0
X57.088 Y13 Z0.3 I-0.912 J0
X58.912 Y13 Z0.2 I0.912 J0
X57.088 Y13 Z0.1 I-0.912 J0
X58.912 Y13 Z0 I0.912 J0
X57.088 Y13 I-0.912 J0
X58.912 Y13 I0.912 J0
X58.595 Y13.318 I-0.317 J0
G1 X58.436
G18 G3 X58.119 Z0.317 I0 K0.317
G0 Z19.2
X31.881
Z7.3
G1 Z5.617 F500
G3 X31.564 Z5.3 I-0.318 K0
G1 X31.405
G17 G3 X31.087 Y13 I0 J-0.318
X32.913 Y13 Z5.2 I0.913 J0
X31.087 Y13 Z5.1 I-0.913 J0
X32.913 Y13 Z5 I0.913 J0
X31.087 Y13 Z4.9 I-0.913 J0
X32.913 Y13 Z4.8 I0.913 J0
X31.087 Y13 Z4.7 I-0.913 J0
X32.913 Y13 Z4.6 I0.913 J0
X31.087 Y13 Z4.5 I-0.913 J0
X32.913 Y13 Z4.4 I0.913 J0
X31.087 Y13 Z4.3 I-0.913 J0
X32.912 Y13 Z4.2 I0.913 J0
X31.088 Y13 Z4.1 I-0.912 J0
X32.912 Y13 Z4 I0.912 J0
X31.088 Y13 Z3.9 I-0.912 J0
X32.912 Y13 Z3.8 I0.912 J0
X31.088 Y13 Z3.7 I-0.912 J0
X32.912 Y13 Z3.6 I0.912 J0
X31.088 Y13 Z3.5 I-0.912 J0
X32.912 Y13 Z3.4 I0.912 J0
X31.088 Y13 Z3.3 I-0.912 J0
X32.912 Y13 Z3.2 I0.912 J0
X31.088 Y13 Z3.1 I-0.912 J0
X32.912 Y13 Z3 I0.912 J0
X31.088 Y13 Z2.9 I-0.912 J0
X32.912 Y13 Z2.8 I0.912 J0
X31.088 Y13 Z2.7 I-0.912 J0
X32.912 Y13 Z2.6 I0.912 J0
X31.088 Y13 Z2.5 I-0.912 J0
X32.912 Y13 Z2.4 I0.912 J0
X31.088 Y13 Z2.3 I-0.912 J0
X32.912 Y13 Z2.2 I0.912 J0
X31.088 Y13 Z2.1 I-0.912 J0
X32.912 Y13 Z2 I0.912 J0
X31.088 Y13 Z1.9 I-0.912 J0
X32.912 Y13 Z1.8 I0.912 J0
X31.088 Y13 Z1.7 I-0.912 J0
X32.912 Y13 Z1.6 I0.912 J0
X31.088 Y13 Z1.5 I-0.912 J0
X32.912 Y13 Z1.4 I0.912 J0
X31.088 Y13 Z1.3 I-0.912 J0
X32.912 Y13 Z1.2 I0.912 J0
X31.088 Y13 Z1.1 I-0.912 J0
X32.912 Y13 Z1 I0.912 J0
X31.088 Y13 Z0.9 I-0.912 J0
X32.912 Y13 Z0.8 I0.912 J0
X31.088 Y13 Z0.7 I-0.912 J0
X32.912 Y13 Z0.6 I0.912 J0
X31.088 Y13 Z0.5 I-0.912 J0
X32.912 Y13 Z0.4 I0.912 J0
X31.088 Y13 Z0.3 I-0.912 J0
X32.912 Y13 Z0.2 I0.912 J0
X31.088 Y13 Z0.1 I-0.912 J0
X32.912 Y13 Z0 I0.912 J0
X31.088 Y13 I-0.912 J0
X32.912 Y13 I0.912 J0
X32.595 Y13.318 I-0.317 J0
G1 X32.436
G18 G3 X32.119 Z0.317 I0 K0.317
G0 Z25.2
G17
G28 G91 Z0
G90
G28 G91 X0 Y0
G90
M5
M30
