(ycar_bore_3)
(T6  D=3.175 CR=0 - ZMIN=0 - flat end mill)
G90 G94
G17
G21
G28 G91 Z0
G90

(Bore1 3)
T6
(1/8" Flat-45 degree helix)
S18000 M3
G54
G0 X-10.369 Y-22.282
Z25.2
Z7.3
G1 Z5.617 F350
G18 G3 X-10.686 Z5.3 I-0.318 K0
G1 X-10.845
G17 G3 X-11.163 Y-22.6 I0 J-0.318
X-8.837 Y-22.6 Z5.2 I1.163 J0
X-11.163 Y-22.6 Z5.1 I-1.163 J0
X-8.837 Y-22.6 Z5 I1.163 J0
X-11.163 Y-22.6 Z4.9 I-1.163 J0
X-8.837 Y-22.6 Z4.8 I1.163 J0
X-11.163 Y-22.6 Z4.7 I-1.163 J0
X-8.837 Y-22.6 Z4.6 I1.163 J0
X-11.163 Y-22.6 Z4.5 I-1.163 J0
X-8.837 Y-22.6 Z4.4 I1.163 J0
X-11.163 Y-22.6 Z4.3 I-1.163 J0
X-8.837 Y-22.6 Z4.2 I1.163 J0
X-11.163 Y-22.6 Z4.1 I-1.163 J0
X-8.837 Y-22.6 Z4 I1.163 J0
X-11.163 Y-22.6 Z3.9 I-1.163 J0
X-8.837 Y-22.6 Z3.8 I1.163 J0
X-11.163 Y-22.6 Z3.7 I-1.163 J0
X-8.837 Y-22.6 Z3.6 I1.163 J0
X-11.163 Y-22.6 Z3.5 I-1.163 J0
X-8.837 Y-22.6 Z3.4 I1.163 J0
X-11.163 Y-22.6 Z3.3 I-1.163 J0
X-8.837 Y-22.6 Z3.2 I1.163 J0
X-11.163 Y-22.6 Z3.1 I-1.163 J0
X-8.837 Y-22.6 Z3 I1.163 J0
X-11.163 Y-22.6 Z2.9 I-1.163 J0
X-8.837 Y-22.6 Z2.8 I1.163 J0
X-11.163 Y-22.6 Z2.7 I-1.163 J0
X-8.837 Y-22.6 Z2.6 I1.163 J0
X-11.163 Y-22.6 Z2.5 I-1.163 J0
X-8.837 Y-22.6 Z2.4 I1.163 J0
X-11.163 Y-22.6 Z2.3 I-1.163 J0
X-8.837 Y-22.6 Z2.2 I1.163 J0
X-11.163 Y-22.6 Z2.1 I-1.163 J0
X-8.837 Y-22.6 Z2 I1.163 J0
X-11.163 Y-22.6 Z1.9 I-1.163 J0
X-8.837 Y-22.6 Z1.8 I1.163 J0
X-11.163 Y-22.6 Z1.7 I-1.163 J0
X-8.837 Y-22.6 Z1.6 I1.163 J0
X-11.163 Y-22.6 Z1.5 I-1.163 J0
X-8.837 Y-22.6 Z1.4 I1.163 J0
X-11.163 Y-22.6 Z1.3 I-1.163 J0
X-8.837 Y-22.6 Z1.2 I1.163 J0
X-11.163 Y-22.6 Z1.1 I-1.163 J0
X-8.837 Y-22.6 Z1 I1.163 J0
X-11.163 Y-22.6 Z0.9 I-1.163 J0
X-8.837 Y-22.6 Z0.8 I1.163 J0
X-11.163 Y-22.6 Z0.7 I-1.163 J0
X-8.837 Y-22.6 Z0.6 I1.163 J0
X-11.163 Y-22.6 Z0.5 I-1.163 J0
X-8.837 Y-22.6 Z0.4 I1.163 J0
X-11.163 Y-22.6 Z0.3 I-1.163 J0
X-8.837 Y-22.6 Z0.2 I1.163 J0
X-11.163 Y-22.6 Z0.1 I-1.163 J0
X-8.837 Y-22.6 Z0 I1.163 J0
X-11.163 Y-22.6 I-1.163 J0
X-8.837 Y-22.6 I1.163 J0
X-9.155 Y-22.282 I-0.318 J0
G1 X-9.314
G18 G3 X-9.631 Z0.317 I0 K0.317
G0 Z19.2
X9.631
Z7.3
G1 Z5.617 F350
G3 X9.314 Z5.3 I-0.318 K0
G1 X9.155
G17 G3 X8.837 Y-22.6 I0 J-0.318
X11.163 Y-22.6 Z5.2 I1.163 J0
X8.837 Y-22.6 Z5.1 I-1.163 J0
X11.163 Y-22.6 Z5 I1.163 J0
X8.837 Y-22.6 Z4.9 I-1.163 J0
X11.163 Y-22.6 Z4.8 I1.163 J0
X8.837 Y-22.6 Z4.7 I-1.163 J0
X11.163 Y-22.6 Z4.6 I1.163 J0
X8.837 Y-22.6 Z4.5 I-1.163 J0
X11.163 Y-22.6 Z4.4 I1.163 J0
X8.837 Y-22.6 Z4.3 I-1.163 J0
X11.163 Y-22.6 Z4.2 I1.163 J0
X8.837 Y-22.6 Z4.1 I-1.163 J0
X11.163 Y-22.6 Z4 I1.163 J0
X8.837 Y-22.6 Z3.9 I-1.163 J0
X11.163 Y-22.6 Z3.8 I1.163 J0
X8.837 Y-22.6 Z3.7 I-1.163 J0
X11.163 Y-22.6 Z3.6 I1.163 J0
X8.837 Y-22.6 Z3.5 I-1.163 J0
X11.163 Y-22.6 Z3.4 I1.163 J0
X8.837 Y-22.6 Z3.3 I-1.163 J0
X11.163 Y-22.6 Z3.2 I1.163 J0
X8.837 Y-22.6 Z3.1 I-1.163 J0
X11.163 Y-22.6 Z3 I1.163 J0
X8.837 Y-22.6 Z2.9 I-1.163 J0
X11.163 Y-22.6 Z2.8 I1.163 J0
X8.837 Y-22.6 Z2.7 I-1.163 J0
X11.163 Y-22.6 Z2.6 I1.163 J0
X8.837 Y-22.6 Z2.5 I-1.163 J0
X11.163 Y-22.6 Z2.4 I1.163 J0
X8.837 Y-22.6 Z2.3 I-1.163 J0
X11.163 Y-22.6 Z2.2 I1.163 J0
X8.837 Y-22.6 Z2.1 I-1.163 J0
X11.163 Y-22.6 Z2 I1.163 J0
X8.837 Y-22.6 Z1.9 I-1.163 J0
X11.163 Y-22.6 Z1.8 I1.163 J0
X8.837 Y-22.6 Z1.7 I-1.163 J0
X11.163 Y-22.6 Z1.6 I1.163 J0
X8.837 Y-22.6 Z1.5 I-1.163 J0
X11.163 Y-22.6 Z1.4 I1.163 J0
X8.837 Y-22.6 Z1.3 I-1.163 J0
X11.163 Y-22.6 Z1.2 I1.163 J0
X8.837 Y-22.6 Z1.1 I-1.163 J0
X11.163 Y-22.6 Z1 I1.163 J0
X8.837 Y-22.6 Z0.9 I-1.163 J0
X11.163 Y-22.6 Z0.8 I1.163 J0
X8.837 Y-22.6 Z0.7 I-1.163 J0
X11.163 Y-22.6 Z0.6 I1.163 J0
X8.837 Y-22.6 Z0.5 I-1.163 J0
X11.163 Y-22.6 Z0.4 I1.163 J0
X8.837 Y-22.6 Z0.3 I-1.163 J0
X11.163 Y-22.6 Z0.2 I1.163 J0
X8.837 Y-22.6 Z0.1 I-1.163 J0
X11.163 Y-22.6 Z0 I1.163 J0
X8.837 Y-22.6 I-1.163 J0
X11.163 Y-22.6 I1.163 J0
X10.845 Y-22.282 I-0.318 J0
G1 X10.686
G18 G3 X10.369 Z0.317 I0 K0.317
G0 Z25.2
G17
G28 G91 Z0
G90
G28 G91 X0 Y0
G90
M5
M30
