(adap1)
(T1 D=4 CR=0 - ZMIN=0 - flat end mill)
G90 G94
G17
G21
G28 G91 Z0
G90

(Adaptive1 11)
T1
S18000 M3
G17 G90 G94
G54
G0 X4.598 Y-0.392
Z28
G0 Z18
Z8.3
G1 Z7.9 F600
X4.59 Y-0.391 Z7.822
X4.568 Y-0.385 Z7.747
X4.532 Y-0.376 Z7.678
X4.484 Y-0.363 Z7.617
X4.425 Y-0.348 Z7.567
X4.358 Y-0.331 Z7.53
X4.286 Y-0.313 Z7.508
X4.21 Y-0.293 Z7.5
G3 X2.032 Y0.02 I-2.534 J-9.893
G1 X1.94 F1000
X1.223 Y0.205
X0.493 Y0.323
X-0.243 Y0.397
X-0.982 Y0.444
X-1.722 Y0.473
X-2.461 Y0.491
X-3.201 Y0.502
X-3.941 Y0.509
X-4.681 Y0.513
X-5.421 Y0.516
X-6.902 Y0.518
X-11.342 Y0.52
X-48.344
X-74.061
X-74.15 Y0.545
X-74.228 Y0.594
X-74.497 Y0.848
X-74.904 Y1.466
X-75.134 Y2.17
X-75.269 Y2.897
X-75.351 Y3.633
X-75.401 Y4.371
X-75.431 Y5.111
X-75.45 Y5.851
X-75.461 Y6.591
X-75.469 Y7.331
X-75.473 Y8.071
X-75.476 Y8.811
X-75.478 Y10.291
X-75.48 Y13.991
Y21.922
X-75.501 Y22.05
X-75.562 Y22.165
X-75.657 Y22.254
X-75.759 Y22.322
X-75.914 Y22.436
X-76.103 Y22.604
X-76.263 Y22.785
X-76.379 Y22.94
X-76.716 Y23.444
X-76.827 Y23.612
X-76.935 Y23.821
X-76.998 Y23.948
X-77.056 Y24.116
X-77.103 Y24.295
X-77.138 Y24.452
X-77.238 Y24.956
X-77.271 Y25.141
X-77.292 Y25.292
X-77.304 Y25.46
X-77.305 Y25.628
Y35.372
X-77.304 Y35.54
X-77.292 Y35.708
X-77.271 Y35.859
X-77.238 Y36.044
X-77.138 Y36.548
X-77.101 Y36.716
X-77.056 Y36.884
X-76.998 Y37.052
X-76.914 Y37.22
X-76.827 Y37.388
X-76.716 Y37.556
X-76.604 Y37.724
X-76.292 Y38.245
X-76.032 Y38.844
X-75.828 Y39.556
X-75.698 Y40.284
X-75.616 Y41.02
X-75.564 Y41.758
X-75.532 Y42.497
X-75.512 Y43.237
X-75.5 Y43.977
X-75.492 Y44.717
X-75.488 Y45.457
X-75.485 Y46.197
X-75.482 Y47.677
X-75.48 Y51.378
Y59.056
X-75.455 Y59.145
X-75.406 Y59.223
X-75.153 Y59.494
X-74.536 Y59.902
X-73.833 Y60.133
X-73.106 Y60.269
X-72.37 Y60.351
X-71.632 Y60.4
X-70.892 Y60.431
X-70.152 Y60.45
X-69.413 Y60.461
X-68.673 Y60.468
X-67.932 Y60.473
X-67.192 Y60.476
X-65.712 Y60.478
X-62.012 Y60.48
X-47.211
X-1.883
X-1.794 Y60.455
X-1.716 Y60.406
X-1.461 Y60.137
X-1.073 Y59.507
X-0.853 Y58.801
X-0.723 Y58.072
X-0.644 Y57.336
X-0.596 Y56.598
X-0.567 Y55.858
X-0.549 Y55.118
X-0.538 Y54.378
X-0.531 Y53.638
X-0.527 Y52.898
X-0.523 Y51.418
X-0.52 Y48.458
Y39.56
X-0.516 Y39.507
X-0.506 Y39.454
X-0.488 Y39.403
X-0.203 Y38.732
X0.002 Y38.228
X0.051 Y38.06
X0.191 Y37.556
X0.745 Y35.54
X0.785 Y35.372
X0.851 Y35.036
X0.881 Y34.868
X1.176 Y32.684
X1.242 Y32.18
X1.249 Y32.012
X1.256 Y31.676
X1.257 Y31.508
Y29.492
X1.256 Y29.324
X1.249 Y28.988
X1.242 Y28.82
X1.153 Y28.148
X0.881 Y26.132
X0.851 Y25.964
X0.785 Y25.628
X0.745 Y25.46
X0.145 Y23.276
X0.047 Y22.925
X0.002 Y22.772
X-0.207 Y22.062
X-0.324 Y21.331
X-0.398 Y20.595
X-0.444 Y19.856
X-0.473 Y19.117
X-0.491 Y18.377
X-0.502 Y17.637
X-0.509 Y16.897
X-0.513 Y16.157
X-0.516 Y15.417
X-0.518 Y13.937
X-0.52 Y9.496
Y4.316
X-0.545 Y4.227
X-0.594 Y4.148
X-0.867 Y3.899
X-1.505 Y3.524
X-2.216 Y3.317
X-2.946 Y3.197
X-3.683 Y3.126
X-4.422 Y3.084
X-5.161 Y3.058
X-5.901 Y3.043
X-6.641 Y3.034
X-7.381 Y3.028
X-8.121 Y3.025
X-9.601 Y3.022
X-13.302 Y3.02
X-31.803
X-71.21
X-71.303 Y3.022
X-71.48 Y3.075
X-71.783 Y3.287
X-72.255 Y3.858
X-72.53 Y4.544
X-72.698 Y5.265
X-72.803 Y5.998
X-72.868 Y6.735
X-72.909 Y7.474
X-72.935 Y8.213
X-72.952 Y8.953
X-72.962 Y9.693
X-72.969 Y10.433
X-72.973 Y11.173
X-72.977 Y12.653
X-72.978 Y13.393
X-72.98 Y17.094
Y20.794
X-72.997 Y21.044
X-73.029 Y21.177
X-73.105 Y21.292
X-73.214 Y21.374
X-73.345 Y21.415
X-73.742 Y21.467
X-73.91 Y21.499
X-74.246 Y21.566
X-74.414 Y21.603
X-74.582 Y21.646
X-74.75 Y21.705
X-74.873 Y21.764
X-75.086 Y21.875
X-75.175 Y21.932
X-75.657 Y22.254
X-75.759 Y22.322 Z7.539 F800
X-75.914 Y22.436 Z7.6
X-76.103 Y22.604 Z7.681
X-76.143 Y22.649 Z7.7
X-76.227 Y22.744
X-76.252 Y22.772 F1000
X-76.263 Y22.785
X-76.379 Y22.94
X-76.716 Y23.444
X-76.827 Y23.612
X-76.914 Y23.78
X-76.935 Y23.821
X-76.998 Y23.948
X-77.056 Y24.116
X-77.101 Y24.284
X-77.103 Y24.295
X-77.138 Y24.452
X-77.238 Y24.956
X-77.268 Y25.124
X-77.271 Y25.141
X-77.292 Y25.292
X-77.304 Y25.46
X-77.305 Y25.628
Y35.372
X-77.304 Y35.54
X-77.292 Y35.708
X-77.271 Y35.859
X-77.268 Y35.876
X-77.238 Y36.044
X-77.138 Y36.548
X-77.103 Y36.705
X-77.101 Y36.716
X-77.056 Y36.884
X-76.998 Y37.052
X-76.987 Y37.076
X-76.935 Y37.179 F600
X-76.93 Y37.189
X-76.914 Y37.22 Z7.689
X-76.827 Y37.388 Z7.628
X-76.716 Y37.556 Z7.564
X-76.604 Y37.724 Z7.5
X-76.379 Y38.06 F1000
X-76.263 Y38.215
X-76.103 Y38.396
X-75.914 Y38.564
X-75.759 Y38.678
X-75.175 Y39.068
X-75.086 Y39.125
X-74.994 Y39.173
X-74.842 Y39.262
X-74.602 Y39.45
X-74.342 Y39.714
X-74.074 Y40.069
X-73.797 Y40.557
X-73.518 Y41.243
X-73.331 Y41.959
X-73.207 Y42.688
X-73.126 Y43.424
X-73.074 Y44.162
X-73.04 Y44.901
X-73.018 Y45.641
X-73.005 Y46.381
X-72.996 Y47.121
X-72.99 Y47.861
X-72.986 Y48.601
X-72.983 Y50.081
X-72.98 Y53.041
Y56.279
X-72.929 Y56.457
X-72.725 Y56.766
X-72.161 Y57.245
X-71.476 Y57.524
X-70.756 Y57.694
X-70.023 Y57.8
X-69.286 Y57.867
X-68.547 Y57.908
X-67.808 Y57.935
X-67.068 Y57.951
X-66.328 Y57.962
X-65.588 Y57.968
X-64.848 Y57.973
X-63.368 Y57.977
X-61.148 Y57.979
X-44.126 Y57.98
X-41.166
X-4.719
X-4.542 Y57.925
X-4.233 Y57.722
X-3.754 Y57.158
X-3.475 Y56.472
X-3.305 Y55.752
X-3.199 Y55.02
X-3.133 Y54.283
X-3.091 Y53.544
X-3.065 Y52.804
X-3.049 Y52.064
X-3.038 Y51.324
X-3.031 Y50.584
X-3.027 Y49.844
X-3.023 Y48.364
X-3.021 Y46.144
X-3.02 Y44.664
Y44.218
X-3.012 Y44.135
X-2.986 Y44.056
X-2.945 Y43.984
X-2.792 Y43.772
X-2.686 Y43.604
X-1.466 Y41.553
X-1.393 Y41.42
X-1.215 Y41.084
X-1.13 Y40.912
X-0.488 Y39.403
X-0.274 Y38.9 Z7.674 F800
X-0.242 Y38.825 Z7.7
X-0.203 Y38.732
X-0.193 Y38.709
X0.002 Y38.228 F1000
X0.047 Y38.075
X0.145 Y37.724
X0.745 Y35.54
X0.785 Y35.372
X0.851 Y35.036
X0.881 Y34.868
X1.176 Y32.684
X1.242 Y32.18
X1.249 Y32.012
X1.256 Y31.676
X1.257 Y31.508
Y29.492
X1.256 Y29.324
X1.249 Y28.988
X1.242 Y28.82
X1.176 Y28.316
X0.881 Y26.132
X0.851 Y25.964
X0.785 Y25.628
X0.745 Y25.46
X0.206 Y23.498
X0.172 Y23.376 F600
X0.145 Y23.276 Z7.667
X0.047 Y22.925 Z7.551
X0.002 Y22.772 Z7.5
X-0.203 Y22.268 F1000
X-1.132 Y20.084
X-1.215 Y19.916
X-1.393 Y19.58
X-1.466 Y19.448
X-1.97 Y18.599
X-2.308 Y17.961
X-2.566 Y17.267
X-2.733 Y16.546
X-2.84 Y15.814
X-2.907 Y15.077
X-2.95 Y14.338
X-2.976 Y13.598
X-2.993 Y12.859
X-3.003 Y12.119
X-3.009 Y11.379
X-3.013 Y10.639
X-3.017 Y9.158
X-3.019 Y7.216
X-3.063 Y7.036
X-3.262 Y6.724
X-3.826 Y6.244
X-4.511 Y5.966
X-5.232 Y5.798
X-5.965 Y5.694
X-6.702 Y5.629
X-7.441 Y5.588
X-8.181 Y5.563
X-8.92 Y5.547
X-9.66 Y5.537
X-10.4 Y5.531
X-11.14 Y5.527
X-12.621 Y5.523
X-15.581 Y5.52
X-41.482
X-68.679
X-68.861 Y5.555
X-69.183 Y5.737
X-69.687 Y6.279
X-69.983 Y6.957
X-70.166 Y7.674
X-70.28 Y8.405
X-70.353 Y9.142
X-70.399 Y9.881
X-70.428 Y10.62
X-70.447 Y11.36
X-70.459 Y12.1
X-70.466 Y12.84
X-70.471 Y13.58
X-70.474 Y14.32
X-70.478 Y15.8
X-70.48 Y19.5
X-70.5 Y20.24
X-70.579 Y20.828
X-70.653 Y21.104
X-70.707 Y21.223
X-70.796 Y21.317
X-70.911 Y21.379
X-71.039 Y21.4
X-73.14 Y21.401
X-73.237
X-73.345 Y21.415
G3 X-73.765 Y20.899 I-0.038 J-0.398 F800
G1 X-73.742 Y20.824 Z7.508
X-73.72 Y20.752 Z7.53
X-73.699 Y20.686 Z7.567
X-73.681 Y20.628 Z7.617
X-73.667 Y20.581 Z7.678
X-73.656 Y20.546 Z7.747
X-73.649 Y20.524 Z7.822
X-73.647 Y20.516 Z7.9
G0 Z18
X-76.164 Y39.041
Z8.3
G1 Z7.9 F600
X-76.156 Z7.822
X-76.133 Y39.04 Z7.747
X-76.096 Y39.038 Z7.678
X-76.047 Y39.035 Z7.617
X-75.986 Y39.032 Z7.567
X-75.917 Y39.028 Z7.53
X-75.842 Y39.024 Z7.508
X-75.764 Y39.02 Z7.5
G3 X-74.994 Y39.173 I0.086 J1.58
G1 X-74.873 Y39.236 F1000
X-74.75 Y39.295
X-74.582 Y39.354
X-74.414 Y39.397
X-74.246 Y39.434
X-73.91 Y39.501
X-73.742 Y39.533
X-73.574 Y39.555
X-73.29 Y39.607
X-73.061 Y39.681
X-72.799 Y39.805
X-72.513 Y39.989
X-72.227 Y40.232
X-71.915 Y40.575
X-71.608 Y41.017
X-71.293 Y41.627
X-71.043 Y42.323
X-70.865 Y43.042
X-70.742 Y43.771
X-70.657 Y44.507
X-70.599 Y45.244
X-70.559 Y45.983
X-70.533 Y46.723
X-70.515 Y47.463
X-70.503 Y48.203
X-70.495 Y48.943
X-70.49 Y49.683
X-70.487 Y50.423
X-70.483 Y51.903
X-70.481 Y53.661
X-70.469 Y53.752
X-70.406 Y53.926
X-70.202 Y54.235
X-69.64 Y54.717
X-68.958 Y55.002
X-68.239 Y55.178
X-67.507 Y55.288
X-66.77 Y55.358
X-66.031 Y55.402
X-65.292 Y55.43
X-64.552 Y55.448
X-63.812 Y55.46
X-63.072 Y55.467
X-62.332 Y55.472
X-61.592 Y55.475
X-60.112 Y55.478
X-57.152 Y55.48
X-36.43
X-7.291
X-7.112 Y55.432
X-6.796 Y55.241
X-6.3 Y54.691
X-6.009 Y54.011
X-5.829 Y53.293
X-5.716 Y52.561
X-5.645 Y51.825
X-5.6 Y51.086
X-5.571 Y50.347
X-5.553 Y49.607
X-5.541 Y48.867
X-5.533 Y48.127
X-5.528 Y47.219
X-5.513 Y47.114
X-5.471 Y47.016
X-5.405 Y46.932
X-4.915 Y46.46
X-4.761 Y46.292
X-3.694 Y44.948
X-3.147 Y44.258
X-3.035 Y44.108
X-2.945 Y43.984
G3 X-2.281 Y44.031 I0.316 J0.245 F800
G1 X-2.242 Y44.098 Z7.508
X-2.205 Y44.164 Z7.53
X-2.171 Y44.224 Z7.567
X-2.141 Y44.276 Z7.617
X-2.116 Y44.32 Z7.678
X-2.098 Y44.352 Z7.747
X-2.087 Y44.371 Z7.822
X-2.083 Y44.378 Z7.9
G0 Z18
X-1.044 Y19.325
Z8.3
G1 Z7.9 F600
X-1.05 Y19.321 Z7.822
X-1.07 Y19.31 Z7.747
X-1.103 Y19.293 Z7.678
X-1.147 Y19.269 Z7.617
X-1.2 Y19.24 Z7.567
X-1.261 Y19.207 Z7.53
X-1.327 Y19.171 Z7.508
X-1.395 Y19.134 Z7.5
G3 X-1.97 Y18.599 I0.756 J-1.39
G1 X-2.686 Y17.396 F1000
X-2.792 Y17.228
X-3.035 Y16.892
X-3.147 Y16.742
X-4.227 Y15.38
X-4.52 Y14.97
X-4.785 Y14.472
X-5.045 Y13.779
X-5.216 Y13.059
X-5.327 Y12.327
X-5.398 Y11.591
X-5.443 Y10.852
X-5.471 Y10.112
X-5.48 Y9.743
X-5.545 Y9.569
X-5.75 Y9.261
X-6.312 Y8.78
X-6.995 Y8.495
X-7.714 Y8.32
X-8.446 Y8.21
X-9.183 Y8.141
X-9.922 Y8.097
X-10.661 Y8.069
X-11.401 Y8.051
X-12.141 Y8.04
X-12.881 Y8.033
X-13.621 Y8.028
X-14.361 Y8.025
X-15.066 Y8.023
X-15.114 Y8.02
X-15.161 Y8.012
X-15.207 Y7.998
X-15.249 Y7.982
X-15.417 Y7.925
X-15.753 Y7.843
X-17.938 Y7.331
X-18.443 Y7.221
X-18.611 Y7.196
X-19.115 Y7.145
X-21.132 Y6.951
X-21.3 Y6.937
X-21.804 Y6.912
X-24.493 Y7.015
X-24.662 Y7.029
X-24.998 Y7.07
X-25.166 Y7.094
X-27.4 Y7.483
X-27.855 Y7.566
X-28.023 Y7.616
X-28.742 Y7.794
X-29.477 Y7.879
X-30.215 Y7.932
X-30.954 Y7.966
X-31.694 Y7.986
X-32.434 Y7.999
X-33.174 Y8.007
X-33.914 Y8.012
X-34.654 Y8.015
X-36.134 Y8.018
X-39.834 Y8.02
X-66.198
X-66.377 Y8.069
X-66.694 Y8.26
X-67.19 Y8.809
X-67.483 Y9.489
X-67.665 Y10.206
X-67.779 Y10.937
X-67.851 Y11.674
X-67.898 Y12.412
X-67.927 Y13.152
X-67.946 Y13.892
X-67.958 Y14.632
X-67.966 Y15.372
X-67.971 Y16.112
X-67.974 Y16.852
X-67.978 Y18.332
X-67.986 Y19.072
X-68.023 Y19.811
X-68.106 Y20.546
X-68.235 Y21.099
X-68.251 Y21.141
X-68.336 Y21.277
X-68.468 Y21.368
X-68.625 Y21.4
X-71.039
G3 X-71.389 Y20.834 I0.014 J-0.4 F800
G1 X-71.357 Y20.763 Z7.508
X-71.326 Y20.695 Z7.53
X-71.297 Y20.632 Z7.567
X-71.272 Y20.577 Z7.617
X-71.251 Y20.532 Z7.678
X-71.236 Y20.498 Z7.747
X-71.226 Y20.477 Z7.822
X-71.223 Y20.47 Z7.9
G0 Z18
X-74.717 Y39.834
Z8.3
G1 Z7.9 F600
X-74.71 Y39.831 Z7.822
X-74.689 Y39.822 Z7.747
X-74.655 Y39.807 Z7.678
X-74.61 Y39.788 Z7.617
X-74.554 Y39.764 Z7.567
X-74.49 Y39.737 Z7.53
X-74.421 Y39.707 Z7.508
X-74.35 Y39.676 Z7.5
G3 X-73.574 Y39.555 I0.624 J1.454
G1 X-73.237 Y39.599 F1000
X-71.725 Y39.6
X-71.464 Y39.613
X-71.196 Y39.662
X-70.92 Y39.751
X-70.621 Y39.892
X-70.284 Y40.109
X-69.957 Y40.386
X-69.597 Y40.782
X-69.249 Y41.282
X-68.91 Y41.94
X-68.654 Y42.634
X-68.464 Y43.35
X-68.325 Y44.077
X-68.224 Y44.81
X-68.151 Y45.546
X-68.099 Y46.284
X-68.062 Y47.023
X-68.037 Y47.763
X-68.019 Y48.503
X-68.007 Y49.243
X-67.998 Y49.983
X-67.992 Y50.723
X-67.99 Y51.185
X-67.942 Y51.364
X-67.753 Y51.682
X-67.207 Y52.182
X-66.529 Y52.478
X-65.812 Y52.662
X-65.081 Y52.777
X-64.344 Y52.85
X-63.606 Y52.897
X-62.866 Y52.926
X-62.127 Y52.946
X-61.387 Y52.958
X-60.647 Y52.966
X-59.907 Y52.971
X-59.167 Y52.974
X-57.686 Y52.978
X-54.726 Y52.98
X-31.785
X-29.381
X-29.34 Y52.982
X-29.3 Y52.988
X-29.26 Y52.999
X-28.359 Y53.283
X-27.855 Y53.434
X-27.351 Y53.526
X-25.166 Y53.906
X-24.998 Y53.93
X-24.662 Y53.971
X-24.493 Y53.985
X-21.804 Y54.088
X-21.3 Y54.063
X-21.132 Y54.049
X-18.947 Y53.838
X-18.611 Y53.804
X-18.443 Y53.779
X-17.938 Y53.669
X-16.93 Y53.433
X-16.202 Y53.3
X-15.471 Y53.18
X-14.735 Y53.105
X-13.997 Y53.057
X-13.257 Y53.028
X-12.517 Y53.01
X-11.777 Y52.998
X-11.037 Y52.991
X-10.297 Y52.987
X-9.835 Y52.985
X-9.654 Y52.948
X-9.331 Y52.766
X-8.825 Y52.227
X-8.526 Y51.55
X-8.341 Y50.833
X-8.225 Y50.102
X-8.165 Y49.509
X-8.139 Y49.401
X-8.084 Y49.304
X-8.004 Y49.226
X-7.349 Y48.746
X-7.214 Y48.645
X-7.013 Y48.474
X-6.835 Y48.309
X-5.405 Y46.932
G3 X-4.761 Y47.097 I0.267 J0.298 F800
G1 X-4.735 Y47.171 Z7.508
X-4.71 Y47.242 Z7.53
X-4.687 Y47.307 Z7.567
X-4.667 Y47.364 Z7.617
X-4.65 Y47.411 Z7.678
X-4.638 Y47.446 Z7.747
X-4.63 Y47.467 Z7.822
X-4.628 Y47.474 Z7.9
G0 Z18
X-17.901 Y54.097
Z8.3
G1 Z7.9 F600
X-17.896 Y54.092 Z7.822
X-17.879 Y54.076 Z7.747
X-17.853 Y54.05 Z7.678
X-17.817 Y54.016 Z7.617
X-17.773 Y53.974 Z7.567
X-17.723 Y53.926 Z7.53
X-17.669 Y53.874 Z7.508
X-17.613 Y53.82 Z7.5
G3 X-16.93 Y53.433 I1.098 J1.14
G1 X-15.753 Y53.157 F1000
X-15.417 Y53.075
X-15.234 Y53.013
X-12.896 Y52.122
X-12.56 Y51.993
X-12.392 Y51.916
X-11.887 Y51.649
X-10.206 Y50.735
X-9.702 Y50.458
X-9.534 Y50.346
X-9.503 Y50.325
X-8.004 Y49.226
G3 X-7.387 Y49.476 I0.225 J0.331 F800
G1 X-7.371 Y49.552 Z7.508
X-7.356 Y49.625 Z7.53
X-7.342 Y49.693 Z7.567
X-7.33 Y49.752 Z7.617
X-7.32 Y49.801 Z7.678
X-7.312 Y49.837 Z7.747
X-7.307 Y49.86 Z7.822
X-7.306 Y49.867 Z7.9
G0 Z18
X-3.212 Y15.975
Z8.3
G1 Z7.9 F600
X-3.219 Y15.972 Z7.822
X-3.24 Y15.964 Z7.747
X-3.275 Y15.951 Z7.678
X-3.321 Y15.933 Z7.617
X-3.378 Y15.912 Z7.567
X-3.442 Y15.887 Z7.53
X-3.512 Y15.86 Z7.508
X-3.585 Y15.833 Z7.5
G3 X-4.227 Y15.38 I0.563 J-1.479
G1 X-4.761 Y14.708 F1000
X-4.915 Y14.54
X-6.486 Y13.027
X-6.716 Y12.782
X-6.982 Y12.413
X-7.157 Y12.087
X-7.4 Y11.808
X-7.978 Y11.346
X-8.658 Y11.054
X-9.095 Y10.94
X-9.143 Y10.924
X-9.188 Y10.903
X-9.23 Y10.875
G3 X-9.297 Y10.314 Z7.7 I0.248 J-0.314 F800
G1 X-9.254 Y10.268
X-9.205 Y10.229
G3 X-8.736 Y10.247 I0.222 J0.333 F1000
G1 X-5.972 Y12.415
G3 X-5.853 Y12.892 I-0.247 J0.315
G1 X-5.883 Y12.947 F600
X-5.921 Y12.997
G3 X-6.486 Y13.027 Z7.5 I-0.297 J-0.267
G1 X-6.845 Y12.682 F1000
X-7.015 Y12.523
X-7.214 Y12.355
X-7.349 Y12.254
X-9.503 Y10.675
X-9.534 Y10.654
X-9.702 Y10.542
X-10.378 Y10.171
X-11.923 Y9.331
X-12.392 Y9.084
X-12.56 Y9.007
X-13.469 Y8.659
X-15.207 Y7.998
X-15.234 Y7.987 Z7.509 F800
X-15.417 Y7.925 Z7.571
X-15.585 Y7.884 Z7.626
X-15.753 Y7.843 Z7.681
X-15.811 Y7.829 Z7.7
X-15.934 Y7.801
X-17.938 Y7.331 F1000
X-18.009 Y7.315
X-18.443 Y7.221
X-18.611 Y7.196
X-18.947 Y7.162
X-19.096 Y7.147
X-21.132 Y6.951
X-21.3 Y6.937
X-21.804 Y6.912
X-24.493 Y7.015
X-24.662 Y7.029
X-24.998 Y7.07
X-25.166 Y7.094
X-27.285 Y7.463
X-27.351 Y7.474 F600
X-27.41 Y7.485
X-27.855 Y7.566 Z7.556
X-28.023 Y7.616 Z7.5
X-28.359 Y7.717 F1000
X-30.713 Y8.461
X-30.798 Y8.491
X-31.049 Y8.595
X-31.197 Y8.659
X-33.336 Y9.667
X-34.015 Y9.961
X-34.726 Y10.166
X-35.455 Y10.298
X-36.19 Y10.381
X-36.928 Y10.434
X-37.668 Y10.466
X-38.407 Y10.487
X-39.147 Y10.499
X-39.887 Y10.507
X-40.627 Y10.512
X-41.367 Y10.515
X-42.847 Y10.518
X-46.548 Y10.52
X-63.661
X-63.842 Y10.558
X-64.165 Y10.74
X-64.672 Y11.279
X-64.971 Y11.956
X-65.157 Y12.672
X-65.273 Y13.403
X-65.348 Y14.139
X-65.395 Y14.878
X-65.425 Y15.617
X-65.445 Y16.357
X-65.457 Y17.097
X-65.468 Y17.837
X-65.487 Y18.577
X-65.525 Y19.316
X-65.595 Y20.052
X-65.71 Y20.77
X-65.812 Y21.114
X-65.894 Y21.263
X-66.03 Y21.364
X-66.195 Y21.4
X-68.625
G3 X-68.975 Y20.834 I0.014 J-0.4 F800
G1 X-68.943 Y20.763 Z7.508
X-68.912 Y20.695 Z7.53
X-68.883 Y20.632 Z7.567
X-68.858 Y20.577 Z7.617
X-68.837 Y20.532 Z7.678
X-68.822 Y20.498 Z7.747
X-68.813 Y20.477 Z7.822
X-68.809 Y20.47 Z7.9
G0 Z18
X-32.54 Y8.8
Z8.3
G1 Z7.9 F600
X-32.544 Y8.807 Z7.822
X-32.557 Y8.826 Z7.747
X-32.577 Y8.857 Z7.678
X-32.604 Y8.899 Z7.617
X-32.637 Y8.949 Z7.567
X-32.675 Y9.007 Z7.53
X-32.715 Y9.07 Z7.508
X-32.758 Y9.136 Z7.5
G3 X-33.336 Y9.667 I-1.327 J-0.863
G1 X-33.402 Y9.7 F1000
X-33.906 Y9.961
X-36.091 Y11.375
X-36.285 Y11.515
X-36.595 Y11.743
X-36.727 Y11.851
X-36.854 Y11.95
X-37.304 Y12.212
X-37.94 Y12.479
X-38.653 Y12.674
X-39.383 Y12.801
X-40.118 Y12.881
X-40.857 Y12.933
X-41.596 Y12.965
X-42.336 Y12.986
X-43.076 Y12.998
X-43.816 Y13.006
X-44.556 Y13.012
X-45.296 Y13.015
X-46.776 Y13.018
X-49.736 Y13.02
X-61.207
X-61.383 Y13.076
X-61.697 Y13.271
X-62.19 Y13.824
X-62.482 Y14.503
X-62.664 Y15.221
X-62.778 Y15.952
X-62.851 Y16.689
X-62.904 Y17.427
X-62.95 Y18.165
X-63.003 Y18.903
X-63.074 Y19.64
X-63.176 Y20.373
X-63.327 Y21.03
X-63.368 Y21.14
X-63.454 Y21.276
X-63.586 Y21.368
X-63.743 Y21.4
X-66.195
G3 X-66.545 Y20.834 I0.014 J-0.4 F800
G1 X-66.513 Y20.763 Z7.508
X-66.482 Y20.695 Z7.53
X-66.453 Y20.632 Z7.567
X-66.428 Y20.577 Z7.617
X-66.407 Y20.532 Z7.678
X-66.392 Y20.498 Z7.747
X-66.383 Y20.477 Z7.822
X-66.379 Y20.47 Z7.9
G0 Z18
X-36.171 Y10.814
Z8.3
G1 Z7.9 F600
X-36.173 Y10.821 Z7.822
X-36.181 Y10.843 Z7.747
X-36.193 Y10.878 Z7.678
X-36.208 Y10.925 Z7.617
X-36.228 Y10.982 Z7.567
X-36.25 Y11.048 Z7.53
X-36.274 Y11.119 Z7.508
X-36.299 Y11.193 Z7.5
G3 X-36.727 Y11.851 I-1.499 J-0.507
G1 X-38.492 Y13.363 F1000
X-38.612 Y13.469
X-38.781 Y13.621
X-38.866 Y13.699
X-39.018 Y13.867
X-39.309 Y14.16
X-39.651 Y14.424
X-40.115 Y14.694
X-40.769 Y14.967
X-41.483 Y15.162
X-42.212 Y15.289
X-42.947 Y15.372
X-43.686 Y15.425
X-44.425 Y15.46
X-45.165 Y15.482
X-45.904 Y15.496
X-46.644 Y15.504
X-47.384 Y15.51
X-48.125 Y15.514
X-49.605 Y15.517
X-52.565 Y15.52
X-58.67
X-58.85 Y15.564
X-59.17 Y15.749
X-59.674 Y16.291
X-59.979 Y16.966
X-60.178 Y17.678
X-60.324 Y18.404
X-60.568 Y19.864
X-60.711 Y20.59
X-60.865 Y21.113
X-60.947 Y21.262
X-61.083 Y21.364
X-61.249 Y21.4
X-63.743
G3 X-64.093 Y20.834 I0.014 J-0.4 F800
G1 X-64.061 Y20.763 Z7.508
X-64.03 Y20.695 Z7.53
X-64.001 Y20.632 Z7.567
X-63.976 Y20.577 Z7.617
X-63.955 Y20.532 Z7.678
X-63.94 Y20.498 Z7.747
X-63.93 Y20.477 Z7.822
X-63.927 Y20.47 Z7.9
G0 Z18
X-38.6 Y12.767
Z8.3
G1 Z7.9 F600
X-38.601 Y12.775 Z7.822
X-38.606 Y12.797 Z7.747
X-38.613 Y12.833 Z7.678
X-38.623 Y12.882 Z7.617
X-38.634 Y12.941 Z7.567
X-38.648 Y13.009 Z7.53
X-38.663 Y13.083 Z7.508
X-38.678 Y13.159 Z7.5
G3 X-39.018 Y13.867 I-1.552 J-0.309
G1 X-39.318 Y14.204 F1000
X-40.517 Y15.548
X-40.629 Y15.677
X-40.966 Y16.086
X-41.07 Y16.22
X-41.187 Y16.37
X-41.451 Y16.631
X-41.813 Y16.905
X-42.306 Y17.186
X-42.991 Y17.466
X-43.706 Y17.655
X-44.436 Y17.781
X-45.171 Y17.864
X-45.909 Y17.919
X-46.648 Y17.954
X-47.388 Y17.978
X-48.128 Y17.993
X-48.868 Y18.002
X-49.608 Y18.009
X-50.348 Y18.013
X-51.828 Y18.017
X-54.048 Y18.019
X-56.176 Y18.02
X-56.356 Y18.059
X-56.685 Y18.23
X-57.22 Y18.741
X-57.578 Y19.388
X-57.85 Y20.077
X-58.096 Y20.775
X-58.249 Y21.151
X-58.335 Y21.282
X-58.465 Y21.369
X-58.619 Y21.4
X-61.249
G3 X-61.599 Y20.834 I0.014 J-0.4 F800
G1 X-61.566 Y20.763 Z7.508
X-61.535 Y20.695 Z7.53
X-61.507 Y20.632 Z7.567
X-61.482 Y20.577 Z7.617
X-61.461 Y20.532 Z7.678
X-61.446 Y20.498 Z7.747
X-61.436 Y20.477 Z7.822
X-61.433 Y20.47 Z7.9
G0 Z18
X-40.808 Y15.072
Z8.3
G1 Z7.9 F600
X-40.809 Y15.08 Z7.822
X-40.81 Y15.102 Z7.747
X-40.812 Y15.139 Z7.678
X-40.815 Y15.189 Z7.617
X-40.818 Y15.249 Z7.567
X-40.822 Y15.318 Z7.53
X-40.827 Y15.393 Z7.508
X-40.831 Y15.471 Z7.5
G3 X-41.07 Y16.22 I-1.58 J-0.091
G1 X-42.545 Y18.404 F1000
X-42.646 Y18.562
X-42.755 Y18.715
X-43.007 Y18.987
X-43.347 Y19.268
X-43.811 Y19.56
X-44.445 Y19.851
X-45.152 Y20.07
X-45.877 Y20.22
X-46.61 Y20.32
X-47.347 Y20.388
X-48.085 Y20.433
X-48.825 Y20.462
X-49.565 Y20.482
X-50.305 Y20.495
X-51.045 Y20.504
X-51.785 Y20.509
X-52.525 Y20.513
X-53.82 Y20.517
X-54.002 Y20.549
X-54.345 Y20.686
X-54.943 Y21.123
X-55.063 Y21.261
X-55.149 Y21.336
X-55.252 Y21.384
X-55.365 Y21.4
X-58.619
G3 X-58.969 Y20.834 I0.014 J-0.4 F800
G1 X-58.937 Y20.763 Z7.508
X-58.906 Y20.695 Z7.53
X-58.877 Y20.632 Z7.567
X-58.852 Y20.577 Z7.617
X-58.831 Y20.532 Z7.678
X-58.816 Y20.498 Z7.747
X-58.807 Y20.477 Z7.822
X-58.803 Y20.47 Z7.9
G0 Z18
X-42.415 Y17.408
Z8.3
G1 Z7.9 F600
Y17.416 Z7.822
X-42.416 Y17.439 Z7.747
X-42.417 Y17.476 Z7.678
X-42.419 Y17.525 Z7.617
X-42.421 Y17.586 Z7.567
X-42.423 Y17.655 Z7.53
X-42.425 Y17.73 Z7.508
X-42.428 Y17.808 Z7.5
G3 X-42.646 Y18.562 I-1.582 J-0.05
G1 X-42.75 Y18.74 F1000
X-42.835 Y18.908
X-43.655 Y20.562
X-43.85 Y20.911
X-44.052 Y21.182
X-44.146 Y21.279
X-44.23 Y21.345
X-44.328 Y21.386
X-44.433 Y21.4
G3 X-44.819 Y20.987 Z7.7 I0.014 J-0.4 F800
G1 X-44.812 Y20.924
X-44.795 Y20.863
X-44.776 Y20.82 F1000
X-44.752 Y20.779
X-44.353 Y20.176
G3 X-43.975 Y20 I0.333 J0.221
G1 X-43.913 Y20.011 F600
X-43.854 Y20.033
G3 X-43.655 Y20.562 Z7.5 I-0.165 J0.364
G1 X-43.917 Y21.092 F1000
X-43.991 Y21.227
X-44.017 Y21.26
X-44.053 Y21.296
X-44.088 Y21.325
X-44.124 Y21.348
X-44.159 Y21.366
X-44.201 Y21.381
X-44.243 Y21.392
X-44.285 Y21.398
X-44.327 Y21.4
X-55.365
G3 X-55.715 Y20.834 I0.014 J-0.4 F800
G1 X-55.683 Y20.763 Z7.508
X-55.652 Y20.695 Z7.53
X-55.623 Y20.632 Z7.567
X-55.598 Y20.577 Z7.617
X-55.578 Y20.532 Z7.678
X-55.562 Y20.498 Z7.747
X-55.553 Y20.477 Z7.822
X-55.55 Y20.47 Z7.9
G0 Z18
X-72.822 Y40.026
Z8.3
G1 Z7.9 F600
X-72.815 Y40.022 Z7.822
X-72.796 Y40.01 Z7.747
X-72.764 Y39.991 Z7.678
X-72.721 Y39.966 Z7.617
X-72.669 Y39.935 Z7.567
X-72.61 Y39.9 Z7.53
X-72.545 Y39.861 Z7.508
X-72.478 Y39.821 Z7.5
G3 X-71.725 Y39.6 I0.809 J1.36
G1 X-69.54 F1000
X-69.241 Y39.615
X-68.973 Y39.664
X-68.658 Y39.765
X-68.341 Y39.915
X-67.996 Y40.137
X-67.628 Y40.449
X-67.252 Y40.863
X-66.87 Y41.412
X-66.53 Y42.07
X-66.267 Y42.761
X-66.065 Y43.473
X-65.911 Y44.197
X-65.795 Y44.928
X-65.709 Y45.663
X-65.645 Y46.4
X-65.598 Y47.139
X-65.564 Y47.878
X-65.54 Y48.618
X-65.528 Y48.71
X-65.469 Y48.885
X-65.271 Y49.197
X-64.718 Y49.689
X-64.038 Y49.982
X-63.321 Y50.163
X-62.589 Y50.277
X-61.853 Y50.35
X-61.114 Y50.396
X-60.375 Y50.426
X-59.635 Y50.445
X-58.895 Y50.458
X-58.155 Y50.466
X-57.415 Y50.471
X-56.675 Y50.474
X-55.195 Y50.478
X-52.235 Y50.48
X-34.888
X-34.812 Y50.487
X-34.739 Y50.509
X-34.671 Y50.544
X-33.906 Y51.039
X-33.402 Y51.3
X-33.336 Y51.333
X-31.197 Y52.341
X-31.049 Y52.405
X-30.798 Y52.509
X-30.713 Y52.539
X-29.26 Y52.999
G3 X-29.097 Y53.643 I-0.134 J0.377 F800
G1 X-29.149 Y53.701 Z7.508
X-29.199 Y53.757 Z7.53
X-29.246 Y53.808 Z7.567
X-29.286 Y53.853 Z7.617
X-29.32 Y53.89 Z7.678
X-29.344 Y53.918 Z7.747
X-29.36 Y53.935 Z7.822
X-29.365 Y53.94 Z7.9
G0 Z18
X-70.637 Y40.026
Z8.3
G1 Z7.9 F600
X-70.63 Y40.022 Z7.822
X-70.611 Y40.01 Z7.747
X-70.579 Y39.991 Z7.678
X-70.536 Y39.966 Z7.617
X-70.484 Y39.935 Z7.567
X-70.425 Y39.9 Z7.53
X-70.36 Y39.861 Z7.508
X-70.293 Y39.821 Z7.5
G3 X-69.54 Y39.6 I0.809 J1.36
G1 X-67.186 F1000
X-66.93 Y39.613
X-66.661 Y39.662
X-66.347 Y39.763
X-66.005 Y39.924
X-65.654 Y40.151
X-65.266 Y40.479
X-64.876 Y40.909
X-64.471 Y41.49
X-64.132 Y42.148
X-63.864 Y42.838
X-63.653 Y43.547
X-63.489 Y44.269
X-63.362 Y44.998
X-63.265 Y45.732
X-63.228 Y46.1
X-63.191 Y46.281
X-63.02 Y46.609
X-62.494 Y47.129
X-61.824 Y47.442
X-61.109 Y47.637
X-60.38 Y47.759
X-59.644 Y47.838
X-58.905 Y47.888
X-58.166 Y47.921
X-57.426 Y47.942
X-56.686 Y47.955
X-55.946 Y47.964
X-55.206 Y47.97
X-54.466 Y47.973
X-52.986 Y47.977
X-50.026 Y47.98
X-38.239
X-38.145 Y47.991
X-38.057 Y48.024
X-37.979 Y48.076
X-36.727 Y49.149
X-36.595 Y49.257
X-36.259 Y49.504
X-36.091 Y49.625
X-34.671 Y50.544
G3 X-34.684 Y51.209 I-0.229 J0.328 F800
G1 X-34.75 Y51.251 Z7.508
X-34.813 Y51.292 Z7.53
X-34.871 Y51.329 Z7.567
X-34.923 Y51.362 Z7.617
X-34.964 Y51.388 Z7.678
X-34.996 Y51.408 Z7.747
X-35.015 Y51.421 Z7.822
X-35.021 Y51.425 Z7.9
G0 Z18
X-68.284 Y40.026
Z8.3
G1 Z7.9 F600
X-68.277 Y40.022 Z7.822
X-68.258 Y40.01 Z7.747
X-68.226 Y39.991 Z7.678
X-68.183 Y39.966 Z7.617
X-68.131 Y39.935 Z7.567
X-68.072 Y39.9 Z7.53
X-68.007 Y39.861 Z7.508
X-67.94 Y39.821 Z7.5
G3 X-67.186 Y39.6 I0.809 J1.36
G1 X-64.833 F1000
X-64.577 Y39.613
X-64.303 Y39.663
X-63.988 Y39.764
X-63.634 Y39.931
X-63.279 Y40.16
X-62.879 Y40.499
X-62.478 Y40.939
X-62.058 Y41.544
X-61.719 Y42.201
X-61.447 Y42.89
X-61.231 Y43.597
X-61.102 Y43.944
X-60.866 Y44.229
X-60.286 Y44.689
X-59.603 Y44.974
X-58.885 Y45.153
X-58.154 Y45.268
X-57.418 Y45.342
X-56.679 Y45.391
X-55.94 Y45.422
X-55.2 Y45.442
X-54.46 Y45.455
X-53.72 Y45.464
X-52.98 Y45.47
X-52.24 Y45.473
X-50.76 Y45.477
X-47.8 Y45.479
X-40.671 Y45.48
X-40.561 Y45.496
X-40.458 Y45.541
X-40.373 Y45.614
X-39.117 Y47.023
X-38.866 Y47.301
X-38.781 Y47.379
X-38.612 Y47.532
X-38.444 Y47.677
X-37.979 Y48.076
G0 Z18
X-65.931 Y40.026
Z8.3
G1 Z7.9 F600
X-65.924 Y40.022 Z7.822
X-65.905 Y40.01 Z7.747
X-65.873 Y39.991 Z7.678
X-65.83 Y39.966 Z7.617
X-65.778 Y39.935 Z7.567
X-65.718 Y39.9 Z7.53
X-65.654 Y39.861 Z7.508
X-65.587 Y39.821 Z7.5
G3 X-64.833 Y39.6 I0.809 J1.36
G1 X-62.48 F1000
X-62.197 Y39.614
X-61.916 Y39.665
X-61.602 Y39.767
X-61.242 Y39.937
X-60.881 Y40.169
X-60.474 Y40.513
X-60.066 Y40.962
X-59.644 Y41.57
X-59.075 Y42.044
X-58.405 Y42.359
X-57.696 Y42.568
X-56.969 Y42.707
X-56.234 Y42.799
X-55.497 Y42.86
X-54.758 Y42.9
X-54.018 Y42.927
X-53.278 Y42.945
X-52.538 Y42.957
X-51.798 Y42.965
X-51.058 Y42.97
X-50.318 Y42.973
X-48.838 Y42.977
X-45.878 Y42.979
X-42.499 Y42.98
X-42.371 Y43.001
X-42.256 Y43.062
X-42.167 Y43.156
X-41.07 Y44.78
X-40.966 Y44.914
X-40.629 Y45.323
X-40.517 Y45.452
X-40.373 Y45.614
G3 X-40.562 Y46.251 I-0.308 J0.256 F800
G1 X-40.637 Y46.275 Z7.508
X-40.708 Y46.297 Z7.53
X-40.774 Y46.317 Z7.567
X-40.832 Y46.335 Z7.617
X-40.88 Y46.35 Z7.678
X-40.915 Y46.361 Z7.747
X-40.937 Y46.368 Z7.822
X-40.944 Y46.37 Z7.9
G0 Z18
X-63.578 Y40.026
Z8.3
G1 Z7.9 F600
X-63.571 Y40.022 Z7.822
X-63.551 Y40.01 Z7.747
X-63.52 Y39.991 Z7.678
X-63.477 Y39.966 Z7.617
X-63.425 Y39.935 Z7.567
X-63.365 Y39.9 Z7.53
X-63.301 Y39.861 Z7.508
X-63.234 Y39.821 Z7.5
G3 X-62.48 Y39.6 I0.809 J1.36
G1 X-60.127 F1000
X-59.539 Y39.629
X-58.811 Y39.762
X-58.088 Y39.919
X-57.361 Y40.059
X-56.63 Y40.173
X-55.895 Y40.26
X-55.158 Y40.324
X-54.419 Y40.37
X-53.68 Y40.404
X-52.94 Y40.427
X-52.2 Y40.444
X-51.46 Y40.455
X-50.72 Y40.463
X-49.98 Y40.468
X-49.24 Y40.472
X-47.76 Y40.476
X-45.54 Y40.479
X-44.06 Y40.48
X-43.874 Y40.483
X-43.732 Y40.512
X-43.609 Y40.589
X-43.523 Y40.705
X-42.815 Y42.133
X-42.75 Y42.26
X-42.646 Y42.438
X-42.545 Y42.596
X-42.167 Y43.156
G3 X-42.44 Y43.763 I-0.339 J0.212 F800
G1 X-42.517 Y43.776 Z7.508
X-42.591 Y43.788 Z7.53
X-42.659 Y43.8 Z7.567
X-42.719 Y43.81 Z7.617
X-42.768 Y43.818 Z7.678
X-42.804 Y43.824 Z7.747
X-42.827 Y43.828 Z7.822
X-42.834 Y43.829 Z7.9
G0 Z18
X-61.224 Y40.026
Z8.3
G1 Z7.9 F600
X-61.218 Y40.022 Z7.822
X-61.198 Y40.01 Z7.747
X-61.166 Y39.991 Z7.678
X-61.124 Y39.966 Z7.617
X-61.072 Y39.935 Z7.567
X-61.012 Y39.9 Z7.53
X-60.948 Y39.861 Z7.508
X-60.881 Y39.821 Z7.5
G3 X-60.127 Y39.6 I0.809 J1.36
G1 X-44.327 F1000
X-44.285 Y39.602
X-44.243 Y39.608
X-44.201 Y39.619
X-44.159 Y39.634
X-44.124 Y39.652
X-44.088 Y39.675
X-44.053 Y39.704
X-44.017 Y39.74
X-43.991 Y39.773
X-43.917 Y39.908
X-43.523 Y40.705
X-43.503 Y40.758 F800
X-43.491 Y40.814
X-43.487 Y40.87
X-43.493 Y40.941
X-43.512 Y41.011
X-43.543 Y41.075
X-43.585 Y41.119 Z7.505
X-43.626 Y41.162 Z7.519
X-43.665 Y41.203 Z7.542
X-43.715 Y41.222 Z7.574
X-43.76 Y41.239 Z7.615
X-43.799 Y41.254 Z7.663
X-43.83 Y41.266 Z7.717
X-43.854 Y41.268 Z7.775
X-43.869 Y41.269 Z7.837
X-43.874 Y41.27 Z7.9
G0 Z18
X-23.216 Y30.939
Z8.3
G3 X-22.587 Y29.522 Z8.238 I0.922 J-0.439 F600
X-21.284 Y30.362 Z8.177 I0.292 J0.977
X-22.315 Y31.518 Z8.115 I-1.01 J0.137
X-23.296 Y30.322 Z8.054 I0.021 J-1.018
X-21.965 Y29.538 Z7.992 I1.001 J0.177
X-21.396 Y30.973 Z7.931 I-0.329 J0.961
X-22.9 Y31.313 Z7.869 I-0.897 J-0.473
X-23.004 Y29.776 Z7.808 I0.606 J-0.813
X-21.471 Y29.911 Z7.746 I0.709 J0.723
X-21.841 Y31.403 Z7.685 I-0.823 J0.588
X-23.256 Y30.808 Z7.623 I-0.453 J-0.903
X-22.451 Y29.503 Z7.562 I0.961 J-0.308
X-21.287 Y30.499 Z7.5 I0.156 J0.996
X-23.303 Y30.499 I-1.008 J0
X-21.287 Y30.499 I1.008 J0
G1 X-21.246 Y31.238 F1000
X-21.213 Y31.324
X-21.179 Y31.47
X-21.173 Y31.62
X-21.191 Y31.769
X-21.231 Y31.914
X-21.293 Y32.061
X-21.38 Y32.21
X-21.493 Y32.355
X-21.632 Y32.493
X-21.797 Y32.618
X-21.988 Y32.727
X-22.202 Y32.815
X-22.437 Y32.877
X-22.689 Y32.909
X-22.954 Y32.908
X-23.227 Y32.871
X-23.503 Y32.797
X-23.775 Y32.683
X-24.039 Y32.531
X-24.287 Y32.34
X-24.513 Y32.113
X-24.713 Y31.853
X-24.88 Y31.563
X-25.011 Y31.248
X-25.101 Y30.913
X-25.147 Y30.565
X-25.148 Y30.209
X-25.101 Y29.852
X-25.008 Y29.501
X-24.869 Y29.162
X-24.685 Y28.842
X-24.46 Y28.547
X-24.198 Y28.282
X-23.901 Y28.052
X-23.576 Y27.862
X-23.227 Y27.716
X-22.862 Y27.616
X-22.485 Y27.564
X-22.105 Y27.561
X-21.726 Y27.609
X-21.356 Y27.705
X-21.002 Y27.849
X-20.668 Y28.038
X-20.362 Y28.269
X-20.088 Y28.538
X-19.82 Y28.88
X-19.477 Y29.462
X-19.244 Y30.009
X-19.1 Y30.524
X-19.03 Y31.022
X-19.024 Y31.508
X-19.081 Y31.982
X-19.198 Y32.441
X-19.375 Y32.882
X-19.608 Y33.299
X-19.897 Y33.685
X-20.237 Y34.035
X-20.625 Y34.341
X-21.057 Y34.598
X-21.526 Y34.801
X-22.025 Y34.943
X-22.549 Y35.02
X-23.09 Y35.029
X-23.638 Y34.965
X-24.183 Y34.829
X-24.716 Y34.619
X-25.225 Y34.337
X-25.7 Y33.985
X-26.132 Y33.569
X-26.512 Y33.093
X-26.829 Y32.566
X-27.079 Y31.996
X-27.253 Y31.393
X-27.349 Y30.766
X-27.362 Y30.127
X-27.291 Y29.487
X-27.137 Y28.857
X-26.9 Y28.249
X-26.585 Y27.674
X-26.196 Y27.142
X-25.739 Y26.663
X-25.221 Y26.247
X-24.653 Y25.9
X-24.042 Y25.63
X-23.4 Y25.441
X-22.737 Y25.336
X-22.065 Y25.319
X-21.396 Y25.39
X-20.741 Y25.547
X-20.111 Y25.789
X-19.516 Y26.111
X-18.956 Y26.517
X-18.418 Y27.026
X-17.947 Y27.596
X-17.544 Y28.217
X-17.215 Y28.88
X-16.966 Y29.577
X-16.803 Y30.299
X-16.727 Y31.035
X-16.742 Y31.775
X-16.849 Y32.507
X-17.045 Y33.221
X-17.328 Y33.904
X-17.693 Y34.548
X-18.135 Y35.142
X-18.646 Y35.677
X-19.218 Y36.147
X-19.842 Y36.544
X-20.509 Y36.864
X-21.209 Y37.104
X-21.932 Y37.261
X-22.669 Y37.331
X-23.409 Y37.315
X-24.142 Y37.213
X-24.859 Y37.031
X-25.552 Y36.771
X-26.213 Y36.439
X-26.834 Y36.036
X-27.406 Y35.566
X-27.923 Y35.036
X-28.382 Y34.456
X-28.779 Y33.831
X-29.109 Y33.169
X-29.364 Y32.474
X-29.546 Y31.757
X-29.654 Y31.025
X-29.689 Y30.286
X-29.647 Y29.547
X-29.527 Y28.817
X-29.334 Y28.102
X-29.072 Y27.41
X-28.743 Y26.747
X-28.345 Y26.123
X-27.887 Y25.542
X-27.374 Y25.008
X-26.812 Y24.527
X-26.203 Y24.106
X-25.555 Y23.749
X-24.875 Y23.457
X-24.17 Y23.231
X-23.446 Y23.079
X-22.71 Y23
X-21.97 Y22.994
X-21.233 Y23.058
X-20.506 Y23.196
X-19.797 Y23.407
X-19.111 Y23.687
X-18.455 Y24.028
X-17.836 Y24.435
X-17.26 Y24.898
X-16.726 Y25.411
X-16.238 Y25.967
X-15.803 Y26.566
X-15.421 Y27.2
X-15.093 Y27.863
X-14.824 Y28.553
X-14.618 Y29.264
X-14.474 Y29.989
X-14.39 Y30.725
X-14.376 Y31.465
X-14.427 Y32.203
X-14.541 Y32.934
X-14.718 Y33.653
X-14.962 Y34.351
X-15.267 Y35.026
X-15.626 Y35.673
X-16.044 Y36.283
X-16.515 Y36.854
X-17.033 Y37.383
X-17.594 Y37.866
X-18.197 Y38.294
X-18.835 Y38.67
X-19.502 Y38.991
X-20.193 Y39.254
X-20.906 Y39.454
X-21.633 Y39.593
X-22.369 Y39.672
X-23.109 Y39.686
X-23.847 Y39.637
X-24.579 Y39.527
X-25.3 Y39.361
X-26.004 Y39.133
X-26.687 Y38.847
X-27.345 Y38.509
X-27.974 Y38.12
X-28.568 Y37.678
X-29.124 Y37.189
X-29.64 Y36.659
X-30.115 Y36.091
X-30.541 Y35.486
X-30.917 Y34.849
X-31.243 Y34.185
X-31.517 Y33.497
X-31.734 Y32.789
X-31.895 Y32.067
X-32.002 Y31.335
X-32.054 Y30.597
X-32.044 Y29.857
X-31.977 Y29.12
X-31.856 Y28.39
X-31.681 Y27.671
X-31.449 Y26.968
X-31.163 Y26.285
X-30.827 Y25.626
X-30.443 Y24.993
X-30.01 Y24.393
X-29.533 Y23.827
X-29.015 Y23.298
X-28.461 Y22.809
X-27.868 Y22.365
X-27.244 Y21.968
X-26.592 Y21.618
X-25.916 Y21.316
X-25.219 Y21.067
X-24.505 Y20.873
X-23.778 Y20.734
X-23.043 Y20.646
X-22.304 Y20.615
X-21.564 Y20.641
X-20.829 Y20.722
X-20.101 Y20.857
X-19.386 Y21.046
X-18.687 Y21.289
X-18.008 Y21.584
X-17.352 Y21.927
X-16.723 Y22.316
X-16.125 Y22.752
X-15.559 Y23.229
X-15.027 Y23.744
X-14.531 Y24.293
X-14.076 Y24.876
X-13.662 Y25.49
X-13.29 Y26.13
X-12.961 Y26.792
X-12.677 Y27.476
X-12.442 Y28.178
X-12.256 Y28.894
X-12.119 Y29.621
X-12.029 Y30.356
X-11.991 Y31.095
X-12.006 Y31.835
X-12.072 Y32.572
X-12.186 Y33.303
X-12.349 Y34.025
X-12.564 Y34.733
X-12.828 Y35.424
X-13.138 Y36.096
X-13.492 Y36.746
X-13.891 Y37.37
X-14.333 Y37.963
X-14.815 Y38.525
X-15.332 Y39.054
X-15.884 Y39.547
X-16.469 Y40
X-17.085 Y40.411
X-17.726 Y40.78
X-18.39 Y41.108
X-19.074 Y41.389
X-19.777 Y41.621
X-20.494 Y41.806
X-21.221 Y41.943
X-21.955 Y42.034
X-22.694 Y42.073
X-23.434 Y42.061
X-24.172 Y42.002
X-24.904 Y41.896
X-25.628 Y41.744
X-26.34 Y41.542
X-27.038 Y41.294
X-27.718 Y41.003
X-28.379 Y40.67
X-29.017 Y40.295
X-29.628 Y39.877
X-30.21 Y39.421
X-30.764 Y38.929
X-31.286 Y38.405
X-31.774 Y37.849
X-32.224 Y37.262
X-32.636 Y36.647
X-33.01 Y36.008
X-33.344 Y35.348
X-33.636 Y34.667
X-33.882 Y33.97
X-34.084 Y33.258
X-34.243 Y32.535
X-34.36 Y31.804
X-34.429 Y31.067
X-34.451 Y30.328
X-34.426 Y29.588
X-34.357 Y28.851
X-34.245 Y28.12
X-34.088 Y27.396
X-33.884 Y26.685
X-33.637 Y25.987
X-33.349 Y25.306
X-33.021 Y24.642
X-32.653 Y24
X-32.244 Y23.383
X-31.798 Y22.793
X-31.319 Y22.229
X-30.807 Y21.695
X-30.263 Y21.193
X-29.688 Y20.726
X-29.086 Y20.297
X-28.459 Y19.903
X-27.811 Y19.546
X-27.142 Y19.229
X-26.455 Y18.956
X-25.751 Y18.725
X-25.036 Y18.537
X-24.31 Y18.391
X-23.577 Y18.287
X-22.839 Y18.231
X-22.099 Y18.22
X-21.36 Y18.253
X-20.624 Y18.33
X-19.894 Y18.449
X-19.172 Y18.615
X-18.463 Y18.824
X-17.767 Y19.076
X-17.086 Y19.367
X-16.424 Y19.697
X-15.783 Y20.067
X-15.166 Y20.476
X-14.574 Y20.919
X-14.007 Y21.395
X-13.467 Y21.902
X-12.958 Y22.438
X-12.481 Y23.004
X-12.036 Y23.596
X-11.626 Y24.211
X-11.249 Y24.848
X-10.906 Y25.504
X-10.603 Y26.179
X-10.339 Y26.871
X-10.114 Y27.576
X-9.927 Y28.292
X-9.779 Y29.017
X-9.672 Y29.749
X-9.608 Y30.486
X-9.587 Y31.226
X-9.606 Y31.966
X-9.666 Y32.704
X-9.765 Y33.437
X-9.907 Y34.163
X-10.092 Y34.88
X-10.316 Y35.585
X-10.579 Y36.277
X-10.879 Y36.954
X-11.216 Y37.612
X-11.592 Y38.249
X-12.004 Y38.864
X-12.449 Y39.456
X-12.925 Y40.022
X-13.431 Y40.562
X-13.969 Y41.071
X-14.534 Y41.549
X-15.125 Y41.994
X-15.74 Y42.406
X-16.375 Y42.786
X-17.03 Y43.129
X-17.705 Y43.434
X-18.395 Y43.7
X-19.099 Y43.929
X-19.814 Y44.119
X-20.539 Y44.271
X-21.27 Y44.382
X-22.007 Y44.451
X-22.747 Y44.479
X-23.487 Y44.468
X-24.225 Y44.418
X-24.96 Y44.33
X-25.499 Y44.233
X-25.506 Y44.232
X-26.342 Y44.036
X-26.51 Y43.982
X-26.847 Y43.864
X-27.015 Y43.802
X-28.527 Y43.193
X-28.696 Y43.1
X-30.392 Y42.092
X-30.544 Y41.976
X-31.829 Y40.916
X-31.889 Y40.866
X-32.057 Y40.718
X-32.201 Y40.58
X-33.402 Y39.233
X-33.532 Y39.068
X-33.873 Y38.564
X-34.578 Y37.476
X-34.631 Y37.388
X-34.915 Y36.823
X-35.587 Y35.323
X-35.627 Y35.204
X-36.135 Y33.356
X-36.179 Y33.188
X-36.2 Y33.02
X-36.413 Y31.172
X-36.422 Y31.004
X-36.407 Y30.5
X-36.369 Y29.492
X-36.361 Y29.324
X-36.327 Y28.82
X-36.301 Y28.652
X-36.008 Y27.14
X-35.969 Y26.972
X-35.83 Y26.468
X-35.65 Y25.964
X-35.227 Y24.788
X-35.147 Y24.62
X-35.058 Y24.452
X-34.784 Y23.948
X-34.327 Y23.108
X-34.242 Y22.963
X-33.879 Y22.436
X-33.066 Y21.368
X-32.98 Y21.26
X-32.73 Y20.972
X-32.681 Y20.924
X-31.634 Y19.916
X-31.553 Y19.839
X-31.271 Y19.58
X-31.217 Y19.534
X-29.609 Y18.404
X-29.536 Y18.363
X-29.302 Y18.236
X-29.2 Y18.183
X-28.191 Y17.683
X-27.598 Y17.396
X-27.519 Y17.362
X-25.838 Y16.83
X-25.67 Y16.788
X-25.334 Y16.708
X-25.166 Y16.674
X-23.653 Y16.44
X-23.485 Y16.418
X-22.981 Y16.4
X-22.813 Y16.398
X-21.3
X-21.132 Y16.41
X-19.619 Y16.644
X-19.451 Y16.671
X-18.947 Y16.773
X-18.779 Y16.821
X-17.266 Y17.3
X-17.098 Y17.364
X-16.594 Y17.587
X-15.585 Y18.086
X-15.417 Y18.171
X-15.081 Y18.349
X-14.98 Y18.404
X-13.4 Y19.515
X-13.318 Y19.58
X-13.13 Y19.748
X-12.055 Y20.782
X-11.919 Y20.924
X-11.61 Y21.26
X-11.551 Y21.332
X-10.838 Y22.268
X-10.71 Y22.436
X-10.364 Y22.94
X-10.262 Y23.108
X-9.702 Y24.137
X-9.443 Y24.62
X-9.366 Y24.777
X-8.819 Y26.3
X-8.759 Y26.468
X-8.62 Y26.972
X-8.581 Y27.14
X-8.288 Y28.652
X-8.262 Y28.82
X-8.228 Y29.324
X-8.221 Y29.492
X-8.182 Y30.5
X-8.168 Y31.004
X-8.176 Y31.172
X-8.358 Y32.742
X-8.373 Y32.852
X-8.458 Y33.356
X-8.501 Y33.524
X-8.916 Y35.036
X-8.973 Y35.204
X-9.103 Y35.54
X-9.175 Y35.708
X-9.627 Y36.716
X-9.703 Y36.884
X-9.959 Y37.388
X-10.038 Y37.518
X-10.825 Y38.732
X-10.94 Y38.9
X-11.057 Y39.068
X-11.191 Y39.236
X-12.089 Y40.244
X-12.245 Y40.412
X-12.561 Y40.748
X-12.76 Y40.916
X-14.072 Y41.998
X-14.208 Y42.092
X-14.24 Y42.113
X-14.409 Y42.218
X-15.611 Y42.932
X-15.921 Y43.115
X-16.089 Y43.204
X-17.602 Y43.813
X-17.77 Y43.879
X-18.274 Y44.037
X-18.443 Y44.082
X-19.992 Y44.444
X-20.123 Y44.466
X-20.628 Y44.515
X-21.636 Y44.593
X-21.804 Y44.606
X-22.308 Y44.635
X-22.477 Y44.63
X-23.989 Y44.514
X-24.157 Y44.496
X-24.662 Y44.428
X-24.83 Y44.39
X-25.506 Y44.232
G3 X-25.778 Y43.98 I0.105 J-0.386 F800
G1 X-25.79 Y43.912 Z7.506
X-25.801 Y43.846 Z7.524
X-25.786 Y43.781 Z7.556
X-25.773 Y43.723 Z7.6
X-25.762 Y43.674 Z7.653
X-25.743 Y43.643 Z7.709
X-25.729 Y43.62 Z7.769
X-25.72 Y43.606 Z7.834
X-25.718 Y43.601 Z7.9
G0 X-23.216 Y30.939
Z7.8
G3 X-22.587 Y29.522 Z7.738 I0.922 J-0.439 F600
X-21.284 Y30.362 Z7.677 I0.292 J0.977
X-22.315 Y31.518 Z7.615 I-1.01 J0.137
X-23.296 Y30.322 Z7.554 I0.021 J-1.018
X-21.965 Y29.538 Z7.492 I1.001 J0.177
X-21.396 Y30.973 Z7.431 I-0.329 J0.961
X-22.9 Y31.313 Z7.369 I-0.897 J-0.473
X-23.004 Y29.776 Z7.308 I0.606 J-0.813
X-21.471 Y29.911 Z7.246 I0.709 J0.723
X-21.841 Y31.403 Z7.185 I-0.823 J0.588
X-23.256 Y30.808 Z7.123 I-0.453 J-0.903
X-22.451 Y29.503 Z7.062 I0.961 J-0.308
X-21.287 Y30.499 Z7 I0.156 J0.996
X-23.303 Y30.499 I-1.008 J0
X-21.287 Y30.499 I1.008 J0
G1 X-21.246 Y31.238 F1000
X-21.213 Y31.324
X-21.179 Y31.47
X-21.173 Y31.62
X-21.191 Y31.769
X-21.231 Y31.914
X-21.293 Y32.061
X-21.38 Y32.21
X-21.493 Y32.355
X-21.632 Y32.493
X-21.797 Y32.618
X-21.988 Y32.727
X-22.202 Y32.815
X-22.437 Y32.877
X-22.689 Y32.909
X-22.954 Y32.908
X-23.227 Y32.871
X-23.503 Y32.797
X-23.775 Y32.683
X-24.039 Y32.531
X-24.287 Y32.34
X-24.513 Y32.113
X-24.713 Y31.853
X-24.88 Y31.563
X-25.011 Y31.248
X-25.101 Y30.913
X-25.147 Y30.565
X-25.148 Y30.209
X-25.101 Y29.852
X-25.008 Y29.501
X-24.869 Y29.162
X-24.685 Y28.842
X-24.46 Y28.547
X-24.198 Y28.282
X-23.901 Y28.052
X-23.576 Y27.862
X-23.227 Y27.716
X-22.862 Y27.616
X-22.485 Y27.564
X-22.105 Y27.561
X-21.726 Y27.609
X-21.356 Y27.705
X-21.002 Y27.849
X-20.668 Y28.038
X-20.362 Y28.269
X-20.088 Y28.538
X-19.82 Y28.88
X-19.477 Y29.462
X-19.244 Y30.009
X-19.1 Y30.524
X-19.03 Y31.022
X-19.024 Y31.508
X-19.081 Y31.982
X-19.198 Y32.441
X-19.375 Y32.882
X-19.608 Y33.299
X-19.897 Y33.685
X-20.237 Y34.035
X-20.625 Y34.341
X-21.057 Y34.598
X-21.526 Y34.801
X-22.025 Y34.943
X-22.549 Y35.02
X-23.09 Y35.029
X-23.638 Y34.965
X-24.183 Y34.829
X-24.716 Y34.619
X-25.225 Y34.337
X-25.7 Y33.985
X-26.132 Y33.569
X-26.512 Y33.093
X-26.829 Y32.566
X-27.079 Y31.996
X-27.253 Y31.393
X-27.349 Y30.766
X-27.362 Y30.127
X-27.291 Y29.487
X-27.137 Y28.857
X-26.9 Y28.249
X-26.585 Y27.674
X-26.196 Y27.142
X-25.739 Y26.663
X-25.221 Y26.247
X-24.653 Y25.9
X-24.042 Y25.63
X-23.4 Y25.441
X-22.737 Y25.336
X-22.065 Y25.319
X-21.396 Y25.39
X-20.741 Y25.547
X-20.111 Y25.789
X-19.516 Y26.111
X-18.956 Y26.517
X-18.418 Y27.026
X-17.947 Y27.596
X-17.544 Y28.217
X-17.215 Y28.88
X-16.966 Y29.577
X-16.803 Y30.299
X-16.727 Y31.035
X-16.742 Y31.775
X-16.849 Y32.507
X-17.045 Y33.221
X-17.328 Y33.904
X-17.693 Y34.548
X-18.135 Y35.142
X-18.646 Y35.677
X-19.218 Y36.147
X-19.842 Y36.544
X-20.509 Y36.864
X-21.209 Y37.104
X-21.932 Y37.261
X-22.669 Y37.331
X-23.409 Y37.315
X-24.142 Y37.213
X-24.859 Y37.031
X-25.552 Y36.771
X-26.213 Y36.439
X-26.834 Y36.036
X-27.406 Y35.566
X-27.923 Y35.036
X-28.382 Y34.456
X-28.779 Y33.831
X-29.109 Y33.169
X-29.364 Y32.474
X-29.546 Y31.757
X-29.654 Y31.025
X-29.689 Y30.286
X-29.647 Y29.547
X-29.527 Y28.817
X-29.334 Y28.102
X-29.072 Y27.41
X-28.743 Y26.747
X-28.345 Y26.123
X-27.887 Y25.542
X-27.374 Y25.008
X-26.812 Y24.527
X-26.203 Y24.106
X-25.555 Y23.749
X-24.875 Y23.457
X-24.17 Y23.231
X-23.446 Y23.079
X-22.71 Y23
X-21.97 Y22.994
X-21.233 Y23.058
X-20.506 Y23.196
X-19.797 Y23.407
X-19.111 Y23.687
X-18.455 Y24.028
X-17.836 Y24.435
X-17.26 Y24.898
X-16.726 Y25.411
X-16.238 Y25.967
X-15.803 Y26.566
X-15.421 Y27.2
X-15.093 Y27.863
X-14.824 Y28.553
X-14.618 Y29.264
X-14.474 Y29.989
X-14.39 Y30.725
X-14.376 Y31.465
X-14.427 Y32.203
X-14.541 Y32.934
X-14.718 Y33.653
X-14.962 Y34.351
X-15.267 Y35.026
X-15.626 Y35.673
X-16.044 Y36.283
X-16.515 Y36.854
X-17.033 Y37.383
X-17.594 Y37.866
X-18.197 Y38.294
X-18.835 Y38.67
X-19.502 Y38.991
X-20.193 Y39.254
X-20.906 Y39.454
X-21.633 Y39.593
X-22.369 Y39.672
X-23.109 Y39.686
X-23.847 Y39.637
X-24.579 Y39.527
X-25.3 Y39.361
X-26.004 Y39.133
X-26.687 Y38.847
X-27.345 Y38.509
X-27.974 Y38.12
X-28.568 Y37.678
X-29.124 Y37.189
X-29.64 Y36.659
X-30.115 Y36.091
X-30.541 Y35.486
X-30.917 Y34.849
X-31.243 Y34.185
X-31.517 Y33.497
X-31.734 Y32.789
X-31.895 Y32.067
X-32.002 Y31.335
X-32.054 Y30.597
X-32.044 Y29.857
X-31.977 Y29.12
X-31.856 Y28.39
X-31.681 Y27.671
X-31.449 Y26.968
X-31.163 Y26.285
X-30.827 Y25.626
X-30.443 Y24.993
X-30.01 Y24.393
X-29.533 Y23.827
X-29.015 Y23.298
X-28.461 Y22.809
X-27.868 Y22.365
X-27.244 Y21.968
X-26.592 Y21.618
X-25.916 Y21.316
X-25.219 Y21.067
X-24.505 Y20.873
X-23.778 Y20.734
X-23.043 Y20.646
X-22.304 Y20.615
X-21.564 Y20.641
X-20.829 Y20.722
X-20.101 Y20.857
X-19.386 Y21.046
X-18.687 Y21.289
X-18.008 Y21.584
X-17.352 Y21.927
X-16.723 Y22.316
X-16.125 Y22.752
X-15.559 Y23.229
X-15.027 Y23.744
X-14.531 Y24.293
X-14.076 Y24.876
X-13.662 Y25.49
X-13.29 Y26.13
X-12.961 Y26.792
X-12.677 Y27.476
X-12.442 Y28.178
X-12.256 Y28.894
X-12.119 Y29.621
X-12.029 Y30.356
X-11.991 Y31.095
X-12.006 Y31.835
X-12.072 Y32.572
X-12.186 Y33.303
X-12.349 Y34.025
X-12.564 Y34.733
X-12.828 Y35.424
X-13.138 Y36.096
X-13.492 Y36.746
X-13.891 Y37.37
X-14.333 Y37.963
X-14.815 Y38.525
X-15.332 Y39.054
X-15.884 Y39.547
X-16.469 Y40
X-17.085 Y40.411
X-17.726 Y40.78
X-18.39 Y41.108
X-19.074 Y41.389
X-19.777 Y41.621
X-20.494 Y41.806
X-21.221 Y41.943
X-21.955 Y42.034
X-22.694 Y42.073
X-23.434 Y42.061
X-24.172 Y42.002
X-24.904 Y41.896
X-25.628 Y41.744
X-26.34 Y41.542
X-27.038 Y41.294
X-27.718 Y41.003
X-28.379 Y40.67
X-29.017 Y40.295
X-29.628 Y39.877
X-30.21 Y39.421
X-30.764 Y38.929
X-31.286 Y38.405
X-31.774 Y37.849
X-32.224 Y37.262
X-32.636 Y36.647
X-33.01 Y36.008
X-33.344 Y35.348
X-33.636 Y34.667
X-33.882 Y33.97
X-34.084 Y33.258
X-34.243 Y32.535
X-34.36 Y31.804
X-34.429 Y31.067
X-34.451 Y30.328
X-34.426 Y29.588
X-34.357 Y28.851
X-34.245 Y28.12
X-34.088 Y27.396
X-33.884 Y26.685
X-33.637 Y25.987
X-33.349 Y25.306
X-33.021 Y24.642
X-32.653 Y24
X-32.244 Y23.383
X-31.798 Y22.793
X-31.319 Y22.229
X-30.807 Y21.695
X-30.263 Y21.193
X-29.688 Y20.726
X-29.086 Y20.297
X-28.459 Y19.903
X-27.811 Y19.546
X-27.142 Y19.229
X-26.455 Y18.956
X-25.751 Y18.725
X-25.036 Y18.537
X-24.31 Y18.391
X-23.577 Y18.287
X-22.839 Y18.231
X-22.099 Y18.22
X-21.36 Y18.253
X-20.624 Y18.33
X-19.894 Y18.449
X-19.172 Y18.615
X-18.463 Y18.824
X-17.767 Y19.076
X-17.086 Y19.367
X-16.424 Y19.697
X-15.783 Y20.067
X-15.166 Y20.476
X-14.574 Y20.919
X-14.007 Y21.395
X-13.467 Y21.902
X-12.958 Y22.438
X-12.481 Y23.004
X-12.036 Y23.596
X-11.626 Y24.211
X-11.249 Y24.848
X-10.906 Y25.504
X-10.603 Y26.179
X-10.339 Y26.871
X-10.114 Y27.576
X-9.927 Y28.292
X-9.779 Y29.017
X-9.672 Y29.749
X-9.608 Y30.486
X-9.587 Y31.226
X-9.606 Y31.966
X-9.666 Y32.704
X-9.765 Y33.437
X-9.907 Y34.163
X-10.092 Y34.88
X-10.316 Y35.585
X-10.579 Y36.277
X-10.879 Y36.954
X-11.216 Y37.612
X-11.592 Y38.249
X-12.004 Y38.864
X-12.449 Y39.456
X-12.925 Y40.022
X-13.431 Y40.562
X-13.969 Y41.071
X-14.534 Y41.549
X-15.125 Y41.994
X-15.74 Y42.406
X-16.375 Y42.786
X-17.03 Y43.129
X-17.705 Y43.434
X-18.395 Y43.7
X-19.099 Y43.929
X-19.814 Y44.119
X-20.539 Y44.271
X-21.27 Y44.382
X-22.007 Y44.451
X-22.747 Y44.479
X-23.487 Y44.468
X-24.225 Y44.418
X-24.96 Y44.33
X-25.499 Y44.233
X-25.506 Y44.232
X-26.342 Y44.036
X-26.51 Y43.982
X-26.847 Y43.864
X-27.015 Y43.802
X-28.527 Y43.193
X-28.696 Y43.1
X-30.392 Y42.092
X-30.544 Y41.976
X-31.829 Y40.916
X-31.889 Y40.866
X-32.057 Y40.718
X-32.201 Y40.58
X-33.402 Y39.233
X-33.532 Y39.068
X-33.873 Y38.564
X-34.578 Y37.476
X-34.631 Y37.388
X-34.915 Y36.823
X-35.587 Y35.323
X-35.627 Y35.204
X-36.135 Y33.356
X-36.179 Y33.188
X-36.2 Y33.02
X-36.413 Y31.172
X-36.422 Y31.004
X-36.407 Y30.5
X-36.369 Y29.492
X-36.361 Y29.324
X-36.327 Y28.82
X-36.301 Y28.652
X-36.008 Y27.14
X-35.969 Y26.972
X-35.83 Y26.468
X-35.65 Y25.964
X-35.227 Y24.788
X-35.147 Y24.62
X-35.058 Y24.452
X-34.784 Y23.948
X-34.327 Y23.108
X-34.242 Y22.963
X-33.879 Y22.436
X-33.066 Y21.368
X-32.98 Y21.26
X-32.73 Y20.972
X-32.681 Y20.924
X-31.634 Y19.916
X-31.553 Y19.839
X-31.271 Y19.58
X-31.217 Y19.534
X-29.609 Y18.404
X-29.536 Y18.363
X-29.302 Y18.236
X-29.2 Y18.183
X-28.191 Y17.683
X-27.598 Y17.396
X-27.519 Y17.362
X-25.838 Y16.83
X-25.67 Y16.788
X-25.334 Y16.708
X-25.166 Y16.674
X-23.653 Y16.44
X-23.485 Y16.418
X-22.981 Y16.4
X-22.813 Y16.398
X-21.3
X-21.132 Y16.41
X-19.619 Y16.644
X-19.451 Y16.671
X-18.947 Y16.773
X-18.779 Y16.821
X-17.266 Y17.3
X-17.098 Y17.364
X-16.594 Y17.587
X-15.585 Y18.086
X-15.417 Y18.171
X-15.081 Y18.349
X-14.98 Y18.404
X-13.4 Y19.515
X-13.318 Y19.58
X-13.13 Y19.748
X-12.055 Y20.782
X-11.919 Y20.924
X-11.61 Y21.26
X-11.551 Y21.332
X-10.838 Y22.268
X-10.71 Y22.436
X-10.364 Y22.94
X-10.262 Y23.108
X-9.702 Y24.137
X-9.443 Y24.62
X-9.366 Y24.777
X-8.819 Y26.3
X-8.759 Y26.468
X-8.62 Y26.972
X-8.581 Y27.14
X-8.288 Y28.652
X-8.262 Y28.82
X-8.228 Y29.324
X-8.221 Y29.492
X-8.182 Y30.5
X-8.168 Y31.004
X-8.176 Y31.172
X-8.358 Y32.742
X-8.373 Y32.852
X-8.458 Y33.356
X-8.501 Y33.524
X-8.916 Y35.036
X-8.973 Y35.204
X-9.103 Y35.54
X-9.175 Y35.708
X-9.627 Y36.716
X-9.703 Y36.884
X-9.959 Y37.388
X-10.038 Y37.518
X-10.825 Y38.732
X-10.94 Y38.9
X-11.057 Y39.068
X-11.191 Y39.236
X-12.089 Y40.244
X-12.245 Y40.412
X-12.561 Y40.748
X-12.76 Y40.916
X-14.072 Y41.998
X-14.208 Y42.092
X-14.24 Y42.113
X-14.409 Y42.218
X-15.611 Y42.932
X-15.921 Y43.115
X-16.089 Y43.204
X-17.602 Y43.813
X-17.77 Y43.879
X-18.274 Y44.037
X-18.443 Y44.082
X-19.992 Y44.444
X-20.123 Y44.466
X-20.628 Y44.515
X-21.636 Y44.593
X-21.804 Y44.606
X-22.308 Y44.635
X-22.477 Y44.63
X-23.989 Y44.514
X-24.157 Y44.496
X-24.662 Y44.428
X-24.83 Y44.39
X-25.506 Y44.232
G3 X-25.778 Y43.98 I0.105 J-0.386 F800
G1 X-25.79 Y43.912 Z7.006
X-25.801 Y43.846 Z7.024
X-25.786 Y43.781 Z7.056
X-25.773 Y43.723 Z7.1
X-25.762 Y43.674 Z7.153
X-25.743 Y43.643 Z7.209
X-25.729 Y43.62 Z7.269
X-25.72 Y43.606 Z7.334
X-25.718 Y43.601 Z7.4
G0 Z18
X4.598 Y-0.392
Z7.8
G1 Z7.4 F600
X4.59 Y-0.391 Z7.322
X4.568 Y-0.385 Z7.247
X4.532 Y-0.376 Z7.178
X4.484 Y-0.363 Z7.117
X4.425 Y-0.348 Z7.067
X4.358 Y-0.331 Z7.03
X4.286 Y-0.313 Z7.008
X4.21 Y-0.293 Z7
G3 X2.032 Y0.02 I-2.534 J-9.893
G1 X1.94 F1000
X1.223 Y0.205
X0.493 Y0.323
X-0.243 Y0.397
X-0.982 Y0.444
X-1.722 Y0.473
X-2.461 Y0.491
X-3.201 Y0.502
X-3.941 Y0.509
X-4.681 Y0.513
X-5.421 Y0.516
X-6.902 Y0.518
X-11.342 Y0.52
X-48.344
X-74.061
X-74.15 Y0.545
X-74.228 Y0.594
X-74.497 Y0.848
X-74.904 Y1.466
X-75.134 Y2.17
X-75.269 Y2.897
X-75.351 Y3.633
X-75.401 Y4.371
X-75.431 Y5.111
X-75.45 Y5.851
X-75.461 Y6.591
X-75.469 Y7.331
X-75.473 Y8.071
X-75.476 Y8.811
X-75.478 Y10.291
X-75.48 Y13.991
Y21.922
X-75.501 Y22.05
X-75.562 Y22.165
X-75.657 Y22.254
X-75.759 Y22.322
X-75.914 Y22.436
X-76.103 Y22.604
X-76.263 Y22.785
X-76.379 Y22.94
X-76.716 Y23.444
X-76.827 Y23.612
X-76.935 Y23.821
X-76.998 Y23.948
X-77.056 Y24.116
X-77.103 Y24.295
X-77.138 Y24.452
X-77.238 Y24.956
X-77.271 Y25.141
X-77.292 Y25.292
X-77.304 Y25.46
X-77.305 Y25.628
Y35.372
X-77.304 Y35.54
X-77.292 Y35.708
X-77.271 Y35.859
X-77.238 Y36.044
X-77.138 Y36.548
X-77.101 Y36.716
X-77.056 Y36.884
X-76.998 Y37.052
X-76.914 Y37.22
X-76.827 Y37.388
X-76.716 Y37.556
X-76.604 Y37.724
X-76.292 Y38.245
X-76.032 Y38.844
X-75.828 Y39.556
X-75.698 Y40.284
X-75.616 Y41.02
X-75.564 Y41.758
X-75.532 Y42.497
X-75.512 Y43.237
X-75.5 Y43.977
X-75.492 Y44.717
X-75.488 Y45.457
X-75.485 Y46.197
X-75.482 Y47.677
X-75.48 Y51.378
Y59.056
X-75.455 Y59.145
X-75.406 Y59.223
X-75.153 Y59.494
X-74.536 Y59.902
X-73.833 Y60.133
X-73.106 Y60.269
X-72.37 Y60.351
X-71.632 Y60.4
X-70.892 Y60.431
X-70.152 Y60.45
X-69.413 Y60.461
X-68.673 Y60.468
X-67.932 Y60.473
X-67.192 Y60.476
X-65.712 Y60.478
X-62.012 Y60.48
X-47.211
X-1.883
X-1.794 Y60.455
X-1.716 Y60.406
X-1.461 Y60.137
X-1.073 Y59.507
X-0.853 Y58.801
X-0.723 Y58.072
X-0.644 Y57.336
X-0.596 Y56.598
X-0.567 Y55.858
X-0.549 Y55.118
X-0.538 Y54.378
X-0.531 Y53.638
X-0.527 Y52.898
X-0.523 Y51.418
X-0.52 Y48.458
Y39.56
X-0.516 Y39.507
X-0.506 Y39.454
X-0.488 Y39.403
X-0.203 Y38.732
X0.002 Y38.228
X0.051 Y38.06
X0.191 Y37.556
X0.745 Y35.54
X0.785 Y35.372
X0.851 Y35.036
X0.881 Y34.868
X1.176 Y32.684
X1.242 Y32.18
X1.249 Y32.012
X1.256 Y31.676
X1.257 Y31.508
Y29.492
X1.256 Y29.324
X1.249 Y28.988
X1.242 Y28.82
X1.153 Y28.148
X0.881 Y26.132
X0.851 Y25.964
X0.785 Y25.628
X0.745 Y25.46
X0.145 Y23.276
X0.047 Y22.925
X0.002 Y22.772
X-0.207 Y22.062
X-0.324 Y21.331
X-0.398 Y20.595
X-0.444 Y19.856
X-0.473 Y19.117
X-0.491 Y18.377
X-0.502 Y17.637
X-0.509 Y16.897
X-0.513 Y16.157
X-0.516 Y15.417
X-0.518 Y13.937
X-0.52 Y9.496
Y4.316
X-0.545 Y4.227
X-0.594 Y4.148
X-0.867 Y3.899
X-1.505 Y3.524
X-2.216 Y3.317
X-2.946 Y3.197
X-3.683 Y3.126
X-4.422 Y3.084
X-5.161 Y3.058
X-5.901 Y3.043
X-6.641 Y3.034
X-7.381 Y3.028
X-8.121 Y3.025
X-9.601 Y3.022
X-13.302 Y3.02
X-31.803
X-71.21
X-71.303 Y3.022
X-71.48 Y3.075
X-71.783 Y3.287
X-72.255 Y3.858
X-72.53 Y4.544
X-72.698 Y5.265
X-72.803 Y5.998
X-72.868 Y6.735
X-72.909 Y7.474
X-72.935 Y8.213
X-72.952 Y8.953
X-72.962 Y9.693
X-72.969 Y10.433
X-72.973 Y11.173
X-72.977 Y12.653
X-72.978 Y13.393
X-72.98 Y17.094
Y20.794
X-72.997 Y21.044
X-73.029 Y21.177
X-73.105 Y21.292
X-73.214 Y21.374
X-73.345 Y21.415
X-73.742 Y21.467
X-73.91 Y21.499
X-74.246 Y21.566
X-74.414 Y21.603
X-74.582 Y21.646
X-74.75 Y21.705
X-74.873 Y21.764
X-75.086 Y21.875
X-75.175 Y21.932
X-75.657 Y22.254
X-75.759 Y22.322 Z7.039 F800
X-75.914 Y22.436 Z7.1
X-76.103 Y22.604 Z7.181
X-76.143 Y22.649 Z7.2
X-76.227 Y22.744
X-76.252 Y22.772 F1000
X-76.263 Y22.785
X-76.379 Y22.94
X-76.716 Y23.444
X-76.827 Y23.612
X-76.914 Y23.78
X-76.935 Y23.821
X-76.998 Y23.948
X-77.056 Y24.116
X-77.101 Y24.284
X-77.103 Y24.295
X-77.138 Y24.452
X-77.238 Y24.956
X-77.268 Y25.124
X-77.271 Y25.141
X-77.292 Y25.292
X-77.304 Y25.46
X-77.305 Y25.628
Y35.372
X-77.304 Y35.54
X-77.292 Y35.708
X-77.271 Y35.859
X-77.268 Y35.876
X-77.238 Y36.044
X-77.138 Y36.548
X-77.103 Y36.705
X-77.101 Y36.716
X-77.056 Y36.884
X-76.998 Y37.052
X-76.987 Y37.076
X-76.935 Y37.179 F600
X-76.93 Y37.189
X-76.914 Y37.22 Z7.189
X-76.827 Y37.388 Z7.128
X-76.716 Y37.556 Z7.064
X-76.604 Y37.724 Z7
X-76.379 Y38.06 F1000
X-76.263 Y38.215
X-76.103 Y38.396
X-75.914 Y38.564
X-75.759 Y38.678
X-75.175 Y39.068
X-75.086 Y39.125
X-74.994 Y39.173
X-74.842 Y39.262
X-74.602 Y39.45
X-74.342 Y39.714
X-74.074 Y40.069
X-73.797 Y40.557
X-73.518 Y41.243
X-73.331 Y41.959
X-73.207 Y42.688
X-73.126 Y43.424
X-73.074 Y44.162
X-73.04 Y44.901
X-73.018 Y45.641
X-73.005 Y46.381
X-72.996 Y47.121
X-72.99 Y47.861
X-72.986 Y48.601
X-72.983 Y50.081
X-72.98 Y53.041
Y56.279
X-72.929 Y56.457
X-72.725 Y56.766
X-72.161 Y57.245
X-71.476 Y57.524
X-70.756 Y57.694
X-70.023 Y57.8
X-69.286 Y57.867
X-68.547 Y57.908
X-67.808 Y57.935
X-67.068 Y57.951
X-66.328 Y57.962
X-65.588 Y57.968
X-64.848 Y57.973
X-63.368 Y57.977
X-61.148 Y57.979
X-44.126 Y57.98
X-41.166
X-4.719
X-4.542 Y57.925
X-4.233 Y57.722
X-3.754 Y57.158
X-3.475 Y56.472
X-3.305 Y55.752
X-3.199 Y55.02
X-3.133 Y54.283
X-3.091 Y53.544
X-3.065 Y52.804
X-3.049 Y52.064
X-3.038 Y51.324
X-3.031 Y50.584
X-3.027 Y49.844
X-3.023 Y48.364
X-3.021 Y46.144
X-3.02 Y44.664
Y44.218
X-3.012 Y44.135
X-2.986 Y44.056
X-2.945 Y43.984
X-2.792 Y43.772
X-2.686 Y43.604
X-1.466 Y41.553
X-1.393 Y41.42
X-1.215 Y41.084
X-1.13 Y40.912
X-0.488 Y39.403
X-0.274 Y38.9 Z7.174 F800
X-0.242 Y38.825 Z7.2
X-0.203 Y38.732
X-0.193 Y38.709
X0.002 Y38.228 F1000
X0.047 Y38.075
X0.145 Y37.724
X0.745 Y35.54
X0.785 Y35.372
X0.851 Y35.036
X0.881 Y34.868
X1.176 Y32.684
X1.242 Y32.18
X1.249 Y32.012
X1.256 Y31.676
X1.257 Y31.508
Y29.492
X1.256 Y29.324
X1.249 Y28.988
X1.242 Y28.82
X1.176 Y28.316
X0.881 Y26.132
X0.851 Y25.964
X0.785 Y25.628
X0.745 Y25.46
X0.206 Y23.498
X0.172 Y23.376 F600
X0.145 Y23.276 Z7.167
X0.047 Y22.925 Z7.051
X0.002 Y22.772 Z7
X-0.203 Y22.268 F1000
X-1.132 Y20.084
X-1.215 Y19.916
X-1.393 Y19.58
X-1.466 Y19.448
X-1.97 Y18.599
X-2.308 Y17.961
X-2.566 Y17.267
X-2.733 Y16.546
X-2.84 Y15.814
X-2.907 Y15.077
X-2.95 Y14.338
X-2.976 Y13.598
X-2.993 Y12.859
X-3.003 Y12.119
X-3.009 Y11.379
X-3.013 Y10.639
X-3.017 Y9.158
X-3.019 Y7.216
X-3.063 Y7.036
X-3.262 Y6.724
X-3.826 Y6.244
X-4.511 Y5.966
X-5.232 Y5.798
X-5.965 Y5.694
X-6.702 Y5.629
X-7.441 Y5.588
X-8.181 Y5.563
X-8.92 Y5.547
X-9.66 Y5.537
X-10.4 Y5.531
X-11.14 Y5.527
X-12.621 Y5.523
X-15.581 Y5.52
X-41.482
X-68.679
X-68.861 Y5.555
X-69.183 Y5.737
X-69.687 Y6.279
X-69.983 Y6.957
X-70.166 Y7.674
X-70.28 Y8.405
X-70.353 Y9.142
X-70.399 Y9.881
X-70.428 Y10.62
X-70.447 Y11.36
X-70.459 Y12.1
X-70.466 Y12.84
X-70.471 Y13.58
X-70.474 Y14.32
X-70.478 Y15.8
X-70.48 Y19.5
X-70.5 Y20.24
X-70.579 Y20.828
X-70.653 Y21.104
X-70.707 Y21.223
X-70.796 Y21.317
X-70.911 Y21.379
X-71.039 Y21.4
X-73.14 Y21.401
X-73.237
X-73.345 Y21.415
G3 X-73.765 Y20.899 I-0.038 J-0.398 F800
G1 X-73.742 Y20.824 Z7.008
X-73.72 Y20.752 Z7.03
X-73.699 Y20.686 Z7.067
X-73.681 Y20.628 Z7.117
X-73.667 Y20.581 Z7.178
X-73.656 Y20.546 Z7.247
X-73.649 Y20.524 Z7.322
X-73.647 Y20.516 Z7.4
G0 Z18
X-76.164 Y39.041
Z7.8
G1 Z7.4 F600
X-76.156 Z7.322
X-76.133 Y39.04 Z7.247
X-76.096 Y39.038 Z7.178
X-76.047 Y39.035 Z7.117
X-75.986 Y39.032 Z7.067
X-75.917 Y39.028 Z7.03
X-75.842 Y39.024 Z7.008
X-75.764 Y39.02 Z7
G3 X-74.994 Y39.173 I0.086 J1.58
G1 X-74.873 Y39.236 F1000
X-74.75 Y39.295
X-74.582 Y39.354
X-74.414 Y39.397
X-74.246 Y39.434
X-73.91 Y39.501
X-73.742 Y39.533
X-73.574 Y39.555
X-73.29 Y39.607
X-73.061 Y39.681
X-72.799 Y39.805
X-72.513 Y39.989
X-72.227 Y40.232
X-71.915 Y40.575
X-71.608 Y41.017
X-71.293 Y41.627
X-71.043 Y42.323
X-70.865 Y43.042
X-70.742 Y43.771
X-70.657 Y44.507
X-70.599 Y45.244
X-70.559 Y45.983
X-70.533 Y46.723
X-70.515 Y47.463
X-70.503 Y48.203
X-70.495 Y48.943
X-70.49 Y49.683
X-70.487 Y50.423
X-70.483 Y51.903
X-70.481 Y53.661
X-70.469 Y53.752
X-70.406 Y53.926
X-70.202 Y54.235
X-69.64 Y54.717
X-68.958 Y55.002
X-68.239 Y55.178
X-67.507 Y55.288
X-66.77 Y55.358
X-66.031 Y55.402
X-65.292 Y55.43
X-64.552 Y55.448
X-63.812 Y55.46
X-63.072 Y55.467
X-62.332 Y55.472
X-61.592 Y55.475
X-60.112 Y55.478
X-57.152 Y55.48
X-36.43
X-7.291
X-7.112 Y55.432
X-6.796 Y55.241
X-6.3 Y54.691
X-6.009 Y54.011
X-5.829 Y53.293
X-5.716 Y52.561
X-5.645 Y51.825
X-5.6 Y51.086
X-5.571 Y50.347
X-5.553 Y49.607
X-5.541 Y48.867
X-5.533 Y48.127
X-5.528 Y47.219
X-5.513 Y47.114
X-5.471 Y47.016
X-5.405 Y46.932
X-4.915 Y46.46
X-4.761 Y46.292
X-3.694 Y44.948
X-3.147 Y44.258
X-3.035 Y44.108
X-2.945 Y43.984
G3 X-2.281 Y44.031 I0.316 J0.245 F800
G1 X-2.242 Y44.098 Z7.008
X-2.205 Y44.164 Z7.03
X-2.171 Y44.224 Z7.067
X-2.141 Y44.276 Z7.117
X-2.116 Y44.32 Z7.178
X-2.098 Y44.352 Z7.247
X-2.087 Y44.371 Z7.322
X-2.083 Y44.378 Z7.4
G0 Z18
X-1.044 Y19.325
Z7.8
G1 Z7.4 F600
X-1.05 Y19.321 Z7.322
X-1.07 Y19.31 Z7.247
X-1.103 Y19.293 Z7.178
X-1.147 Y19.269 Z7.117
X-1.2 Y19.24 Z7.067
X-1.261 Y19.207 Z7.03
X-1.327 Y19.171 Z7.008
X-1.395 Y19.134 Z7
G3 X-1.97 Y18.599 I0.756 J-1.39
G1 X-2.686 Y17.396 F1000
X-2.792 Y17.228
X-3.035 Y16.892
X-3.147 Y16.742
X-4.227 Y15.38
X-4.52 Y14.97
X-4.785 Y14.472
X-5.045 Y13.779
X-5.216 Y13.059
X-5.327 Y12.327
X-5.398 Y11.591
X-5.443 Y10.852
X-5.471 Y10.112
X-5.48 Y9.743
X-5.545 Y9.569
X-5.75 Y9.261
X-6.312 Y8.78
X-6.995 Y8.495
X-7.714 Y8.32
X-8.446 Y8.21
X-9.183 Y8.141
X-9.922 Y8.097
X-10.661 Y8.069
X-11.401 Y8.051
X-12.141 Y8.04
X-12.881 Y8.033
X-13.621 Y8.028
X-14.361 Y8.025
X-15.066 Y8.023
X-15.114 Y8.02
X-15.161 Y8.012
X-15.207 Y7.998
X-15.249 Y7.982
X-15.417 Y7.925
X-15.753 Y7.843
X-17.938 Y7.331
X-18.443 Y7.221
X-18.611 Y7.196
X-19.115 Y7.145
X-21.132 Y6.951
X-21.3 Y6.937
X-21.804 Y6.912
X-24.493 Y7.015
X-24.662 Y7.029
X-24.998 Y7.07
X-25.166 Y7.094
X-27.4 Y7.483
X-27.855 Y7.566
X-28.023 Y7.616
X-28.742 Y7.794
X-29.477 Y7.879
X-30.215 Y7.932
X-30.954 Y7.966
X-31.694 Y7.986
X-32.434 Y7.999
X-33.174 Y8.007
X-33.914 Y8.012
X-34.654 Y8.015
X-36.134 Y8.018
X-39.834 Y8.02
X-66.198
X-66.377 Y8.069
X-66.694 Y8.26
X-67.19 Y8.809
X-67.483 Y9.489
X-67.665 Y10.206
X-67.779 Y10.937
X-67.851 Y11.674
X-67.898 Y12.412
X-67.927 Y13.152
X-67.946 Y13.892
X-67.958 Y14.632
X-67.966 Y15.372
X-67.971 Y16.112
X-67.974 Y16.852
X-67.978 Y18.332
X-67.986 Y19.072
X-68.023 Y19.811
X-68.106 Y20.546
X-68.235 Y21.099
X-68.251 Y21.141
X-68.336 Y21.277
X-68.468 Y21.368
X-68.625 Y21.4
X-71.039
G3 X-71.389 Y20.834 I0.014 J-0.4 F800
G1 X-71.357 Y20.763 Z7.008
X-71.326 Y20.695 Z7.03
X-71.297 Y20.632 Z7.067
X-71.272 Y20.577 Z7.117
X-71.251 Y20.532 Z7.178
X-71.236 Y20.498 Z7.247
X-71.226 Y20.477 Z7.322
X-71.223 Y20.47 Z7.4
G0 Z18
X-74.717 Y39.834
Z7.8
G1 Z7.4 F600
X-74.71 Y39.831 Z7.322
X-74.689 Y39.822 Z7.247
X-74.655 Y39.807 Z7.178
X-74.61 Y39.788 Z7.117
X-74.554 Y39.764 Z7.067
X-74.49 Y39.737 Z7.03
X-74.421 Y39.707 Z7.008
X-74.35 Y39.676 Z7
G3 X-73.574 Y39.555 I0.624 J1.454
G1 X-73.237 Y39.599 F1000
X-71.725 Y39.6
X-71.464 Y39.613
X-71.196 Y39.662
X-70.92 Y39.751
X-70.621 Y39.892
X-70.284 Y40.109
X-69.957 Y40.386
X-69.597 Y40.782
X-69.249 Y41.282
X-68.91 Y41.94
X-68.654 Y42.634
X-68.464 Y43.35
X-68.325 Y44.077
X-68.224 Y44.81
X-68.151 Y45.546
X-68.099 Y46.284
X-68.062 Y47.023
X-68.037 Y47.763
X-68.019 Y48.503
X-68.007 Y49.243
X-67.998 Y49.983
X-67.992 Y50.723
X-67.99 Y51.185
X-67.942 Y51.364
X-67.753 Y51.682
X-67.207 Y52.182
X-66.529 Y52.478
X-65.812 Y52.662
X-65.081 Y52.777
X-64.344 Y52.85
X-63.606 Y52.897
X-62.866 Y52.926
X-62.127 Y52.946
X-61.387 Y52.958
X-60.647 Y52.966
X-59.907 Y52.971
X-59.167 Y52.974
X-57.686 Y52.978
X-54.726 Y52.98
X-31.785
X-29.381
X-29.34 Y52.982
X-29.3 Y52.988
X-29.26 Y52.999
X-28.359 Y53.283
X-27.855 Y53.434
X-27.351 Y53.526
X-25.166 Y53.906
X-24.998 Y53.93
X-24.662 Y53.971
X-24.493 Y53.985
X-21.804 Y54.088
X-21.3 Y54.063
X-21.132 Y54.049
X-18.947 Y53.838
X-18.611 Y53.804
X-18.443 Y53.779
X-17.938 Y53.669
X-16.93 Y53.433
X-16.202 Y53.3
X-15.471 Y53.18
X-14.735 Y53.105
X-13.997 Y53.057
X-13.257 Y53.028
X-12.517 Y53.01
X-11.777 Y52.998
X-11.037 Y52.991
X-10.297 Y52.987
X-9.835 Y52.985
X-9.654 Y52.948
X-9.331 Y52.766
X-8.825 Y52.227
X-8.526 Y51.55
X-8.341 Y50.833
X-8.225 Y50.102
X-8.165 Y49.509
X-8.139 Y49.401
X-8.084 Y49.304
X-8.004 Y49.226
X-7.349 Y48.746
X-7.214 Y48.645
X-7.013 Y48.474
X-6.835 Y48.309
X-5.405 Y46.932
G3 X-4.761 Y47.097 I0.267 J0.298 F800
G1 X-4.735 Y47.171 Z7.008
X-4.71 Y47.242 Z7.03
X-4.687 Y47.307 Z7.067
X-4.667 Y47.364 Z7.117
X-4.65 Y47.411 Z7.178
X-4.638 Y47.446 Z7.247
X-4.63 Y47.467 Z7.322
X-4.628 Y47.474 Z7.4
G0 Z18
X-17.901 Y54.097
Z7.8
G1 Z7.4 F600
X-17.896 Y54.092 Z7.322
X-17.879 Y54.076 Z7.247
X-17.853 Y54.05 Z7.178
X-17.817 Y54.016 Z7.117
X-17.773 Y53.974 Z7.067
X-17.723 Y53.926 Z7.03
X-17.669 Y53.874 Z7.008
X-17.613 Y53.82 Z7
G3 X-16.93 Y53.433 I1.098 J1.14
G1 X-15.753 Y53.157 F1000
X-15.417 Y53.075
X-15.234 Y53.013
X-12.896 Y52.122
X-12.56 Y51.993
X-12.392 Y51.916
X-11.887 Y51.649
X-10.206 Y50.735
X-9.702 Y50.458
X-9.534 Y50.346
X-9.503 Y50.325
X-8.004 Y49.226
G3 X-7.387 Y49.476 I0.225 J0.331 F800
G1 X-7.371 Y49.552 Z7.008
X-7.356 Y49.625 Z7.03
X-7.342 Y49.693 Z7.067
X-7.33 Y49.752 Z7.117
X-7.32 Y49.801 Z7.178
X-7.312 Y49.837 Z7.247
X-7.307 Y49.86 Z7.322
X-7.306 Y49.867 Z7.4
G0 Z18
X-3.212 Y15.975
Z7.8
G1 Z7.4 F600
X-3.219 Y15.972 Z7.322
X-3.24 Y15.964 Z7.247
X-3.275 Y15.951 Z7.178
X-3.321 Y15.933 Z7.117
X-3.378 Y15.912 Z7.067
X-3.442 Y15.887 Z7.03
X-3.512 Y15.86 Z7.008
X-3.585 Y15.833 Z7
G3 X-4.227 Y15.38 I0.563 J-1.479
G1 X-4.761 Y14.708 F1000
X-4.915 Y14.54
X-6.486 Y13.027
X-6.716 Y12.782
X-6.982 Y12.413
X-7.157 Y12.087
X-7.4 Y11.808
X-7.978 Y11.346
X-8.658 Y11.054
X-9.095 Y10.94
X-9.143 Y10.924
X-9.188 Y10.903
X-9.23 Y10.875
G3 X-9.297 Y10.314 Z7.2 I0.248 J-0.314 F800
G1 X-9.254 Y10.268
X-9.205 Y10.229
G3 X-8.736 Y10.247 I0.222 J0.333 F1000
G1 X-5.972 Y12.415
G3 X-5.853 Y12.892 I-0.247 J0.315
G1 X-5.883 Y12.947 F600
X-5.921 Y12.997
G3 X-6.486 Y13.027 Z7 I-0.297 J-0.267
G1 X-6.845 Y12.682 F1000
X-7.015 Y12.523
X-7.214 Y12.355
X-7.349 Y12.254
X-9.503 Y10.675
X-9.534 Y10.654
X-9.702 Y10.542
X-10.378 Y10.171
X-11.923 Y9.331
X-12.392 Y9.084
X-12.56 Y9.007
X-13.469 Y8.659
X-15.207 Y7.998
X-15.234 Y7.987 Z7.009 F800
X-15.417 Y7.925 Z7.071
X-15.585 Y7.884 Z7.126
X-15.753 Y7.843 Z7.181
X-15.811 Y7.829 Z7.2
X-15.934 Y7.801
X-17.938 Y7.331 F1000
X-18.009 Y7.315
X-18.443 Y7.221
X-18.611 Y7.196
X-18.947 Y7.162
X-19.096 Y7.147
X-21.132 Y6.951
X-21.3 Y6.937
X-21.804 Y6.912
X-24.493 Y7.015
X-24.662 Y7.029
X-24.998 Y7.07
X-25.166 Y7.094
X-27.285 Y7.463
X-27.351 Y7.474 F600
X-27.41 Y7.485
X-27.855 Y7.566 Z7.056
X-28.023 Y7.616 Z7
X-28.359 Y7.717 F1000
X-30.713 Y8.461
X-30.798 Y8.491
X-31.049 Y8.595
X-31.197 Y8.659
X-33.336 Y9.667
X-34.015 Y9.961
X-34.726 Y10.166
X-35.455 Y10.298
X-36.19 Y10.381
X-36.928 Y10.434
X-37.668 Y10.466
X-38.407 Y10.487
X-39.147 Y10.499
X-39.887 Y10.507
X-40.627 Y10.512
X-41.367 Y10.515
X-42.847 Y10.518
X-46.548 Y10.52
X-63.661
X-63.842 Y10.558
X-64.165 Y10.74
X-64.672 Y11.279
X-64.971 Y11.956
X-65.157 Y12.672
X-65.273 Y13.403
X-65.348 Y14.139
X-65.395 Y14.878
X-65.425 Y15.617
X-65.445 Y16.357
X-65.457 Y17.097
X-65.468 Y17.837
X-65.487 Y18.577
X-65.525 Y19.316
X-65.595 Y20.052
X-65.71 Y20.77
X-65.812 Y21.114
X-65.894 Y21.263
X-66.03 Y21.364
X-66.195 Y21.4
X-68.625
G3 X-68.975 Y20.834 I0.014 J-0.4 F800
G1 X-68.943 Y20.763 Z7.008
X-68.912 Y20.695 Z7.03
X-68.883 Y20.632 Z7.067
X-68.858 Y20.577 Z7.117
X-68.837 Y20.532 Z7.178
X-68.822 Y20.498 Z7.247
X-68.813 Y20.477 Z7.322
X-68.809 Y20.47 Z7.4
G0 Z7.8
X-32.54 Y8.8
G1 Z7.4 F600
X-32.544 Y8.807 Z7.322
X-32.557 Y8.826 Z7.247
X-32.577 Y8.857 Z7.178
X-32.604 Y8.899 Z7.117
X-32.637 Y8.949 Z7.067
X-32.675 Y9.007 Z7.03
X-32.715 Y9.07 Z7.008
X-32.758 Y9.136 Z7
G3 X-33.336 Y9.667 I-1.327 J-0.863
G1 X-33.402 Y9.7 F1000
X-33.906 Y9.961
X-36.091 Y11.375
X-36.285 Y11.515
X-36.595 Y11.743
X-36.727 Y11.851
X-36.854 Y11.95
X-37.304 Y12.212
X-37.94 Y12.479
X-38.653 Y12.674
X-39.383 Y12.801
X-40.118 Y12.881
X-40.857 Y12.933
X-41.596 Y12.965
X-42.336 Y12.986
X-43.076 Y12.998
X-43.816 Y13.006
X-44.556 Y13.012
X-45.296 Y13.015
X-46.776 Y13.018
X-49.736 Y13.02
X-61.207
X-61.383 Y13.076
X-61.697 Y13.271
X-62.19 Y13.824
X-62.482 Y14.503
X-62.664 Y15.221
X-62.778 Y15.952
X-62.851 Y16.689
X-62.904 Y17.427
X-62.95 Y18.165
X-63.003 Y18.903
X-63.074 Y19.64
X-63.176 Y20.373
X-63.327 Y21.03
X-63.368 Y21.14
X-63.454 Y21.276
X-63.586 Y21.368
X-63.743 Y21.4
X-66.195
G3 X-66.545 Y20.834 I0.014 J-0.4 F800
G1 X-66.513 Y20.763 Z7.008
X-66.482 Y20.695 Z7.03
X-66.453 Y20.632 Z7.067
X-66.428 Y20.577 Z7.117
X-66.407 Y20.532 Z7.178
X-66.392 Y20.498 Z7.247
X-66.383 Y20.477 Z7.322
X-66.379 Y20.47 Z7.4
G0 Z18
X-36.171 Y10.814
Z7.8
G1 Z7.4 F600
X-36.173 Y10.821 Z7.322
X-36.181 Y10.843 Z7.247
X-36.193 Y10.878 Z7.178
X-36.208 Y10.925 Z7.117
X-36.228 Y10.982 Z7.067
X-36.25 Y11.048 Z7.03
X-36.274 Y11.119 Z7.008
X-36.299 Y11.193 Z7
G3 X-36.727 Y11.851 I-1.499 J-0.507
G1 X-38.492 Y13.363 F1000
X-38.612 Y13.469
X-38.781 Y13.621
X-38.866 Y13.699
X-39.018 Y13.867
X-39.309 Y14.16
X-39.651 Y14.424
X-40.115 Y14.694
X-40.769 Y14.967
X-41.483 Y15.162
X-42.212 Y15.289
X-42.947 Y15.372
X-43.686 Y15.425
X-44.425 Y15.46
X-45.165 Y15.482
X-45.904 Y15.496
X-46.644 Y15.504
X-47.384 Y15.51
X-48.125 Y15.514
X-49.605 Y15.517
X-52.565 Y15.52
X-58.67
X-58.85 Y15.564
X-59.17 Y15.749
X-59.674 Y16.291
X-59.979 Y16.966
X-60.178 Y17.678
X-60.324 Y18.404
X-60.568 Y19.864
X-60.711 Y20.59
X-60.865 Y21.113
X-60.947 Y21.262
X-61.083 Y21.364
X-61.249 Y21.4
X-63.743
G3 X-64.093 Y20.834 I0.014 J-0.4 F800
G1 X-64.061 Y20.763 Z7.008
X-64.03 Y20.695 Z7.03
X-64.001 Y20.632 Z7.067
X-63.976 Y20.577 Z7.117
X-63.955 Y20.532 Z7.178
X-63.94 Y20.498 Z7.247
X-63.93 Y20.477 Z7.322
X-63.927 Y20.47 Z7.4
G0 Z7.8
X-38.6 Y12.767
G1 Z7.4 F600
X-38.601 Y12.775 Z7.322
X-38.606 Y12.797 Z7.247
X-38.613 Y12.833 Z7.178
X-38.623 Y12.882 Z7.117
X-38.634 Y12.941 Z7.067
X-38.648 Y13.009 Z7.03
X-38.663 Y13.083 Z7.008
X-38.678 Y13.159 Z7
G3 X-39.018 Y13.867 I-1.552 J-0.309
G1 X-39.318 Y14.204 F1000
X-40.517 Y15.548
X-40.629 Y15.677
X-40.966 Y16.086
X-41.07 Y16.22
X-41.187 Y16.37
X-41.451 Y16.631
X-41.813 Y16.905
X-42.306 Y17.186
X-42.991 Y17.466
X-43.706 Y17.655
X-44.436 Y17.781
X-45.171 Y17.864
X-45.909 Y17.919
X-46.648 Y17.954
X-47.388 Y17.978
X-48.128 Y17.993
X-48.868 Y18.002
X-49.608 Y18.009
X-50.348 Y18.013
X-51.828 Y18.017
X-54.048 Y18.019
X-56.176 Y18.02
X-56.356 Y18.059
X-56.685 Y18.23
X-57.22 Y18.741
X-57.578 Y19.388
X-57.85 Y20.077
X-58.096 Y20.775
X-58.249 Y21.151
X-58.335 Y21.282
X-58.465 Y21.369
X-58.619 Y21.4
X-61.249
G3 X-61.599 Y20.834 I0.014 J-0.4 F800
G1 X-61.566 Y20.763 Z7.008
X-61.535 Y20.695 Z7.03
X-61.507 Y20.632 Z7.067
X-61.482 Y20.577 Z7.117
X-61.461 Y20.532 Z7.178
X-61.446 Y20.498 Z7.247
X-61.436 Y20.477 Z7.322
X-61.433 Y20.47 Z7.4
G0 Z7.8
X-40.808 Y15.072
G1 Z7.4 F600
X-40.809 Y15.08 Z7.322
X-40.81 Y15.102 Z7.247
X-40.812 Y15.139 Z7.178
X-40.815 Y15.189 Z7.117
X-40.818 Y15.249 Z7.067
X-40.822 Y15.318 Z7.03
X-40.827 Y15.393 Z7.008
X-40.831 Y15.471 Z7
G3 X-41.07 Y16.22 I-1.58 J-0.091
G1 X-42.545 Y18.404 F1000
X-42.646 Y18.562
X-42.755 Y18.715
X-43.007 Y18.987
X-43.347 Y19.268
X-43.811 Y19.56
X-44.445 Y19.851
X-45.152 Y20.07
X-45.877 Y20.22
X-46.61 Y20.32
X-47.347 Y20.388
X-48.085 Y20.433
X-48.825 Y20.462
X-49.565 Y20.482
X-50.305 Y20.495
X-51.045 Y20.504
X-51.785 Y20.509
X-52.525 Y20.513
X-53.82 Y20.517
X-54.002 Y20.549
X-54.345 Y20.686
X-54.943 Y21.123
X-55.063 Y21.261
X-55.149 Y21.336
X-55.252 Y21.384
X-55.365 Y21.4
X-58.619
G3 X-58.969 Y20.834 I0.014 J-0.4 F800
G1 X-58.937 Y20.763 Z7.008
X-58.906 Y20.695 Z7.03
X-58.877 Y20.632 Z7.067
X-58.852 Y20.577 Z7.117
X-58.831 Y20.532 Z7.178
X-58.816 Y20.498 Z7.247
X-58.807 Y20.477 Z7.322
X-58.803 Y20.47 Z7.4
G0 Z7.8
X-42.415 Y17.408
G1 Z7.4 F600
Y17.416 Z7.322
X-42.416 Y17.439 Z7.247
X-42.417 Y17.476 Z7.178
X-42.419 Y17.525 Z7.117
X-42.421 Y17.586 Z7.067
X-42.423 Y17.655 Z7.03
X-42.425 Y17.73 Z7.008
X-42.428 Y17.808 Z7
G3 X-42.646 Y18.562 I-1.582 J-0.05
G1 X-42.75 Y18.74 F1000
X-42.835 Y18.908
X-43.655 Y20.562
X-43.85 Y20.911
X-44.052 Y21.182
X-44.146 Y21.279
X-44.23 Y21.345
X-44.328 Y21.386
X-44.433 Y21.4
G3 X-44.819 Y20.987 Z7.2 I0.014 J-0.4 F800
G1 X-44.812 Y20.924
X-44.795 Y20.863
X-44.776 Y20.82 F1000
X-44.752 Y20.779
X-44.353 Y20.176
G3 X-43.975 Y20 I0.333 J0.221
G1 X-43.913 Y20.011 F600
X-43.854 Y20.033
G3 X-43.655 Y20.562 Z7 I-0.165 J0.364
G1 X-43.917 Y21.092 F1000
X-43.991 Y21.227
X-44.017 Y21.26
X-44.053 Y21.296
X-44.088 Y21.325
X-44.124 Y21.348
X-44.159 Y21.366
X-44.201 Y21.381
X-44.243 Y21.392
X-44.285 Y21.398
X-44.327 Y21.4
X-55.365
G3 X-55.715 Y20.834 I0.014 J-0.4 F800
G1 X-55.683 Y20.763 Z7.008
X-55.652 Y20.695 Z7.03
X-55.623 Y20.632 Z7.067
X-55.598 Y20.577 Z7.117
X-55.578 Y20.532 Z7.178
X-55.562 Y20.498 Z7.247
X-55.553 Y20.477 Z7.322
X-55.55 Y20.47 Z7.4
G0 Z18
X-72.822 Y40.026
Z7.8
G1 Z7.4 F600
X-72.815 Y40.022 Z7.322
X-72.796 Y40.01 Z7.247
X-72.764 Y39.991 Z7.178
X-72.721 Y39.966 Z7.117
X-72.669 Y39.935 Z7.067
X-72.61 Y39.9 Z7.03
X-72.545 Y39.861 Z7.008
X-72.478 Y39.821 Z7
G3 X-71.725 Y39.6 I0.809 J1.36
G1 X-69.54 F1000
X-69.241 Y39.615
X-68.973 Y39.664
X-68.658 Y39.765
X-68.341 Y39.915
X-67.996 Y40.137
X-67.628 Y40.449
X-67.252 Y40.863
X-66.87 Y41.412
X-66.53 Y42.07
X-66.267 Y42.761
X-66.065 Y43.473
X-65.911 Y44.197
X-65.795 Y44.928
X-65.709 Y45.663
X-65.645 Y46.4
X-65.598 Y47.139
X-65.564 Y47.878
X-65.54 Y48.618
X-65.528 Y48.71
X-65.469 Y48.885
X-65.271 Y49.197
X-64.718 Y49.689
X-64.038 Y49.982
X-63.321 Y50.163
X-62.589 Y50.277
X-61.853 Y50.35
X-61.114 Y50.396
X-60.375 Y50.426
X-59.635 Y50.445
X-58.895 Y50.458
X-58.155 Y50.466
X-57.415 Y50.471
X-56.675 Y50.474
X-55.195 Y50.478
X-52.235 Y50.48
X-34.888
X-34.812 Y50.487
X-34.739 Y50.509
X-34.671 Y50.544
X-33.906 Y51.039
X-33.402 Y51.3
X-33.336 Y51.333
X-31.197 Y52.341
X-31.049 Y52.405
X-30.798 Y52.509
X-30.713 Y52.539
X-29.26 Y52.999
G3 X-29.097 Y53.643 I-0.134 J0.377 F800
G1 X-29.149 Y53.701 Z7.008
X-29.199 Y53.757 Z7.03
X-29.246 Y53.808 Z7.067
X-29.286 Y53.853 Z7.117
X-29.32 Y53.89 Z7.178
X-29.344 Y53.918 Z7.247
X-29.36 Y53.935 Z7.322
X-29.365 Y53.94 Z7.4
G0 Z7.8
X-70.637 Y40.026
G1 Z7.4 F600
X-70.63 Y40.022 Z7.322
X-70.611 Y40.01 Z7.247
X-70.579 Y39.991 Z7.178
X-70.536 Y39.966 Z7.117
X-70.484 Y39.935 Z7.067
X-70.425 Y39.9 Z7.03
X-70.36 Y39.861 Z7.008
X-70.293 Y39.821 Z7
G3 X-69.54 Y39.6 I0.809 J1.36
G1 X-67.186 F1000
X-66.93 Y39.613
X-66.661 Y39.662
X-66.347 Y39.763
X-66.005 Y39.924
X-65.654 Y40.151
X-65.266 Y40.479
X-64.876 Y40.909
X-64.471 Y41.49
X-64.132 Y42.148
X-63.864 Y42.838
X-63.653 Y43.547
X-63.489 Y44.269
X-63.362 Y44.998
X-63.265 Y45.732
X-63.228 Y46.1
X-63.191 Y46.281
X-63.02 Y46.609
X-62.494 Y47.129
X-61.824 Y47.442
X-61.109 Y47.637
X-60.38 Y47.759
X-59.644 Y47.838
X-58.905 Y47.888
X-58.166 Y47.921
X-57.426 Y47.942
X-56.686 Y47.955
X-55.946 Y47.964
X-55.206 Y47.97
X-54.466 Y47.973
X-52.986 Y47.977
X-50.026 Y47.98
X-38.239
X-38.145 Y47.991
X-38.057 Y48.024
X-37.979 Y48.076
X-36.727 Y49.149
X-36.595 Y49.257
X-36.259 Y49.504
X-36.091 Y49.625
X-34.671 Y50.544
G3 X-34.684 Y51.209 I-0.229 J0.328 F800
G1 X-34.75 Y51.251 Z7.008
X-34.813 Y51.292 Z7.03
X-34.871 Y51.329 Z7.067
X-34.923 Y51.362 Z7.117
X-34.964 Y51.388 Z7.178
X-34.996 Y51.408 Z7.247
X-35.015 Y51.421 Z7.322
X-35.021 Y51.425 Z7.4
G0 Z7.8
X-68.284 Y40.026
G1 Z7.4 F600
X-68.277 Y40.022 Z7.322
X-68.258 Y40.01 Z7.247
X-68.226 Y39.991 Z7.178
X-68.183 Y39.966 Z7.117
X-68.131 Y39.935 Z7.067
X-68.072 Y39.9 Z7.03
X-68.007 Y39.861 Z7.008
X-67.94 Y39.821 Z7
G3 X-67.186 Y39.6 I0.809 J1.36
G1 X-64.833 F1000
X-64.577 Y39.613
X-64.303 Y39.663
X-63.988 Y39.764
X-63.634 Y39.931
X-63.279 Y40.16
X-62.879 Y40.499
X-62.478 Y40.939
X-62.058 Y41.544
X-61.719 Y42.201
X-61.447 Y42.89
X-61.231 Y43.597
X-61.102 Y43.944
X-60.866 Y44.229
X-60.286 Y44.689
X-59.603 Y44.974
X-58.885 Y45.153
X-58.154 Y45.268
X-57.418 Y45.342
X-56.679 Y45.391
X-55.94 Y45.422
X-55.2 Y45.442
X-54.46 Y45.455
X-53.72 Y45.464
X-52.98 Y45.47
X-52.24 Y45.473
X-50.76 Y45.477
X-47.8 Y45.479
X-40.671 Y45.48
X-40.561 Y45.496
X-40.458 Y45.541
X-40.373 Y45.614
X-39.117 Y47.023
X-38.866 Y47.301
X-38.781 Y47.379
X-38.612 Y47.532
X-38.444 Y47.677
X-37.979 Y48.076
G0 Z18
X-65.931 Y40.026
Z7.8
G1 Z7.4 F600
X-65.924 Y40.022 Z7.322
X-65.905 Y40.01 Z7.247
X-65.873 Y39.991 Z7.178
X-65.83 Y39.966 Z7.117
X-65.778 Y39.935 Z7.067
X-65.718 Y39.9 Z7.03
X-65.654 Y39.861 Z7.008
X-65.587 Y39.821 Z7
G3 X-64.833 Y39.6 I0.809 J1.36
G1 X-62.48 F1000
X-62.197 Y39.614
X-61.916 Y39.665
X-61.602 Y39.767
X-61.242 Y39.937
X-60.881 Y40.169
X-60.474 Y40.513
X-60.066 Y40.962
X-59.644 Y41.57
X-59.075 Y42.044
X-58.405 Y42.359
X-57.696 Y42.568
X-56.969 Y42.707
X-56.234 Y42.799
X-55.497 Y42.86
X-54.758 Y42.9
X-54.018 Y42.927
X-53.278 Y42.945
X-52.538 Y42.957
X-51.798 Y42.965
X-51.058 Y42.97
X-50.318 Y42.973
X-48.838 Y42.977
X-45.878 Y42.979
X-42.499 Y42.98
X-42.371 Y43.001
X-42.256 Y43.062
X-42.167 Y43.156
X-41.07 Y44.78
X-40.966 Y44.914
X-40.629 Y45.323
X-40.517 Y45.452
X-40.373 Y45.614
G3 X-40.562 Y46.251 I-0.308 J0.256 F800
G1 X-40.637 Y46.275 Z7.008
X-40.708 Y46.297 Z7.03
X-40.774 Y46.317 Z7.067
X-40.832 Y46.335 Z7.117
X-40.88 Y46.35 Z7.178
X-40.915 Y46.361 Z7.247
X-40.937 Y46.368 Z7.322
X-40.944 Y46.37 Z7.4
G0 Z7.8
X-63.578 Y40.026
G1 Z7.4 F600
X-63.571 Y40.022 Z7.322
X-63.551 Y40.01 Z7.247
X-63.52 Y39.991 Z7.178
X-63.477 Y39.966 Z7.117
X-63.425 Y39.935 Z7.067
X-63.365 Y39.9 Z7.03
X-63.301 Y39.861 Z7.008
X-63.234 Y39.821 Z7
G3 X-62.48 Y39.6 I0.809 J1.36
G1 X-60.127 F1000
X-59.539 Y39.629
X-58.811 Y39.762
X-58.088 Y39.919
X-57.361 Y40.059
X-56.63 Y40.173
X-55.895 Y40.26
X-55.158 Y40.324
X-54.419 Y40.37
X-53.68 Y40.404
X-52.94 Y40.427
X-52.2 Y40.444
X-51.46 Y40.455
X-50.72 Y40.463
X-49.98 Y40.468
X-49.24 Y40.472
X-47.76 Y40.476
X-45.54 Y40.479
X-44.06 Y40.48
X-43.874 Y40.483
X-43.732 Y40.512
X-43.609 Y40.589
X-43.523 Y40.705
X-42.815 Y42.133
X-42.75 Y42.26
X-42.646 Y42.438
X-42.545 Y42.596
X-42.167 Y43.156
G3 X-42.44 Y43.763 I-0.339 J0.212 F800
G1 X-42.517 Y43.776 Z7.008
X-42.591 Y43.788 Z7.03
X-42.659 Y43.8 Z7.067
X-42.719 Y43.81 Z7.117
X-42.768 Y43.818 Z7.178
X-42.804 Y43.824 Z7.247
X-42.827 Y43.828 Z7.322
X-42.834 Y43.829 Z7.4
G0 Z7.8
X-61.224 Y40.026
G1 Z7.4 F600
X-61.218 Y40.022 Z7.322
X-61.198 Y40.01 Z7.247
X-61.166 Y39.991 Z7.178
X-61.124 Y39.966 Z7.117
X-61.072 Y39.935 Z7.067
X-61.012 Y39.9 Z7.03
X-60.948 Y39.861 Z7.008
X-60.881 Y39.821 Z7
G3 X-60.127 Y39.6 I0.809 J1.36
G1 X-44.327 F1000
X-44.285 Y39.602
X-44.243 Y39.608
X-44.201 Y39.619
X-44.159 Y39.634
X-44.124 Y39.652
X-44.088 Y39.675
X-44.053 Y39.704
X-44.017 Y39.74
X-43.991 Y39.773
X-43.917 Y39.908
X-43.523 Y40.705
X-43.503 Y40.758 F800
X-43.491 Y40.814
X-43.487 Y40.87
X-43.493 Y40.941
X-43.512 Y41.011
X-43.543 Y41.075
X-43.585 Y41.119 Z7.005
X-43.626 Y41.162 Z7.019
X-43.665 Y41.203 Z7.042
X-43.715 Y41.222 Z7.074
X-43.76 Y41.239 Z7.115
X-43.799 Y41.254 Z7.163
X-43.83 Y41.266 Z7.217
X-43.854 Y41.268 Z7.275
X-43.869 Y41.269 Z7.337
X-43.874 Y41.27 Z7.4
G0 Z18
X-23.216 Y30.939
Z7.3
G3 X-22.587 Y29.522 Z7.238 I0.922 J-0.439 F600
X-21.284 Y30.362 Z7.177 I0.292 J0.977
X-22.315 Y31.518 Z7.115 I-1.01 J0.137
X-23.296 Y30.322 Z7.054 I0.021 J-1.018
X-21.965 Y29.538 Z6.992 I1.001 J0.177
X-21.396 Y30.973 Z6.931 I-0.329 J0.961
X-22.9 Y31.313 Z6.869 I-0.897 J-0.473
X-23.004 Y29.776 Z6.808 I0.606 J-0.813
X-21.471 Y29.911 Z6.746 I0.709 J0.723
X-21.841 Y31.403 Z6.685 I-0.823 J0.588
X-23.256 Y30.808 Z6.623 I-0.453 J-0.903
X-22.451 Y29.503 Z6.562 I0.961 J-0.308
X-21.287 Y30.499 Z6.5 I0.156 J0.996
X-23.303 Y30.499 I-1.008 J0
X-21.287 Y30.499 I1.008 J0
G1 X-21.246 Y31.238 F1000
X-21.213 Y31.324
X-21.179 Y31.47
X-21.173 Y31.62
X-21.191 Y31.769
X-21.231 Y31.914
X-21.293 Y32.061
X-21.38 Y32.21
X-21.493 Y32.355
X-21.632 Y32.493
X-21.797 Y32.618
X-21.988 Y32.727
X-22.202 Y32.815
X-22.437 Y32.877
X-22.689 Y32.909
X-22.954 Y32.908
X-23.227 Y32.871
X-23.503 Y32.797
X-23.775 Y32.683
X-24.039 Y32.531
X-24.287 Y32.34
X-24.513 Y32.113
X-24.713 Y31.853
X-24.88 Y31.563
X-25.011 Y31.248
X-25.101 Y30.913
X-25.147 Y30.565
X-25.148 Y30.209
X-25.101 Y29.852
X-25.008 Y29.501
X-24.869 Y29.162
X-24.685 Y28.842
X-24.46 Y28.547
X-24.198 Y28.282
X-23.901 Y28.052
X-23.576 Y27.862
X-23.227 Y27.716
X-22.862 Y27.616
X-22.485 Y27.564
X-22.105 Y27.561
X-21.726 Y27.609
X-21.356 Y27.705
X-21.002 Y27.849
X-20.668 Y28.038
X-20.362 Y28.269
X-20.088 Y28.538
X-19.82 Y28.88
X-19.477 Y29.462
X-19.244 Y30.009
X-19.1 Y30.524
X-19.03 Y31.022
X-19.024 Y31.508
X-19.081 Y31.982
X-19.198 Y32.441
X-19.375 Y32.882
X-19.608 Y33.299
X-19.897 Y33.685
X-20.237 Y34.035
X-20.625 Y34.341
X-21.057 Y34.598
X-21.526 Y34.801
X-22.025 Y34.943
X-22.549 Y35.02
X-23.09 Y35.029
X-23.638 Y34.965
X-24.183 Y34.829
X-24.716 Y34.619
X-25.225 Y34.337
X-25.7 Y33.985
X-26.132 Y33.569
X-26.512 Y33.093
X-26.829 Y32.566
X-27.079 Y31.996
X-27.253 Y31.393
X-27.349 Y30.766
X-27.362 Y30.127
X-27.291 Y29.487
X-27.137 Y28.857
X-26.9 Y28.249
X-26.585 Y27.674
X-26.196 Y27.142
X-25.739 Y26.663
X-25.221 Y26.247
X-24.653 Y25.9
X-24.042 Y25.63
X-23.4 Y25.441
X-22.737 Y25.336
X-22.065 Y25.319
X-21.396 Y25.39
X-20.741 Y25.547
X-20.111 Y25.789
X-19.516 Y26.111
X-18.956 Y26.517
X-18.418 Y27.026
X-17.947 Y27.596
X-17.544 Y28.217
X-17.215 Y28.88
X-16.966 Y29.577
X-16.803 Y30.299
X-16.727 Y31.035
X-16.742 Y31.775
X-16.849 Y32.507
X-17.045 Y33.221
X-17.328 Y33.904
X-17.693 Y34.548
X-18.135 Y35.142
X-18.646 Y35.677
X-19.218 Y36.147
X-19.842 Y36.544
X-20.509 Y36.864
X-21.209 Y37.104
X-21.932 Y37.261
X-22.669 Y37.331
X-23.409 Y37.315
X-24.142 Y37.213
X-24.859 Y37.031
X-25.552 Y36.771
X-26.213 Y36.439
X-26.834 Y36.036
X-27.406 Y35.566
X-27.923 Y35.036
X-28.382 Y34.456
X-28.779 Y33.831
X-29.109 Y33.169
X-29.364 Y32.474
X-29.546 Y31.757
X-29.654 Y31.025
X-29.689 Y30.286
X-29.647 Y29.547
X-29.527 Y28.817
X-29.334 Y28.102
X-29.072 Y27.41
X-28.743 Y26.747
X-28.345 Y26.123
X-27.887 Y25.542
X-27.374 Y25.008
X-26.812 Y24.527
X-26.203 Y24.106
X-25.555 Y23.749
X-24.875 Y23.457
X-24.17 Y23.231
X-23.446 Y23.079
X-22.71 Y23
X-21.97 Y22.994
X-21.233 Y23.058
X-20.506 Y23.196
X-19.797 Y23.407
X-19.111 Y23.687
X-18.455 Y24.028
X-17.836 Y24.435
X-17.26 Y24.898
X-16.726 Y25.411
X-16.238 Y25.967
X-15.803 Y26.566
X-15.421 Y27.2
X-15.093 Y27.863
X-14.824 Y28.553
X-14.618 Y29.264
X-14.474 Y29.989
X-14.39 Y30.725
X-14.376 Y31.465
X-14.427 Y32.203
X-14.541 Y32.934
X-14.718 Y33.653
X-14.962 Y34.351
X-15.267 Y35.026
X-15.626 Y35.673
X-16.044 Y36.283
X-16.515 Y36.854
X-17.033 Y37.383
X-17.594 Y37.866
X-18.197 Y38.294
X-18.835 Y38.67
X-19.502 Y38.991
X-20.193 Y39.254
X-20.906 Y39.454
X-21.633 Y39.593
X-22.369 Y39.672
X-23.109 Y39.686
X-23.847 Y39.637
X-24.579 Y39.527
X-25.3 Y39.361
X-26.004 Y39.133
X-26.687 Y38.847
X-27.345 Y38.509
X-27.974 Y38.12
X-28.568 Y37.678
X-29.124 Y37.189
X-29.64 Y36.659
X-30.115 Y36.091
X-30.541 Y35.486
X-30.917 Y34.849
X-31.243 Y34.185
X-31.517 Y33.497
X-31.734 Y32.789
X-31.895 Y32.067
X-32.002 Y31.335
X-32.054 Y30.597
X-32.044 Y29.857
X-31.977 Y29.12
X-31.856 Y28.39
X-31.681 Y27.671
X-31.449 Y26.968
X-31.163 Y26.285
X-30.827 Y25.626
X-30.443 Y24.993
X-30.01 Y24.393
X-29.533 Y23.827
X-29.015 Y23.298
X-28.461 Y22.809
X-27.868 Y22.365
X-27.244 Y21.968
X-26.592 Y21.618
X-25.916 Y21.316
X-25.219 Y21.067
X-24.505 Y20.873
X-23.778 Y20.734
X-23.043 Y20.646
X-22.304 Y20.615
X-21.564 Y20.641
X-20.829 Y20.722
X-20.101 Y20.857
X-19.386 Y21.046
X-18.687 Y21.289
X-18.008 Y21.584
X-17.352 Y21.927
X-16.723 Y22.316
X-16.125 Y22.752
X-15.559 Y23.229
X-15.027 Y23.744
X-14.531 Y24.293
X-14.076 Y24.876
X-13.662 Y25.49
X-13.29 Y26.13
X-12.961 Y26.792
X-12.677 Y27.476
X-12.442 Y28.178
X-12.256 Y28.894
X-12.119 Y29.621
X-12.029 Y30.356
X-11.991 Y31.095
X-12.006 Y31.835
X-12.072 Y32.572
X-12.186 Y33.303
X-12.349 Y34.025
X-12.564 Y34.733
X-12.828 Y35.424
X-13.138 Y36.096
X-13.492 Y36.746
X-13.891 Y37.37
X-14.333 Y37.963
X-14.815 Y38.525
X-15.332 Y39.054
X-15.884 Y39.547
X-16.469 Y40
X-17.085 Y40.411
X-17.726 Y40.78
X-18.39 Y41.108
X-19.074 Y41.389
X-19.777 Y41.621
X-20.494 Y41.806
X-21.221 Y41.943
X-21.955 Y42.034
X-22.694 Y42.073
X-23.434 Y42.061
X-24.172 Y42.002
X-24.904 Y41.896
X-25.628 Y41.744
X-26.34 Y41.542
X-27.038 Y41.294
X-27.718 Y41.003
X-28.379 Y40.67
X-29.017 Y40.295
X-29.628 Y39.877
X-30.21 Y39.421
X-30.764 Y38.929
X-31.286 Y38.405
X-31.774 Y37.849
X-32.224 Y37.262
X-32.636 Y36.647
X-33.01 Y36.008
X-33.344 Y35.348
X-33.636 Y34.667
X-33.882 Y33.97
X-34.084 Y33.258
X-34.243 Y32.535
X-34.36 Y31.804
X-34.429 Y31.067
X-34.451 Y30.328
X-34.426 Y29.588
X-34.357 Y28.851
X-34.245 Y28.12
X-34.088 Y27.396
X-33.884 Y26.685
X-33.637 Y25.987
X-33.349 Y25.306
X-33.021 Y24.642
X-32.653 Y24
X-32.244 Y23.383
X-31.798 Y22.793
X-31.319 Y22.229
X-30.807 Y21.695
X-30.263 Y21.193
X-29.688 Y20.726
X-29.086 Y20.297
X-28.459 Y19.903
X-27.811 Y19.546
X-27.142 Y19.229
X-26.455 Y18.956
X-25.751 Y18.725
X-25.036 Y18.537
X-24.31 Y18.391
X-23.577 Y18.287
X-22.839 Y18.231
X-22.099 Y18.22
X-21.36 Y18.253
X-20.624 Y18.33
X-19.894 Y18.449
X-19.172 Y18.615
X-18.463 Y18.824
X-17.767 Y19.076
X-17.086 Y19.367
X-16.424 Y19.697
X-15.783 Y20.067
X-15.166 Y20.476
X-14.574 Y20.919
X-14.007 Y21.395
X-13.467 Y21.902
X-12.958 Y22.438
X-12.481 Y23.004
X-12.036 Y23.596
X-11.626 Y24.211
X-11.249 Y24.848
X-10.906 Y25.504
X-10.603 Y26.179
X-10.339 Y26.871
X-10.114 Y27.576
X-9.927 Y28.292
X-9.779 Y29.017
X-9.672 Y29.749
X-9.608 Y30.486
X-9.587 Y31.226
X-9.606 Y31.966
X-9.666 Y32.704
X-9.765 Y33.437
X-9.907 Y34.163
X-10.092 Y34.88
X-10.316 Y35.585
X-10.579 Y36.277
X-10.879 Y36.954
X-11.216 Y37.612
X-11.592 Y38.249
X-12.004 Y38.864
X-12.449 Y39.456
X-12.925 Y40.022
X-13.431 Y40.562
X-13.969 Y41.071
X-14.534 Y41.549
X-15.125 Y41.994
X-15.74 Y42.406
X-16.375 Y42.786
X-17.03 Y43.129
X-17.705 Y43.434
X-18.395 Y43.7
X-19.099 Y43.929
X-19.814 Y44.119
X-20.539 Y44.271
X-21.27 Y44.382
X-22.007 Y44.451
X-22.747 Y44.479
X-23.487 Y44.468
X-24.225 Y44.418
X-24.96 Y44.33
X-25.499 Y44.233
X-25.506 Y44.232
X-26.342 Y44.036
X-26.51 Y43.982
X-26.847 Y43.864
X-27.015 Y43.802
X-28.527 Y43.193
X-28.696 Y43.1
X-30.392 Y42.092
X-30.544 Y41.976
X-31.829 Y40.916
X-31.889 Y40.866
X-32.057 Y40.718
X-32.201 Y40.58
X-33.402 Y39.233
X-33.532 Y39.068
X-33.873 Y38.564
X-34.578 Y37.476
X-34.631 Y37.388
X-34.915 Y36.823
X-35.587 Y35.323
X-35.627 Y35.204
X-36.135 Y33.356
X-36.179 Y33.188
X-36.2 Y33.02
X-36.413 Y31.172
X-36.422 Y31.004
X-36.407 Y30.5
X-36.369 Y29.492
X-36.361 Y29.324
X-36.327 Y28.82
X-36.301 Y28.652
X-36.008 Y27.14
X-35.969 Y26.972
X-35.83 Y26.468
X-35.65 Y25.964
X-35.227 Y24.788
X-35.147 Y24.62
X-35.058 Y24.452
X-34.784 Y23.948
X-34.327 Y23.108
X-34.242 Y22.963
X-33.879 Y22.436
X-33.066 Y21.368
X-32.98 Y21.26
X-32.73 Y20.972
X-32.681 Y20.924
X-31.634 Y19.916
X-31.553 Y19.839
X-31.271 Y19.58
X-31.217 Y19.534
X-29.609 Y18.404
X-29.536 Y18.363
X-29.302 Y18.236
X-29.2 Y18.183
X-28.191 Y17.683
X-27.598 Y17.396
X-27.519 Y17.362
X-25.838 Y16.83
X-25.67 Y16.788
X-25.334 Y16.708
X-25.166 Y16.674
X-23.653 Y16.44
X-23.485 Y16.418
X-22.981 Y16.4
X-22.813 Y16.398
X-21.3
X-21.132 Y16.41
X-19.619 Y16.644
X-19.451 Y16.671
X-18.947 Y16.773
X-18.779 Y16.821
X-17.266 Y17.3
X-17.098 Y17.364
X-16.594 Y17.587
X-15.585 Y18.086
X-15.417 Y18.171
X-15.081 Y18.349
X-14.98 Y18.404
X-13.4 Y19.515
X-13.318 Y19.58
X-13.13 Y19.748
X-12.055 Y20.782
X-11.919 Y20.924
X-11.61 Y21.26
X-11.551 Y21.332
X-10.838 Y22.268
X-10.71 Y22.436
X-10.364 Y22.94
X-10.262 Y23.108
X-9.702 Y24.137
X-9.443 Y24.62
X-9.366 Y24.777
X-8.819 Y26.3
X-8.759 Y26.468
X-8.62 Y26.972
X-8.581 Y27.14
X-8.288 Y28.652
X-8.262 Y28.82
X-8.228 Y29.324
X-8.221 Y29.492
X-8.182 Y30.5
X-8.168 Y31.004
X-8.176 Y31.172
X-8.358 Y32.742
X-8.373 Y32.852
X-8.458 Y33.356
X-8.501 Y33.524
X-8.916 Y35.036
X-8.973 Y35.204
X-9.103 Y35.54
X-9.175 Y35.708
X-9.627 Y36.716
X-9.703 Y36.884
X-9.959 Y37.388
X-10.038 Y37.518
X-10.825 Y38.732
X-10.94 Y38.9
X-11.057 Y39.068
X-11.191 Y39.236
X-12.089 Y40.244
X-12.245 Y40.412
X-12.561 Y40.748
X-12.76 Y40.916
X-14.072 Y41.998
X-14.208 Y42.092
X-14.24 Y42.113
X-14.409 Y42.218
X-15.611 Y42.932
X-15.921 Y43.115
X-16.089 Y43.204
X-17.602 Y43.813
X-17.77 Y43.879
X-18.274 Y44.037
X-18.443 Y44.082
X-19.992 Y44.444
X-20.123 Y44.466
X-20.628 Y44.515
X-21.636 Y44.593
X-21.804 Y44.606
X-22.308 Y44.635
X-22.477 Y44.63
X-23.989 Y44.514
X-24.157 Y44.496
X-24.662 Y44.428
X-24.83 Y44.39
X-25.506 Y44.232
G3 X-25.778 Y43.98 I0.105 J-0.386 F800
G1 X-25.79 Y43.912 Z6.506
X-25.801 Y43.846 Z6.524
X-25.786 Y43.781 Z6.556
X-25.773 Y43.723 Z6.6
X-25.762 Y43.674 Z6.653
X-25.743 Y43.643 Z6.709
X-25.729 Y43.62 Z6.769
X-25.72 Y43.606 Z6.834
X-25.718 Y43.601 Z6.9
G0 Z18
X4.598 Y-0.392
Z7.3
G1 Z6.9 F600
X4.59 Y-0.391 Z6.822
X4.568 Y-0.385 Z6.747
X4.532 Y-0.376 Z6.678
X4.484 Y-0.363 Z6.617
X4.425 Y-0.348 Z6.567
X4.358 Y-0.331 Z6.53
X4.286 Y-0.313 Z6.508
X4.21 Y-0.293 Z6.5
G3 X2.032 Y0.02 I-2.534 J-9.893
G1 X1.94 F1000
X1.223 Y0.205
X0.493 Y0.323
X-0.243 Y0.397
X-0.982 Y0.444
X-1.722 Y0.473
X-2.461 Y0.491
X-3.201 Y0.502
X-3.941 Y0.509
X-4.681 Y0.513
X-5.421 Y0.516
X-6.902 Y0.518
X-11.342 Y0.52
X-48.344
X-74.061
X-74.15 Y0.545
X-74.228 Y0.594
X-74.497 Y0.848
X-74.904 Y1.466
X-75.134 Y2.17
X-75.269 Y2.897
X-75.351 Y3.633
X-75.401 Y4.371
X-75.431 Y5.111
X-75.45 Y5.851
X-75.461 Y6.591
X-75.469 Y7.331
X-75.473 Y8.071
X-75.476 Y8.811
X-75.478 Y10.291
X-75.48 Y13.991
Y21.922
X-75.501 Y22.05
X-75.562 Y22.165
X-75.657 Y22.254
X-75.759 Y22.322
X-75.914 Y22.436
X-76.103 Y22.604
X-76.263 Y22.785
X-76.379 Y22.94
X-76.716 Y23.444
X-76.827 Y23.612
X-76.935 Y23.821
X-76.998 Y23.948
X-77.056 Y24.116
X-77.103 Y24.295
X-77.138 Y24.452
X-77.238 Y24.956
X-77.271 Y25.141
X-77.292 Y25.292
X-77.304 Y25.46
X-77.305 Y25.628
Y35.372
X-77.304 Y35.54
X-77.292 Y35.708
X-77.271 Y35.859
X-77.238 Y36.044
X-77.138 Y36.548
X-77.101 Y36.716
X-77.056 Y36.884
X-76.998 Y37.052
X-76.914 Y37.22
X-76.827 Y37.388
X-76.716 Y37.556
X-76.604 Y37.724
X-76.292 Y38.245
X-76.032 Y38.844
X-75.828 Y39.556
X-75.698 Y40.284
X-75.616 Y41.02
X-75.564 Y41.758
X-75.532 Y42.497
X-75.512 Y43.237
X-75.5 Y43.977
X-75.492 Y44.717
X-75.488 Y45.457
X-75.485 Y46.197
X-75.482 Y47.677
X-75.48 Y51.378
Y59.056
X-75.455 Y59.145
X-75.406 Y59.223
X-75.153 Y59.494
X-74.536 Y59.902
X-73.833 Y60.133
X-73.106 Y60.269
X-72.37 Y60.351
X-71.632 Y60.4
X-70.892 Y60.431
X-70.152 Y60.45
X-69.413 Y60.461
X-68.673 Y60.468
X-67.932 Y60.473
X-67.192 Y60.476
X-65.712 Y60.478
X-62.012 Y60.48
X-47.211
X-1.883
X-1.794 Y60.455
X-1.716 Y60.406
X-1.461 Y60.137
X-1.073 Y59.507
X-0.853 Y58.801
X-0.723 Y58.072
X-0.644 Y57.336
X-0.596 Y56.598
X-0.567 Y55.858
X-0.549 Y55.118
X-0.538 Y54.378
X-0.531 Y53.638
X-0.527 Y52.898
X-0.523 Y51.418
X-0.52 Y48.458
Y39.56
X-0.516 Y39.507
X-0.506 Y39.454
X-0.488 Y39.403
X-0.203 Y38.732
X0.002 Y38.228
X0.051 Y38.06
X0.191 Y37.556
X0.745 Y35.54
X0.785 Y35.372
X0.851 Y35.036
X0.881 Y34.868
X1.176 Y32.684
X1.242 Y32.18
X1.249 Y32.012
X1.256 Y31.676
X1.257 Y31.508
Y29.492
X1.256 Y29.324
X1.249 Y28.988
X1.242 Y28.82
X1.153 Y28.148
X0.881 Y26.132
X0.851 Y25.964
X0.785 Y25.628
X0.745 Y25.46
X0.145 Y23.276
X0.047 Y22.925
X0.002 Y22.772
X-0.207 Y22.062
X-0.324 Y21.331
X-0.398 Y20.595
X-0.444 Y19.856
X-0.473 Y19.117
X-0.491 Y18.377
X-0.502 Y17.637
X-0.509 Y16.897
X-0.513 Y16.157
X-0.516 Y15.417
X-0.518 Y13.937
X-0.52 Y9.496
Y4.316
X-0.545 Y4.227
X-0.594 Y4.148
X-0.867 Y3.899
X-1.505 Y3.524
X-2.216 Y3.317
X-2.946 Y3.197
X-3.683 Y3.126
X-4.422 Y3.084
X-5.161 Y3.058
X-5.901 Y3.043
X-6.641 Y3.034
X-7.381 Y3.028
X-8.121 Y3.025
X-9.601 Y3.022
X-13.302 Y3.02
X-31.803
X-71.21
X-71.303 Y3.022
X-71.48 Y3.075
X-71.783 Y3.287
X-72.255 Y3.858
X-72.53 Y4.544
X-72.698 Y5.265
X-72.803 Y5.998
X-72.868 Y6.735
X-72.909 Y7.474
X-72.935 Y8.213
X-72.952 Y8.953
X-72.962 Y9.693
X-72.969 Y10.433
X-72.973 Y11.173
X-72.977 Y12.653
X-72.978 Y13.393
X-72.98 Y17.094
Y20.794
X-72.997 Y21.044
X-73.029 Y21.177
X-73.105 Y21.292
X-73.214 Y21.374
X-73.345 Y21.415
X-73.742 Y21.467
X-73.91 Y21.499
X-74.246 Y21.566
X-74.414 Y21.603
X-74.582 Y21.646
X-74.75 Y21.705
X-74.873 Y21.764
X-75.086 Y21.875
X-75.175 Y21.932
X-75.657 Y22.254
X-75.759 Y22.322 Z6.539 F800
X-75.914 Y22.436 Z6.6
X-76.103 Y22.604 Z6.681
X-76.143 Y22.649 Z6.7
X-76.227 Y22.744
X-76.252 Y22.772 F1000
X-76.263 Y22.785
X-76.379 Y22.94
X-76.716 Y23.444
X-76.827 Y23.612
X-76.914 Y23.78
X-76.935 Y23.821
X-76.998 Y23.948
X-77.056 Y24.116
X-77.101 Y24.284
X-77.103 Y24.295
X-77.138 Y24.452
X-77.238 Y24.956
X-77.268 Y25.124
X-77.271 Y25.141
X-77.292 Y25.292
X-77.304 Y25.46
X-77.305 Y25.628
Y35.372
X-77.304 Y35.54
X-77.292 Y35.708
X-77.271 Y35.859
X-77.268 Y35.876
X-77.238 Y36.044
X-77.138 Y36.548
X-77.103 Y36.705
X-77.101 Y36.716
X-77.056 Y36.884
X-76.998 Y37.052
X-76.987 Y37.076
X-76.935 Y37.179 F600
X-76.93 Y37.189
X-76.914 Y37.22 Z6.689
X-76.827 Y37.388 Z6.628
X-76.716 Y37.556 Z6.564
X-76.604 Y37.724 Z6.5
X-76.379 Y38.06 F1000
X-76.263 Y38.215
X-76.103 Y38.396
X-75.914 Y38.564
X-75.759 Y38.678
X-75.175 Y39.068
X-75.086 Y39.125
X-74.994 Y39.173
X-74.842 Y39.262
X-74.602 Y39.45
X-74.342 Y39.714
X-74.074 Y40.069
X-73.797 Y40.557
X-73.518 Y41.243
X-73.331 Y41.959
X-73.207 Y42.688
X-73.126 Y43.424
X-73.074 Y44.162
X-73.04 Y44.901
X-73.018 Y45.641
X-73.005 Y46.381
X-72.996 Y47.121
X-72.99 Y47.861
X-72.986 Y48.601
X-72.983 Y50.081
X-72.98 Y53.041
Y56.279
X-72.929 Y56.457
X-72.725 Y56.766
X-72.161 Y57.245
X-71.476 Y57.524
X-70.756 Y57.694
X-70.023 Y57.8
X-69.286 Y57.867
X-68.547 Y57.908
X-67.808 Y57.935
X-67.068 Y57.951
X-66.328 Y57.962
X-65.588 Y57.968
X-64.848 Y57.973
X-63.368 Y57.977
X-61.148 Y57.979
X-44.126 Y57.98
X-41.166
X-4.719
X-4.542 Y57.925
X-4.233 Y57.722
X-3.754 Y57.158
X-3.475 Y56.472
X-3.305 Y55.752
X-3.199 Y55.02
X-3.133 Y54.283
X-3.091 Y53.544
X-3.065 Y52.804
X-3.049 Y52.064
X-3.038 Y51.324
X-3.031 Y50.584
X-3.027 Y49.844
X-3.023 Y48.364
X-3.021 Y46.144
X-3.02 Y44.664
Y44.218
X-3.012 Y44.135
X-2.986 Y44.056
X-2.945 Y43.984
X-2.792 Y43.772
X-2.686 Y43.604
X-1.466 Y41.553
X-1.393 Y41.42
X-1.215 Y41.084
X-1.13 Y40.912
X-0.488 Y39.403
X-0.274 Y38.9 Z6.674 F800
X-0.242 Y38.825 Z6.7
X-0.203 Y38.732
X-0.193 Y38.709
X0.002 Y38.228 F1000
X0.047 Y38.075
X0.145 Y37.724
X0.745 Y35.54
X0.785 Y35.372
X0.851 Y35.036
X0.881 Y34.868
X1.176 Y32.684
X1.242 Y32.18
X1.249 Y32.012
X1.256 Y31.676
X1.257 Y31.508
Y29.492
X1.256 Y29.324
X1.249 Y28.988
X1.242 Y28.82
X1.176 Y28.316
X0.881 Y26.132
X0.851 Y25.964
X0.785 Y25.628
X0.745 Y25.46
X0.206 Y23.498
X0.172 Y23.376 F600
X0.145 Y23.276 Z6.667
X0.047 Y22.925 Z6.551
X0.002 Y22.772 Z6.5
X-0.203 Y22.268 F1000
X-1.132 Y20.084
X-1.215 Y19.916
X-1.393 Y19.58
X-1.466 Y19.448
X-1.97 Y18.599
X-2.308 Y17.961
X-2.566 Y17.267
X-2.733 Y16.546
X-2.84 Y15.814
X-2.907 Y15.077
X-2.95 Y14.338
X-2.976 Y13.598
X-2.993 Y12.859
X-3.003 Y12.119
X-3.009 Y11.379
X-3.013 Y10.639
X-3.017 Y9.158
X-3.019 Y7.216
X-3.063 Y7.036
X-3.262 Y6.724
X-3.826 Y6.244
X-4.511 Y5.966
X-5.232 Y5.798
X-5.965 Y5.694
X-6.702 Y5.629
X-7.441 Y5.588
X-8.181 Y5.563
X-8.92 Y5.547
X-9.66 Y5.537
X-10.4 Y5.531
X-11.14 Y5.527
X-12.621 Y5.523
X-15.581 Y5.52
X-41.482
X-68.679
X-68.861 Y5.555
X-69.183 Y5.737
X-69.687 Y6.279
X-69.983 Y6.957
X-70.166 Y7.674
X-70.28 Y8.405
X-70.353 Y9.142
X-70.399 Y9.881
X-70.428 Y10.62
X-70.447 Y11.36
X-70.459 Y12.1
X-70.466 Y12.84
X-70.471 Y13.58
X-70.474 Y14.32
X-70.478 Y15.8
X-70.48 Y19.5
X-70.5 Y20.24
X-70.579 Y20.828
X-70.653 Y21.104
X-70.707 Y21.223
X-70.796 Y21.317
X-70.911 Y21.379
X-71.039 Y21.4
X-73.14 Y21.401
X-73.237
X-73.345 Y21.415
G3 X-73.765 Y20.899 I-0.038 J-0.398 F800
G1 X-73.742 Y20.824 Z6.508
X-73.72 Y20.752 Z6.53
X-73.699 Y20.686 Z6.567
X-73.681 Y20.628 Z6.617
X-73.667 Y20.581 Z6.678
X-73.656 Y20.546 Z6.747
X-73.649 Y20.524 Z6.822
X-73.647 Y20.516 Z6.9
G0 Z18
X-76.164 Y39.041
Z7.3
G1 Z6.9 F600
X-76.156 Z6.822
X-76.133 Y39.04 Z6.747
X-76.096 Y39.038 Z6.678
X-76.047 Y39.035 Z6.617
X-75.986 Y39.032 Z6.567
X-75.917 Y39.028 Z6.53
X-75.842 Y39.024 Z6.508
X-75.764 Y39.02 Z6.5
G3 X-74.994 Y39.173 I0.086 J1.58
G1 X-74.873 Y39.236 F1000
X-74.75 Y39.295
X-74.582 Y39.354
X-74.414 Y39.397
X-74.246 Y39.434
X-73.91 Y39.501
X-73.742 Y39.533
X-73.574 Y39.555
X-73.29 Y39.607
X-73.061 Y39.681
X-72.799 Y39.805
X-72.513 Y39.989
X-72.227 Y40.232
X-71.915 Y40.575
X-71.608 Y41.017
X-71.293 Y41.627
X-71.043 Y42.323
X-70.865 Y43.042
X-70.742 Y43.771
X-70.657 Y44.507
X-70.599 Y45.244
X-70.559 Y45.983
X-70.533 Y46.723
X-70.515 Y47.463
X-70.503 Y48.203
X-70.495 Y48.943
X-70.49 Y49.683
X-70.487 Y50.423
X-70.483 Y51.903
X-70.481 Y53.661
X-70.469 Y53.752
X-70.406 Y53.926
X-70.202 Y54.235
X-69.64 Y54.717
X-68.958 Y55.002
X-68.239 Y55.178
X-67.507 Y55.288
X-66.77 Y55.358
X-66.031 Y55.402
X-65.292 Y55.43
X-64.552 Y55.448
X-63.812 Y55.46
X-63.072 Y55.467
X-62.332 Y55.472
X-61.592 Y55.475
X-60.112 Y55.478
X-57.152 Y55.48
X-36.43
X-7.291
X-7.112 Y55.432
X-6.796 Y55.241
X-6.3 Y54.691
X-6.009 Y54.011
X-5.829 Y53.293
X-5.716 Y52.561
X-5.645 Y51.825
X-5.6 Y51.086
X-5.571 Y50.347
X-5.553 Y49.607
X-5.541 Y48.867
X-5.533 Y48.127
X-5.528 Y47.219
X-5.513 Y47.114
X-5.471 Y47.016
X-5.405 Y46.932
X-4.915 Y46.46
X-4.761 Y46.292
X-3.694 Y44.948
X-3.147 Y44.258
X-3.035 Y44.108
X-2.945 Y43.984
G3 X-2.281 Y44.031 I0.316 J0.245 F800
G1 X-2.242 Y44.098 Z6.508
X-2.205 Y44.164 Z6.53
X-2.171 Y44.224 Z6.567
X-2.141 Y44.276 Z6.617
X-2.116 Y44.32 Z6.678
X-2.098 Y44.352 Z6.747
X-2.087 Y44.371 Z6.822
X-2.083 Y44.378 Z6.9
G0 Z18
X-1.044 Y19.325
Z7.3
G1 Z6.9 F600
X-1.05 Y19.321 Z6.822
X-1.07 Y19.31 Z6.747
X-1.103 Y19.293 Z6.678
X-1.147 Y19.269 Z6.617
X-1.2 Y19.24 Z6.567
X-1.261 Y19.207 Z6.53
X-1.327 Y19.171 Z6.508
X-1.395 Y19.134 Z6.5
G3 X-1.97 Y18.599 I0.756 J-1.39
G1 X-2.686 Y17.396 F1000
X-2.792 Y17.228
X-3.035 Y16.892
X-3.147 Y16.742
X-4.227 Y15.38
X-4.52 Y14.97
X-4.785 Y14.472
X-5.045 Y13.779
X-5.216 Y13.059
X-5.327 Y12.327
X-5.398 Y11.591
X-5.443 Y10.852
X-5.471 Y10.112
X-5.48 Y9.743
X-5.545 Y9.569
X-5.75 Y9.261
X-6.312 Y8.78
X-6.995 Y8.495
X-7.714 Y8.32
X-8.446 Y8.21
X-9.183 Y8.141
X-9.922 Y8.097
X-10.661 Y8.069
X-11.401 Y8.051
X-12.141 Y8.04
X-12.881 Y8.033
X-13.621 Y8.028
X-14.361 Y8.025
X-15.066 Y8.023
X-15.114 Y8.02
X-15.161 Y8.012
X-15.207 Y7.998
X-15.249 Y7.982
X-15.417 Y7.925
X-15.753 Y7.843
X-17.938 Y7.331
X-18.443 Y7.221
X-18.611 Y7.196
X-19.115 Y7.145
X-21.132 Y6.951
X-21.3 Y6.937
X-21.804 Y6.912
X-24.493 Y7.015
X-24.662 Y7.029
X-24.998 Y7.07
X-25.166 Y7.094
X-27.4 Y7.483
X-27.855 Y7.566
X-28.023 Y7.616
X-28.742 Y7.794
X-29.477 Y7.879
X-30.215 Y7.932
X-30.954 Y7.966
X-31.694 Y7.986
X-32.434 Y7.999
X-33.174 Y8.007
X-33.914 Y8.012
X-34.654 Y8.015
X-36.134 Y8.018
X-39.834 Y8.02
X-66.198
X-66.377 Y8.069
X-66.694 Y8.26
X-67.19 Y8.809
X-67.483 Y9.489
X-67.665 Y10.206
X-67.779 Y10.937
X-67.851 Y11.674
X-67.898 Y12.412
X-67.927 Y13.152
X-67.946 Y13.892
X-67.958 Y14.632
X-67.966 Y15.372
X-67.971 Y16.112
X-67.974 Y16.852
X-67.978 Y18.332
X-67.986 Y19.072
X-68.023 Y19.811
X-68.106 Y20.546
X-68.235 Y21.099
X-68.251 Y21.141
X-68.336 Y21.277
X-68.468 Y21.368
X-68.625 Y21.4
X-71.039
G3 X-71.389 Y20.834 I0.014 J-0.4 F800
G1 X-71.357 Y20.763 Z6.508
X-71.326 Y20.695 Z6.53
X-71.297 Y20.632 Z6.567
X-71.272 Y20.577 Z6.617
X-71.251 Y20.532 Z6.678
X-71.236 Y20.498 Z6.747
X-71.226 Y20.477 Z6.822
X-71.223 Y20.47 Z6.9
G0 Z18
X-74.717 Y39.834
Z7.3
G1 Z6.9 F600
X-74.71 Y39.831 Z6.822
X-74.689 Y39.822 Z6.747
X-74.655 Y39.807 Z6.678
X-74.61 Y39.788 Z6.617
X-74.554 Y39.764 Z6.567
X-74.49 Y39.737 Z6.53
X-74.421 Y39.707 Z6.508
X-74.35 Y39.676 Z6.5
G3 X-73.574 Y39.555 I0.624 J1.454
G1 X-73.237 Y39.599 F1000
X-71.725 Y39.6
X-71.464 Y39.613
X-71.196 Y39.662
X-70.92 Y39.751
X-70.621 Y39.892
X-70.284 Y40.109
X-69.957 Y40.386
X-69.597 Y40.782
X-69.249 Y41.282
X-68.91 Y41.94
X-68.654 Y42.634
X-68.464 Y43.35
X-68.325 Y44.077
X-68.224 Y44.81
X-68.151 Y45.546
X-68.099 Y46.284
X-68.062 Y47.023
X-68.037 Y47.763
X-68.019 Y48.503
X-68.007 Y49.243
X-67.998 Y49.983
X-67.992 Y50.723
X-67.99 Y51.185
X-67.942 Y51.364
X-67.753 Y51.682
X-67.207 Y52.182
X-66.529 Y52.478
X-65.812 Y52.662
X-65.081 Y52.777
X-64.344 Y52.85
X-63.606 Y52.897
X-62.866 Y52.926
X-62.127 Y52.946
X-61.387 Y52.958
X-60.647 Y52.966
X-59.907 Y52.971
X-59.167 Y52.974
X-57.686 Y52.978
X-54.726 Y52.98
X-31.785
X-29.381
X-29.34 Y52.982
X-29.3 Y52.988
X-29.26 Y52.999
X-28.359 Y53.283
X-27.855 Y53.434
X-27.351 Y53.526
X-25.166 Y53.906
X-24.998 Y53.93
X-24.662 Y53.971
X-24.493 Y53.985
X-21.804 Y54.088
X-21.3 Y54.063
X-21.132 Y54.049
X-18.947 Y53.838
X-18.611 Y53.804
X-18.443 Y53.779
X-17.938 Y53.669
X-16.93 Y53.433
X-16.202 Y53.3
X-15.471 Y53.18
X-14.735 Y53.105
X-13.997 Y53.057
X-13.257 Y53.028
X-12.517 Y53.01
X-11.777 Y52.998
X-11.037 Y52.991
X-10.297 Y52.987
X-9.835 Y52.985
X-9.654 Y52.948
X-9.331 Y52.766
X-8.825 Y52.227
X-8.526 Y51.55
X-8.341 Y50.833
X-8.225 Y50.102
X-8.165 Y49.509
X-8.139 Y49.401
X-8.084 Y49.304
X-8.004 Y49.226
X-7.349 Y48.746
X-7.214 Y48.645
X-7.013 Y48.474
X-6.835 Y48.309
X-5.405 Y46.932
G3 X-4.761 Y47.097 I0.267 J0.298 F800
G1 X-4.735 Y47.171 Z6.508
X-4.71 Y47.242 Z6.53
X-4.687 Y47.307 Z6.567
X-4.667 Y47.364 Z6.617
X-4.65 Y47.411 Z6.678
X-4.638 Y47.446 Z6.747
X-4.63 Y47.467 Z6.822
X-4.628 Y47.474 Z6.9
G0 Z18
X-17.901 Y54.097
Z7.3
G1 Z6.9 F600
X-17.896 Y54.092 Z6.822
X-17.879 Y54.076 Z6.747
X-17.853 Y54.05 Z6.678
X-17.817 Y54.016 Z6.617
X-17.773 Y53.974 Z6.567
X-17.723 Y53.926 Z6.53
X-17.669 Y53.874 Z6.508
X-17.613 Y53.82 Z6.5
G3 X-16.93 Y53.433 I1.098 J1.14
G1 X-15.753 Y53.157 F1000
X-15.417 Y53.075
X-15.234 Y53.013
X-12.896 Y52.122
X-12.56 Y51.993
X-12.392 Y51.916
X-11.887 Y51.649
X-10.206 Y50.735
X-9.702 Y50.458
X-9.534 Y50.346
X-9.503 Y50.325
X-8.004 Y49.226
G3 X-7.387 Y49.476 I0.225 J0.331 F800
G1 X-7.371 Y49.552 Z6.508
X-7.356 Y49.625 Z6.53
X-7.342 Y49.693 Z6.567
X-7.33 Y49.752 Z6.617
X-7.32 Y49.801 Z6.678
X-7.312 Y49.837 Z6.747
X-7.307 Y49.86 Z6.822
X-7.306 Y49.867 Z6.9
G0 Z18
X-3.212 Y15.975
Z7.3
G1 Z6.9 F600
X-3.219 Y15.972 Z6.822
X-3.24 Y15.964 Z6.747
X-3.275 Y15.951 Z6.678
X-3.321 Y15.933 Z6.617
X-3.378 Y15.912 Z6.567
X-3.442 Y15.887 Z6.53
X-3.512 Y15.86 Z6.508
X-3.585 Y15.833 Z6.5
G3 X-4.227 Y15.38 I0.563 J-1.479
G1 X-4.761 Y14.708 F1000
X-4.915 Y14.54
X-6.486 Y13.027
X-6.716 Y12.782
X-6.982 Y12.413
X-7.157 Y12.087
X-7.4 Y11.808
X-7.978 Y11.346
X-8.658 Y11.054
X-9.095 Y10.94
X-9.143 Y10.924
X-9.188 Y10.903
X-9.23 Y10.875
G3 X-9.297 Y10.314 Z6.7 I0.248 J-0.314 F800
G1 X-9.254 Y10.268
X-9.205 Y10.229
G3 X-8.736 Y10.247 I0.222 J0.333 F1000
G1 X-5.972 Y12.415
G3 X-5.853 Y12.892 I-0.247 J0.315
G1 X-5.883 Y12.947 F600
X-5.921 Y12.997
G3 X-6.486 Y13.027 Z6.5 I-0.297 J-0.267
G1 X-6.845 Y12.682 F1000
X-7.015 Y12.523
X-7.214 Y12.355
X-7.349 Y12.254
X-9.503 Y10.675
X-9.534 Y10.654
X-9.702 Y10.542
X-10.378 Y10.171
X-11.923 Y9.331
X-12.392 Y9.084
X-12.56 Y9.007
X-13.469 Y8.659
X-15.207 Y7.998
X-15.234 Y7.987 Z6.509 F800
X-15.417 Y7.925 Z6.571
X-15.585 Y7.884 Z6.626
X-15.753 Y7.843 Z6.681
X-15.811 Y7.829 Z6.7
X-15.934 Y7.801
X-17.938 Y7.331 F1000
X-18.009 Y7.315
X-18.443 Y7.221
X-18.611 Y7.196
X-18.947 Y7.162
X-19.096 Y7.147
X-21.132 Y6.951
X-21.3 Y6.937
X-21.804 Y6.912
X-24.493 Y7.015
X-24.662 Y7.029
X-24.998 Y7.07
X-25.166 Y7.094
X-27.285 Y7.463
X-27.351 Y7.474 F600
X-27.41 Y7.485
X-27.855 Y7.566 Z6.556
X-28.023 Y7.616 Z6.5
X-28.359 Y7.717 F1000
X-30.713 Y8.461
X-30.798 Y8.491
X-31.049 Y8.595
X-31.197 Y8.659
X-33.336 Y9.667
X-34.015 Y9.961
X-34.726 Y10.166
X-35.455 Y10.298
X-36.19 Y10.381
X-36.928 Y10.434
X-37.668 Y10.466
X-38.407 Y10.487
X-39.147 Y10.499
X-39.887 Y10.507
X-40.627 Y10.512
X-41.367 Y10.515
X-42.847 Y10.518
X-46.548 Y10.52
X-63.661
X-63.842 Y10.558
X-64.165 Y10.74
X-64.672 Y11.279
X-64.971 Y11.956
X-65.157 Y12.672
X-65.273 Y13.403
X-65.348 Y14.139
X-65.395 Y14.878
X-65.425 Y15.617
X-65.445 Y16.357
X-65.457 Y17.097
X-65.468 Y17.837
X-65.487 Y18.577
X-65.525 Y19.316
X-65.595 Y20.052
X-65.71 Y20.77
X-65.812 Y21.114
X-65.894 Y21.263
X-66.03 Y21.364
X-66.195 Y21.4
X-68.625
G3 X-68.975 Y20.834 I0.014 J-0.4 F800
G1 X-68.943 Y20.763 Z6.508
X-68.912 Y20.695 Z6.53
X-68.883 Y20.632 Z6.567
X-68.858 Y20.577 Z6.617
X-68.837 Y20.532 Z6.678
X-68.822 Y20.498 Z6.747
X-68.813 Y20.477 Z6.822
X-68.809 Y20.47 Z6.9
G0 Z7.3
X-32.54 Y8.8
G1 Z6.9 F600
X-32.544 Y8.807 Z6.822
X-32.557 Y8.826 Z6.747
X-32.577 Y8.857 Z6.678
X-32.604 Y8.899 Z6.617
X-32.637 Y8.949 Z6.567
X-32.675 Y9.007 Z6.53
X-32.715 Y9.07 Z6.508
X-32.758 Y9.136 Z6.5
G3 X-33.336 Y9.667 I-1.327 J-0.863
G1 X-33.402 Y9.7 F1000
X-33.906 Y9.961
X-36.091 Y11.375
X-36.285 Y11.515
X-36.595 Y11.743
X-36.727 Y11.851
X-36.854 Y11.95
X-37.304 Y12.212
X-37.94 Y12.479
X-38.653 Y12.674
X-39.383 Y12.801
X-40.118 Y12.881
X-40.857 Y12.933
X-41.596 Y12.965
X-42.336 Y12.986
X-43.076 Y12.998
X-43.816 Y13.006
X-44.556 Y13.012
X-45.296 Y13.015
X-46.776 Y13.018
X-49.736 Y13.02
X-61.207
X-61.383 Y13.076
X-61.697 Y13.271
X-62.19 Y13.824
X-62.482 Y14.503
X-62.664 Y15.221
X-62.778 Y15.952
X-62.851 Y16.689
X-62.904 Y17.427
X-62.95 Y18.165
X-63.003 Y18.903
X-63.074 Y19.64
X-63.176 Y20.373
X-63.327 Y21.03
X-63.368 Y21.14
X-63.454 Y21.276
X-63.586 Y21.368
X-63.743 Y21.4
X-66.195
G3 X-66.545 Y20.834 I0.014 J-0.4 F800
G1 X-66.513 Y20.763 Z6.508
X-66.482 Y20.695 Z6.53
X-66.453 Y20.632 Z6.567
X-66.428 Y20.577 Z6.617
X-66.407 Y20.532 Z6.678
X-66.392 Y20.498 Z6.747
X-66.383 Y20.477 Z6.822
X-66.379 Y20.47 Z6.9
G0 Z18
X-36.171 Y10.814
Z7.3
G1 Z6.9 F600
X-36.173 Y10.821 Z6.822
X-36.181 Y10.843 Z6.747
X-36.193 Y10.878 Z6.678
X-36.208 Y10.925 Z6.617
X-36.228 Y10.982 Z6.567
X-36.25 Y11.048 Z6.53
X-36.274 Y11.119 Z6.508
X-36.299 Y11.193 Z6.5
G3 X-36.727 Y11.851 I-1.499 J-0.507
G1 X-38.492 Y13.363 F1000
X-38.612 Y13.469
X-38.781 Y13.621
X-38.866 Y13.699
X-39.018 Y13.867
X-39.309 Y14.16
X-39.651 Y14.424
X-40.115 Y14.694
X-40.769 Y14.967
X-41.483 Y15.162
X-42.212 Y15.289
X-42.947 Y15.372
X-43.686 Y15.425
X-44.425 Y15.46
X-45.165 Y15.482
X-45.904 Y15.496
X-46.644 Y15.504
X-47.384 Y15.51
X-48.125 Y15.514
X-49.605 Y15.517
X-52.565 Y15.52
X-58.67
X-58.85 Y15.564
X-59.17 Y15.749
X-59.674 Y16.291
X-59.979 Y16.966
X-60.178 Y17.678
X-60.324 Y18.404
X-60.568 Y19.864
X-60.711 Y20.59
X-60.865 Y21.113
X-60.947 Y21.262
X-61.083 Y21.364
X-61.249 Y21.4
X-63.743
G3 X-64.093 Y20.834 I0.014 J-0.4 F800
G1 X-64.061 Y20.763 Z6.508
X-64.03 Y20.695 Z6.53
X-64.001 Y20.632 Z6.567
X-63.976 Y20.577 Z6.617
X-63.955 Y20.532 Z6.678
X-63.94 Y20.498 Z6.747
X-63.93 Y20.477 Z6.822
X-63.927 Y20.47 Z6.9
G0 Z7.3
X-38.6 Y12.767
G1 Z6.9 F600
X-38.601 Y12.775 Z6.822
X-38.606 Y12.797 Z6.747
X-38.613 Y12.833 Z6.678
X-38.623 Y12.882 Z6.617
X-38.634 Y12.941 Z6.567
X-38.648 Y13.009 Z6.53
X-38.663 Y13.083 Z6.508
X-38.678 Y13.159 Z6.5
G3 X-39.018 Y13.867 I-1.552 J-0.309
G1 X-39.318 Y14.204 F1000
X-40.517 Y15.548
X-40.629 Y15.677
X-40.966 Y16.086
X-41.07 Y16.22
X-41.187 Y16.37
X-41.451 Y16.631
X-41.813 Y16.905
X-42.306 Y17.186
