(bore1)
(T1 D=4 CR=0 - ZMIN=0 - flat end mill)
G90 G94
G17
G21
G28 G91 Z0
G90

(Bore1 10)
T1
S18000 M3
G17 G90 G94
G54
G0 X-50.545 Y30.15
Z28
G0 Z10
G1 Z8.4 F500
G19 G3 Y30.55 Z8 J0.4 K0
G1 Y30.75
G17 G3 X-50.795 Y31 I-0.25 J0
X-50.795 Y30 Z7.913 I0 J-0.5
X-50.795 Y31 Z7.825 I0 J0.5
X-50.795 Y30 Z7.738 I0 J-0.5
X-50.795 Y31 Z7.651 I0 J0.5
X-50.795 Y30 Z7.563 I0 J-0.5
X-50.795 Y31 Z7.476 I0 J0.5
X-50.795 Y30 Z7.389 I0 J-0.5
X-50.795 Y31 Z7.302 I0 J0.5
X-50.795 Y30 Z7.214 I0 J-0.5
X-50.795 Y31 Z7.127 I0 J0.5
X-50.795 Y30 Z7.04 I0 J-0.5
X-50.795 Y31 Z6.952 I0 J0.5
X-50.795 Y30 Z6.865 I0 J-0.5
X-50.795 Y31 Z6.778 I0 J0.5
X-50.795 Y30 Z6.69 I0 J-0.5
X-50.795 Y31 Z6.603 I0 J0.5
X-50.795 Y30 Z6.516 I0 J-0.5
X-50.795 Y31 Z6.429 I0 J0.5
X-50.795 Y30 Z6.341 I0 J-0.5
X-50.795 Y31 Z6.254 I0 J0.5
X-50.795 Y30 Z6.167 I0 J-0.5
X-50.795 Y31 Z6.079 I0 J0.5
X-50.795 Y30 Z5.992 I0 J-0.5
X-50.795 Y31 Z5.905 I0 J0.5
X-50.795 Y30 Z5.817 I0 J-0.5
X-50.795 Y31 Z5.73 I0 J0.5
X-50.795 Y30 Z5.643 I0 J-0.5
X-50.795 Y31 Z5.556 I0 J0.5
X-50.795 Y30 Z5.468 I0 J-0.5
X-50.795 Y31 Z5.381 I0 J0.5
X-50.795 Y30 Z5.294 I0 J-0.5
X-50.795 Y31 Z5.206 I0 J0.5
X-50.795 Y30 Z5.119 I0 J-0.5
X-50.795 Y31 Z5.032 I0 J0.5
X-50.795 Y30 Z4.944 I0 J-0.5
X-50.795 Y31 Z4.857 I0 J0.5
X-50.795 Y30 Z4.77 I0 J-0.5
X-50.795 Y31 Z4.683 I0 J0.5
X-50.795 Y30 Z4.595 I0 J-0.5
X-50.795 Y31 Z4.508 I0 J0.5
X-50.795 Y30 Z4.421 I0 J-0.5
X-50.795 Y31 Z4.333 I0 J0.5
X-50.795 Y30 Z4.246 I0 J-0.5
X-50.795 Y31 Z4.159 I0 J0.5
X-50.795 Y30 Z4.071 I0 J-0.5
X-50.795 Y31 Z3.984 I0 J0.5
X-50.795 Y30 Z3.897 I0 J-0.5
X-50.795 Y31 Z3.81 I0 J0.5
X-50.795 Y30 Z3.722 I0 J-0.5
X-50.795 Y31 Z3.635 I0 J0.5
X-50.795 Y30 Z3.548 I0 J-0.5
X-50.795 Y31 Z3.46 I0 J0.5
X-50.795 Y30 Z3.373 I0 J-0.5
X-50.795 Y31 Z3.286 I0 J0.5
X-50.795 Y30 Z3.198 I0 J-0.5
X-50.795 Y31 Z3.111 I0 J0.5
X-50.795 Y30 Z3.024 I0 J-0.5
X-50.795 Y31 Z2.936 I0 J0.5
X-50.795 Y30 Z2.849 I0 J-0.5
X-50.795 Y31 Z2.762 I0 J0.5
X-50.795 Y30 Z2.675 I0 J-0.5
X-50.795 Y31 Z2.587 I0 J0.5
X-50.795 Y30 Z2.5 I0 J-0.5
X-50.795 Y31 Z2.413 I0 J0.5
X-50.795 Y30 Z2.325 I0 J-0.5
X-50.795 Y31 Z2.238 I0 J0.5
X-50.795 Y30 Z2.151 I0 J-0.5
X-50.795 Y31 Z2.063 I0 J0.5
X-50.795 Y30 Z1.976 I0 J-0.5
X-50.795 Y31 Z1.889 I0 J0.5
X-50.795 Y30 Z1.802 I0 J-0.5
X-50.795 Y31 Z1.714 I0 J0.5
X-50.795 Y30 Z1.627 I0 J-0.5
X-50.795 Y31 Z1.54 I0 J0.5
X-50.795 Y30 Z1.452 I0 J-0.5
X-50.795 Y31 Z1.365 I0 J0.5
X-50.795 Y30 Z1.278 I0 J-0.5
X-50.795 Y31 Z1.19 I0 J0.5
X-50.795 Y30 Z1.103 I0 J-0.5
X-50.795 Y31 Z1.016 I0 J0.5
X-50.795 Y30 Z0.929 I0 J-0.5
X-50.795 Y31 Z0.841 I0 J0.5
X-50.795 Y30 Z0.754 I0 J-0.5
X-50.795 Y31 Z0.667 I0 J0.5
X-50.795 Y30 Z0.579 I0 J-0.5
X-50.795 Y31 Z0.492 I0 J0.5
X-50.795 Y30 Z0.405 I0 J-0.5
X-50.795 Y31 Z0.317 I0 J0.5
X-50.795 Y30 Z0.23 I0 J-0.5
X-50.795 Y31 Z0.143 I0 J0.5
X-50.795 Y30 Z0.056 I0 J-0.5
X-50.34 Y30.707 Z0 I0 J0.5
X-51.25 Y30.293 I-0.455 J-0.207
X-50.34 Y30.707 I0.455 J0.207
X-50.671 Y30.831 I-0.228 J-0.104
G1 X-50.853 Y30.748
X-50.924 Y30.716 Z0.008
X-50.992 Y30.685 Z0.03
X-51.055 Y30.656 Z0.067
X-51.11 Y30.631 Z0.117
X-51.156 Y30.61 Z0.178
X-51.189 Y30.595 Z0.247
X-51.21 Y30.586 Z0.322
X-51.217 Y30.582 Z0.4
G0 Z28
G28 G91 Z0
G90
G28 G91 X0 Y0
G90
M5
M30
