(contour1)
(T1 D=4 CR=0 - ZMIN=0 - flat end mill)
G90 G94
G17
G21
G28 G91 Z0
G90

(Contour3)
T1
S18000 M3
G17 G90 G94
G54
G0 X-80.408 Y28.849
Z28
G0 Z10.396
G1 Z6.4 F600
X-80.4 Y28.848 Z6.322
X-80.378 Y28.845 Z6.247
X-80.341 Y28.84 Z6.178
X-80.292 Y28.833 Z6.117
X-80.232 Y28.826 Z6.067
X-80.163 Y28.817 Z6.03
X-80.089 Y28.807 Z6.008
X-80.011 Y28.797 Z6
X-77.657 Y28.487
G3 X-77.205 Y28.883 I0.052 J0.397
G1 Y35.456 F1000
X-77.202 Y35.616
X-77.191 Y35.775
X-77.181 Y35.935
X-77.16 Y36.095
X-77.129 Y36.255
X-77.097 Y36.415
X-77.058 Y36.575
X-77.053 Y36.593
X-77.006 Y36.735
X-76.952 Y36.895
X-76.893 Y37.049
X-76.891 Y37.054
X-76.815 Y37.214
X-76.733 Y37.38
X-76.649 Y37.534
X-76.573 Y37.651
X-76.545 Y37.694
X-76.438 Y37.854
X-76.414 Y37.888
X-76.315 Y38.014
X-76.254 Y38.084
X-76.175 Y38.173
X-76.094 Y38.265
X-76.029 Y38.333
X-75.935 Y38.421
X-75.775 Y38.561
X-75.666 Y38.653
X-75.615 Y38.692
X-75.455 Y38.802
X-75.439 Y38.813
X-75.296 Y38.909
X-75.19 Y38.973
X-75.136 Y39.002
X-74.976 Y39.082
X-74.873 Y39.133
X-74.816 Y39.16
X-74.657 Y39.226
X-74.497 Y39.281
X-74.464 Y39.292
X-74.337 Y39.335
X-74.178 Y39.379
X-74.018 Y39.412
X-73.858 Y39.444
X-73.815 Y39.452
X-73.698 Y39.469
X-73.539 Y39.482
X-73.379 Y39.493
X-73.219 Y39.5
X-73.06
X-44.07
X-44.03 Y39.503
X-44.007 Y39.504
X-44.005 Y39.506
X-43.99 Y39.537
X-43.954 Y39.612
X-43.67 Y40.258
X-43.602 Y40.411
X-43.524 Y40.571
X-43.191 Y41.249
X-43.129 Y41.371
X-42.692 Y42.17
X-42.598 Y42.33
X-42.211 Y42.969
X-42.112 Y43.129
X-41.687 Y43.769
X-41.594 Y43.909
X-41.58 Y43.928
X-41.464 Y44.088
X-41.115 Y44.568
X-40.998 Y44.728
X-40.955 Y44.783
X-40.476 Y45.385
X-40.362 Y45.527
X-40.316 Y45.581
X-39.807 Y46.167
X-39.677 Y46.314
X-39.666 Y46.326
X-39.038 Y46.989
X-38.9 Y47.126
X-38.399 Y47.611
X-38.24 Y47.762
X-37.601 Y48.33
X-37.515 Y48.405
X-37.441 Y48.466
X-36.802 Y48.986
X-36.729 Y49.044
X-36.642 Y49.109
X-36.003 Y49.586
X-35.866 Y49.684
X-35.162 Y50.163
X-35.045 Y50.239
X-34.394 Y50.643
X-34.246 Y50.734
X-34.125 Y50.803
X-33.448 Y51.183
X-33.288 Y51.269
X-32.631 Y51.602
X-32.49 Y51.673
X-32.33 Y51.747
X-31.593 Y52.082
X-31.531 Y52.109
X-31.371 Y52.173
X-30.733 Y52.431
X-30.573 Y52.493
X-29.774 Y52.776
X-29.614 Y52.83
X-28.816 Y53.075
X-28.656 Y53.122
X-27.858 Y53.33
X-27.74 Y53.36
X-27.698 Y53.37
X-27.538 Y53.405
X-26.899 Y53.542
X-26.739 Y53.576
X-26.58 Y53.604
X-25.781 Y53.74
X-25.621 Y53.762
X-24.823 Y53.862
X-24.663 Y53.879
X-23.864 Y53.945
X-23.705 Y53.958
X-23.545 Y53.964
X-22.906 Y53.989
X-22.746 Y53.996
X-22.587
X-21.788 Y53.994
X-21.628 Y53.989
X-20.83 Y53.952
X-20.67 Y53.943
X-20.51 Y53.929
X-19.871 Y53.872
X-19.712 Y53.858
X-19.574 Y53.84
X-18.753 Y53.731
X-18.594 Y53.705
X-17.795 Y53.564
X-17.635 Y53.532
X-16.837 Y53.356
X-16.677 Y53.318
X-15.878 Y53.105
X-15.718 Y53.061
X-15.654 Y53.041
X-14.92 Y52.81
X-14.76 Y52.759
X-14.654 Y52.721
X-13.961 Y52.471
X-13.802 Y52.411
X-13.777 Y52.401
X-12.999 Y52.082
X-12.843 Y52.015
X-12.045 Y51.646
X-11.953 Y51.602
X-11.885 Y51.567
X-11.246 Y51.238
X-11.086 Y51.155
X-11.029 Y51.122
X-10.288 Y50.7
X-10.19 Y50.643
X-10.128 Y50.604
X-9.428 Y50.163
X-9.329 Y50.1
X-9.17 Y49.989
X-8.691 Y49.658
X-8.531 Y49.547
X-8.498 Y49.524
X-8.371 Y49.427
X-7.864 Y49.044
X-7.732 Y48.944
X-7.659 Y48.884
X-7.078 Y48.405
X-6.934 Y48.284
X-6.889 Y48.245
X-6.295 Y47.709
X-6.181 Y47.605
X-6.135 Y47.56
X-5.529 Y46.966
X-5.496 Y46.933
X-5.375 Y46.806
X-4.857 Y46.251
X-4.779 Y46.167
X-4.697 Y46.072
X-4.218 Y45.513
X-4.096 Y45.367
X-3.579 Y44.709
X-3.472 Y44.568
X-2.941 Y43.828
X-2.899 Y43.769
X-2.781 Y43.588
X-2.461 Y43.1
X-2.376 Y42.969
X-2.302 Y42.847
X-1.899 Y42.17
X-1.822 Y42.037
X-1.464 Y41.371
X-1.378 Y41.211
X-1.343 Y41.142
X-0.99 Y40.411
X-0.914 Y40.252
X-0.845 Y40.092
X-0.545 Y39.397
X-0.503 Y39.292
X-0.197 Y38.493
X-0.14 Y38.333
X0.127 Y37.534
X0.176 Y37.374
X0.414 Y36.545
X0.448 Y36.415
X0.64 Y35.616
X0.676 Y35.456
X0.833 Y34.656
X0.863 Y34.497
X0.887 Y34.337
X0.984 Y33.697
X1.008 Y33.537
X1.026 Y33.378
X1.112 Y32.578
X1.125 Y32.418
X1.177 Y31.619
X1.185 Y31.459
X1.202 Y30.66
X1.205 Y30.5
X1.202 Y30.34
X1.185 Y29.541
X1.177 Y29.381
X1.125 Y28.582
X1.112 Y28.422
X1.026 Y27.622
X1.008 Y27.463
X0.984 Y27.303
X0.887 Y26.663
X0.863 Y26.503
X0.833 Y26.344
X0.676 Y25.544
X0.64 Y25.384
X0.448 Y24.585
X0.414 Y24.455
X0.176 Y23.626
X0.127 Y23.466
X-0.14 Y22.667
X-0.197 Y22.507
X-0.503 Y21.708
X-0.545 Y21.603
X-0.864 Y20.864
X-0.914 Y20.748
X-0.99 Y20.588
X-1.343 Y19.858
X-1.378 Y19.789
X-1.464 Y19.629
X-1.822 Y18.963
X-1.899 Y18.83
X-2.302 Y18.153
X-2.376 Y18.031
X-2.461 Y17.9
X-2.795 Y17.391
X-2.899 Y17.231
X-2.941 Y17.172
X-3.472 Y16.432
X-3.579 Y16.291
X-4.096 Y15.633
X-4.218 Y15.487
X-4.697 Y14.928
X-4.779 Y14.833
X-4.857 Y14.749
X-5.375 Y14.194
X-5.496 Y14.067
X-5.53 Y14.034
X-6.135 Y13.44
X-6.181 Y13.395
X-6.295 Y13.291
X-6.889 Y12.755
X-6.934 Y12.716
X-7.078 Y12.595
X-7.659 Y12.116
X-7.732 Y12.056
X-7.864 Y11.956
X-8.371 Y11.573
X-8.499 Y11.476
X-8.531 Y11.453
X-8.691 Y11.342
X-9.19 Y10.997
X-9.329 Y10.901
X-9.428 Y10.837
X-10.128 Y10.396
X-10.19 Y10.357
X-10.288 Y10.3
X-11.029 Y9.878
X-11.086 Y9.845
X-11.246 Y9.762
X-11.885 Y9.433
X-11.953 Y9.398
X-12.045 Y9.354
X-12.843 Y8.985
X-12.999 Y8.918
X-13.777 Y8.599
X-13.802 Y8.589
X-13.961 Y8.529
X-14.654 Y8.279
X-14.76 Y8.241
X-14.92 Y8.189
X-15.654 Y7.959
X-15.718 Y7.939
X-15.878 Y7.895
X-16.677 Y7.682
X-16.837 Y7.645
X-17.635 Y7.468
X-17.795 Y7.436
X-18.594 Y7.295
X-18.753 Y7.269
X-19.574 Y7.16
X-19.712 Y7.142
X-19.871 Y7.128
X-20.51 Y7.071
X-20.67 Y7.057
X-20.83 Y7.048
X-21.628 Y7.011
X-21.788 Y7.006
X-22.587 Y7.004
X-22.746
X-22.906 Y7.011
X-23.545 Y7.036
X-23.705 Y7.043
X-23.864 Y7.055
X-24.663 Y7.121
X-24.823 Y7.138
X-25.621 Y7.238
X-25.781 Y7.26
X-26.58 Y7.396
X-26.739 Y7.424
X-26.899 Y7.458
X-27.538 Y7.595
X-27.698 Y7.63
X-27.739 Y7.64
X-27.858 Y7.67
X-28.656 Y7.878
X-28.816 Y7.925
X-29.614 Y8.17
X-29.774 Y8.224
X-30.573 Y8.507
X-30.733 Y8.569
X-31.371 Y8.827
X-31.531 Y8.891
X-31.593 Y8.918
X-32.33 Y9.253
X-32.49 Y9.327
X-32.631 Y9.398
X-33.288 Y9.731
X-33.448 Y9.817
X-34.125 Y10.197
X-34.246 Y10.266
X-34.394 Y10.357
X-35.045 Y10.761
X-35.162 Y10.837
X-35.866 Y11.316
X-36.003 Y11.414
X-36.642 Y11.891
X-36.729 Y11.956
X-36.802 Y12.014
X-37.441 Y12.534
X-37.515 Y12.595
X-37.601 Y12.67
X-38.24 Y13.238
X-38.399 Y13.389
X-38.9 Y13.874
X-39.038 Y14.011
X-39.665 Y14.674
X-39.677 Y14.686
X-39.807 Y14.833
X-40.316 Y15.419
X-40.362 Y15.473
X-40.476 Y15.615
X-40.955 Y16.217
X-40.998 Y16.272
X-41.115 Y16.432
X-41.464 Y16.912
X-41.58 Y17.071
X-41.594 Y17.091
X-41.687 Y17.231
X-42.112 Y17.871
X-42.211 Y18.031
X-42.598 Y18.67
X-42.692 Y18.83
X-43.129 Y19.629
X-43.191 Y19.751
X-43.524 Y20.429
X-43.602 Y20.588
X-43.67 Y20.742
X-43.954 Y21.388
X-43.99 Y21.463
X-44.005 Y21.494
X-44.007 Y21.496
X-44.03 Y21.497
X-44.07 Y21.5
X-73.06
X-73.219
X-73.379 Y21.507
X-73.539 Y21.518
X-73.698 Y21.531
X-73.815 Y21.548
X-73.858 Y21.556
X-74.018 Y21.588
X-74.178 Y21.621
X-74.337 Y21.665
X-74.464 Y21.708
X-74.497 Y21.719
X-74.657 Y21.774
X-74.816 Y21.84
X-74.873 Y21.867
X-74.976 Y21.918
X-75.136 Y21.998
X-75.19 Y22.027
X-75.296 Y22.091
X-75.439 Y22.187
X-75.455 Y22.198
X-75.615 Y22.308
X-75.666 Y22.347
X-75.775 Y22.439
X-75.935 Y22.579
X-76.029 Y22.667
X-76.094 Y22.735
X-76.175 Y22.827
X-76.254 Y22.916
X-76.315 Y22.986
X-76.414 Y23.112
X-76.438 Y23.146
X-76.545 Y23.306
X-76.573 Y23.349
X-76.649 Y23.466
X-76.733 Y23.62
X-76.815 Y23.786
X-76.891 Y23.946
X-76.893 Y23.951
X-76.952 Y24.105
X-77.006 Y24.265
X-77.053 Y24.407
X-77.058 Y24.425
X-77.097 Y24.585
X-77.129 Y24.745
X-77.16 Y24.905
X-77.181 Y25.065
X-77.191 Y25.225
X-77.202 Y25.384
X-77.205 Y25.544
Y28.883
G3 X-78.005 Y28.883 I-0.4 J0 F800
G1 Y28.483
Z3.4 F600
G18 G2 X-77.605 Z3 I0.4 K0
G17 G3 X-77.205 Y28.883 I0 J0.4
G1 Y35.456 F1000
X-77.202 Y35.616
X-77.191 Y35.775
X-77.181 Y35.935
X-77.16 Y36.095
X-77.129 Y36.255
X-77.097 Y36.415
X-77.058 Y36.575
X-77.053 Y36.593
X-77.006 Y36.735
X-76.952 Y36.895
X-76.893 Y37.049
X-76.891 Y37.054
X-76.815 Y37.214
X-76.733 Y37.38
X-76.649 Y37.534
X-76.573 Y37.651
X-76.545 Y37.694
X-76.438 Y37.854
X-76.414 Y37.888
X-76.315 Y38.014
X-76.254 Y38.084
X-76.175 Y38.173
X-76.094 Y38.265
X-76.029 Y38.333
X-75.935 Y38.421
X-75.775 Y38.561
X-75.666 Y38.653
X-75.615 Y38.692
X-75.455 Y38.802
X-75.439 Y38.813
X-75.296 Y38.909
X-75.19 Y38.973
X-75.136 Y39.002
X-74.976 Y39.082
X-74.873 Y39.133
X-74.816 Y39.16
X-74.657 Y39.226
X-74.497 Y39.281
X-74.464 Y39.292
X-74.337 Y39.335
X-74.178 Y39.379
X-74.018 Y39.412
X-73.858 Y39.444
X-73.815 Y39.452
X-73.698 Y39.469
X-73.539 Y39.482
X-73.379 Y39.493
X-73.219 Y39.5
X-73.06
X-44.07
X-44.03 Y39.503
X-44.007 Y39.504
X-44.005 Y39.506
X-43.99 Y39.537
X-43.954 Y39.612
X-43.67 Y40.258
X-43.602 Y40.411
X-43.524 Y40.571
X-43.191 Y41.249
X-43.129 Y41.371
X-42.692 Y42.17
X-42.598 Y42.33
X-42.211 Y42.969
X-42.112 Y43.129
X-41.687 Y43.769
X-41.594 Y43.909
X-41.58 Y43.928
X-41.464 Y44.088
X-41.115 Y44.568
X-40.998 Y44.728
X-40.955 Y44.783
X-40.476 Y45.385
X-40.362 Y45.527
X-40.316 Y45.581
X-39.807 Y46.167
X-39.677 Y46.314
X-39.666 Y46.326
X-39.038 Y46.989
X-38.9 Y47.126
X-38.399 Y47.611
X-38.24 Y47.762
X-37.601 Y48.33
X-37.515 Y48.405
X-37.441 Y48.466
X-36.802 Y48.986
X-36.729 Y49.044
X-36.642 Y49.109
X-36.003 Y49.586
X-35.866 Y49.684
X-35.162 Y50.163
X-35.045 Y50.239
X-34.394 Y50.643
X-34.246 Y50.734
X-34.125 Y50.803
X-33.448 Y51.183
X-33.288 Y51.269
X-32.631 Y51.602
X-32.49 Y51.673
X-32.33 Y51.747
X-31.593 Y52.082
X-31.531 Y52.109
X-31.371 Y52.173
X-30.733 Y52.431
X-30.573 Y52.493
X-29.774 Y52.776
X-29.614 Y52.83
X-28.816 Y53.075
X-28.656 Y53.122
X-27.858 Y53.33
X-27.74 Y53.36
X-27.698 Y53.37
X-27.538 Y53.405
X-26.899 Y53.542
X-26.739 Y53.576
X-26.58 Y53.604
X-25.781 Y53.74
X-25.621 Y53.762
X-24.823 Y53.862
X-24.663 Y53.879
X-23.864 Y53.945
X-23.705 Y53.958
X-23.545 Y53.964
X-22.906 Y53.989
X-22.746 Y53.996
X-22.587
X-21.788 Y53.994
X-21.628 Y53.989
X-20.83 Y53.952
X-20.67 Y53.943
X-20.51 Y53.929
X-19.871 Y53.872
X-19.712 Y53.858
X-19.574 Y53.84
X-18.753 Y53.731
X-18.594 Y53.705
X-17.795 Y53.564
X-17.635 Y53.532
X-16.837 Y53.356
X-16.677 Y53.318
X-15.878 Y53.105
X-15.718 Y53.061
X-15.654 Y53.041
X-14.92 Y52.81
X-14.76 Y52.759
X-14.654 Y52.721
X-13.961 Y52.471
X-13.802 Y52.411
X-13.777 Y52.401
X-12.999 Y52.082
X-12.843 Y52.015
X-12.045 Y51.646
X-11.953 Y51.602
X-11.885 Y51.567
X-11.246 Y51.238
X-11.086 Y51.155
X-11.029 Y51.122
X-10.288 Y50.7
X-10.19 Y50.643
X-10.128 Y50.604
X-9.428 Y50.163
X-9.329 Y50.1
X-9.17 Y49.989
X-8.691 Y49.658
X-8.531 Y49.547
X-8.498 Y49.524
X-8.371 Y49.427
X-7.864 Y49.044
X-7.732 Y48.944
X-7.659 Y48.884
X-7.078 Y48.405
X-6.934 Y48.284
X-6.889 Y48.245
X-6.295 Y47.709
X-6.181 Y47.605
X-6.135 Y47.56
X-5.529 Y46.966
X-5.496 Y46.933
X-5.375 Y46.806
X-4.857 Y46.251
X-4.779 Y46.167
X-4.697 Y46.072
X-4.218 Y45.513
X-4.096 Y45.367
X-3.579 Y44.709
X-3.472 Y44.568
X-2.941 Y43.828
X-2.899 Y43.769
X-2.781 Y43.588
X-2.461 Y43.1
X-2.376 Y42.969
X-2.302 Y42.847
X-1.899 Y42.17
X-1.822 Y42.037
X-1.464 Y41.371
X-1.378 Y41.211
X-1.343 Y41.142
X-0.99 Y40.411
X-0.914 Y40.252
X-0.845 Y40.092
X-0.545 Y39.397
X-0.503 Y39.292
X-0.197 Y38.493
X-0.14 Y38.333
X0.127 Y37.534
X0.176 Y37.374
X0.414 Y36.545
X0.448 Y36.415
X0.64 Y35.616
X0.676 Y35.456
X0.833 Y34.656
X0.863 Y34.497
X0.887 Y34.337
X0.984 Y33.697
X1.008 Y33.537
X1.026 Y33.378
X1.112 Y32.578
X1.125 Y32.418
X1.177 Y31.619
X1.185 Y31.459
X1.202 Y30.66
X1.205 Y30.5
X1.202 Y30.34
X1.185 Y29.541
X1.177 Y29.381
X1.125 Y28.582
X1.112 Y28.422
X1.026 Y27.622
X1.008 Y27.463
X0.984 Y27.303
X0.887 Y26.663
X0.863 Y26.503
X0.833 Y26.344
X0.676 Y25.544
X0.64 Y25.384
X0.448 Y24.585
X0.414 Y24.455
X0.176 Y23.626
X0.127 Y23.466
X-0.14 Y22.667
X-0.197 Y22.507
X-0.503 Y21.708
X-0.545 Y21.603
X-0.864 Y20.864
X-0.914 Y20.748
X-0.99 Y20.588
X-1.343 Y19.858
X-1.378 Y19.789
X-1.464 Y19.629
X-1.822 Y18.963
X-1.899 Y18.83
X-2.302 Y18.153
X-2.376 Y18.031
X-2.461 Y17.9
X-2.795 Y17.391
X-2.899 Y17.231
X-2.941 Y17.172
X-3.472 Y16.432
X-3.579 Y16.291
X-4.096 Y15.633
X-4.218 Y15.487
X-4.697 Y14.928
X-4.779 Y14.833
X-4.857 Y14.749
X-5.375 Y14.194
X-5.496 Y14.067
X-5.53 Y14.034
X-6.135 Y13.44
X-6.181 Y13.395
X-6.295 Y13.291
X-6.889 Y12.755
X-6.934 Y12.716
X-7.078 Y12.595
X-7.659 Y12.116
X-7.732 Y12.056
X-7.864 Y11.956
X-8.371 Y11.573
X-8.499 Y11.476
X-8.531 Y11.453
X-8.691 Y11.342
X-9.19 Y10.997
X-9.329 Y10.901
X-9.428 Y10.837
X-10.128 Y10.396
X-10.19 Y10.357
X-10.288 Y10.3
X-11.029 Y9.878
X-11.086 Y9.845
X-11.246 Y9.762
X-11.885 Y9.433
X-11.953 Y9.398
X-12.045 Y9.354
X-12.843 Y8.985
X-12.999 Y8.918
X-13.777 Y8.599
X-13.802 Y8.589
X-13.961 Y8.529
X-14.654 Y8.279
X-14.76 Y8.241
X-14.92 Y8.189
X-15.654 Y7.959
X-15.718 Y7.939
X-15.878 Y7.895
X-16.677 Y7.682
X-16.837 Y7.645
X-17.635 Y7.468
X-17.795 Y7.436
X-18.594 Y7.295
X-18.753 Y7.269
X-19.574 Y7.16
X-19.712 Y7.142
X-19.871 Y7.128
X-20.51 Y7.071
X-20.67 Y7.057
X-20.83 Y7.048
X-21.628 Y7.011
X-21.788 Y7.006
X-22.587 Y7.004
X-22.746
X-22.906 Y7.011
X-23.545 Y7.036
X-23.705 Y7.043
X-23.864 Y7.055
X-24.663 Y7.121
X-24.823 Y7.138
X-25.621 Y7.238
X-25.781 Y7.26
X-26.58 Y7.396
X-26.739 Y7.424
X-26.899 Y7.458
X-27.538 Y7.595
X-27.698 Y7.63
X-27.739 Y7.64
X-27.858 Y7.67
X-28.656 Y7.878
X-28.816 Y7.925
X-29.614 Y8.17
X-29.774 Y8.224
X-30.573 Y8.507
X-30.733 Y8.569
X-31.371 Y8.827
X-31.531 Y8.891
X-31.593 Y8.918
X-32.33 Y9.253
X-32.49 Y9.327
X-32.631 Y9.398
X-33.288 Y9.731
X-33.448 Y9.817
X-34.125 Y10.197
X-34.246 Y10.266
X-34.394 Y10.357
X-35.045 Y10.761
X-35.162 Y10.837
X-35.866 Y11.316
X-36.003 Y11.414
X-36.642 Y11.891
X-36.729 Y11.956
X-36.802 Y12.014
X-37.441 Y12.534
X-37.515 Y12.595
X-37.601 Y12.67
X-38.24 Y13.238
X-38.399 Y13.389
X-38.9 Y13.874
X-39.038 Y14.011
X-39.665 Y14.674
X-39.677 Y14.686
X-39.807 Y14.833
X-40.316 Y15.419
X-40.362 Y15.473
X-40.476 Y15.615
X-40.955 Y16.217
X-40.998 Y16.272
X-41.115 Y16.432
X-41.464 Y16.912
X-41.58 Y17.071
X-41.594 Y17.091
X-41.687 Y17.231
X-42.112 Y17.871
X-42.211 Y18.031
X-42.598 Y18.67
X-42.692 Y18.83
X-43.129 Y19.629
X-43.191 Y19.751
X-43.524 Y20.429
X-43.602 Y20.588
X-43.67 Y20.742
X-43.954 Y21.388
X-43.99 Y21.463
X-44.005 Y21.494
X-44.007 Y21.496
X-44.03 Y21.497
X-44.07 Y21.5
X-73.06
X-73.219
X-73.379 Y21.507
X-73.539 Y21.518
X-73.698 Y21.531
X-73.815 Y21.548
X-73.858 Y21.556
X-74.018 Y21.588
X-74.178 Y21.621
X-74.337 Y21.665
X-74.464 Y21.708
X-74.497 Y21.719
X-74.657 Y21.774
X-74.816 Y21.84
X-74.873 Y21.867
X-74.976 Y21.918
X-75.136 Y21.998
X-75.19 Y22.027
X-75.296 Y22.091
X-75.439 Y22.187
X-75.455 Y22.198
X-75.615 Y22.308
X-75.666 Y22.347
X-75.775 Y22.439
X-75.935 Y22.579
X-76.029 Y22.667
X-76.094 Y22.735
X-76.175 Y22.827
X-76.254 Y22.916
X-76.315 Y22.986
X-76.414 Y23.112
X-76.438 Y23.146
X-76.545 Y23.306
X-76.573 Y23.349
X-76.649 Y23.466
X-76.733 Y23.62
X-76.815 Y23.786
X-76.891 Y23.946
X-76.893 Y23.951
X-76.952 Y24.105
X-77.006 Y24.265
X-77.053 Y24.407
X-77.058 Y24.425
X-77.097 Y24.585
X-77.129 Y24.745
X-77.16 Y24.905
X-77.181 Y25.065
X-77.191 Y25.225
X-77.202 Y25.384
X-77.205 Y25.544
Y28.883
G3 X-78.005 Y28.883 I-0.4 J0 F800
G1 Y28.483
Z0.4 F600
G18 G2 X-77.605 Z0 I0.4 K0
G17 G3 X-77.205 Y28.883 I0 J0.4
G1 Y35.456 F1000
X-77.202 Y35.616
X-77.191 Y35.775
X-77.181 Y35.935
X-77.16 Y36.095
X-77.129 Y36.255
X-77.097 Y36.415
X-77.058 Y36.575
X-77.053 Y36.593
X-77.006 Y36.735
X-76.952 Y36.895
X-76.893 Y37.049
X-76.891 Y37.054
X-76.815 Y37.214
X-76.733 Y37.38
X-76.649 Y37.534
X-76.573 Y37.651
X-76.545 Y37.694
X-76.438 Y37.854
X-76.414 Y37.888
X-76.315 Y38.014
X-76.254 Y38.084
X-76.175 Y38.173
X-76.094 Y38.265
X-76.029 Y38.333
X-75.935 Y38.421
X-75.775 Y38.561
X-75.666 Y38.653
X-75.615 Y38.692
X-75.455 Y38.802
X-75.439 Y38.813
X-75.296 Y38.909
X-75.19 Y38.973
X-75.136 Y39.002
X-74.976 Y39.082
X-74.873 Y39.133
X-74.816 Y39.16
X-74.657 Y39.226
X-74.497 Y39.281
X-74.464 Y39.292
X-74.337 Y39.335
X-74.178 Y39.379
X-74.018 Y39.412
X-73.858 Y39.444
X-73.815 Y39.452
X-73.698 Y39.469
X-73.539 Y39.482
X-73.379 Y39.493
X-73.219 Y39.5
X-73.06
X-44.07
X-44.03 Y39.503
X-44.007 Y39.504
X-44.005 Y39.506
X-43.99 Y39.537
X-43.954 Y39.612
X-43.67 Y40.258
X-43.602 Y40.411
X-43.524 Y40.571
X-43.191 Y41.249
X-43.129 Y41.371
X-42.692 Y42.17
X-42.598 Y42.33
X-42.211 Y42.969
X-42.112 Y43.129
X-41.687 Y43.769
X-41.594 Y43.909
X-41.58 Y43.928
X-41.464 Y44.088
X-41.115 Y44.568
X-40.998 Y44.728
X-40.955 Y44.783
X-40.476 Y45.385
X-40.362 Y45.527
X-40.316 Y45.581
X-39.807 Y46.167
X-39.677 Y46.314
X-39.666 Y46.326
X-39.038 Y46.989
X-38.9 Y47.126
X-38.399 Y47.611
X-38.24 Y47.762
X-37.601 Y48.33
X-37.515 Y48.405
X-37.441 Y48.466
X-36.802 Y48.986
X-36.729 Y49.044
X-36.642 Y49.109
X-36.003 Y49.586
X-35.866 Y49.684
X-35.162 Y50.163
X-35.045 Y50.239
X-34.394 Y50.643
X-34.246 Y50.734
X-34.125 Y50.803
X-33.448 Y51.183
X-33.288 Y51.269
X-32.631 Y51.602
X-32.49 Y51.673
X-32.33 Y51.747
X-31.593 Y52.082
X-31.531 Y52.109
X-31.371 Y52.173
X-30.733 Y52.431
X-30.573 Y52.493
X-29.774 Y52.776
X-29.614 Y52.83
X-28.816 Y53.075
X-28.656 Y53.122
X-27.858 Y53.33
X-27.74 Y53.36
X-27.698 Y53.37
X-27.538 Y53.405
X-26.899 Y53.542
X-26.739 Y53.576
X-26.58 Y53.604
X-25.781 Y53.74
X-25.621 Y53.762
X-24.823 Y53.862
X-24.663 Y53.879
X-23.864 Y53.945
X-23.705 Y53.958
X-23.545 Y53.964
X-22.906 Y53.989
X-22.746 Y53.996
X-22.587
X-21.788 Y53.994
X-21.628 Y53.989
X-20.83 Y53.952
X-20.67 Y53.943
X-20.51 Y53.929
X-19.871 Y53.872
X-19.712 Y53.858
X-19.574 Y53.84
X-18.753 Y53.731
X-18.594 Y53.705
X-17.795 Y53.564
X-17.635 Y53.532
X-16.837 Y53.356
X-16.677 Y53.318
X-15.878 Y53.105
X-15.718 Y53.061
X-15.654 Y53.041
X-14.92 Y52.81
X-14.76 Y52.759
X-14.654 Y52.721
X-13.961 Y52.471
X-13.802 Y52.411
X-13.777 Y52.401
X-12.999 Y52.082
X-12.843 Y52.015
X-12.045 Y51.646
X-11.953 Y51.602
X-11.885 Y51.567
X-11.246 Y51.238
X-11.086 Y51.155
X-11.029 Y51.122
X-10.288 Y50.7
X-10.19 Y50.643
X-10.128 Y50.604
X-9.428 Y50.163
X-9.329 Y50.1
X-9.17 Y49.989
X-8.691 Y49.658
X-8.531 Y49.547
X-8.498 Y49.524
X-8.371 Y49.427
X-7.864 Y49.044
X-7.732 Y48.944
X-7.659 Y48.884
X-7.078 Y48.405
X-6.934 Y48.284
X-6.889 Y48.245
X-6.295 Y47.709
X-6.181 Y47.605
X-6.135 Y47.56
X-5.529 Y46.966
X-5.496 Y46.933
X-5.375 Y46.806
X-4.857 Y46.251
X-4.779 Y46.167
X-4.697 Y46.072
X-4.218 Y45.513
X-4.096 Y45.367
X-3.579 Y44.709
X-3.472 Y44.568
X-2.941 Y43.828
X-2.899 Y43.769
X-2.781 Y43.588
X-2.461 Y43.1
X-2.376 Y42.969
X-2.302 Y42.847
X-1.899 Y42.17
X-1.822 Y42.037
X-1.464 Y41.371
X-1.378 Y41.211
X-1.343 Y41.142
X-0.99 Y40.411
X-0.914 Y40.252
X-0.845 Y40.092
X-0.545 Y39.397
X-0.503 Y39.292
X-0.197 Y38.493
X-0.14 Y38.333
X0.127 Y37.534
X0.176 Y37.374
X0.414 Y36.545
X0.448 Y36.415
X0.64 Y35.616
X0.676 Y35.456
X0.833 Y34.656
X0.863 Y34.497
X0.887 Y34.337
X0.984 Y33.697
X1.008 Y33.537
X1.026 Y33.378
X1.112 Y32.578
X1.125 Y32.418
X1.177 Y31.619
X1.185 Y31.459
X1.202 Y30.66
X1.205 Y30.5
X1.202 Y30.34
X1.185 Y29.541
X1.177 Y29.381
X1.125 Y28.582
X1.112 Y28.422
X1.026 Y27.622
X1.008 Y27.463
X0.984 Y27.303
X0.887 Y26.663
X0.863 Y26.503
X0.833 Y26.344
X0.676 Y25.544
X0.64 Y25.384
X0.448 Y24.585
X0.414 Y24.455
X0.176 Y23.626
X0.127 Y23.466
X-0.14 Y22.667
X-0.197 Y22.507
X-0.503 Y21.708
X-0.545 Y21.603
X-0.864 Y20.864
X-0.914 Y20.748
X-0.99 Y20.588
X-1.343 Y19.858
X-1.378 Y19.789
X-1.464 Y19.629
X-1.822 Y18.963
X-1.899 Y18.83
X-2.302 Y18.153
X-2.376 Y18.031
X-2.461 Y17.9
X-2.795 Y17.391
X-2.899 Y17.231
X-2.941 Y17.172
X-3.472 Y16.432
X-3.579 Y16.291
X-4.096 Y15.633
X-4.218 Y15.487
X-4.697 Y14.928
X-4.779 Y14.833
X-4.857 Y14.749
X-5.375 Y14.194
X-5.496 Y14.067
X-5.53 Y14.034
X-6.135 Y13.44
X-6.181 Y13.395
X-6.295 Y13.291
X-6.889 Y12.755
X-6.934 Y12.716
X-7.078 Y12.595
X-7.659 Y12.116
X-7.732 Y12.056
X-7.864 Y11.956
X-8.371 Y11.573
X-8.499 Y11.476
X-8.531 Y11.453
X-8.691 Y11.342
X-9.19 Y10.997
X-9.329 Y10.901
X-9.428 Y10.837
X-10.128 Y10.396
X-10.19 Y10.357
X-10.288 Y10.3
X-11.029 Y9.878
X-11.086 Y9.845
X-11.246 Y9.762
X-11.885 Y9.433
X-11.953 Y9.398
X-12.045 Y9.354
X-12.843 Y8.985
X-12.999 Y8.918
X-13.777 Y8.599
X-13.802 Y8.589
X-13.961 Y8.529
X-14.654 Y8.279
X-14.76 Y8.241
X-14.92 Y8.189
X-15.654 Y7.959
X-15.718 Y7.939
X-15.878 Y7.895
X-16.677 Y7.682
X-16.837 Y7.645
X-17.635 Y7.468
X-17.795 Y7.436
X-18.594 Y7.295
X-18.753 Y7.269
X-19.574 Y7.16
X-19.712 Y7.142
X-19.871 Y7.128
X-20.51 Y7.071
X-20.67 Y7.057
X-20.83 Y7.048
X-21.628 Y7.011
X-21.788 Y7.006
X-22.587 Y7.004
X-22.746
X-22.906 Y7.011
X-23.545 Y7.036
X-23.705 Y7.043
X-23.864 Y7.055
X-24.663 Y7.121
X-24.823 Y7.138
X-25.621 Y7.238
X-25.781 Y7.26
X-26.58 Y7.396
X-26.739 Y7.424
X-26.899 Y7.458
X-27.538 Y7.595
X-27.698 Y7.63
X-27.739 Y7.64
X-27.858 Y7.67
X-28.656 Y7.878
X-28.816 Y7.925
X-29.614 Y8.17
X-29.774 Y8.224
X-30.573 Y8.507
X-30.733 Y8.569
X-31.371 Y8.827
X-31.531 Y8.891
X-31.593 Y8.918
X-32.33 Y9.253
X-32.49 Y9.327
X-32.631 Y9.398
X-33.288 Y9.731
X-33.448 Y9.817
X-34.125 Y10.197
X-34.246 Y10.266
X-34.394 Y10.357
X-35.045 Y10.761
X-35.162 Y10.837
X-35.866 Y11.316
X-36.003 Y11.414
X-36.642 Y11.891
X-36.729 Y11.956
X-36.802 Y12.014
X-37.441 Y12.534
X-37.515 Y12.595
X-37.601 Y12.67
X-38.24 Y13.238
X-38.399 Y13.389
X-38.9 Y13.874
X-39.038 Y14.011
X-39.665 Y14.674
X-39.677 Y14.686
X-39.807 Y14.833
X-40.316 Y15.419
X-40.362 Y15.473
X-40.476 Y15.615
X-40.955 Y16.217
X-40.998 Y16.272
X-41.115 Y16.432
X-41.464 Y16.912
X-41.58 Y17.071
X-41.594 Y17.091
X-41.687 Y17.231
X-42.112 Y17.871
X-42.211 Y18.031
X-42.598 Y18.67
X-42.692 Y18.83
X-43.129 Y19.629
X-43.191 Y19.751
X-43.524 Y20.429
X-43.602 Y20.588
X-43.67 Y20.742
X-43.954 Y21.388
X-43.99 Y21.463
X-44.005 Y21.494
X-44.007 Y21.496
X-44.03 Y21.497
X-44.07 Y21.5
X-73.06
X-73.219
X-73.379 Y21.507
X-73.539 Y21.518
X-73.698 Y21.531
X-73.815 Y21.548
X-73.858 Y21.556
X-74.018 Y21.588
X-74.178 Y21.621
X-74.337 Y21.665
X-74.464 Y21.708
X-74.497 Y21.719
X-74.657 Y21.774
X-74.816 Y21.84
X-74.873 Y21.867
X-74.976 Y21.918
X-75.136 Y21.998
X-75.19 Y22.027
X-75.296 Y22.091
X-75.439 Y22.187
X-75.455 Y22.198
X-75.615 Y22.308
X-75.666 Y22.347
X-75.775 Y22.439
X-75.935 Y22.579
X-76.029 Y22.667
X-76.094 Y22.735
X-76.175 Y22.827
X-76.254 Y22.916
X-76.315 Y22.986
X-76.414 Y23.112
X-76.438 Y23.146
X-76.545 Y23.306
X-76.573 Y23.349
X-76.649 Y23.466
X-76.733 Y23.62
X-76.815 Y23.786
X-76.891 Y23.946
X-76.893 Y23.951
X-76.952 Y24.105
X-77.006 Y24.265
X-77.053 Y24.407
X-77.058 Y24.425
X-77.097 Y24.585
X-77.129 Y24.745
X-77.16 Y24.905
X-77.181 Y25.065
X-77.191 Y25.225
X-77.202 Y25.384
X-77.205 Y25.544
Y28.883
G3 X-77.65 Y29.281 I-0.4 J0 F800
G1 X-80.808 Y28.928
X-80.885 Y28.919 Z0.008
X-80.96 Y28.911 Z0.03
X-81.029 Y28.903 Z0.067
X-81.089 Y28.896 Z0.117
X-81.138 Y28.891 Z0.178
X-81.175 Y28.887 Z0.247
X-81.198 Y28.884 Z0.322
X-81.205 Y28.883 Z0.4
G0 Z18
X-33.338 Y30.333
Z10.396
G1 Z6.4 F600
X-33.346 Y30.334 Z6.322
X-33.369 Y30.336 Z6.247
X-33.406 Y30.34 Z6.178
X-33.455 Y30.344 Z6.117
X-33.515 Y30.35 Z6.067
X-33.584 Y30.357 Z6.03
X-33.659 Y30.364 Z6.008
X-33.737 Y30.371 Z6
X-36.101 Y30.593
G3 X-36.538 Y30.18 I-0.037 J-0.398
G1 X-36.52 Y29.701 F1000
X-36.51 Y29.541
X-36.483 Y29.225
X-36.468 Y29.061
X-36.454 Y28.901
X-36.366 Y28.262
X-36.338 Y28.102
X-36.248 Y27.622
X-36.215 Y27.463
X-36.1 Y26.983
X-36.061 Y26.823
X-35.874 Y26.184
X-35.844 Y26.093
X-35.653 Y25.544
X-35.592 Y25.384
X-35.398 Y24.905
X-35.365 Y24.825
X-35.106 Y24.265
X-35.045 Y24.142
X-34.775 Y23.626
X-34.726 Y23.537
X-34.402 Y22.986
X-34.298 Y22.827
X-34.087 Y22.506
X-33.98 Y22.347
X-33.608 Y21.837
X-33.505 Y21.708
X-33.246 Y21.388
X-33.128 Y21.245
X-32.684 Y20.748
X-32.649 Y20.712
X-32.211 Y20.269
X-32.17 Y20.228
X-31.691 Y19.789
X-31.531 Y19.654
X-31.212 Y19.389
X-31.116 Y19.31
X-30.573 Y18.902
X-30.467 Y18.83
X-29.994 Y18.51
X-29.934 Y18.473
X-29.455 Y18.183
X-29.295 Y18.091
X-28.816 Y17.832
X-28.656 Y17.752
X-28.177 Y17.523
X-28.017 Y17.453
X-27.488 Y17.231
X-27.378 Y17.19
X-26.899 Y17.017
X-26.739 Y16.963
X-26.26 Y16.816
X-26.101 Y16.769
X-25.462 Y16.608
X-25.389 Y16.592
X-24.823 Y16.478
X-24.663 Y16.451
X-24.184 Y16.379
X-24.024 Y16.357
X-23.385 Y16.293
X-23.226 Y16.284
X-22.746 Y16.26
X-22.587 Y16.255
X-21.948
X-21.788 Y16.263
X-21.309 Y16.286
X-21.149 Y16.299
X-20.67 Y16.346
X-20.51 Y16.363
X-19.871 Y16.459
X-19.712 Y16.489
X-19.2 Y16.592
X-19.073 Y16.621
X-18.557 Y16.752
X-18.434 Y16.784
X-17.795 Y16.98
X-17.635 Y17.037
X-17.156 Y17.21
X-17.102 Y17.231
X-16.517 Y17.476
X-16.357 Y17.549
X-15.878 Y17.778
X-15.718 Y17.862
X-15.239 Y18.121
X-15.122 Y18.191
X-14.76 Y18.409
X-14.6 Y18.507
X-14.121 Y18.831
X-13.961 Y18.944
X-13.473 Y19.31
X-13.323 Y19.434
X-13.003 Y19.699
X-12.898 Y19.789
X-12.524 Y20.132
X-12.378 Y20.269
X-12.045 Y20.606
X-11.905 Y20.748
X-11.476 Y21.228
X-11.406 Y21.311
X-11.085 Y21.708
X-10.96 Y21.867
X-10.607 Y22.35
X-10.502 Y22.507
X-10.288 Y22.833
X-10.188 Y22.986
X-9.906 Y23.466
X-9.814 Y23.626
X-9.563 Y24.105
X-9.489 Y24.253
X-9.262 Y24.745
X-9.191 Y24.905
X-8.998 Y25.384
X-8.936 Y25.544
X-8.77 Y26.024
X-8.715 Y26.184
X-8.528 Y26.823
X-8.489 Y26.983
X-8.371 Y27.476
X-8.341 Y27.622
X-8.251 Y28.102
X-8.223 Y28.262
X-8.136 Y28.901
X-8.121 Y29.061
X-8.079 Y29.541
X-8.07 Y29.701
X-8.052 Y30.182
X-8.047 Y30.34
X-8.055 Y30.98
X-8.062 Y31.139
X-8.092 Y31.619
X-8.104 Y31.779
X-8.175 Y32.418
X-8.201 Y32.578
X-8.278 Y33.058
X-8.309 Y33.218
X-8.411 Y33.697
X-8.447 Y33.857
X-8.617 Y34.497
X-8.668 Y34.656
X-8.821 Y35.136
X-8.85 Y35.218
X-9.059 Y35.775
X-9.125 Y35.935
X-9.333 Y36.415
X-9.408 Y36.575
X-9.649 Y37.065
X-9.729 Y37.214
X-9.996 Y37.694
X-10.093 Y37.854
X-10.292 Y38.173
X-10.392 Y38.333
X-10.767 Y38.875
X-10.84 Y38.973
X-11.209 Y39.452
X-11.246 Y39.497
X-11.616 Y39.932
X-11.725 Y40.054
X-12.061 Y40.411
X-12.205 Y40.559
X-12.549 Y40.891
X-12.684 Y41.019
X-13.163 Y41.437
X-13.278 Y41.531
X-13.683 Y41.85
X-13.802 Y41.94
X-14.281 Y42.281
X-14.353 Y42.33
X-14.853 Y42.65
X-14.92 Y42.692
X-15.404 Y42.969
X-15.559 Y43.056
X-16.038 Y43.299
X-16.198 Y43.378
X-16.714 Y43.609
X-16.837 Y43.662
X-17.316 Y43.848
X-17.475 Y43.909
X-18.114 Y44.122
X-18.274 Y44.167
X-18.753 Y44.301
X-18.913 Y44.34
X-19.392 Y44.448
X-19.552 Y44.482
X-20.046 Y44.568
X-20.191 Y44.593
X-20.83 Y44.673
X-20.989 Y44.687
X-21.534 Y44.728
X-21.628 Y44.733
X-22.267 Y44.749
X-22.427 Y44.746
X-22.906 Y44.734
X-23.055 Y44.728
X-23.545 Y44.691
X-23.705 Y44.679
X-24.344 Y44.6
X-24.503 Y44.575
X-24.982 Y44.491
X-25.142 Y44.461
X-25.781 Y44.316
X-25.941 Y44.272
X-26.42 Y44.138
X-26.576 Y44.088
X-27.059 Y43.928
X-27.219 Y43.869
X-27.698 Y43.683
X-27.858 Y43.617
X-28.337 Y43.403
X-28.496 Y43.327
X-28.976 Y43.084
X-29.135 Y42.998
X-29.614 Y42.724
X-29.737 Y42.65
X-30.253 Y42.319
X-30.413 Y42.207
X-30.733 Y41.979
X-30.892 Y41.862
X-31.371 Y41.484
X-31.503 Y41.371
X-31.869 Y41.051
X-32.01 Y40.92
X-32.372 Y40.571
X-32.49 Y40.453
X-32.829 Y40.092
X-32.969 Y39.937
X-33.288 Y39.562
X-33.38 Y39.452
X-33.767 Y38.949
X-33.865 Y38.813
X-34.198 Y38.333
X-34.246 Y38.256
X-34.566 Y37.742
X-34.594 Y37.694
X-34.885 Y37.169
X-34.946 Y37.054
X-35.205 Y36.528
X-35.257 Y36.415
X-35.464 Y35.935
X-35.524 Y35.791
X-35.71 Y35.296
X-35.768 Y35.136
X-35.921 Y34.656
X-35.972 Y34.497
X-36.142 Y33.857
X-36.163 Y33.768
X-36.281 Y33.218
X-36.311 Y33.058
X-36.389 Y32.578
X-36.414 Y32.418
X-36.486 Y31.779
X-36.498 Y31.619
X-36.527 Y31.139
X-36.535 Y30.98
X-36.543 Y30.34
X-36.538 Y30.187
Y30.18
G3 X-36.022 Y29.812 I0.4 J0.015 F800
G1 X-33.49 Y30.58
Z3.4 F600
X-33.497 Z3.322
X-33.52 Z3.247
X-33.557 Z3.178
X-33.607 Z3.117
X-33.668 Z3.067
X-33.737 Z3.03
X-33.812 Z3.008
X-33.89 Z3
G3 X-34.29 Y30.18 I0 J-0.4
G1 X-34.264 Y29.701 F1000
X-34.256 Y29.541
X-34.204 Y29.061
X-34.187 Y28.901
X-34.087 Y28.28
X-34.083 Y28.262
X-33.979 Y27.782
X-33.943 Y27.622
X-33.812 Y27.143
X-33.767 Y26.988
X-33.607 Y26.503
X-33.549 Y26.344
X-33.361 Y25.864
X-33.291 Y25.704
X-33.128 Y25.346
X-33.071 Y25.225
X-32.809 Y24.72
X-32.732 Y24.585
X-32.49 Y24.174
X-32.447 Y24.105
X-32.129 Y23.626
X-32.012 Y23.466
X-31.775 Y23.146
X-31.691 Y23.04
X-31.371 Y22.654
X-31.241 Y22.507
X-30.892 Y22.13
X-30.787 Y22.027
X-30.459 Y21.708
X-30.413 Y21.665
X-30.094 Y21.385
X-29.934 Y21.247
X-29.455 Y20.871
X-29.295 Y20.759
X-28.976 Y20.534
X-28.816 Y20.431
X-28.496 Y20.231
X-28.337 Y20.134
X-27.858 Y19.869
X-27.697 Y19.789
X-27.369 Y19.629
X-27.219 Y19.559
X-26.739 Y19.356
X-26.623 Y19.31
X-26.101 Y19.121
X-25.941 Y19.071
X-25.462 Y18.926
X-25.302 Y18.887
X-24.982 Y18.809
X-24.823 Y18.77
X-24.292 Y18.67
X-24.184 Y18.651
X-23.705 Y18.587
X-23.545 Y18.567
X-23.066 Y18.528
X-22.906 Y18.517
X-22.427 Y18.504
X-22.267 Y18.501
X-21.788 Y18.514
X-21.628 Y18.52
X-21.149 Y18.558
X-20.989 Y18.573
X-20.51 Y18.637
X-20.35 Y18.66
X-19.871 Y18.751
X-19.712 Y18.783
X-19.232 Y18.9
X-19.073 Y18.943
X-18.594 Y19.088
X-18.434 Y19.141
X-17.955 Y19.314
X-17.795 Y19.38
X-17.475 Y19.514
X-17.316 Y19.583
X-16.837 Y19.816
X-16.677 Y19.9
X-16.299 Y20.109
X-16.198 Y20.165
X-15.718 Y20.465
X-15.559 Y20.573
X-15.239 Y20.797
X-15.088 Y20.908
X-14.68 Y21.228
X-14.6 Y21.294
X-14.281 Y21.573
X-14.131 Y21.708
X-13.802 Y22.028
X-13.644 Y22.187
X-13.323 Y22.535
X-13.208 Y22.667
X-12.943 Y22.986
X-12.843 Y23.108
X-12.524 Y23.538
X-12.46 Y23.626
X-12.142 Y24.105
X-12.046 Y24.265
X-11.858 Y24.585
X-11.767 Y24.745
X-11.518 Y25.225
X-11.444 Y25.384
X-11.246 Y25.82
X-11.228 Y25.864
X-11.041 Y26.344
X-10.983 Y26.503
X-10.824 Y26.983
X-10.777 Y27.143
X-10.646 Y27.622
X-10.61 Y27.782
X-10.506 Y28.262
X-10.48 Y28.422
X-10.403 Y28.901
X-10.385 Y29.061
X-10.334 Y29.541
X-10.325 Y29.701
X-10.3 Y30.18
Y30.34
Y30.66
Y30.82
X-10.325 Y31.299
X-10.334 Y31.459
X-10.385 Y31.939
X-10.403 Y32.099
X-10.48 Y32.578
X-10.506 Y32.738
X-10.61 Y33.218
X-10.646 Y33.378
X-10.777 Y33.857
X-10.824 Y34.017
X-10.983 Y34.497
X-11.041 Y34.656
X-11.228 Y35.136
X-11.246 Y35.18
X-11.444 Y35.616
X-11.518 Y35.775
X-11.767 Y36.255
X-11.858 Y36.415
X-12.046 Y36.735
X-12.142 Y36.895
X-12.46 Y37.374
X-12.524 Y37.462
X-12.843 Y37.892
X-12.943 Y38.014
X-13.208 Y38.333
X-13.323 Y38.465
X-13.644 Y38.813
X-13.802 Y38.972
X-14.13 Y39.292
X-14.281 Y39.427
X-14.6 Y39.706
X-14.68 Y39.772
X-15.088 Y40.092
X-15.239 Y40.203
X-15.559 Y40.427
X-15.718 Y40.535
X-16.198 Y40.835
X-16.299 Y40.891
X-16.677 Y41.1
X-16.837 Y41.184
X-17.316 Y41.417
X-17.475 Y41.486
X-17.795 Y41.62
X-17.955 Y41.686
X-18.434 Y41.859
X-18.594 Y41.912
X-19.073 Y42.057
X-19.232 Y42.1
X-19.712 Y42.217
X-19.871 Y42.249
X-20.35 Y42.34
X-20.51 Y42.363
X-20.989 Y42.427
X-21.149 Y42.442
X-21.628 Y42.48
X-21.788 Y42.486
X-22.267 Y42.499
X-22.427 Y42.496
X-22.906 Y42.483
X-23.066 Y42.472
X-23.545 Y42.433
X-23.705 Y42.413
X-24.184 Y42.349
X-24.292 Y42.33
X-24.823 Y42.23
X-24.982 Y42.191
X-25.302 Y42.113
X-25.462 Y42.074
X-25.941 Y41.929
X-26.101 Y41.879
X-26.623 Y41.69
X-26.739 Y41.644
X-27.219 Y41.441
X-27.369 Y41.371
X-27.698 Y41.211
X-27.858 Y41.131
X-28.337 Y40.866
X-28.496 Y40.769
X-28.816 Y40.569
X-28.976 Y40.466
X-29.295 Y40.241
X-29.455 Y40.129
X-29.934 Y39.753
X-30.094 Y39.615
X-30.413 Y39.335
X-30.459 Y39.292
X-30.787 Y38.973
X-30.892 Y38.87
X-31.241 Y38.493
X-31.371 Y38.346
X-31.691 Y37.96
X-31.775 Y37.854
X-32.012 Y37.534
X-32.129 Y37.374
X-32.447 Y36.895
X-32.49 Y36.826
X-32.732 Y36.415
X-32.809 Y36.28
X-33.071 Y35.775
X-33.128 Y35.654
X-33.291 Y35.296
X-33.361 Y35.136
X-33.549 Y34.656
X-33.607 Y34.497
X-33.767 Y34.012
X-33.812 Y33.857
X-33.943 Y33.378
X-33.979 Y33.218
X-34.083 Y32.738
X-34.087 Y32.72
X-34.187 Y32.099
X-34.204 Y31.939
X-34.256 Y31.459
X-34.264 Y31.299
X-34.29 Y30.82
Y30.66
Y30.34
Y30.181
Y30.18
G3 X-33.491 Y30.223 I0.399 J0.021 F800
G1 X-33.512 Y30.622
Z0.4 F600
X-33.52 Z0.322
X-33.543 Y30.621 Z0.247
X-33.58 Y30.619 Z0.178
X-33.629 Y30.616 Z0.117
X-33.69 Y30.613 Z0.067
X-33.759 Y30.609 Z0.03
X-33.834 Y30.605 Z0.008
X-33.912 Y30.601 Z0
G3 X-34.29 Y30.18 I0.021 J-0.399
G1 X-34.264 Y29.701 F1000
X-34.256 Y29.541
X-34.204 Y29.061
X-34.187 Y28.901
X-34.087 Y28.28
X-34.083 Y28.262
X-33.979 Y27.782
X-33.943 Y27.622
X-33.812 Y27.143
X-33.767 Y26.988
X-33.607 Y26.503
X-33.549 Y26.344
X-33.361 Y25.864
X-33.291 Y25.704
X-33.128 Y25.346
X-33.071 Y25.225
X-32.809 Y24.72
X-32.732 Y24.585
X-32.49 Y24.174
X-32.447 Y24.105
X-32.129 Y23.626
X-32.012 Y23.466
X-31.775 Y23.146
X-31.691 Y23.04
X-31.371 Y22.654
X-31.241 Y22.507
X-30.892 Y22.13
X-30.787 Y22.027
X-30.459 Y21.708
X-30.413 Y21.665
X-30.094 Y21.385
X-29.934 Y21.247
X-29.455 Y20.871
X-29.295 Y20.759
X-28.976 Y20.534
X-28.816 Y20.431
X-28.496 Y20.231
X-28.337 Y20.134
X-27.858 Y19.869
X-27.697 Y19.789
X-27.369 Y19.629
X-27.219 Y19.559
X-26.739 Y19.356
X-26.623 Y19.31
X-26.101 Y19.121
X-25.941 Y19.071
X-25.462 Y18.926
X-25.302 Y18.887
X-24.982 Y18.809
X-24.823 Y18.77
X-24.292 Y18.67
X-24.184 Y18.651
X-23.705 Y18.587
X-23.545 Y18.567
X-23.066 Y18.528
X-22.906 Y18.517
X-22.427 Y18.504
X-22.267 Y18.501
X-21.788 Y18.514
X-21.628 Y18.52
X-21.149 Y18.558
X-20.989 Y18.573
X-20.51 Y18.637
X-20.35 Y18.66
X-19.871 Y18.751
X-19.712 Y18.783
X-19.232 Y18.9
X-19.073 Y18.943
X-18.594 Y19.088
X-18.434 Y19.141
X-17.955 Y19.314
X-17.795 Y19.38
X-17.475 Y19.514
X-17.316 Y19.583
X-16.837 Y19.816
X-16.677 Y19.9
X-16.299 Y20.109
X-16.198 Y20.165
X-15.718 Y20.465
X-15.559 Y20.573
X-15.239 Y20.797
X-15.088 Y20.908
X-14.68 Y21.228
X-14.6 Y21.294
X-14.281 Y21.573
X-14.131 Y21.708
X-13.802 Y22.028
X-13.644 Y22.187
X-13.323 Y22.535
X-13.208 Y22.667
X-12.943 Y22.986
X-12.843 Y23.108
X-12.524 Y23.538
X-12.46 Y23.626
X-12.142 Y24.105
X-12.046 Y24.265
X-11.858 Y24.585
X-11.767 Y24.745
X-11.518 Y25.225
X-11.444 Y25.384
X-11.246 Y25.82
X-11.228 Y25.864
X-11.041 Y26.344
X-10.983 Y26.503
X-10.824 Y26.983
X-10.777 Y27.143
X-10.646 Y27.622
X-10.61 Y27.782
X-10.506 Y28.262
X-10.48 Y28.422
X-10.403 Y28.901
X-10.385 Y29.061
X-10.334 Y29.541
X-10.325 Y29.701
X-10.3 Y30.18
Y30.34
Y30.66
Y30.82
X-10.325 Y31.299
X-10.334 Y31.459
X-10.385 Y31.939
X-10.403 Y32.099
X-10.48 Y32.578
X-10.506 Y32.738
X-10.61 Y33.218
X-10.646 Y33.378
X-10.777 Y33.857
X-10.824 Y34.017
X-10.983 Y34.497
X-11.041 Y34.656
X-11.228 Y35.136
X-11.246 Y35.18
X-11.444 Y35.616
X-11.518 Y35.775
X-11.767 Y36.255
X-11.858 Y36.415
X-12.046 Y36.735
X-12.142 Y36.895
X-12.46 Y37.374
X-12.524 Y37.462
X-12.843 Y37.892
X-12.943 Y38.014
X-13.208 Y38.333
X-13.323 Y38.465
X-13.644 Y38.813
X-13.802 Y38.972
X-14.13 Y39.292
X-14.281 Y39.427
X-14.6 Y39.706
X-14.68 Y39.772
X-15.088 Y40.092
X-15.239 Y40.203
X-15.559 Y40.427
X-15.718 Y40.535
X-16.198 Y40.835
X-16.299 Y40.891
X-16.677 Y41.1
X-16.837 Y41.184
X-17.316 Y41.417
X-17.475 Y41.486
X-17.795 Y41.62
X-17.955 Y41.686
X-18.434 Y41.859
X-18.594 Y41.912
X-19.073 Y42.057
X-19.232 Y42.1
X-19.712 Y42.217
X-19.871 Y42.249
X-20.35 Y42.34
X-20.51 Y42.363
X-20.989 Y42.427
X-21.149 Y42.442
X-21.628 Y42.48
X-21.788 Y42.486
X-22.267 Y42.499
X-22.427 Y42.496
X-22.906 Y42.483
X-23.066 Y42.472
X-23.545 Y42.433
X-23.705 Y42.413
X-24.184 Y42.349
X-24.292 Y42.33
X-24.823 Y42.23
X-24.982 Y42.191
X-25.302 Y42.113
X-25.462 Y42.074
X-25.941 Y41.929
X-26.101 Y41.879
X-26.623 Y41.69
X-26.739 Y41.644
X-27.219 Y41.441
X-27.369 Y41.371
X-27.698 Y41.211
X-27.858 Y41.131
X-28.337 Y40.866
X-28.496 Y40.769
X-28.816 Y40.569
X-28.976 Y40.466
X-29.295 Y40.241
X-29.455 Y40.129
X-29.934 Y39.753
X-30.094 Y39.615
X-30.413 Y39.335
X-30.459 Y39.292
X-30.787 Y38.973
X-30.892 Y38.87
X-31.241 Y38.493
X-31.371 Y38.346
X-31.691 Y37.96
X-31.775 Y37.854
X-32.012 Y37.534
X-32.129 Y37.374
X-32.447 Y36.895
X-32.49 Y36.826
X-32.732 Y36.415
X-32.809 Y36.28
X-33.071 Y35.775
X-33.128 Y35.654
X-33.291 Y35.296
X-33.361 Y35.136
X-33.549 Y34.656
X-33.607 Y34.497
X-33.767 Y34.012
X-33.812 Y33.857
X-33.943 Y33.378
X-33.979 Y33.218
X-34.083 Y32.738
X-34.087 Y32.72
X-34.187 Y32.099
X-34.204 Y31.939
X-34.256 Y31.459
X-34.264 Y31.299
X-34.29 Y30.82
Y30.66
Y30.34
Y30.181
Y30.18
G3 X-33.825 Y29.807 I0.399 J0.021 F800
G1 X-30.682 Y30.328
X-30.605 Y30.341 Z0.008
X-30.531 Y30.353 Z0.03
X-30.463 Y30.364 Z0.067
X-30.403 Y30.374 Z0.117
X-30.354 Y30.383 Z0.178
X-30.318 Y30.389 Z0.247
X-30.295 Y30.392 Z0.322
X-30.288 Y30.394 Z0.4
G0 Z28
G28 G91 Z0
G90
G28 G91 X0 Y0
G90
M5
M30
