(drill1)
(T2 D=5 CR=0 TAPER=120deg - ZMIN=7 - center drill)
G90 G94
G17
G21
G28 G91 Z0
G90

(Drill1 5)
T2
S5000 M3
G17 G90 G94
G54
G0 X-13.045 Y46.521
Z28
G0 Z18
Z13
Z10
G1 Z7.5 F100.3
G0 Z13
Z9.5
G1 Z7 F100.3
G0 Z18
X-31.545
Z13
Z10
G1 Z7.5 F100.3
G0 Z13
Z9.5
G1 Z7 F100.3
G0 Z18
X-40.795 Y30.5
Z13
Z10
G1 Z7.5 F100.3
G0 Z13
Z9.5
G1 Z7 F100.3
G0 Z18
X-31.545 Y14.479
Z13
Z10
G1 Z7.5 F100.3
G0 Z13
Z9.5
G1 Z7 F100.3
G0 Z18
X-13.045
Z13
Z10
G1 Z7.5 F100.3
G0 Z13
Z9.5
G1 Z7 F100.3
G0 Z18
X-3.795 Y30.5
Z13
Z10
G1 Z7.5 F100.3
G0 Z13
Z9.5
G1 Z7 F100.3
G0 Z18
Z28
G28 G91 Z0
G90
G28 G91 X0 Y0
G90
M5
M30
