(adap1)
(T1  D=6 CR=0 - ZMIN=0 - flat end mill)
G90 G94
G17
G21
G28 G91 Z0
G90

(Adaptive1 2)
T1
S18000 M3
G54
G0 X34.337 Y-31.089
Z30
Z20
Z10.9
G1 Z10.3 F600
X34.33 Y-31.087 Z10.206
X34.309 Y-31.081 Z10.115
X34.274 Y-31.072 Z10.028
X34.226 Y-31.06 Z9.947
X34.167 Y-31.045 Z9.876
X34.098 Y-31.027 Z9.815
X34.02 Y-31.007 Z9.765
X33.936 Y-30.986 Z9.729
X33.847 Y-30.963 Z9.707
X33.756 Y-30.94 Z9.7
G3 X30.49 Y-30.47 I-3.801 J-14.839
G1 X30.377 F1300
X29.528 Y-30.17
X28.653 Y-29.956
X27.764 Y-29.806
X26.87 Y-29.701
X25.972 Y-29.628
X25.072 Y-29.578
X24.172 Y-29.544
X23.271 Y-29.521
X22.37 Y-29.505
X21.47 Y-29.494
X20.569 Y-29.486
X19.668 Y-29.481
X18.767 Y-29.477
X16.965 Y-29.473
X13.362 Y-29.471
X-9.161 Y-29.47
X-10.111
X-10.155 Y-29.472
X-10.198 Y-29.476
X-10.242 Y-29.484
X-11.298 Y-29.721
X-11.976 Y-29.87
X-12.116 Y-29.897
X-12.526 Y-29.97
X-12.73 Y-30.004
X-13.139 Y-30.049
X-13.344 Y-30.07
X-13.958 Y-30.096
X-14.367 Y-30.099
X-14.981 Y-30.1
X-24.801
X-25.31 Y-30.074
X-25.415 Y-30.069
X-25.619 Y-30.034
X-25.824 Y-29.984
X-26.028 Y-29.922
X-26.233 Y-29.843
X-26.438 Y-29.743
X-26.58 Y-29.665
X-26.847 Y-29.488
X-27.123 Y-29.256
X-27.256 Y-29.123
X-27.488 Y-28.847
X-27.665 Y-28.58
X-27.743 Y-28.438
X-27.843 Y-28.233
X-27.922 Y-28.028
X-27.984 Y-27.824
X-28.034 Y-27.619
X-28.069 Y-27.415
X-28.09 Y-27.005
X-28.1 Y-26.801
Y26.801
X-28.074 Y27.31
X-28.069 Y27.415
X-28.034 Y27.619
X-27.984 Y27.824
X-27.922 Y28.028
X-27.843 Y28.233
X-27.743 Y28.438
X-27.665 Y28.58
X-27.488 Y28.847
X-27.256 Y29.123
X-27.123 Y29.256
X-26.847 Y29.488
X-26.58 Y29.665
X-26.438 Y29.743
X-26.233 Y29.843
X-26.028 Y29.922
X-25.824 Y29.984
X-25.619 Y30.034
X-25.415 Y30.069
X-25.005 Y30.09
X-24.801 Y30.1
X-14.572
X-14.162 Y30.098
X-13.958 Y30.096
X-13.344 Y30.07
X-12.935 Y30.026
X-12.73 Y30.004
X-12.526 Y29.97
X-12.321 Y29.934
X-11.427 Y29.821
X-10.533 Y29.711
X-9.635 Y29.636
X-8.736 Y29.583
X-7.836 Y29.548
X-6.935 Y29.523
X-6.034 Y29.506
X-5.134 Y29.495
X-4.233 Y29.487
X-3.332 Y29.481
X-2.431 Y29.478
X-0.629 Y29.474
X2.073 Y29.471
X11.983 Y29.47
X24.708
X24.815 Y29.433
X24.99 Y29.291
X25.523 Y28.565
X25.846 Y27.724
X26.053 Y26.847
X26.19 Y25.957
X26.281 Y25.06
X26.342 Y24.162
X26.383 Y23.262
X26.411 Y22.361
X26.43 Y21.46
X26.443 Y20.56
X26.451 Y19.659
X26.457 Y18.758
X26.461 Y17.857
X26.466 Y16.055
X26.469 Y13.353
X26.47 Y9.101
X26.475 Y9.025
X26.489 Y8.95
X26.513 Y8.878
X26.709 Y8.388
X26.755 Y8.262
X26.894 Y7.774
X27.54 Y5.319
X27.573 Y5.188
X27.59 Y5.115
X27.629 Y4.91
X27.714 Y4.296
X27.952 Y2.455
X27.982 Y2.209
X28.025 Y1.841
X28.046 Y1.637
X28.052 Y1.023
Y-1.023
X28.046 Y-1.637
X28.025 Y-1.841
X27.978 Y-2.25
X27.899 Y-2.864
X27.714 Y-4.296
X27.629 Y-4.91
X27.59 Y-5.115
X27.573 Y-5.188
X27.486 Y-5.524
X27.217 Y-6.547
X27.031 Y-7.428
X26.858 Y-8.313
X26.738 Y-9.205
X26.654 Y-10.102
X26.596 Y-11.001
X26.556 Y-11.901
X26.529 Y-12.802
X26.51 Y-13.703
X26.497 Y-14.603
X26.489 Y-15.504
X26.483 Y-16.405
X26.479 Y-17.306
X26.474 Y-19.108
X26.471 Y-21.81
Y-23.95
X26.433 Y-24.056
X26.292 Y-24.231
X25.521 Y-24.697
X24.663 Y-24.974
X23.779 Y-25.148
X22.885 Y-25.259
X21.987 Y-25.332
X21.088 Y-25.379
X20.187 Y-25.41
X19.287 Y-25.431
X18.386 Y-25.444
X17.485 Y-25.453
X16.584 Y-25.459
X15.683 Y-25.463
X13.881 Y-25.467
X11.179 Y-25.469
X7.756 Y-25.47
X7.708 Y-25.472
X7.659 Y-25.478
X7.612 Y-25.488
X7.524 Y-25.509
X-10.242 Y-29.484
G3 X-10.69 Y-30.061 I0.151 J-0.581 F800
G1 X-10.691 Y-30.155 Z9.707
Y-30.246 Z9.729
X-10.692 Y-30.333 Z9.765
X-10.693 Y-30.414 Z9.815
Y-30.485 Z9.876
Y-30.546 Z9.947
X-10.694 Y-30.596 Z10.028
Y-30.632 Z10.115
Y-30.654 Z10.206
Y-30.661 Z10.3
G0 Z20
X28.05 Y-5.454
Z10.9
G1 Z10.3 F600
X28.045 Y-5.459 Z10.206
X28.029 Y-5.474 Z10.115
X28.004 Y-5.499 Z10.028
X27.968 Y-5.534 Z9.947
X27.925 Y-5.577 Z9.876
X27.874 Y-5.627 Z9.815
X27.817 Y-5.683 Z9.765
X27.755 Y-5.744 Z9.729
X27.689 Y-5.808 Z9.707
X27.622 Y-5.874 Z9.7
G3 X27.217 Y-6.547 I1.11 J-1.128
G1 X26.894 Y-7.774 F1300
X26.755 Y-8.262
X26.709 Y-8.388
X26.463 Y-9.002
X25.632 Y-11.048
X25.544 Y-11.252
X25.441 Y-11.457
X25.335 Y-11.661
X24.294 Y-13.503
X24.177 Y-13.707
X23.941 Y-14.116
X23.529 Y-14.918
X23.214 Y-15.762
X22.989 Y-16.634
X22.83 Y-17.521
X22.718 Y-18.415
X22.68 Y-18.864
X22.656 Y-19.201
X22.648 Y-19.313
X22.56 Y-19.52
X22.489 Y-19.608
X22.183 Y-19.939
X21.451 Y-20.463
X20.613 Y-20.794
X19.739 Y-21.011
X18.85 Y-21.157
X17.954 Y-21.256
X17.211 Y-21.311
X17.11 Y-21.328
X17.013 Y-21.361
X16.923 Y-21.41
X16.73 Y-21.539
X16.49 Y-21.686
X14.275 Y-23.019
X13.661 Y-23.332
X13.457 Y-23.423
X11.616 Y-24.231
X11.002 Y-24.495
X10.838 Y-24.55
X10.388 Y-24.689
X10.168 Y-24.755
X8.342 Y-25.289
X7.933 Y-25.402
X7.728 Y-25.459
X7.612 Y-25.488
G3 X7.177 Y-26.075 I0.165 J-0.577 F800
G1 X7.178 Y-26.168 Z9.707
X7.18 Y-26.26 Z9.729
X7.181 Y-26.347 Z9.765
X7.183 Y-26.427 Z9.815
X7.184 Y-26.499 Z9.876
X7.185 Y-26.56 Z9.947
X7.186 Y-26.609 Z10.028
Y-26.645 Z10.115
X7.187 Y-26.667 Z10.206
Y-26.674 Z10.3
G0 Z20
X25.033 Y-13.282
Z10.9
G1 Z10.3 F600
X25.027 Y-13.285 Z10.206
X25.007 Y-13.296 Z10.115
X24.976 Y-13.314 Z10.028
X24.933 Y-13.338 Z9.947
X24.88 Y-13.368 Z9.876
X24.817 Y-13.403 Z9.815
X24.747 Y-13.442 Z9.765
X24.671 Y-13.484 Z9.729
X24.591 Y-13.529 Z9.707
X24.509 Y-13.575 Z9.7
G3 X23.941 Y-14.116 I0.773 J-1.381
G1 X23.891 Y-14.203 F1300
X23.816 Y-14.321
X23.668 Y-14.526
X23.482 Y-14.778
X22.254 Y-16.416
X21.98 Y-16.776
X21.845 Y-16.95
X21.627 Y-17.185
X21.23 Y-17.594
X19.799 Y-19.065
X19.594 Y-19.274
X19.39 Y-19.45
X19.185 Y-19.622
X17.549 Y-20.92
X16.935 Y-21.403
X16.923 Y-21.41
G3 X16.712 Y-22.11 I0.35 J-0.487 F800
G1 X16.745 Y-22.197 Z9.707
X16.778 Y-22.283 Z9.729
X16.808 Y-22.364 Z9.765
X16.837 Y-22.44 Z9.815
X16.862 Y-22.507 Z9.876
X16.884 Y-22.564 Z9.947
X16.901 Y-22.61 Z10.028
X16.914 Y-22.643 Z10.115
X16.921 Y-22.664 Z10.206
X16.924 Y-22.671 Z10.3
G0 Z20
X-13.478 Y30.676
Z10.9
G1 Z10.3 F600
X-13.473 Y30.671 Z10.206
X-13.456 Y30.656 Z10.115
X-13.429 Y30.633 Z10.028
X-13.392 Y30.601 Z9.947
X-13.345 Y30.561 Z9.876
X-13.291 Y30.514 Z9.815
X-13.23 Y30.461 Z9.765
X-13.165 Y30.405 Z9.729
X-13.095 Y30.345 Z9.707
X-13.024 Y30.283 Z9.7
G3 X-12.321 Y29.934 I1.034 J1.198
G1 X-12.116 Y29.897 F1300
X-11.976 Y29.87
X-11.298 Y29.721
X4.864 Y26.105
X5.752 Y25.952
X6.641 Y25.803
X7.535 Y25.699
X8.433 Y25.627
X9.333 Y25.578
X10.233 Y25.544
X11.134 Y25.52
X12.035 Y25.504
X12.935 Y25.493
X13.836 Y25.486
X14.737 Y25.481
X15.638 Y25.477
X17.44 Y25.473
X20.255 Y25.471
X20.467 Y25.396
X20.556 Y25.327
X20.893 Y25.027
X21.427 Y24.302
X21.766 Y23.467
X21.989 Y22.594
X22.14 Y21.706
X22.242 Y20.811
X22.313 Y19.913
X22.361 Y19.013
X22.395 Y18.113
X22.418 Y17.213
X22.433 Y16.367
X22.448 Y16.243
X22.489 Y16.125
X22.553 Y16.017
X23.517 Y14.73
X23.686 Y14.501
X23.816 Y14.321
X23.891 Y14.203
X24.177 Y13.707
X24.41 Y13.298
X25.335 Y11.661
X25.441 Y11.457
X25.544 Y11.252
X25.632 Y11.048
X26.503 Y8.903
X26.513 Y8.878
G3 X27.154 Y8.528 I0.549 J0.243 F800
G1 X27.247 Y8.542 Z9.707
X27.337 Y8.556 Z9.729
X27.423 Y8.57 Z9.765
X27.502 Y8.582 Z9.815
X27.573 Y8.593 Z9.876
X27.634 Y8.602 Z9.947
X27.682 Y8.61 Z10.028
X27.718 Y8.616 Z10.115
X27.74 Y8.619 Z10.206
X27.747 Y8.62 Z10.3
G0 Z20
X3.741 Y26.897
Z10.9
G1 Z10.3 F600
X3.746 Y26.892 Z10.206
X3.762 Y26.877 Z10.115
X3.788 Y26.852 Z10.028
X3.824 Y26.818 Z9.947
X3.869 Y26.776 Z9.876
X3.921 Y26.727 Z9.815
X3.979 Y26.672 Z9.765
X4.042 Y26.612 Z9.729
X4.109 Y26.549 Z9.707
X4.177 Y26.485 Z9.7
G3 X4.864 Y26.105 I1.086 J1.151
G1 X7.524 Y25.509 F1300
X7.728 Y25.459
X8.138 Y25.346
X8.342 Y25.289
X10.183 Y24.75
X10.388 Y24.689
X10.838 Y24.55
X11.002 Y24.495
X11.616 Y24.231
X13.457 Y23.423
X13.661 Y23.332
X14.275 Y23.019
X14.45 Y22.914
X15.232 Y22.495
X16.079 Y22.188
X16.487 Y21.998
X17.14 Y21.377
X17.203 Y21.259
X17.247 Y21.187
X17.301 Y21.122
X17.363 Y21.066
G3 X18.08 Y21.072 Z9.863 I0.354 J0.484 F800
G1 X18.145 Y21.129 Z9.882 F1300
X18.201 Y21.195 Z9.9
G3 X18.039 Y22.056 I-0.484 J0.355
G1 X15.099 Y23.923
G3 X14.274 Y23.743 I-0.322 J-0.507
G1 X14.232 Y23.667 Z9.882
X14.202 Y23.586 Z9.863
G3 X14.45 Y22.914 Z9.7 I0.576 J-0.169 F600
G1 X16.526 Y21.665 F1300
X16.73 Y21.539
X16.935 Y21.403
X17.614 Y20.868
X19.185 Y19.622
X19.407 Y19.436
X19.594 Y19.274
X20.235 Y18.617
X21.436 Y17.384
X21.64 Y17.171
X21.845 Y16.95
X21.98 Y16.776
X22.291 Y16.367
X22.553 Y16.017
X22.616 Y15.95 F800
X22.689 Y15.893
X22.757 Y15.864 Z9.705
X22.824 Y15.836 Z9.718
X22.889 Y15.808 Z9.741
X22.957 Y15.801 Z9.773
X23.02 Y15.794 Z9.813
X23.09 Y15.807 Z9.873
X23.149 Y15.818 Z9.943
X23.198 Y15.826 Z10.022
X23.233 Y15.833 Z10.108
X23.255 Y15.842 Z10.203
X23.263 Y15.845 Z10.3
G0 Z20
X34.337 Y-31.089
Z10.6
G1 Z10 F600
X34.33 Y-31.087 Z9.906
X34.309 Y-31.081 Z9.815
X34.274 Y-31.072 Z9.728
X34.226 Y-31.06 Z9.647
X34.167 Y-31.045 Z9.576
X34.098 Y-31.027 Z9.515
X34.02 Y-31.007 Z9.465
X33.936 Y-30.986 Z9.429
X33.847 Y-30.963 Z9.407
X33.756 Y-30.94 Z9.4
G3 X30.49 Y-30.47 I-3.801 J-14.839
G1 X30.377 F1300
X29.528 Y-30.17
X28.653 Y-29.956
X27.764 Y-29.806
X26.87 Y-29.701
X25.972 Y-29.628
X25.072 Y-29.578
X24.172 Y-29.544
X23.271 Y-29.521
X22.37 Y-29.505
X21.47 Y-29.494
X20.569 Y-29.486
X19.668 Y-29.481
X18.767 Y-29.477
X16.965 Y-29.473
X13.362 Y-29.471
X-9.161 Y-29.47
X-10.111
X-10.155 Y-29.472
X-10.198 Y-29.476
X-10.242 Y-29.484
X-11.298 Y-29.721
X-11.976 Y-29.87
X-12.116 Y-29.897
X-12.526 Y-29.97
X-12.73 Y-30.004
X-13.139 Y-30.049
X-13.344 Y-30.07
X-13.958 Y-30.096
X-14.367 Y-30.099
X-14.981 Y-30.1
X-24.801
X-25.31 Y-30.074
X-25.415 Y-30.069
X-25.619 Y-30.034
X-25.824 Y-29.984
X-26.028 Y-29.922
X-26.233 Y-29.843
X-26.438 Y-29.743
X-26.58 Y-29.665
X-26.847 Y-29.488
X-27.123 Y-29.256
X-27.256 Y-29.123
X-27.488 Y-28.847
X-27.665 Y-28.58
X-27.743 Y-28.438
X-27.843 Y-28.233
X-27.922 Y-28.028
X-27.984 Y-27.824
X-28.034 Y-27.619
X-28.069 Y-27.415
X-28.09 Y-27.005
X-28.1 Y-26.801
Y26.801
X-28.074 Y27.31
X-28.069 Y27.415
X-28.034 Y27.619
X-27.984 Y27.824
X-27.922 Y28.028
X-27.843 Y28.233
X-27.743 Y28.438
X-27.665 Y28.58
X-27.488 Y28.847
X-27.256 Y29.123
X-27.123 Y29.256
X-26.847 Y29.488
X-26.58 Y29.665
X-26.438 Y29.743
X-26.233 Y29.843
X-26.028 Y29.922
X-25.824 Y29.984
X-25.619 Y30.034
X-25.415 Y30.069
X-25.005 Y30.09
X-24.801 Y30.1
X-14.572
X-14.162 Y30.098
X-13.958 Y30.096
X-13.344 Y30.07
X-12.935 Y30.026
X-12.73 Y30.004
X-12.526 Y29.97
X-12.321 Y29.934
X-11.427 Y29.821
X-10.533 Y29.711
X-9.635 Y29.636
X-8.736 Y29.583
X-7.836 Y29.548
X-6.935 Y29.523
X-6.034 Y29.506
X-5.134 Y29.495
X-4.233 Y29.487
X-3.332 Y29.481
X-2.431 Y29.478
X-0.629 Y29.474
X2.073 Y29.471
X11.983 Y29.47
X24.708
X24.815 Y29.433
X24.99 Y29.291
X25.523 Y28.565
X25.846 Y27.724
X26.053 Y26.847
X26.19 Y25.957
X26.281 Y25.06
X26.342 Y24.162
X26.383 Y23.262
X26.411 Y22.361
X26.43 Y21.46
X26.443 Y20.56
X26.451 Y19.659
X26.457 Y18.758
X26.461 Y17.857
X26.466 Y16.055
X26.469 Y13.353
X26.47 Y9.101
X26.475 Y9.025
X26.489 Y8.95
X26.513 Y8.878
X26.709 Y8.388
X26.755 Y8.262
X26.894 Y7.774
X27.54 Y5.319
X27.573 Y5.188
X27.59 Y5.115
X27.629 Y4.91
X27.714 Y4.296
X27.952 Y2.455
X27.982 Y2.209
X28.025 Y1.841
X28.046 Y1.637
X28.052 Y1.023
Y-1.023
X28.046 Y-1.637
X28.025 Y-1.841
X27.978 Y-2.25
X27.899 Y-2.864
X27.714 Y-4.296
X27.629 Y-4.91
X27.59 Y-5.115
X27.573 Y-5.188
X27.486 Y-5.524
X27.217 Y-6.547
X27.031 Y-7.428
X26.858 Y-8.313
X26.738 Y-9.205
X26.654 Y-10.102
X26.596 Y-11.001
X26.556 Y-11.901
X26.529 Y-12.802
X26.51 Y-13.703
X26.497 Y-14.603
X26.489 Y-15.504
X26.483 Y-16.405
X26.479 Y-17.306
X26.474 Y-19.108
X26.471 Y-21.81
Y-23.95
X26.433 Y-24.056
X26.292 Y-24.231
X25.521 Y-24.697
X24.663 Y-24.974
X23.779 Y-25.148
X22.885 Y-25.259
X21.987 Y-25.332
X21.088 Y-25.379
X20.187 Y-25.41
X19.287 Y-25.431
X18.386 Y-25.444
X17.485 Y-25.453
X16.584 Y-25.459
X15.683 Y-25.463
X13.881 Y-25.467
X11.179 Y-25.469
X7.756 Y-25.47
X7.708 Y-25.472
X7.659 Y-25.478
X7.612 Y-25.488
X7.524 Y-25.509
X-10.242 Y-29.484
X-10.329 Y-29.515 F800
X-10.411 Y-29.558
X-10.465 Y-29.608 Z9.405
X-10.519 Y-29.657 Z9.418
X-10.57 Y-29.705 Z9.441
X-10.606 Y-29.776 Z9.479
X-10.638 Y-29.841 Z9.529
X-10.667 Y-29.9 Z9.588
X-10.675 Y-29.956 Z9.659
X-10.682 Y-30.001 Z9.737
X-10.686 Y-30.034 Z9.821
X-10.689 Y-30.054 Z9.909
X-10.69 Y-30.061 Z10
G0 Z20
X28.05 Y-5.454
Z10.6
G1 Z10 F600
X28.045 Y-5.459 Z9.906
X28.029 Y-5.474 Z9.815
X28.004 Y-5.499 Z9.728
X27.968 Y-5.534 Z9.647
X27.925 Y-5.577 Z9.576
X27.874 Y-5.627 Z9.515
X27.817 Y-5.683 Z9.465
X27.755 Y-5.744 Z9.429
X27.689 Y-5.808 Z9.407
X27.622 Y-5.874 Z9.4
G3 X27.217 Y-6.547 I1.11 J-1.128
G1 X26.894 Y-7.774 F1300
X26.755 Y-8.262
X26.709 Y-8.388
X26.463 Y-9.002
X25.632 Y-11.048
X25.544 Y-11.252
X25.441 Y-11.457
X25.335 Y-11.661
X24.294 Y-13.503
X24.177 Y-13.707
X23.941 Y-14.116
X23.529 Y-14.918
X23.214 Y-15.762
X22.989 Y-16.634
X22.83 Y-17.521
X22.718 Y-18.415
X22.68 Y-18.864
X22.656 Y-19.201
X22.648 Y-19.313
X22.56 Y-19.52
X22.489 Y-19.608
X22.183 Y-19.939
X21.451 Y-20.463
X20.613 Y-20.794
X19.739 Y-21.011
X18.85 Y-21.157
X17.954 Y-21.256
X17.211 Y-21.311
X17.11 Y-21.328
X17.013 Y-21.361
X16.923 Y-21.41
X16.73 Y-21.539
X16.49 Y-21.686
X14.275 Y-23.019
X13.661 Y-23.332
X13.457 Y-23.423
X11.616 Y-24.231
X11.002 Y-24.495
X10.838 Y-24.55
X10.388 Y-24.689
X10.168 Y-24.755
X8.342 Y-25.289
X7.933 Y-25.402
X7.728 Y-25.459
X7.612 Y-25.488
X7.525 Y-25.52 F800
X7.444 Y-25.565
X7.391 Y-25.616 Z9.405
X7.339 Y-25.667 Z9.418
X7.288 Y-25.716 Z9.441
X7.255 Y-25.788 Z9.479
X7.224 Y-25.854 Z9.529
X7.196 Y-25.913 Z9.588
X7.189 Y-25.966 Z9.655
X7.184 Y-26.01 Z9.728
X7.179 Y-26.043 Z9.807
X7.177 Y-26.064 Z9.89
Y-26.072 Z9.945
Y-26.075 Z10
G0 Z20
X25.033 Y-13.282
Z10.6
G1 Z10 F600
X25.027 Y-13.285 Z9.906
X25.007 Y-13.296 Z9.815
X24.976 Y-13.314 Z9.728
X24.933 Y-13.338 Z9.647
X24.88 Y-13.368 Z9.576
X24.817 Y-13.403 Z9.515
X24.747 Y-13.442 Z9.465
X24.671 Y-13.484 Z9.429
X24.591 Y-13.529 Z9.407
X24.509 Y-13.575 Z9.4
G3 X23.941 Y-14.116 I0.773 J-1.381
G1 X23.891 Y-14.203 F1300
X23.816 Y-14.321
X23.668 Y-14.526
X23.482 Y-14.778
X22.254 Y-16.416
X21.98 Y-16.776
X21.845 Y-16.95
X21.627 Y-17.185
X21.23 Y-17.594
X19.799 Y-19.065
X19.594 Y-19.274
X19.39 Y-19.45
X19.185 Y-19.622
X17.549 Y-20.92
X16.935 Y-21.403
X16.923 Y-21.41
X16.853 Y-21.47 F800
X16.792 Y-21.54
X16.759 Y-21.606 Z9.405
X16.727 Y-21.671 Z9.418
X16.696 Y-21.735 Z9.441
X16.684 Y-21.82 Z9.483
X16.673 Y-21.898 Z9.538
X16.685 Y-21.96 Z9.599
X16.694 Y-22.012 Z9.669
X16.702 Y-22.054 Z9.745
X16.708 Y-22.085 Z9.827
X16.711 Y-22.103 Z9.912
X16.712 Y-22.11 Z9.999
G0 Z20
X-13.478 Y30.676
Z10.6
G1 Z10 F600
X-13.473 Y30.671 Z9.906
X-13.456 Y30.656 Z9.815
X-13.429 Y30.633 Z9.728
X-13.392 Y30.601 Z9.647
X-13.345 Y30.561 Z9.576
X-13.291 Y30.514 Z9.515
X-13.23 Y30.461 Z9.465
X-13.165 Y30.405 Z9.429
X-13.095 Y30.345 Z9.407
X-13.024 Y30.283 Z9.4
G3 X-12.321 Y29.934 I1.034 J1.198
G1 X-12.116 Y29.897 F1300
X-11.976 Y29.87
X-11.298 Y29.721
X4.864 Y26.105
X5.752 Y25.952
X6.641 Y25.803
X7.535 Y25.699
X8.433 Y25.627
X9.333 Y25.578
X10.233 Y25.544
X11.134 Y25.52
X12.035 Y25.504
X12.935 Y25.493
X13.836 Y25.486
X14.737 Y25.481
X15.638 Y25.477
X17.44 Y25.473
X20.255 Y25.471
X20.467 Y25.396
X20.556 Y25.327
X20.893 Y25.027
X21.427 Y24.302
X21.766 Y23.467
X21.989 Y22.594
X22.14 Y21.706
X22.242 Y20.811
X22.313 Y19.913
X22.361 Y19.013
X22.395 Y18.113
X22.418 Y17.213
X22.433 Y16.367
X22.448 Y16.243
X22.489 Y16.125
X22.553 Y16.017
X23.517 Y14.73
X23.686 Y14.501
X23.816 Y14.321
X23.891 Y14.203
X24.177 Y13.707
X24.41 Y13.298
X25.335 Y11.661
X25.441 Y11.457
X25.544 Y11.252
X25.632 Y11.048
X26.503 Y8.903
X26.513 Y8.878
X26.557 Y8.796 F800
X26.613 Y8.723
X26.671 Y8.677 Z9.405
X26.728 Y8.632 Z9.418
X26.784 Y8.589 Z9.441
X26.859 Y8.566 Z9.479
X26.929 Y8.544 Z9.529
X26.991 Y8.525 Z9.588
X27.028 Y8.523 Z9.632
X27.062 Y8.521 Z9.68
X27.101 Y8.524 Z9.754
X27.13 Y8.526 Z9.833
X27.148 Y8.527 Z9.916
X27.154 Y8.528 Z10
G0 Z20
X3.741 Y26.897
Z10.6
G1 Z10 F600
X3.746 Y26.892 Z9.906
X3.762 Y26.877 Z9.815
X3.788 Y26.852 Z9.728
X3.824 Y26.818 Z9.647
X3.869 Y26.776 Z9.576
X3.921 Y26.727 Z9.515
X3.979 Y26.672 Z9.465
X4.042 Y26.612 Z9.429
X4.109 Y26.549 Z9.407
X4.177 Y26.485 Z9.4
G3 X4.864 Y26.105 I1.086 J1.151
G1 X7.524 Y25.509 F1300
X7.728 Y25.459
X8.138 Y25.346
X8.342 Y25.289
X10.183 Y24.75
X10.388 Y24.689
X10.838 Y24.55
X11.002 Y24.495
X11.616 Y24.231
X13.457 Y23.423
X13.661 Y23.332
X14.275 Y23.019
X14.45 Y22.914
X15.232 Y22.495
X16.079 Y22.188
X16.487 Y21.998
X17.14 Y21.377
X17.203 Y21.259
X17.247 Y21.187
X17.301 Y21.122
X17.363 Y21.066
G3 X18.08 Y21.072 Z9.563 I0.354 J0.484 F800
G1 X18.145 Y21.129 Z9.582 F1300
X18.201 Y21.195 Z9.6
G3 X18.039 Y22.056 I-0.484 J0.355
G1 X15.099 Y23.923
G3 X14.274 Y23.743 I-0.322 J-0.507
G1 X14.232 Y23.667 Z9.582
X14.202 Y23.586 Z9.563
G3 X14.45 Y22.914 Z9.4 I0.576 J-0.169 F600
G1 X16.526 Y21.665 F1300
X16.73 Y21.539
X16.935 Y21.403
X17.614 Y20.868
X19.185 Y19.622
X19.407 Y19.436
X19.594 Y19.274
X20.235 Y18.617
X21.436 Y17.384
X21.64 Y17.171
X21.845 Y16.95
X21.98 Y16.776
X22.291 Y16.367
X22.553 Y16.017
X22.616 Y15.95 F800
X22.689 Y15.893
X22.757 Y15.864 Z9.405
X22.824 Y15.836 Z9.418
X22.889 Y15.808 Z9.441
X22.957 Y15.801 Z9.473
X23.02 Y15.794 Z9.513
X23.09 Y15.807 Z9.573
X23.149 Y15.818 Z9.643
X23.198 Y15.826 Z9.722
X23.233 Y15.833 Z9.808
X23.255 Y15.842 Z9.903
X23.263 Y15.845 Z10
G0 Z20
X34.337 Y-31.089
Z10.3
G1 Z9.7 F600
X34.33 Y-31.087 Z9.606
X34.309 Y-31.081 Z9.515
X34.274 Y-31.072 Z9.428
X34.226 Y-31.06 Z9.347
X34.167 Y-31.045 Z9.276
X34.098 Y-31.027 Z9.215
X34.02 Y-31.007 Z9.165
X33.936 Y-30.986 Z9.129
X33.847 Y-30.963 Z9.107
X33.756 Y-30.94 Z9.1
G3 X30.49 Y-30.47 I-3.801 J-14.839
G1 X30.377 F1300
X29.528 Y-30.17
X28.653 Y-29.956
X27.764 Y-29.806
X26.87 Y-29.701
X25.972 Y-29.628
X25.072 Y-29.578
X24.172 Y-29.544
X23.271 Y-29.521
X22.37 Y-29.505
X21.47 Y-29.494
X20.569 Y-29.486
X19.668 Y-29.481
X18.767 Y-29.477
X16.965 Y-29.473
X13.362 Y-29.471
X-9.161 Y-29.47
X-10.111
X-10.155 Y-29.472
X-10.198 Y-29.476
X-10.242 Y-29.484
X-11.298 Y-29.721
X-11.976 Y-29.87
X-12.116 Y-29.897
X-12.526 Y-29.97
X-12.73 Y-30.004
X-13.139 Y-30.049
X-13.344 Y-30.07
X-13.958 Y-30.096
X-14.367 Y-30.099
X-14.981 Y-30.1
X-24.801
X-25.31 Y-30.074
X-25.415 Y-30.069
X-25.619 Y-30.034
X-25.824 Y-29.984
X-26.028 Y-29.922
X-26.233 Y-29.843
X-26.438 Y-29.743
X-26.58 Y-29.665
X-26.847 Y-29.488
X-27.123 Y-29.256
X-27.256 Y-29.123
X-27.488 Y-28.847
X-27.665 Y-28.58
X-27.743 Y-28.438
X-27.843 Y-28.233
X-27.922 Y-28.028
X-27.984 Y-27.824
X-28.034 Y-27.619
X-28.069 Y-27.415
X-28.09 Y-27.005
X-28.1 Y-26.801
Y26.801
X-28.074 Y27.31
X-28.069 Y27.415
X-28.034 Y27.619
X-27.984 Y27.824
X-27.922 Y28.028
X-27.843 Y28.233
X-27.743 Y28.438
X-27.665 Y28.58
X-27.488 Y28.847
X-27.256 Y29.123
X-27.123 Y29.256
X-26.847 Y29.488
X-26.58 Y29.665
X-26.438 Y29.743
X-26.233 Y29.843
X-26.028 Y29.922
X-25.824 Y29.984
X-25.619 Y30.034
X-25.415 Y30.069
X-25.005 Y30.09
X-24.801 Y30.1
X-14.572
X-14.162 Y30.098
X-13.958 Y30.096
X-13.344 Y30.07
X-12.935 Y30.026
X-12.73 Y30.004
X-12.526 Y29.97
X-12.321 Y29.934
X-11.427 Y29.821
X-10.533 Y29.711
X-9.635 Y29.636
X-8.736 Y29.583
X-7.836 Y29.548
X-6.935 Y29.523
X-6.034 Y29.506
X-5.134 Y29.495
X-4.233 Y29.487
X-3.332 Y29.481
X-2.431 Y29.478
X-0.629 Y29.474
X2.073 Y29.471
X11.983 Y29.47
X24.708
X24.815 Y29.433
X24.99 Y29.291
X25.523 Y28.565
X25.846 Y27.724
X26.053 Y26.847
X26.19 Y25.957
X26.281 Y25.06
X26.342 Y24.162
X26.383 Y23.262
X26.411 Y22.361
X26.43 Y21.46
X26.443 Y20.56
X26.451 Y19.659
X26.457 Y18.758
X26.461 Y17.857
X26.466 Y16.055
X26.469 Y13.353
X26.47 Y9.101
X26.475 Y9.025
X26.489 Y8.95
X26.513 Y8.878
X26.709 Y8.388
X26.755 Y8.262
X26.894 Y7.774
X27.54 Y5.319
X27.573 Y5.188
X27.59 Y5.115
X27.629 Y4.91
X27.714 Y4.296
X27.952 Y2.455
X27.982 Y2.209
X28.025 Y1.841
X28.046 Y1.637
X28.052 Y1.023
Y-1.023
X28.046 Y-1.637
X28.025 Y-1.841
X27.978 Y-2.25
X27.899 Y-2.864
X27.714 Y-4.296
X27.629 Y-4.91
X27.59 Y-5.115
X27.573 Y-5.188
X27.486 Y-5.524
X27.217 Y-6.547
X27.031 Y-7.428
X26.858 Y-8.313
X26.738 Y-9.205
X26.654 Y-10.102
X26.596 Y-11.001
X26.556 Y-11.901
X26.529 Y-12.802
X26.51 Y-13.703
X26.497 Y-14.603
X26.489 Y-15.504
X26.483 Y-16.405
X26.479 Y-17.306
X26.474 Y-19.108
X26.471 Y-21.81
Y-23.95
X26.433 Y-24.056
X26.292 Y-24.231
X25.521 Y-24.697
X24.663 Y-24.974
X23.779 Y-25.148
X22.885 Y-25.259
X21.987 Y-25.332
X21.088 Y-25.379
X20.187 Y-25.41
X19.287 Y-25.431
X18.386 Y-25.444
X17.485 Y-25.453
X16.584 Y-25.459
X15.683 Y-25.463
X13.881 Y-25.467
X11.179 Y-25.469
X7.756 Y-25.47
X7.708 Y-25.472
X7.659 Y-25.478
X7.612 Y-25.488
X7.524 Y-25.509
X-10.242 Y-29.484
X-10.329 Y-29.515 F800
X-10.411 Y-29.558
X-10.465 Y-29.608 Z9.105
X-10.519 Y-29.657 Z9.118
X-10.57 Y-29.705 Z9.141
X-10.606 Y-29.776 Z9.179
X-10.638 Y-29.841 Z9.229
X-10.667 Y-29.9 Z9.288
X-10.675 Y-29.956 Z9.359
X-10.682 Y-30.001 Z9.437
X-10.686 Y-30.034 Z9.521
X-10.689 Y-30.054 Z9.609
X-10.69 Y-30.061 Z9.7
G0 Z20
X28.05 Y-5.454
Z10.3
G1 Z9.7 F600
X28.045 Y-5.459 Z9.606
X28.029 Y-5.474 Z9.515
X28.004 Y-5.499 Z9.428
X27.968 Y-5.534 Z9.347
X27.925 Y-5.577 Z9.276
X27.874 Y-5.627 Z9.215
X27.817 Y-5.683 Z9.165
X27.755 Y-5.744 Z9.129
X27.689 Y-5.808 Z9.107
X27.622 Y-5.874 Z9.1
G3 X27.217 Y-6.547 I1.11 J-1.128
G1 X26.894 Y-7.774 F1300
X26.755 Y-8.262
X26.709 Y-8.388
X26.463 Y-9.002
X25.632 Y-11.048
X25.544 Y-11.252
X25.441 Y-11.457
X25.335 Y-11.661
X24.294 Y-13.503
X24.177 Y-13.707
X23.941 Y-14.116
X23.529 Y-14.918
X23.214 Y-15.762
X22.989 Y-16.634
X22.83 Y-17.521
X22.718 Y-18.415
X22.68 Y-18.864
X22.656 Y-19.201
X22.648 Y-19.313
X22.56 Y-19.52
X22.489 Y-19.608
X22.183 Y-19.939
X21.451 Y-20.463
X20.613 Y-20.794
X19.739 Y-21.011
X18.85 Y-21.157
X17.954 Y-21.256
X17.211 Y-21.311
X17.11 Y-21.328
X17.013 Y-21.361
X16.923 Y-21.41
X16.73 Y-21.539
X16.49 Y-21.686
X14.275 Y-23.019
X13.661 Y-23.332
X13.457 Y-23.423
X11.616 Y-24.231
X11.002 Y-24.495
X10.838 Y-24.55
X10.388 Y-24.689
X10.168 Y-24.755
X8.342 Y-25.289
X7.933 Y-25.402
X7.728 Y-25.459
X7.612 Y-25.488
X7.525 Y-25.52 F800
X7.444 Y-25.565
X7.391 Y-25.616 Z9.105
X7.339 Y-25.667 Z9.118
X7.288 Y-25.716 Z9.141
X7.255 Y-25.788 Z9.179
X7.224 Y-25.854 Z9.229
X7.196 Y-25.913 Z9.288
X7.189 Y-25.966 Z9.355
X7.184 Y-26.01 Z9.428
X7.179 Y-26.043 Z9.507
X7.177 Y-26.064 Z9.59
Y-26.072 Z9.645
Y-26.075 Z9.7
G0 Z20
X25.033 Y-13.282
Z10.3
G1 Z9.7 F600
X25.027 Y-13.285 Z9.606
X25.007 Y-13.296 Z9.515
X24.976 Y-13.314 Z9.428
X24.933 Y-13.338 Z9.347
X24.88 Y-13.368 Z9.276
X24.817 Y-13.403 Z9.215
X24.747 Y-13.442 Z9.165
X24.671 Y-13.484 Z9.129
X24.591 Y-13.529 Z9.107
X24.509 Y-13.575 Z9.1
G3 X23.941 Y-14.116 I0.773 J-1.381
G1 X23.891 Y-14.203 F1300
X23.816 Y-14.321
X23.668 Y-14.526
X23.482 Y-14.778
X22.254 Y-16.416
X21.98 Y-16.776
X21.845 Y-16.95
X21.627 Y-17.185
X21.23 Y-17.594
X19.799 Y-19.065
X19.594 Y-19.274
X19.39 Y-19.45
X19.185 Y-19.622
X17.549 Y-20.92
X16.935 Y-21.403
X16.923 Y-21.41
X16.853 Y-21.47 F800
X16.792 Y-21.54
X16.759 Y-21.606 Z9.105
X16.727 Y-21.671 Z9.118
X16.696 Y-21.735 Z9.141
X16.684 Y-21.82 Z9.183
X16.673 Y-21.898 Z9.238
X16.685 Y-21.96 Z9.299
X16.694 Y-22.012 Z9.369
X16.702 Y-22.054 Z9.445
X16.708 Y-22.085 Z9.527
X16.711 Y-22.103 Z9.612
X16.712 Y-22.11 Z9.699
G0 Z20
X-13.478 Y30.676
Z10.3
G1 Z9.7 F600
X-13.473 Y30.671 Z9.606
X-13.456 Y30.656 Z9.515
X-13.429 Y30.633 Z9.428
X-13.392 Y30.601 Z9.347
X-13.345 Y30.561 Z9.276
X-13.291 Y30.514 Z9.215
X-13.23 Y30.461 Z9.165
X-13.165 Y30.405 Z9.129
X-13.095 Y30.345 Z9.107
X-13.024 Y30.283 Z9.1
G3 X-12.321 Y29.934 I1.034 J1.198
G1 X-12.116 Y29.897 F1300
X-11.976 Y29.87
X-11.298 Y29.721
X4.864 Y26.105
X5.752 Y25.952
X6.641 Y25.803
X7.535 Y25.699
X8.433 Y25.627
X9.333 Y25.578
X10.233 Y25.544
X11.134 Y25.52
X12.035 Y25.504
X12.935 Y25.493
X13.836 Y25.486
X14.737 Y25.481
X15.638 Y25.477
X17.44 Y25.473
X20.255 Y25.471
X20.467 Y25.396
X20.556 Y25.327
X20.893 Y25.027
X21.427 Y24.302
X21.766 Y23.467
X21.989 Y22.594
X22.14 Y21.706
X22.242 Y20.811
X22.313 Y19.913
X22.361 Y19.013
X22.395 Y18.113
X22.418 Y17.213
X22.433 Y16.367
X22.448 Y16.243
X22.489 Y16.125
X22.553 Y16.017
X23.517 Y14.73
X23.686 Y14.501
X23.816 Y14.321
X23.891 Y14.203
X24.177 Y13.707
X24.41 Y13.298
X25.335 Y11.661
X25.441 Y11.457
X25.544 Y11.252
X25.632 Y11.048
X26.503 Y8.903
X26.513 Y8.878
X26.557 Y8.796 F800
X26.613 Y8.723
X26.671 Y8.677 Z9.105
X26.728 Y8.632 Z9.118
X26.784 Y8.589 Z9.141
X26.859 Y8.566 Z9.179
X26.929 Y8.544 Z9.229
X26.991 Y8.525 Z9.288
X27.028 Y8.523 Z9.332
X27.062 Y8.521 Z9.38
X27.101 Y8.524 Z9.454
X27.13 Y8.526 Z9.533
X27.148 Y8.527 Z9.616
X27.154 Y8.528 Z9.7
G0 Z20
X3.741 Y26.897
Z10.3
G1 Z9.7 F600
X3.746 Y26.892 Z9.606
X3.762 Y26.877 Z9.515
X3.788 Y26.852 Z9.428
X3.824 Y26.818 Z9.347
X3.869 Y26.776 Z9.276
X3.921 Y26.727 Z9.215
X3.979 Y26.672 Z9.165
X4.042 Y26.612 Z9.129
X4.109 Y26.549 Z9.107
X4.177 Y26.485 Z9.1
G3 X4.864 Y26.105 I1.086 J1.151
G1 X7.524 Y25.509 F1300
X7.728 Y25.459
X8.138 Y25.346
X8.342 Y25.289
X10.183 Y24.75
X10.388 Y24.689
X10.838 Y24.55
X11.002 Y24.495
X11.616 Y24.231
X13.457 Y23.423
X13.661 Y23.332
X14.275 Y23.019
X14.45 Y22.914
X15.232 Y22.495
X16.079 Y22.188
X16.487 Y21.998
X17.14 Y21.377
X17.203 Y21.259
X17.247 Y21.187
X17.301 Y21.122
X17.363 Y21.066
G3 X18.08 Y21.072 Z9.263 I0.354 J0.484 F800
G1 X18.145 Y21.129 Z9.282 F1300
X18.201 Y21.195 Z9.3
G3 X18.039 Y22.056 I-0.484 J0.355
G1 X15.099 Y23.923
G3 X14.274 Y23.743 I-0.322 J-0.507
G1 X14.232 Y23.667 Z9.282
X14.202 Y23.586 Z9.263
G3 X14.45 Y22.914 Z9.1 I0.576 J-0.169 F600
G1 X16.526 Y21.665 F1300
X16.73 Y21.539
X16.935 Y21.403
X17.614 Y20.868
X19.185 Y19.622
X19.407 Y19.436
X19.594 Y19.274
X20.235 Y18.617
X21.436 Y17.384
X21.64 Y17.171
X21.845 Y16.95
X21.98 Y16.776
X22.291 Y16.367
X22.553 Y16.017
X22.616 Y15.95 F800
X22.689 Y15.893
X22.757 Y15.864 Z9.105
X22.824 Y15.836 Z9.118
X22.889 Y15.808 Z9.141
X22.957 Y15.801 Z9.173
X23.02 Y15.794 Z9.213
X23.09 Y15.807 Z9.273
X23.149 Y15.818 Z9.343
X23.198 Y15.826 Z9.422
X23.233 Y15.833 Z9.508
X23.255 Y15.842 Z9.603
X23.263 Y15.845 Z9.7
G0 Z20
X34.337 Y-31.089
Z10
G1 Z9.4 F600
X34.33 Y-31.087 Z9.306
X34.309 Y-31.081 Z9.215
X34.274 Y-31.072 Z9.128
X34.226 Y-31.06 Z9.047
X34.167 Y-31.045 Z8.976
X34.098 Y-31.027 Z8.915
X34.02 Y-31.007 Z8.865
X33.936 Y-30.986 Z8.829
X33.847 Y-30.963 Z8.807
X33.756 Y-30.94 Z8.8
G3 X30.49 Y-30.47 I-3.801 J-14.839
G1 X30.377 F1300
X29.528 Y-30.17
X28.653 Y-29.956
X27.764 Y-29.806
X26.87 Y-29.701
X25.972 Y-29.628
X25.072 Y-29.578
X24.172 Y-29.544
X23.271 Y-29.521
X22.37 Y-29.505
X21.47 Y-29.494
X20.569 Y-29.486
X19.668 Y-29.481
X18.767 Y-29.477
X16.965 Y-29.473
X13.362 Y-29.471
X-9.161 Y-29.47
X-10.111
X-10.155 Y-29.472
X-10.198 Y-29.476
X-10.242 Y-29.484
X-11.298 Y-29.721
X-11.976 Y-29.87
X-12.116 Y-29.897
X-12.526 Y-29.97
X-12.73 Y-30.004
X-13.139 Y-30.049
X-13.344 Y-30.07
X-13.958 Y-30.096
X-14.367 Y-30.099
X-14.981 Y-30.1
X-24.801
X-25.31 Y-30.074
X-25.415 Y-30.069
X-25.619 Y-30.034
X-25.824 Y-29.984
X-26.028 Y-29.922
X-26.233 Y-29.843
X-26.438 Y-29.743
X-26.58 Y-29.665
X-26.847 Y-29.488
X-27.123 Y-29.256
X-27.256 Y-29.123
X-27.488 Y-28.847
X-27.665 Y-28.58
X-27.743 Y-28.438
X-27.843 Y-28.233
X-27.922 Y-28.028
X-27.984 Y-27.824
X-28.034 Y-27.619
X-28.069 Y-27.415
X-28.09 Y-27.005
X-28.1 Y-26.801
Y26.801
X-28.074 Y27.31
X-28.069 Y27.415
X-28.034 Y27.619
X-27.984 Y27.824
X-27.922 Y28.028
X-27.843 Y28.233
X-27.743 Y28.438
X-27.665 Y28.58
X-27.488 Y28.847
X-27.256 Y29.123
X-27.123 Y29.256
X-26.847 Y29.488
X-26.58 Y29.665
X-26.438 Y29.743
X-26.233 Y29.843
X-26.028 Y29.922
X-25.824 Y29.984
X-25.619 Y30.034
X-25.415 Y30.069
X-25.005 Y30.09
X-24.801 Y30.1
X-14.572
X-14.162 Y30.098
X-13.958 Y30.096
X-13.344 Y30.07
X-12.935 Y30.026
X-12.73 Y30.004
X-12.526 Y29.97
X-12.321 Y29.934
X-11.427 Y29.821
X-10.533 Y29.711
X-9.635 Y29.636
X-8.736 Y29.583
X-7.836 Y29.548
X-6.935 Y29.523
X-6.034 Y29.506
X-5.134 Y29.495
X-4.233 Y29.487
X-3.332 Y29.481
X-2.431 Y29.478
X-0.629 Y29.474
X2.073 Y29.471
X11.983 Y29.47
X24.708
X24.815 Y29.433
X24.99 Y29.291
X25.523 Y28.565
X25.846 Y27.724
X26.053 Y26.847
X26.19 Y25.957
X26.281 Y25.06
X26.342 Y24.162
X26.383 Y23.262
X26.411 Y22.361
X26.43 Y21.46
X26.443 Y20.56
X26.451 Y19.659
X26.457 Y18.758
X26.461 Y17.857
X26.466 Y16.055
X26.469 Y13.353
X26.47 Y9.101
X26.475 Y9.025
X26.489 Y8.95
X26.513 Y8.878
X26.709 Y8.388
X26.755 Y8.262
X26.894 Y7.774
X27.54 Y5.319
X27.573 Y5.188
X27.59 Y5.115
X27.629 Y4.91
X27.714 Y4.296
X27.952 Y2.455
X27.982 Y2.209
X28.025 Y1.841
X28.046 Y1.637
X28.052 Y1.023
Y-1.023
X28.046 Y-1.637
X28.025 Y-1.841
X27.978 Y-2.25
X27.899 Y-2.864
X27.714 Y-4.296
X27.629 Y-4.91
X27.59 Y-5.115
X27.573 Y-5.188
X27.486 Y-5.524
X27.217 Y-6.547
X27.031 Y-7.428
X26.858 Y-8.313
X26.738 Y-9.205
X26.654 Y-10.102
X26.596 Y-11.001
X26.556 Y-11.901
X26.529 Y-12.802
X26.51 Y-13.703
X26.497 Y-14.603
X26.489 Y-15.504
X26.483 Y-16.405
X26.479 Y-17.306
X26.474 Y-19.108
X26.471 Y-21.81
Y-23.95
X26.433 Y-24.056
X26.292 Y-24.231
X25.521 Y-24.697
X24.663 Y-24.974
X23.779 Y-25.148
X22.885 Y-25.259
X21.987 Y-25.332
X21.088 Y-25.379
X20.187 Y-25.41
X19.287 Y-25.431
X18.386 Y-25.444
X17.485 Y-25.453
X16.584 Y-25.459
X15.683 Y-25.463
X13.881 Y-25.467
X11.179 Y-25.469
X7.756 Y-25.47
X7.708 Y-25.472
X7.659 Y-25.478
X7.612 Y-25.488
X7.524 Y-25.509
X-10.242 Y-29.484
X-10.329 Y-29.515 F800
X-10.411 Y-29.558
X-10.465 Y-29.608 Z8.805
X-10.519 Y-29.657 Z8.818
X-10.57 Y-29.705 Z8.841
X-10.606 Y-29.776 Z8.879
X-10.638 Y-29.841 Z8.929
X-10.667 Y-29.9 Z8.988
X-10.675 Y-29.956 Z9.059
X-10.682 Y-30.001 Z9.137
X-10.686 Y-30.034 Z9.221
X-10.689 Y-30.054 Z9.309
X-10.69 Y-30.061 Z9.4
G0 Z20
X28.05 Y-5.454
Z10
G1 Z9.4 F600
X28.045 Y-5.459 Z9.306
X28.029 Y-5.474 Z9.215
X28.004 Y-5.499 Z9.128
X27.968 Y-5.534 Z9.047
X27.925 Y-5.577 Z8.976
X27.874 Y-5.627 Z8.915
X27.817 Y-5.683 Z8.865
X27.755 Y-5.744 Z8.829
X27.689 Y-5.808 Z8.807
X27.622 Y-5.874 Z8.8
G3 X27.217 Y-6.547 I1.11 J-1.128
G1 X26.894 Y-7.774 F1300
X26.755 Y-8.262
X26.709 Y-8.388
X26.463 Y-9.002
X25.632 Y-11.048
X25.544 Y-11.252
X25.441 Y-11.457
X25.335 Y-11.661
X24.294 Y-13.503
X24.177 Y-13.707
X23.941 Y-14.116
X23.529 Y-14.918
X23.214 Y-15.762
X22.989 Y-16.634
X22.83 Y-17.521
X22.718 Y-18.415
X22.68 Y-18.864
X22.656 Y-19.201
X22.648 Y-19.313
X22.56 Y-19.52
X22.489 Y-19.608
X22.183 Y-19.939
X21.451 Y-20.463
X20.613 Y-20.794
X19.739 Y-21.011
X18.85 Y-21.157
X17.954 Y-21.256
X17.211 Y-21.311
X17.11 Y-21.328
X17.013 Y-21.361
X16.923 Y-21.41
X16.73 Y-21.539
X16.49 Y-21.686
X14.275 Y-23.019
X13.661 Y-23.332
X13.457 Y-23.423
X11.616 Y-24.231
X11.002 Y-24.495
X10.838 Y-24.55
X10.388 Y-24.689
X10.168 Y-24.755
X8.342 Y-25.289
X7.933 Y-25.402
X7.728 Y-25.459
X7.612 Y-25.488
X7.525 Y-25.52 F800
X7.444 Y-25.565
X7.391 Y-25.616 Z8.805
X7.339 Y-25.667 Z8.818
X7.288 Y-25.716 Z8.841
X7.255 Y-25.788 Z8.879
X7.224 Y-25.854 Z8.929
X7.196 Y-25.913 Z8.988
X7.189 Y-25.966 Z9.055
X7.184 Y-26.01 Z9.128
X7.179 Y-26.043 Z9.207
X7.177 Y-26.064 Z9.29
Y-26.072 Z9.345
Y-26.075 Z9.4
G0 Z20
X25.033 Y-13.282
Z10
G1 Z9.4 F600
X25.027 Y-13.285 Z9.306
X25.007 Y-13.296 Z9.215
X24.976 Y-13.314 Z9.128
X24.933 Y-13.338 Z9.047
X24.88 Y-13.368 Z8.976
X24.817 Y-13.403 Z8.915
X24.747 Y-13.442 Z8.865
X24.671 Y-13.484 Z8.829
X24.591 Y-13.529 Z8.807
X24.509 Y-13.575 Z8.8
G3 X23.941 Y-14.116 I0.773 J-1.381
G1 X23.891 Y-14.203 F1300
X23.816 Y-14.321
X23.668 Y-14.526
X23.482 Y-14.778
X22.254 Y-16.416
X21.98 Y-16.776
X21.845 Y-16.95
X21.627 Y-17.185
X21.23 Y-17.594
X19.799 Y-19.065
X19.594 Y-19.274
X19.39 Y-19.45
X19.185 Y-19.622
X17.549 Y-20.92
X16.935 Y-21.403
X16.923 Y-21.41
X16.853 Y-21.47 F800
X16.792 Y-21.54
X16.759 Y-21.606 Z8.805
X16.727 Y-21.671 Z8.818
X16.696 Y-21.735 Z8.841
X16.684 Y-21.82 Z8.883
X16.673 Y-21.898 Z8.938
X16.685 Y-21.96 Z8.999
X16.694 Y-22.012 Z9.069
X16.702 Y-22.054 Z9.145
X16.708 Y-22.085 Z9.227
X16.711 Y-22.103 Z9.312
X16.712 Y-22.11 Z9.399
G0 Z20
X-13.478 Y30.676
Z10
G1 Z9.4 F600
X-13.473 Y30.671 Z9.306
X-13.456 Y30.656 Z9.215
X-13.429 Y30.633 Z9.128
X-13.392 Y30.601 Z9.047
X-13.345 Y30.561 Z8.976
X-13.291 Y30.514 Z8.915
X-13.23 Y30.461 Z8.865
X-13.165 Y30.405 Z8.829
X-13.095 Y30.345 Z8.807
X-13.024 Y30.283 Z8.8
G3 X-12.321 Y29.934 I1.034 J1.198
G1 X-12.116 Y29.897 F1300
X-11.976 Y29.87
X-11.298 Y29.721
X4.864 Y26.105
X5.752 Y25.952
X6.641 Y25.803
X7.535 Y25.699
X8.433 Y25.627
X9.333 Y25.578
X10.233 Y25.544
X11.134 Y25.52
X12.035 Y25.504
X12.935 Y25.493
X13.836 Y25.486
X14.737 Y25.481
X15.638 Y25.477
X17.44 Y25.473
X20.255 Y25.471
X20.467 Y25.396
X20.556 Y25.327
X20.893 Y25.027
X21.427 Y24.302
X21.766 Y23.467
X21.989 Y22.594
X22.14 Y21.706
X22.242 Y20.811
X22.313 Y19.913
X22.361 Y19.013
X22.395 Y18.113
X22.418 Y17.213
X22.433 Y16.367
X22.448 Y16.243
X22.489 Y16.125
X22.553 Y16.017
X23.517 Y14.73
X23.686 Y14.501
X23.816 Y14.321
X23.891 Y14.203
X24.177 Y13.707
X24.41 Y13.298
X25.335 Y11.661
X25.441 Y11.457
X25.544 Y11.252
X25.632 Y11.048
X26.503 Y8.903
X26.513 Y8.878
X26.557 Y8.796 F800
X26.613 Y8.723
X26.671 Y8.677 Z8.805
X26.728 Y8.632 Z8.818
X26.784 Y8.589 Z8.841
X26.859 Y8.566 Z8.879
X26.929 Y8.544 Z8.929
X26.991 Y8.525 Z8.988
X27.028 Y8.523 Z9.032
X27.062 Y8.521 Z9.08
X27.101 Y8.524 Z9.154
X27.13 Y8.526 Z9.233
X27.148 Y8.527 Z9.316
X27.154 Y8.528 Z9.4
G0 Z20
X3.741 Y26.897
Z10
G1 Z9.4 F600
X3.746 Y26.892 Z9.306
X3.762 Y26.877 Z9.215
X3.788 Y26.852 Z9.128
X3.824 Y26.818 Z9.047
X3.869 Y26.776 Z8.976
X3.921 Y26.727 Z8.915
X3.979 Y26.672 Z8.865
X4.042 Y26.612 Z8.829
X4.109 Y26.549 Z8.807
X4.177 Y26.485 Z8.8
G3 X4.864 Y26.105 I1.086 J1.151
G1 X7.524 Y25.509 F1300
X7.728 Y25.459
X8.138 Y25.346
X8.342 Y25.289
X10.183 Y24.75
X10.388 Y24.689
X10.838 Y24.55
X11.002 Y24.495
X11.616 Y24.231
X13.457 Y23.423
X13.661 Y23.332
X14.275 Y23.019
X14.45 Y22.914
X15.232 Y22.495
X16.079 Y22.188
X16.487 Y21.998
X17.14 Y21.377
X17.203 Y21.259
X17.247 Y21.187
X17.301 Y21.122
X17.363 Y21.066
G3 X18.08 Y21.072 Z8.963 I0.354 J0.484 F800
G1 X18.145 Y21.129 Z8.982 F1300
X18.201 Y21.195 Z9
G3 X18.039 Y22.056 I-0.484 J0.355
G1 X15.099 Y23.923
G3 X14.274 Y23.743 I-0.322 J-0.507
G1 X14.232 Y23.667 Z8.982
X14.202 Y23.586 Z8.963
G3 X14.45 Y22.914 Z8.8 I0.576 J-0.169 F600
G1 X16.526 Y21.665 F1300
X16.73 Y21.539
X16.935 Y21.403
X17.614 Y20.868
X19.185 Y19.622
X19.407 Y19.436
X19.594 Y19.274
X20.235 Y18.617
X21.436 Y17.384
X21.64 Y17.171
X21.845 Y16.95
X21.98 Y16.776
X22.291 Y16.367
X22.553 Y16.017
X22.616 Y15.95 F800
X22.689 Y15.893
X22.757 Y15.864 Z8.805
X22.824 Y15.836 Z8.818
X22.889 Y15.808 Z8.841
X22.957 Y15.801 Z8.873
X23.02 Y15.794 Z8.913
X23.09 Y15.807 Z8.973
X23.149 Y15.818 Z9.043
X23.198 Y15.826 Z9.122
X23.233 Y15.833 Z9.208
X23.255 Y15.842 Z9.303
X23.263 Y15.845 Z9.4
G0 Z20
X34.337 Y-31.089
Z9.7
G1 Z9.1 F600
X34.33 Y-31.087 Z9.006
X34.309 Y-31.081 Z8.915
X34.274 Y-31.072 Z8.828
X34.226 Y-31.06 Z8.747
X34.167 Y-31.045 Z8.676
X34.098 Y-31.027 Z8.615
X34.02 Y-31.007 Z8.565
X33.936 Y-30.986 Z8.529
X33.847 Y-30.963 Z8.507
X33.756 Y-30.94 Z8.5
G3 X30.49 Y-30.47 I-3.801 J-14.839
G1 X30.377 F1300
X29.528 Y-30.17
X28.653 Y-29.956
X27.764 Y-29.806
X26.87 Y-29.701
X25.972 Y-29.628
X25.072 Y-29.578
X24.172 Y-29.544
X23.271 Y-29.521
X22.37 Y-29.505
X21.47 Y-29.494
X20.569 Y-29.486
X19.668 Y-29.481
X18.767 Y-29.477
X16.965 Y-29.473
X13.362 Y-29.471
X-9.161 Y-29.47
X-10.111
X-10.155 Y-29.472
X-10.198 Y-29.476
X-10.242 Y-29.484
X-11.298 Y-29.721
X-11.976 Y-29.87
X-12.116 Y-29.897
X-12.526 Y-29.97
X-12.73 Y-30.004
X-13.139 Y-30.049
X-13.344 Y-30.07
X-13.958 Y-30.096
X-14.367 Y-30.099
X-14.981 Y-30.1
X-24.801
X-25.31 Y-30.074
X-25.415 Y-30.069
X-25.619 Y-30.034
X-25.824 Y-29.984
X-26.028 Y-29.922
X-26.233 Y-29.843
X-26.438 Y-29.743
X-26.58 Y-29.665
X-26.847 Y-29.488
X-27.123 Y-29.256
X-27.256 Y-29.123
X-27.488 Y-28.847
X-27.665 Y-28.58
X-27.743 Y-28.438
X-27.843 Y-28.233
X-27.922 Y-28.028
X-27.984 Y-27.824
X-28.034 Y-27.619
X-28.069 Y-27.415
X-28.09 Y-27.005
X-28.1 Y-26.801
Y26.801
X-28.074 Y27.31
X-28.069 Y27.415
X-28.034 Y27.619
X-27.984 Y27.824
X-27.922 Y28.028
X-27.843 Y28.233
X-27.743 Y28.438
X-27.665 Y28.58
X-27.488 Y28.847
X-27.256 Y29.123
X-27.123 Y29.256
X-26.847 Y29.488
X-26.58 Y29.665
X-26.438 Y29.743
X-26.233 Y29.843
X-26.028 Y29.922
X-25.824 Y29.984
X-25.619 Y30.034
X-25.415 Y30.069
X-25.005 Y30.09
X-24.801 Y30.1
X-14.572
X-14.162 Y30.098
X-13.958 Y30.096
X-13.344 Y30.07
X-12.935 Y30.026
X-12.73 Y30.004
X-12.526 Y29.97
X-12.321 Y29.934
X-11.427 Y29.821
X-10.533 Y29.711
X-9.635 Y29.636
X-8.736 Y29.583
X-7.836 Y29.548
X-6.935 Y29.523
X-6.034 Y29.506
X-5.134 Y29.495
X-4.233 Y29.487
X-3.332 Y29.481
X-2.431 Y29.478
X-0.629 Y29.474
X2.073 Y29.471
X11.983 Y29.47
X24.708
X24.815 Y29.433
X24.99 Y29.291
X25.523 Y28.565
X25.846 Y27.724
X26.053 Y26.847
X26.19 Y25.957
X26.281 Y25.06
X26.342 Y24.162
X26.383 Y23.262
X26.411 Y22.361
X26.43 Y21.46
X26.443 Y20.56
X26.451 Y19.659
X26.457 Y18.758
X26.461 Y17.857
X26.466 Y16.055
X26.469 Y13.353
X26.47 Y9.101
X26.475 Y9.025
X26.489 Y8.95
X26.513 Y8.878
X26.709 Y8.388
X26.755 Y8.262
X26.894 Y7.774
X27.54 Y5.319
X27.573 Y5.188
X27.59 Y5.115
X27.629 Y4.91
X27.714 Y4.296
X27.952 Y2.455
X27.982 Y2.209
X28.025 Y1.841
X28.046 Y1.637
X28.052 Y1.023
Y-1.023
X28.046 Y-1.637
X28.025 Y-1.841
X27.978 Y-2.25
X27.899 Y-2.864
X27.714 Y-4.296
X27.629 Y-4.91
X27.59 Y-5.115
X27.573 Y-5.188
X27.486 Y-5.524
X27.217 Y-6.547
X27.031 Y-7.428
X26.858 Y-8.313
X26.738 Y-9.205
X26.654 Y-10.102
X26.596 Y-11.001
X26.556 Y-11.901
X26.529 Y-12.802
X26.51 Y-13.703
X26.497 Y-14.603
X26.489 Y-15.504
X26.483 Y-16.405
X26.479 Y-17.306
X26.474 Y-19.108
X26.471 Y-21.81
Y-23.95
X26.433 Y-24.056
X26.292 Y-24.231
X25.521 Y-24.697
X24.663 Y-24.974
X23.779 Y-25.148
X22.885 Y-25.259
X21.987 Y-25.332
X21.088 Y-25.379
X20.187 Y-25.41
X19.287 Y-25.431
X18.386 Y-25.444
X17.485 Y-25.453
X16.584 Y-25.459
X15.683 Y-25.463
X13.881 Y-25.467
X11.179 Y-25.469
X7.756 Y-25.47
X7.708 Y-25.472
X7.659 Y-25.478
X7.612 Y-25.488
X7.524 Y-25.509
X-10.242 Y-29.484
X-10.329 Y-29.515 F800
X-10.411 Y-29.558
X-10.465 Y-29.608 Z8.505
X-10.519 Y-29.657 Z8.518
X-10.57 Y-29.705 Z8.541
X-10.606 Y-29.776 Z8.579
X-10.638 Y-29.841 Z8.629
X-10.667 Y-29.9 Z8.688
X-10.675 Y-29.956 Z8.759
X-10.682 Y-30.001 Z8.837
X-10.686 Y-30.034 Z8.921
X-10.689 Y-30.054 Z9.009
X-10.69 Y-30.061 Z9.1
G0 Z20
X28.05 Y-5.454
Z9.7
G1 Z9.1 F600
X28.045 Y-5.459 Z9.006
X28.029 Y-5.474 Z8.915
X28.004 Y-5.499 Z8.828
X27.968 Y-5.534 Z8.747
X27.925 Y-5.577 Z8.676
X27.874 Y-5.627 Z8.615
X27.817 Y-5.683 Z8.565
X27.755 Y-5.744 Z8.529
X27.689 Y-5.808 Z8.507
X27.622 Y-5.874 Z8.5
G3 X27.217 Y-6.547 I1.11 J-1.128
G1 X26.894 Y-7.774 F1300
X26.755 Y-8.262
X26.709 Y-8.388
X26.463 Y-9.002
X25.632 Y-11.048
X25.544 Y-11.252
X25.441 Y-11.457
X25.335 Y-11.661
X24.294 Y-13.503
X24.177 Y-13.707
X23.941 Y-14.116
X23.529 Y-14.918
X23.214 Y-15.762
X22.989 Y-16.634
X22.83 Y-17.521
X22.718 Y-18.415
X22.68 Y-18.864
X22.656 Y-19.201
X22.648 Y-19.313
X22.56 Y-19.52
X22.489 Y-19.608
X22.183 Y-19.939
X21.451 Y-20.463
X20.613 Y-20.794
X19.739 Y-21.011
X18.85 Y-21.157
X17.954 Y-21.256
X17.211 Y-21.311
X17.11 Y-21.328
X17.013 Y-21.361
X16.923 Y-21.41
X16.73 Y-21.539
X16.49 Y-21.686
X14.275 Y-23.019
X13.661 Y-23.332
X13.457 Y-23.423
X11.616 Y-24.231
X11.002 Y-24.495
X10.838 Y-24.55
X10.388 Y-24.689
X10.168 Y-24.755
X8.342 Y-25.289
X7.933 Y-25.402
X7.728 Y-25.459
X7.612 Y-25.488
X7.525 Y-25.52 F800
X7.444 Y-25.565
X7.391 Y-25.616 Z8.505
X7.339 Y-25.667 Z8.518
X7.288 Y-25.716 Z8.541
X7.255 Y-25.788 Z8.579
X7.224 Y-25.854 Z8.629
X7.196 Y-25.913 Z8.688
X7.189 Y-25.966 Z8.755
X7.184 Y-26.01 Z8.828
X7.179 Y-26.043 Z8.907
X7.177 Y-26.064 Z8.99
Y-26.072 Z9.045
Y-26.075 Z9.1
G0 Z20
X25.033 Y-13.282
Z9.7
G1 Z9.1 F600
X25.027 Y-13.285 Z9.006
X25.007 Y-13.296 Z8.915
X24.976 Y-13.314 Z8.828
X24.933 Y-13.338 Z8.747
X24.88 Y-13.368 Z8.676
X24.817 Y-13.403 Z8.615
X24.747 Y-13.442 Z8.565
X24.671 Y-13.484 Z8.529
X24.591 Y-13.529 Z8.507
X24.509 Y-13.575 Z8.5
G3 X23.941 Y-14.116 I0.773 J-1.381
G1 X23.891 Y-14.203 F1300
X23.816 Y-14.321
X23.668 Y-14.526
X23.482 Y-14.778
X22.254 Y-16.416
X21.98 Y-16.776
X21.845 Y-16.95
X21.627 Y-17.185
X21.23 Y-17.594
X19.799 Y-19.065
X19.594 Y-19.274
X19.39 Y-19.45
X19.185 Y-19.622
X17.549 Y-20.92
X16.935 Y-21.403
X16.923 Y-21.41
X16.853 Y-21.47 F800
X16.792 Y-21.54
X16.759 Y-21.606 Z8.505
X16.727 Y-21.671 Z8.518
X16.696 Y-21.735 Z8.541
X16.684 Y-21.82 Z8.583
X16.673 Y-21.898 Z8.638
X16.685 Y-21.96 Z8.699
X16.694 Y-22.012 Z8.769
X16.702 Y-22.054 Z8.845
X16.708 Y-22.085 Z8.927
X16.711 Y-22.103 Z9.012
X16.712 Y-22.11 Z9.099
G0 Z20
X-13.478 Y30.676
Z9.7
G1 Z9.1 F600
X-13.473 Y30.671 Z9.006
X-13.456 Y30.656 Z8.915
X-13.429 Y30.633 Z8.828
X-13.392 Y30.601 Z8.747
X-13.345 Y30.561 Z8.676
X-13.291 Y30.514 Z8.615
X-13.23 Y30.461 Z8.565
X-13.165 Y30.405 Z8.529
X-13.095 Y30.345 Z8.507
X-13.024 Y30.283 Z8.5
G3 X-12.321 Y29.934 I1.034 J1.198
G1 X-12.116 Y29.897 F1300
X-11.976 Y29.87
X-11.298 Y29.721
X4.864 Y26.105
X5.752 Y25.952
X6.641 Y25.803
X7.535 Y25.699
X8.433 Y25.627
X9.333 Y25.578
X10.233 Y25.544
X11.134 Y25.52
X12.035 Y25.504
X12.935 Y25.493
X13.836 Y25.486
X14.737 Y25.481
X15.638 Y25.477
X17.44 Y25.473
X20.255 Y25.471
X20.467 Y25.396
X20.556 Y25.327
X20.893 Y25.027
X21.427 Y24.302
X21.766 Y23.467
X21.989 Y22.594
X22.14 Y21.706
X22.242 Y20.811
X22.313 Y19.913
X22.361 Y19.013
X22.395 Y18.113
X22.418 Y17.213
X22.433 Y16.367
X22.448 Y16.243
X22.489 Y16.125
X22.553 Y16.017
X23.517 Y14.73
X23.686 Y14.501
X23.816 Y14.321
X23.891 Y14.203
X24.177 Y13.707
X24.41 Y13.298
X25.335 Y11.661
X25.441 Y11.457
X25.544 Y11.252
X25.632 Y11.048
X26.503 Y8.903
X26.513 Y8.878
X26.557 Y8.796 F800
X26.613 Y8.723
X26.671 Y8.677 Z8.505
X26.728 Y8.632 Z8.518
X26.784 Y8.589 Z8.541
X26.859 Y8.566 Z8.579
X26.929 Y8.544 Z8.629
X26.991 Y8.525 Z8.688
X27.028 Y8.523 Z8.732
X27.062 Y8.521 Z8.78
X27.101 Y8.524 Z8.854
X27.13 Y8.526 Z8.933
X27.148 Y8.527 Z9.016
X27.154 Y8.528 Z9.1
G0 Z20
X3.741 Y26.897
Z9.7
G1 Z9.1 F600
X3.746 Y26.892 Z9.006
X3.762 Y26.877 Z8.915
X3.788 Y26.852 Z8.828
X3.824 Y26.818 Z8.747
X3.869 Y26.776 Z8.676
X3.921 Y26.727 Z8.615
X3.979 Y26.672 Z8.565
X4.042 Y26.612 Z8.529
X4.109 Y26.549 Z8.507
X4.177 Y26.485 Z8.5
G3 X4.864 Y26.105 I1.086 J1.151
G1 X7.524 Y25.509 F1300
X7.728 Y25.459
X8.138 Y25.346
X8.342 Y25.289
X10.183 Y24.75
X10.388 Y24.689
X10.838 Y24.55
X11.002 Y24.495
X11.616 Y24.231
X13.457 Y23.423
X13.661 Y23.332
X14.275 Y23.019
X14.45 Y22.914
X15.232 Y22.495
X16.079 Y22.188
X16.487 Y21.998
X17.14 Y21.377
X17.203 Y21.259
X17.247 Y21.187
X17.301 Y21.122
X17.363 Y21.066
G3 X18.08 Y21.072 Z8.663 I0.354 J0.484 F800
G1 X18.145 Y21.129 Z8.682 F1300
X18.201 Y21.195 Z8.7
G3 X18.039 Y22.056 I-0.484 J0.355
G1 X15.099 Y23.923
G3 X14.274 Y23.743 I-0.322 J-0.507
G1 X14.232 Y23.667 Z8.682
X14.202 Y23.586 Z8.663
G3 X14.45 Y22.914 Z8.5 I0.576 J-0.169 F600
G1 X16.526 Y21.665 F1300
X16.73 Y21.539
X16.935 Y21.403
X17.614 Y20.868
X19.185 Y19.622
X19.407 Y19.436
X19.594 Y19.274
X20.235 Y18.617
X21.436 Y17.384
X21.64 Y17.171
X21.845 Y16.95
X21.98 Y16.776
X22.291 Y16.367
X22.553 Y16.017
X22.616 Y15.95 F800
X22.689 Y15.893
X22.757 Y15.864 Z8.505
X22.824 Y15.836 Z8.518
X22.889 Y15.808 Z8.541
X22.957 Y15.801 Z8.573
X23.02 Y15.794 Z8.613
X23.09 Y15.807 Z8.673
X23.149 Y15.818 Z8.743
X23.198 Y15.826 Z8.822
X23.233 Y15.833 Z8.908
X23.255 Y15.842 Z9.003
X23.263 Y15.845 Z9.1
G0 Z20
X34.337 Y-31.089
Z9.4
G1 Z8.8 F600
X34.33 Y-31.087 Z8.706
X34.309 Y-31.081 Z8.615
X34.274 Y-31.072 Z8.528
X34.226 Y-31.06 Z8.447
X34.167 Y-31.045 Z8.376
X34.098 Y-31.027 Z8.315
X34.02 Y-31.007 Z8.265
X33.936 Y-30.986 Z8.229
X33.847 Y-30.963 Z8.207
X33.756 Y-30.94 Z8.2
G3 X30.49 Y-30.47 I-3.801 J-14.839
G1 X30.377 F1300
X29.528 Y-30.17
X28.653 Y-29.956
X27.764 Y-29.806
X26.87 Y-29.701
X25.972 Y-29.628
X25.072 Y-29.578
X24.172 Y-29.544
X23.271 Y-29.521
X22.37 Y-29.505
X21.47 Y-29.494
X20.569 Y-29.486
X19.668 Y-29.481
X18.767 Y-29.477
X16.965 Y-29.473
X13.362 Y-29.471
X-9.161 Y-29.47
X-10.111
X-10.155 Y-29.472
X-10.198 Y-29.476
X-10.242 Y-29.484
X-11.298 Y-29.721
X-11.976 Y-29.87
X-12.116 Y-29.897
X-12.526 Y-29.97
X-12.73 Y-30.004
X-13.139 Y-30.049
X-13.344 Y-30.07
X-13.958 Y-30.096
X-14.367 Y-30.099
X-14.981 Y-30.1
X-24.801
X-25.31 Y-30.074
X-25.415 Y-30.069
X-25.619 Y-30.034
X-25.824 Y-29.984
X-26.028 Y-29.922
X-26.233 Y-29.843
X-26.438 Y-29.743
X-26.58 Y-29.665
X-26.847 Y-29.488
X-27.123 Y-29.256
X-27.256 Y-29.123
X-27.488 Y-28.847
X-27.665 Y-28.58
X-27.743 Y-28.438
X-27.843 Y-28.233
X-27.922 Y-28.028
X-27.984 Y-27.824
X-28.034 Y-27.619
X-28.069 Y-27.415
X-28.09 Y-27.005
X-28.1 Y-26.801
Y26.801
X-28.074 Y27.31
X-28.069 Y27.415
X-28.034 Y27.619
X-27.984 Y27.824
X-27.922 Y28.028
X-27.843 Y28.233
X-27.743 Y28.438
X-27.665 Y28.58
X-27.488 Y28.847
X-27.256 Y29.123
X-27.123 Y29.256
X-26.847 Y29.488
X-26.58 Y29.665
X-26.438 Y29.743
X-26.233 Y29.843
X-26.028 Y29.922
X-25.824 Y29.984
X-25.619 Y30.034
X-25.415 Y30.069
X-25.005 Y30.09
X-24.801 Y30.1
X-14.572
X-14.162 Y30.098
X-13.958 Y30.096
X-13.344 Y30.07
X-12.935 Y30.026
X-12.73 Y30.004
X-12.526 Y29.97
X-12.321 Y29.934
X-11.427 Y29.821
X-10.533 Y29.711
X-9.635 Y29.636
X-8.736 Y29.583
X-7.836 Y29.548
X-6.935 Y29.523
X-6.034 Y29.506
X-5.134 Y29.495
X-4.233 Y29.487
X-3.332 Y29.481
X-2.431 Y29.478
X-0.629 Y29.474
X2.073 Y29.471
X11.983 Y29.47
X24.708
X24.815 Y29.433
X24.99 Y29.291
X25.523 Y28.565
X25.846 Y27.724
X26.053 Y26.847
X26.19 Y25.957
X26.281 Y25.06
X26.342 Y24.162
X26.383 Y23.262
X26.411 Y22.361
X26.43 Y21.46
X26.443 Y20.56
X26.451 Y19.659
X26.457 Y18.758
X26.461 Y17.857
X26.466 Y16.055
X26.469 Y13.353
X26.47 Y9.101
X26.475 Y9.025
X26.489 Y8.95
X26.513 Y8.878
X26.709 Y8.388
X26.755 Y8.262
X26.894 Y7.774
X27.54 Y5.319
X27.573 Y5.188
X27.59 Y5.115
X27.629 Y4.91
X27.714 Y4.296
X27.952 Y2.455
X27.982 Y2.209
X28.025 Y1.841
X28.046 Y1.637
X28.052 Y1.023
Y-1.023
X28.046 Y-1.637
X28.025 Y-1.841
X27.978 Y-2.25
X27.899 Y-2.864
X27.714 Y-4.296
X27.629 Y-4.91
X27.59 Y-5.115
X27.573 Y-5.188
X27.486 Y-5.524
X27.217 Y-6.547
X27.031 Y-7.428
X26.858 Y-8.313
X26.738 Y-9.205
X26.654 Y-10.102
X26.596 Y-11.001
X26.556 Y-11.901
X26.529 Y-12.802
X26.51 Y-13.703
X26.497 Y-14.603
X26.489 Y-15.504
X26.483 Y-16.405
X26.479 Y-17.306
X26.474 Y-19.108
X26.471 Y-21.81
Y-23.95
X26.433 Y-24.056
X26.292 Y-24.231
X25.521 Y-24.697
X24.663 Y-24.974
X23.779 Y-25.148
X22.885 Y-25.259
X21.987 Y-25.332
X21.088 Y-25.379
X20.187 Y-25.41
X19.287 Y-25.431
X18.386 Y-25.444
X17.485 Y-25.453
X16.584 Y-25.459
X15.683 Y-25.463
X13.881 Y-25.467
X11.179 Y-25.469
X7.756 Y-25.47
X7.708 Y-25.472
X7.659 Y-25.478
X7.612 Y-25.488
X7.524 Y-25.509
X-10.242 Y-29.484
X-10.329 Y-29.515 F800
X-10.411 Y-29.558
X-10.465 Y-29.608 Z8.205
X-10.519 Y-29.657 Z8.218
X-10.57 Y-29.705 Z8.241
X-10.606 Y-29.776 Z8.279
X-10.638 Y-29.841 Z8.329
X-10.667 Y-29.9 Z8.388
X-10.675 Y-29.956 Z8.459
X-10.682 Y-30.001 Z8.537
X-10.686 Y-30.034 Z8.621
X-10.689 Y-30.054 Z8.709
X-10.69 Y-30.061 Z8.8
G0 Z20
X28.05 Y-5.454
Z9.4
G1 Z8.8 F600
X28.045 Y-5.459 Z8.706
X28.029 Y-5.474 Z8.615
X28.004 Y-5.499 Z8.528
X27.968 Y-5.534 Z8.447
X27.925 Y-5.577 Z8.376
X27.874 Y-5.627 Z8.315
X27.817 Y-5.683 Z8.265
X27.755 Y-5.744 Z8.229
X27.689 Y-5.808 Z8.207
X27.622 Y-5.874 Z8.2
G3 X27.217 Y-6.547 I1.11 J-1.128
G1 X26.894 Y-7.774 F1300
X26.755 Y-8.262
X26.709 Y-8.388
X26.463 Y-9.002
X25.632 Y-11.048
X25.544 Y-11.252
X25.441 Y-11.457
X25.335 Y-11.661
X24.294 Y-13.503
X24.177 Y-13.707
X23.941 Y-14.116
X23.529 Y-14.918
X23.214 Y-15.762
X22.989 Y-16.634
X22.83 Y-17.521
X22.718 Y-18.415
X22.68 Y-18.864
X22.656 Y-19.201
X22.648 Y-19.313
X22.56 Y-19.52
X22.489 Y-19.608
X22.183 Y-19.939
X21.451 Y-20.463
X20.613 Y-20.794
X19.739 Y-21.011
X18.85 Y-21.157
X17.954 Y-21.256
X17.211 Y-21.311
X17.11 Y-21.328
X17.013 Y-21.361
X16.923 Y-21.41
X16.73 Y-21.539
X16.49 Y-21.686
X14.275 Y-23.019
X13.661 Y-23.332
X13.457 Y-23.423
X11.616 Y-24.231
X11.002 Y-24.495
X10.838 Y-24.55
X10.388 Y-24.689
X10.168 Y-24.755
X8.342 Y-25.289
X7.933 Y-25.402
X7.728 Y-25.459
X7.612 Y-25.488
X7.525 Y-25.52 F800
X7.444 Y-25.565
X7.391 Y-25.616 Z8.205
X7.339 Y-25.667 Z8.218
X7.288 Y-25.716 Z8.241
X7.255 Y-25.788 Z8.279
X7.224 Y-25.854 Z8.329
X7.196 Y-25.913 Z8.388
X7.189 Y-25.966 Z8.455
X7.184 Y-26.01 Z8.528
X7.179 Y-26.043 Z8.607
X7.177 Y-26.064 Z8.69
Y-26.072 Z8.745
Y-26.075 Z8.8
G0 Z20
X25.033 Y-13.282
Z9.4
G1 Z8.8 F600
X25.027 Y-13.285 Z8.706
X25.007 Y-13.296 Z8.615
X24.976 Y-13.314 Z8.528
X24.933 Y-13.338 Z8.447
X24.88 Y-13.368 Z8.376
X24.817 Y-13.403 Z8.315
X24.747 Y-13.442 Z8.265
X24.671 Y-13.484 Z8.229
X24.591 Y-13.529 Z8.207
X24.509 Y-13.575 Z8.2
G3 X23.941 Y-14.116 I0.773 J-1.381
G1 X23.891 Y-14.203 F1300
X23.816 Y-14.321
X23.668 Y-14.526
X23.482 Y-14.778
X22.254 Y-16.416
X21.98 Y-16.776
X21.845 Y-16.95
X21.627 Y-17.185
X21.23 Y-17.594
X19.799 Y-19.065
X19.594 Y-19.274
X19.39 Y-19.45
X19.185 Y-19.622
X17.549 Y-20.92
X16.935 Y-21.403
X16.923 Y-21.41
X16.853 Y-21.47 F800
X16.792 Y-21.54
X16.759 Y-21.606 Z8.205
X16.727 Y-21.671 Z8.218
X16.696 Y-21.735 Z8.241
X16.684 Y-21.82 Z8.283
X16.673 Y-21.898 Z8.338
X16.685 Y-21.96 Z8.399
X16.694 Y-22.012 Z8.469
X16.702 Y-22.054 Z8.545
X16.708 Y-22.085 Z8.627
X16.711 Y-22.103 Z8.712
X16.712 Y-22.11 Z8.799
G0 Z20
X-13.478 Y30.676
Z9.4
G1 Z8.8 F600
X-13.473 Y30.671 Z8.706
X-13.456 Y30.656 Z8.615
X-13.429 Y30.633 Z8.528
X-13.392 Y30.601 Z8.447
X-13.345 Y30.561 Z8.376
X-13.291 Y30.514 Z8.315
X-13.23 Y30.461 Z8.265
X-13.165 Y30.405 Z8.229
X-13.095 Y30.345 Z8.207
X-13.024 Y30.283 Z8.2
G3 X-12.321 Y29.934 I1.034 J1.198
G1 X-12.116 Y29.897 F1300
X-11.976 Y29.87
X-11.298 Y29.721
X4.864 Y26.105
X5.752 Y25.952
X6.641 Y25.803
X7.535 Y25.699
X8.433 Y25.627
X9.333 Y25.578
X10.233 Y25.544
X11.134 Y25.52
X12.035 Y25.504
X12.935 Y25.493
X13.836 Y25.486
X14.737 Y25.481
X15.638 Y25.477
X17.44 Y25.473
X20.255 Y25.471
X20.467 Y25.396
X20.556 Y25.327
X20.893 Y25.027
X21.427 Y24.302
X21.766 Y23.467
X21.989 Y22.594
X22.14 Y21.706
X22.242 Y20.811
X22.313 Y19.913
X22.361 Y19.013
X22.395 Y18.113
X22.418 Y17.213
X22.433 Y16.367
X22.448 Y16.243
X22.489 Y16.125
X22.553 Y16.017
X23.517 Y14.73
X23.686 Y14.501
X23.816 Y14.321
X23.891 Y14.203
X24.177 Y13.707
X24.41 Y13.298
X25.335 Y11.661
X25.441 Y11.457
X25.544 Y11.252
X25.632 Y11.048
X26.503 Y8.903
X26.513 Y8.878
X26.557 Y8.796 F800
X26.613 Y8.723
X26.671 Y8.677 Z8.205
X26.728 Y8.632 Z8.218
X26.784 Y8.589 Z8.241
X26.859 Y8.566 Z8.279
X26.929 Y8.544 Z8.329
X26.991 Y8.525 Z8.388
X27.028 Y8.523 Z8.432
X27.062 Y8.521 Z8.48
X27.101 Y8.524 Z8.554
X27.13 Y8.526 Z8.633
X27.148 Y8.527 Z8.716
X27.154 Y8.528 Z8.8
G0 Z20
X3.741 Y26.897
Z9.4
G1 Z8.8 F600
X3.746 Y26.892 Z8.706
X3.762 Y26.877 Z8.615
X3.788 Y26.852 Z8.528
X3.824 Y26.818 Z8.447
X3.869 Y26.776 Z8.376
X3.921 Y26.727 Z8.315
X3.979 Y26.672 Z8.265
X4.042 Y26.612 Z8.229
X4.109 Y26.549 Z8.207
X4.177 Y26.485 Z8.2
G3 X4.864 Y26.105 I1.086 J1.151
G1 X7.524 Y25.509 F1300
X7.728 Y25.459
X8.138 Y25.346
X8.342 Y25.289
X10.183 Y24.75
X10.388 Y24.689
X10.838 Y24.55
X11.002 Y24.495
X11.616 Y24.231
X13.457 Y23.423
X13.661 Y23.332
X14.275 Y23.019
X14.45 Y22.914
X15.232 Y22.495
X16.079 Y22.188
X16.487 Y21.998
X17.14 Y21.377
X17.203 Y21.259
X17.247 Y21.187
X17.301 Y21.122
X17.363 Y21.066
G3 X18.08 Y21.072 Z8.363 I0.354 J0.484 F800
G1 X18.145 Y21.129 Z8.382 F1300
X18.201 Y21.195 Z8.4
G3 X18.039 Y22.056 I-0.484 J0.355
G1 X15.099 Y23.923
G3 X14.274 Y23.743 I-0.322 J-0.507
G1 X14.232 Y23.667 Z8.382
X14.202 Y23.586 Z8.363
G3 X14.45 Y22.914 Z8.2 I0.576 J-0.169 F600
G1 X16.526 Y21.665 F1300
X16.73 Y21.539
X16.935 Y21.403
X17.614 Y20.868
X19.185 Y19.622
X19.407 Y19.436
X19.594 Y19.274
X20.235 Y18.617
X21.436 Y17.384
X21.64 Y17.171
X21.845 Y16.95
X21.98 Y16.776
X22.291 Y16.367
X22.553 Y16.017
X22.616 Y15.95 F800
X22.689 Y15.893
X22.757 Y15.864 Z8.205
X22.824 Y15.836 Z8.218
X22.889 Y15.808 Z8.241
X22.957 Y15.801 Z8.273
X23.02 Y15.794 Z8.313
X23.09 Y15.807 Z8.373
X23.149 Y15.818 Z8.443
X23.198 Y15.826 Z8.522
X23.233 Y15.833 Z8.608
X23.255 Y15.842 Z8.703
X23.263 Y15.845 Z8.8
G0 Z20
X34.337 Y-31.089
Z9.1
G1 Z8.5 F600
X34.33 Y-31.087 Z8.406
X34.309 Y-31.081 Z8.315
X34.274 Y-31.072 Z8.228
X34.226 Y-31.06 Z8.147
X34.167 Y-31.045 Z8.076
X34.098 Y-31.027 Z8.015
X34.02 Y-31.007 Z7.965
X33.936 Y-30.986 Z7.929
X33.847 Y-30.963 Z7.907
X33.756 Y-30.94 Z7.9
G3 X30.49 Y-30.47 I-3.801 J-14.839
G1 X30.377 F1300
X29.528 Y-30.17
X28.653 Y-29.956
X27.764 Y-29.806
X26.87 Y-29.701
X25.972 Y-29.628
X25.072 Y-29.578
X24.172 Y-29.544
X23.271 Y-29.521
X22.37 Y-29.505
X21.47 Y-29.494
X20.569 Y-29.486
X19.668 Y-29.481
X18.767 Y-29.477
X16.965 Y-29.473
X13.362 Y-29.471
X-9.161 Y-29.47
X-10.111
X-10.155 Y-29.472
X-10.198 Y-29.476
X-10.242 Y-29.484
X-11.298 Y-29.721
X-11.976 Y-29.87
X-12.116 Y-29.897
X-12.526 Y-29.97
X-12.73 Y-30.004
X-13.139 Y-30.049
X-13.344 Y-30.07
X-13.958 Y-30.096
X-14.367 Y-30.099
X-14.981 Y-30.1
X-24.801
X-25.31 Y-30.074
X-25.415 Y-30.069
X-25.619 Y-30.034
X-25.824 Y-29.984
X-26.028 Y-29.922
X-26.233 Y-29.843
X-26.438 Y-29.743
X-26.58 Y-29.665
X-26.847 Y-29.488
X-27.123 Y-29.256
X-27.256 Y-29.123
X-27.488 Y-28.847
X-27.665 Y-28.58
X-27.743 Y-28.438
X-27.843 Y-28.233
X-27.922 Y-28.028
X-27.984 Y-27.824
X-28.034 Y-27.619
X-28.069 Y-27.415
X-28.09 Y-27.005
X-28.1 Y-26.801
Y26.801
X-28.074 Y27.31
X-28.069 Y27.415
X-28.034 Y27.619
X-27.984 Y27.824
X-27.922 Y28.028
X-27.843 Y28.233
X-27.743 Y28.438
X-27.665 Y28.58
X-27.488 Y28.847
X-27.256 Y29.123
X-27.123 Y29.256
X-26.847 Y29.488
X-26.58 Y29.665
X-26.438 Y29.743
X-26.233 Y29.843
X-26.028 Y29.922
X-25.824 Y29.984
X-25.619 Y30.034
X-25.415 Y30.069
X-25.005 Y30.09
X-24.801 Y30.1
X-14.572
X-14.162 Y30.098
X-13.958 Y30.096
X-13.344 Y30.07
X-12.935 Y30.026
X-12.73 Y30.004
X-12.526 Y29.97
X-12.321 Y29.934
X-11.427 Y29.821
X-10.533 Y29.711
X-9.635 Y29.636
X-8.736 Y29.583
X-7.836 Y29.548
X-6.935 Y29.523
X-6.034 Y29.506
X-5.134 Y29.495
X-4.233 Y29.487
X-3.332 Y29.481
X-2.431 Y29.478
X-0.629 Y29.474
X2.073 Y29.471
X11.983 Y29.47
X24.708
X24.815 Y29.433
X24.99 Y29.291
X25.523 Y28.565
X25.846 Y27.724
X26.053 Y26.847
X26.19 Y25.957
X26.281 Y25.06
X26.342 Y24.162
X26.383 Y23.262
X26.411 Y22.361
X26.43 Y21.46
X26.443 Y20.56
X26.451 Y19.659
X26.457 Y18.758
X26.461 Y17.857
X26.466 Y16.055
X26.469 Y13.353
X26.47 Y9.101
X26.475 Y9.025
X26.489 Y8.95
X26.513 Y8.878
X26.709 Y8.388
X26.755 Y8.262
X26.894 Y7.774
X27.54 Y5.319
X27.573 Y5.188
X27.59 Y5.115
X27.629 Y4.91
X27.714 Y4.296
X27.952 Y2.455
X27.982 Y2.209
X28.025 Y1.841
X28.046 Y1.637
X28.052 Y1.023
Y-1.023
X28.046 Y-1.637
X28.025 Y-1.841
X27.978 Y-2.25
X27.899 Y-2.864
X27.714 Y-4.296
X27.629 Y-4.91
X27.59 Y-5.115
X27.573 Y-5.188
X27.486 Y-5.524
X27.217 Y-6.547
X27.031 Y-7.428
X26.858 Y-8.313
X26.738 Y-9.205
X26.654 Y-10.102
X26.596 Y-11.001
X26.556 Y-11.901
X26.529 Y-12.802
X26.51 Y-13.703
X26.497 Y-14.603
X26.489 Y-15.504
X26.483 Y-16.405
X26.479 Y-17.306
X26.474 Y-19.108
X26.471 Y-21.81
Y-23.95
X26.433 Y-24.056
X26.292 Y-24.231
X25.521 Y-24.697
X24.663 Y-24.974
X23.779 Y-25.148
X22.885 Y-25.259
X21.987 Y-25.332
X21.088 Y-25.379
X20.187 Y-25.41
X19.287 Y-25.431
X18.386 Y-25.444
X17.485 Y-25.453
X16.584 Y-25.459
X15.683 Y-25.463
X13.881 Y-25.467
X11.179 Y-25.469
X7.756 Y-25.47
X7.708 Y-25.472
X7.659 Y-25.478
X7.612 Y-25.488
X7.524 Y-25.509
X-10.242 Y-29.484
X-10.329 Y-29.515 F800
X-10.411 Y-29.558
X-10.465 Y-29.608 Z7.905
X-10.519 Y-29.657 Z7.918
X-10.57 Y-29.705 Z7.941
X-10.606 Y-29.776 Z7.979
X-10.638 Y-29.841 Z8.029
X-10.667 Y-29.9 Z8.088
X-10.675 Y-29.956 Z8.159
X-10.682 Y-30.001 Z8.237
X-10.686 Y-30.034 Z8.321
X-10.689 Y-30.054 Z8.409
X-10.69 Y-30.061 Z8.5
G0 Z20
X28.05 Y-5.454
Z9.1
G1 Z8.5 F600
X28.045 Y-5.459 Z8.406
X28.029 Y-5.474 Z8.315
X28.004 Y-5.499 Z8.228
X27.968 Y-5.534 Z8.147
X27.925 Y-5.577 Z8.076
X27.874 Y-5.627 Z8.015
X27.817 Y-5.683 Z7.965
X27.755 Y-5.744 Z7.929
X27.689 Y-5.808 Z7.907
X27.622 Y-5.874 Z7.9
G3 X27.217 Y-6.547 I1.11 J-1.128
G1 X26.894 Y-7.774 F1300
X26.755 Y-8.262
X26.709 Y-8.388
X26.463 Y-9.002
X25.632 Y-11.048
X25.544 Y-11.252
X25.441 Y-11.457
X25.335 Y-11.661
X24.294 Y-13.503
X24.177 Y-13.707
X23.941 Y-14.116
X23.529 Y-14.918
X23.214 Y-15.762
X22.989 Y-16.634
X22.83 Y-17.521
X22.718 Y-18.415
X22.68 Y-18.864
X22.656 Y-19.201
X22.648 Y-19.313
X22.56 Y-19.52
X22.489 Y-19.608
X22.183 Y-19.939
X21.451 Y-20.463
X20.613 Y-20.794
X19.739 Y-21.011
X18.85 Y-21.157
X17.954 Y-21.256
X17.211 Y-21.311
X17.11 Y-21.328
X17.013 Y-21.361
X16.923 Y-21.41
X16.73 Y-21.539
X16.49 Y-21.686
X14.275 Y-23.019
X13.661 Y-23.332
X13.457 Y-23.423
X11.616 Y-24.231
X11.002 Y-24.495
X10.838 Y-24.55
X10.388 Y-24.689
X10.168 Y-24.755
X8.342 Y-25.289
X7.933 Y-25.402
X7.728 Y-25.459
X7.612 Y-25.488
X7.525 Y-25.52 F800
X7.444 Y-25.565
X7.391 Y-25.616 Z7.905
X7.339 Y-25.667 Z7.918
X7.288 Y-25.716 Z7.941
X7.255 Y-25.788 Z7.979
X7.224 Y-25.854 Z8.029
X7.196 Y-25.913 Z8.088
X7.189 Y-25.966 Z8.155
X7.184 Y-26.01 Z8.228
X7.179 Y-26.043 Z8.307
X7.177 Y-26.064 Z8.39
Y-26.072 Z8.445
Y-26.075 Z8.5
G0 Z20
X25.033 Y-13.282
Z9.1
G1 Z8.5 F600
X25.027 Y-13.285 Z8.406
X25.007 Y-13.296 Z8.315
X24.976 Y-13.314 Z8.228
X24.933 Y-13.338 Z8.147
X24.88 Y-13.368 Z8.076
X24.817 Y-13.403 Z8.015
X24.747 Y-13.442 Z7.965
X24.671 Y-13.484 Z7.929
X24.591 Y-13.529 Z7.907
X24.509 Y-13.575 Z7.9
G3 X23.941 Y-14.116 I0.773 J-1.381
G1 X23.891 Y-14.203 F1300
X23.816 Y-14.321
X23.668 Y-14.526
X23.482 Y-14.778
X22.254 Y-16.416
X21.98 Y-16.776
X21.845 Y-16.95
X21.627 Y-17.185
X21.23 Y-17.594
X19.799 Y-19.065
X19.594 Y-19.274
X19.39 Y-19.45
X19.185 Y-19.622
X17.549 Y-20.92
X16.935 Y-21.403
X16.923 Y-21.41
X16.853 Y-21.47 F800
X16.792 Y-21.54
X16.759 Y-21.606 Z7.905
X16.727 Y-21.671 Z7.918
X16.696 Y-21.735 Z7.941
X16.684 Y-21.82 Z7.983
X16.673 Y-21.898 Z8.038
X16.685 Y-21.96 Z8.099
X16.694 Y-22.012 Z8.169
X16.702 Y-22.054 Z8.245
X16.708 Y-22.085 Z8.327
X16.711 Y-22.103 Z8.412
X16.712 Y-22.11 Z8.499
G0 Z20
X-13.478 Y30.676
Z9.1
G1 Z8.5 F600
X-13.473 Y30.671 Z8.406
X-13.456 Y30.656 Z8.315
X-13.429 Y30.633 Z8.228
X-13.392 Y30.601 Z8.147
X-13.345 Y30.561 Z8.076
X-13.291 Y30.514 Z8.015
X-13.23 Y30.461 Z7.965
X-13.165 Y30.405 Z7.929
X-13.095 Y30.345 Z7.907
X-13.024 Y30.283 Z7.9
G3 X-12.321 Y29.934 I1.034 J1.198
G1 X-12.116 Y29.897 F1300
X-11.976 Y29.87
X-11.298 Y29.721
X4.864 Y26.105
X5.752 Y25.952
X6.641 Y25.803
X7.535 Y25.699
X8.433 Y25.627
X9.333 Y25.578
X10.233 Y25.544
X11.134 Y25.52
X12.035 Y25.504
X12.935 Y25.493
X13.836 Y25.486
X14.737 Y25.481
X15.638 Y25.477
X17.44 Y25.473
X20.255 Y25.471
X20.467 Y25.396
X20.556 Y25.327
X20.893 Y25.027
X21.427 Y24.302
X21.766 Y23.467
X21.989 Y22.594
X22.14 Y21.706
X22.242 Y20.811
X22.313 Y19.913
X22.361 Y19.013
X22.395 Y18.113
X22.418 Y17.213
X22.433 Y16.367
X22.448 Y16.243
X22.489 Y16.125
X22.553 Y16.017
X23.517 Y14.73
X23.686 Y14.501
X23.816 Y14.321
X23.891 Y14.203
X24.177 Y13.707
X24.41 Y13.298
X25.335 Y11.661
X25.441 Y11.457
X25.544 Y11.252
X25.632 Y11.048
X26.503 Y8.903
X26.513 Y8.878
X26.557 Y8.796 F800
X26.613 Y8.723
X26.671 Y8.677 Z7.905
X26.728 Y8.632 Z7.918
X26.784 Y8.589 Z7.941
X26.859 Y8.566 Z7.979
X26.929 Y8.544 Z8.029
X26.991 Y8.525 Z8.088
X27.028 Y8.523 Z8.132
X27.062 Y8.521 Z8.18
X27.101 Y8.524 Z8.254
X27.13 Y8.526 Z8.333
X27.148 Y8.527 Z8.416
X27.154 Y8.528 Z8.5
G0 Z20
X3.741 Y26.897
Z9.1
G1 Z8.5 F600
X3.746 Y26.892 Z8.406
X3.762 Y26.877 Z8.315
X3.788 Y26.852 Z8.228
X3.824 Y26.818 Z8.147
X3.869 Y26.776 Z8.076
X3.921 Y26.727 Z8.015
X3.979 Y26.672 Z7.965
X4.042 Y26.612 Z7.929
X4.109 Y26.549 Z7.907
X4.177 Y26.485 Z7.9
G3 X4.864 Y26.105 I1.086 J1.151
G1 X7.524 Y25.509 F1300
X7.728 Y25.459
X8.138 Y25.346
X8.342 Y25.289
X10.183 Y24.75
X10.388 Y24.689
X10.838 Y24.55
X11.002 Y24.495
X11.616 Y24.231
X13.457 Y23.423
X13.661 Y23.332
X14.275 Y23.019
X14.45 Y22.914
X15.232 Y22.495
X16.079 Y22.188
X16.487 Y21.998
X17.14 Y21.377
X17.203 Y21.259
X17.247 Y21.187
X17.301 Y21.122
X17.363 Y21.066
G3 X18.08 Y21.072 Z8.063 I0.354 J0.484 F800
G1 X18.145 Y21.129 Z8.082 F1300
X18.201 Y21.195 Z8.1
G3 X18.039 Y22.056 I-0.484 J0.355
G1 X15.099 Y23.923
G3 X14.274 Y23.743 I-0.322 J-0.507
G1 X14.232 Y23.667 Z8.082
X14.202 Y23.586 Z8.063
G3 X14.45 Y22.914 Z7.9 I0.576 J-0.169 F600
G1 X16.526 Y21.665 F1300
X16.73 Y21.539
X16.935 Y21.403
X17.614 Y20.868
X19.185 Y19.622
X19.407 Y19.436
X19.594 Y19.274
X20.235 Y18.617
X21.436 Y17.384
X21.64 Y17.171
X21.845 Y16.95
X21.98 Y16.776
X22.291 Y16.367
X22.553 Y16.017
X22.616 Y15.95 F800
X22.689 Y15.893
X22.757 Y15.864 Z7.905
X22.824 Y15.836 Z7.918
X22.889 Y15.808 Z7.941
X22.957 Y15.801 Z7.973
X23.02 Y15.794 Z8.013
X23.09 Y15.807 Z8.073
X23.149 Y15.818 Z8.143
X23.198 Y15.826 Z8.222
X23.233 Y15.833 Z8.308
X23.255 Y15.842 Z8.403
X23.263 Y15.845 Z8.5
G0 Z20
X34.337 Y-31.089
Z8.8
G1 Z8.2 F600
X34.33 Y-31.087 Z8.106
X34.309 Y-31.081 Z8.015
X34.274 Y-31.072 Z7.928
X34.226 Y-31.06 Z7.847
X34.167 Y-31.045 Z7.776
X34.098 Y-31.027 Z7.715
X34.02 Y-31.007 Z7.665
X33.936 Y-30.986 Z7.629
X33.847 Y-30.963 Z7.607
X33.756 Y-30.94 Z7.6
G3 X30.49 Y-30.47 I-3.801 J-14.839
G1 X30.377 F1300
X29.528 Y-30.17
X28.653 Y-29.956
X27.764 Y-29.806
X26.87 Y-29.701
X25.972 Y-29.628
X25.072 Y-29.578
X24.172 Y-29.544
X23.271 Y-29.521
X22.37 Y-29.505
X21.47 Y-29.494
X20.569 Y-29.486
X19.668 Y-29.481
X18.767 Y-29.477
X16.965 Y-29.473
X13.362 Y-29.471
X-9.161 Y-29.47
X-10.111
X-10.155 Y-29.472
X-10.198 Y-29.476
X-10.242 Y-29.484
X-11.298 Y-29.721
X-11.976 Y-29.87
X-12.116 Y-29.897
X-12.526 Y-29.97
X-12.73 Y-30.004
X-13.139 Y-30.049
X-13.344 Y-30.07
X-13.958 Y-30.096
X-14.367 Y-30.099
X-14.981 Y-30.1
X-24.801
X-25.31 Y-30.074
X-25.415 Y-30.069
X-25.619 Y-30.034
X-25.824 Y-29.984
X-26.028 Y-29.922
X-26.233 Y-29.843
X-26.438 Y-29.743
X-26.58 Y-29.665
X-26.847 Y-29.488
X-27.123 Y-29.256
X-27.256 Y-29.123
X-27.488 Y-28.847
X-27.665 Y-28.58
X-27.743 Y-28.438
X-27.843 Y-28.233
X-27.922 Y-28.028
X-27.984 Y-27.824
X-28.034 Y-27.619
X-28.069 Y-27.415
X-28.09 Y-27.005
X-28.1 Y-26.801
Y26.801
X-28.074 Y27.31
X-28.069 Y27.415
X-28.034 Y27.619
X-27.984 Y27.824
X-27.922 Y28.028
X-27.843 Y28.233
X-27.743 Y28.438
X-27.665 Y28.58
X-27.488 Y28.847
X-27.256 Y29.123
X-27.123 Y29.256
X-26.847 Y29.488
X-26.58 Y29.665
X-26.438 Y29.743
X-26.233 Y29.843
X-26.028 Y29.922
X-25.824 Y29.984
X-25.619 Y30.034
X-25.415 Y30.069
X-25.005 Y30.09
X-24.801 Y30.1
X-14.572
X-14.162 Y30.098
X-13.958 Y30.096
X-13.344 Y30.07
X-12.935 Y30.026
X-12.73 Y30.004
X-12.526 Y29.97
X-12.321 Y29.934
X-11.427 Y29.821
X-10.533 Y29.711
X-9.635 Y29.636
X-8.736 Y29.583
X-7.836 Y29.548
X-6.935 Y29.523
X-6.034 Y29.506
X-5.134 Y29.495
X-4.233 Y29.487
X-3.332 Y29.481
X-2.431 Y29.478
X-0.629 Y29.474
X2.073 Y29.471
X11.983 Y29.47
X24.708
X24.815 Y29.433
X24.99 Y29.291
X25.523 Y28.565
X25.846 Y27.724
X26.053 Y26.847
X26.19 Y25.957
X26.281 Y25.06
X26.342 Y24.162
X26.383 Y23.262
X26.411 Y22.361
X26.43 Y21.46
X26.443 Y20.56
X26.451 Y19.659
X26.457 Y18.758
X26.461 Y17.857
X26.466 Y16.055
X26.469 Y13.353
X26.47 Y9.101
X26.475 Y9.025
X26.489 Y8.95
X26.513 Y8.878
X26.709 Y8.388
X26.755 Y8.262
X26.894 Y7.774
X27.54 Y5.319
X27.573 Y5.188
X27.59 Y5.115
X27.629 Y4.91
X27.714 Y4.296
X27.952 Y2.455
X27.982 Y2.209
X28.025 Y1.841
X28.046 Y1.637
X28.052 Y1.023
Y-1.023
X28.046 Y-1.637
X28.025 Y-1.841
X27.978 Y-2.25
X27.899 Y-2.864
X27.714 Y-4.296
X27.629 Y-4.91
X27.59 Y-5.115
X27.573 Y-5.188
X27.486 Y-5.524
X27.217 Y-6.547
X27.031 Y-7.428
X26.858 Y-8.313
X26.738 Y-9.205
X26.654 Y-10.102
X26.596 Y-11.001
X26.556 Y-11.901
X26.529 Y-12.802
X26.51 Y-13.703
X26.497 Y-14.603
X26.489 Y-15.504
X26.483 Y-16.405
X26.479 Y-17.306
X26.474 Y-19.108
X26.471 Y-21.81
Y-23.95
X26.433 Y-24.056
X26.292 Y-24.231
X25.521 Y-24.697
X24.663 Y-24.974
X23.779 Y-25.148
X22.885 Y-25.259
X21.987 Y-25.332
X21.088 Y-25.379
X20.187 Y-25.41
X19.287 Y-25.431
X18.386 Y-25.444
X17.485 Y-25.453
X16.584 Y-25.459
X15.683 Y-25.463
X13.881 Y-25.467
X11.179 Y-25.469
X7.756 Y-25.47
X7.708 Y-25.472
X7.659 Y-25.478
X7.612 Y-25.488
X7.524 Y-25.509
X-10.242 Y-29.484
X-10.329 Y-29.515 F800
X-10.411 Y-29.558
X-10.465 Y-29.608 Z7.605
X-10.519 Y-29.657 Z7.618
X-10.57 Y-29.705 Z7.641
X-10.606 Y-29.776 Z7.679
X-10.638 Y-29.841 Z7.729
X-10.667 Y-29.9 Z7.788
X-10.675 Y-29.956 Z7.859
X-10.682 Y-30.001 Z7.937
X-10.686 Y-30.034 Z8.021
X-10.689 Y-30.054 Z8.109
X-10.69 Y-30.061 Z8.2
G0 Z20
X28.05 Y-5.454
Z8.8
G1 Z8.2 F600
X28.045 Y-5.459 Z8.106
X28.029 Y-5.474 Z8.015
X28.004 Y-5.499 Z7.928
X27.968 Y-5.534 Z7.847
X27.925 Y-5.577 Z7.776
X27.874 Y-5.627 Z7.715
X27.817 Y-5.683 Z7.665
X27.755 Y-5.744 Z7.629
X27.689 Y-5.808 Z7.607
X27.622 Y-5.874 Z7.6
G3 X27.217 Y-6.547 I1.11 J-1.128
G1 X26.894 Y-7.774 F1300
X26.755 Y-8.262
X26.709 Y-8.388
X26.463 Y-9.002
X25.632 Y-11.048
X25.544 Y-11.252
X25.441 Y-11.457
X25.335 Y-11.661
X24.294 Y-13.503
X24.177 Y-13.707
X23.941 Y-14.116
X23.529 Y-14.918
X23.214 Y-15.762
X22.989 Y-16.634
X22.83 Y-17.521
X22.718 Y-18.415
X22.68 Y-18.864
X22.656 Y-19.201
X22.648 Y-19.313
X22.56 Y-19.52
X22.489 Y-19.608
X22.183 Y-19.939
X21.451 Y-20.463
X20.613 Y-20.794
X19.739 Y-21.011
X18.85 Y-21.157
X17.954 Y-21.256
X17.211 Y-21.311
X17.11 Y-21.328
X17.013 Y-21.361
X16.923 Y-21.41
X16.73 Y-21.539
X16.49 Y-21.686
X14.275 Y-23.019
X13.661 Y-23.332
X13.457 Y-23.423
X11.616 Y-24.231
X11.002 Y-24.495
X10.838 Y-24.55
X10.388 Y-24.689
X10.168 Y-24.755
X8.342 Y-25.289
X7.933 Y-25.402
X7.728 Y-25.459
X7.612 Y-25.488
X7.525 Y-25.52 F800
X7.444 Y-25.565
X7.391 Y-25.616 Z7.605
X7.339 Y-25.667 Z7.618
X7.288 Y-25.716 Z7.641
X7.255 Y-25.788 Z7.679
X7.224 Y-25.854 Z7.729
X7.196 Y-25.913 Z7.788
X7.189 Y-25.966 Z7.855
X7.184 Y-26.01 Z7.928
X7.179 Y-26.043 Z8.007
X7.177 Y-26.064 Z8.09
Y-26.072 Z8.145
Y-26.075 Z8.2
G0 Z20
X25.033 Y-13.282
Z8.8
G1 Z8.2 F600
X25.027 Y-13.285 Z8.106
X25.007 Y-13.296 Z8.015
X24.976 Y-13.314 Z7.928
X24.933 Y-13.338 Z7.847
X24.88 Y-13.368 Z7.776
X24.817 Y-13.403 Z7.715
X24.747 Y-13.442 Z7.665
X24.671 Y-13.484 Z7.629
X24.591 Y-13.529 Z7.607
X24.509 Y-13.575 Z7.6
G3 X23.941 Y-14.116 I0.773 J-1.381
G1 X23.891 Y-14.203 F1300
X23.816 Y-14.321
X23.668 Y-14.526
X23.482 Y-14.778
X22.254 Y-16.416
X21.98 Y-16.776
X21.845 Y-16.95
X21.627 Y-17.185
X21.23 Y-17.594
X19.799 Y-19.065
X19.594 Y-19.274
X19.39 Y-19.45
X19.185 Y-19.622
X17.549 Y-20.92
X16.935 Y-21.403
X16.923 Y-21.41
X16.853 Y-21.47 F800
X16.792 Y-21.54
X16.759 Y-21.606 Z7.605
X16.727 Y-21.671 Z7.618
X16.696 Y-21.735 Z7.641
X16.684 Y-21.82 Z7.683
X16.673 Y-21.898 Z7.738
X16.685 Y-21.96 Z7.799
X16.694 Y-22.012 Z7.869
X16.702 Y-22.054 Z7.945
X16.708 Y-22.085 Z8.027
X16.711 Y-22.103 Z8.112
X16.712 Y-22.11 Z8.199
G0 Z20
X-13.478 Y30.676
Z8.8
G1 Z8.2 F600
X-13.473 Y30.671 Z8.106
X-13.456 Y30.656 Z8.015
X-13.429 Y30.633 Z7.928
X-13.392 Y30.601 Z7.847
X-13.345 Y30.561 Z7.776
X-13.291 Y30.514 Z7.715
X-13.23 Y30.461 Z7.665
X-13.165 Y30.405 Z7.629
X-13.095 Y30.345 Z7.607
X-13.024 Y30.283 Z7.6
G3 X-12.321 Y29.934 I1.034 J1.198
G1 X-12.116 Y29.897 F1300
X-11.976 Y29.87
X-11.298 Y29.721
X4.864 Y26.105
X5.752 Y25.952
X6.641 Y25.803
X7.535 Y25.699
X8.433 Y25.627
X9.333 Y25.578
X10.233 Y25.544
X11.134 Y25.52
X12.035 Y25.504
X12.935 Y25.493
X13.836 Y25.486
X14.737 Y25.481
X15.638 Y25.477
X17.44 Y25.473
X20.255 Y25.471
X20.467 Y25.396
X20.556 Y25.327
X20.893 Y25.027
X21.427 Y24.302
X21.766 Y23.467
X21.989 Y22.594
X22.14 Y21.706
X22.242 Y20.811
X22.313 Y19.913
X22.361 Y19.013
X22.395 Y18.113
X22.418 Y17.213
X22.433 Y16.367
X22.448 Y16.243
X22.489 Y16.125
X22.553 Y16.017
X23.517 Y14.73
X23.686 Y14.501
X23.816 Y14.321
X23.891 Y14.203
X24.177 Y13.707
X24.41 Y13.298
X25.335 Y11.661
X25.441 Y11.457
X25.544 Y11.252
X25.632 Y11.048
X26.503 Y8.903
X26.513 Y8.878
X26.557 Y8.796 F800
X26.613 Y8.723
X26.671 Y8.677 Z7.605
X26.728 Y8.632 Z7.618
X26.784 Y8.589 Z7.641
X26.859 Y8.566 Z7.679
X26.929 Y8.544 Z7.729
X26.991 Y8.525 Z7.788
X27.028 Y8.523 Z7.832
X27.062 Y8.521 Z7.88
X27.101 Y8.524 Z7.954
X27.13 Y8.526 Z8.033
X27.148 Y8.527 Z8.116
X27.154 Y8.528 Z8.2
G0 Z20
X3.741 Y26.897
Z8.8
G1 Z8.2 F600
X3.746 Y26.892 Z8.106
X3.762 Y26.877 Z8.015
X3.788 Y26.852 Z7.928
X3.824 Y26.818 Z7.847
X3.869 Y26.776 Z7.776
X3.921 Y26.727 Z7.715
X3.979 Y26.672 Z7.665
X4.042 Y26.612 Z7.629
X4.109 Y26.549 Z7.607
X4.177 Y26.485 Z7.6
G3 X4.864 Y26.105 I1.086 J1.151
G1 X7.524 Y25.509 F1300
X7.728 Y25.459
X8.138 Y25.346
X8.342 Y25.289
X10.183 Y24.75
X10.388 Y24.689
X10.838 Y24.55
X11.002 Y24.495
X11.616 Y24.231
X13.457 Y23.423
X13.661 Y23.332
X14.275 Y23.019
X14.45 Y22.914
X15.232 Y22.495
X16.079 Y22.188
X16.487 Y21.998
X17.14 Y21.377
X17.203 Y21.259
X17.247 Y21.187
X17.301 Y21.122
X17.363 Y21.066
G3 X18.08 Y21.072 Z7.763 I0.354 J0.484 F800
G1 X18.145 Y21.129 Z7.782 F1300
X18.201 Y21.195 Z7.8
G3 X18.039 Y22.056 I-0.484 J0.355
G1 X15.099 Y23.923
G3 X14.274 Y23.743 I-0.322 J-0.507
G1 X14.232 Y23.667 Z7.782
X14.202 Y23.586 Z7.763
G3 X14.45 Y22.914 Z7.6 I0.576 J-0.169 F600
G1 X16.526 Y21.665 F1300
X16.73 Y21.539
X16.935 Y21.403
X17.614 Y20.868
X19.185 Y19.622
X19.407 Y19.436
X19.594 Y19.274
X20.235 Y18.617
X21.436 Y17.384
X21.64 Y17.171
X21.845 Y16.95
X21.98 Y16.776
X22.291 Y16.367
X22.553 Y16.017
X22.616 Y15.95 F800
X22.689 Y15.893
X22.757 Y15.864 Z7.605
X22.824 Y15.836 Z7.618
X22.889 Y15.808 Z7.641
X22.957 Y15.801 Z7.673
X23.02 Y15.794 Z7.713
X23.09 Y15.807 Z7.773
X23.149 Y15.818 Z7.843
X23.198 Y15.826 Z7.922
X23.233 Y15.833 Z8.008
X23.255 Y15.842 Z8.103
X23.263 Y15.845 Z8.2
G0 Z20
X34.337 Y-31.089
Z8.5
G1 Z7.9 F600
X34.33 Y-31.087 Z7.806
X34.309 Y-31.081 Z7.715
X34.274 Y-31.072 Z7.628
X34.226 Y-31.06 Z7.547
X34.167 Y-31.045 Z7.476
X34.098 Y-31.027 Z7.415
X34.02 Y-31.007 Z7.365
X33.936 Y-30.986 Z7.329
X33.847 Y-30.963 Z7.307
X33.756 Y-30.94 Z7.3
G3 X30.49 Y-30.47 I-3.801 J-14.839
G1 X30.377 F1300
X29.528 Y-30.17
X28.653 Y-29.956
X27.764 Y-29.806
X26.87 Y-29.701
X25.972 Y-29.628
X25.072 Y-29.578
X24.172 Y-29.544
X23.271 Y-29.521
X22.37 Y-29.505
X21.47 Y-29.494
X20.569 Y-29.486
X19.668 Y-29.481
X18.767 Y-29.477
X16.965 Y-29.473
X13.362 Y-29.471
X-9.161 Y-29.47
X-10.111
X-10.155 Y-29.472
X-10.198 Y-29.476
X-10.242 Y-29.484
X-11.298 Y-29.721
X-11.976 Y-29.87
X-12.116 Y-29.897
X-12.526 Y-29.97
X-12.73 Y-30.004
X-13.139 Y-30.049
X-13.344 Y-30.07
X-13.958 Y-30.096
X-14.367 Y-30.099
X-14.981 Y-30.1
X-24.801
X-25.31 Y-30.074
X-25.415 Y-30.069
X-25.619 Y-30.034
X-25.824 Y-29.984
X-26.028 Y-29.922
X-26.233 Y-29.843
X-26.438 Y-29.743
X-26.58 Y-29.665
X-26.847 Y-29.488
X-27.123 Y-29.256
X-27.256 Y-29.123
X-27.488 Y-28.847
X-27.665 Y-28.58
X-27.743 Y-28.438
X-27.843 Y-28.233
X-27.922 Y-28.028
X-27.984 Y-27.824
X-28.034 Y-27.619
X-28.069 Y-27.415
X-28.09 Y-27.005
X-28.1 Y-26.801
Y26.801
X-28.074 Y27.31
X-28.069 Y27.415
X-28.034 Y27.619
X-27.984 Y27.824
X-27.922 Y28.028
X-27.843 Y28.233
X-27.743 Y28.438
X-27.665 Y28.58
X-27.488 Y28.847
X-27.256 Y29.123
X-27.123 Y29.256
X-26.847 Y29.488
X-26.58 Y29.665
X-26.438 Y29.743
X-26.233 Y29.843
X-26.028 Y29.922
X-25.824 Y29.984
X-25.619 Y30.034
X-25.415 Y30.069
X-25.005 Y30.09
X-24.801 Y30.1
X-14.572
X-14.162 Y30.098
X-13.958 Y30.096
X-13.344 Y30.07
X-12.935 Y30.026
X-12.73 Y30.004
X-12.526 Y29.97
X-12.321 Y29.934
X-11.427 Y29.821
X-10.533 Y29.711
X-9.635 Y29.636
X-8.736 Y29.583
X-7.836 Y29.548
X-6.935 Y29.523
X-6.034 Y29.506
X-5.134 Y29.495
X-4.233 Y29.487
X-3.332 Y29.481
X-2.431 Y29.478
X-0.629 Y29.474
X2.073 Y29.471
X11.983 Y29.47
X24.708
X24.815 Y29.433
X24.99 Y29.291
X25.523 Y28.565
X25.846 Y27.724
X26.053 Y26.847
X26.19 Y25.957
X26.281 Y25.06
X26.342 Y24.162
X26.383 Y23.262
X26.411 Y22.361
X26.43 Y21.46
X26.443 Y20.56
X26.451 Y19.659
X26.457 Y18.758
X26.461 Y17.857
X26.466 Y16.055
X26.469 Y13.353
X26.47 Y9.101
X26.475 Y9.025
X26.489 Y8.95
X26.513 Y8.878
X26.709 Y8.388
X26.755 Y8.262
X26.894 Y7.774
X27.54 Y5.319
X27.573 Y5.188
X27.59 Y5.115
X27.629 Y4.91
X27.714 Y4.296
X27.952 Y2.455
X27.982 Y2.209
X28.025 Y1.841
X28.046 Y1.637
X28.052 Y1.023
Y-1.023
X28.046 Y-1.637
X28.025 Y-1.841
X27.978 Y-2.25
X27.899 Y-2.864
X27.714 Y-4.296
X27.629 Y-4.91
X27.59 Y-5.115
X27.573 Y-5.188
X27.486 Y-5.524
X27.217 Y-6.547
X27.031 Y-7.428
X26.858 Y-8.313
X26.738 Y-9.205
X26.654 Y-10.102
X26.596 Y-11.001
X26.556 Y-11.901
X26.529 Y-12.802
X26.51 Y-13.703
X26.497 Y-14.603
X26.489 Y-15.504
X26.483 Y-16.405
X26.479 Y-17.306
X26.474 Y-19.108
X26.471 Y-21.81
Y-23.95
X26.433 Y-24.056
X26.292 Y-24.231
X25.521 Y-24.697
X24.663 Y-24.974
X23.779 Y-25.148
X22.885 Y-25.259
X21.987 Y-25.332
X21.088 Y-25.379
X20.187 Y-25.41
X19.287 Y-25.431
X18.386 Y-25.444
X17.485 Y-25.453
X16.584 Y-25.459
X15.683 Y-25.463
X13.881 Y-25.467
X11.179 Y-25.469
X7.756 Y-25.47
X7.708 Y-25.472
X7.659 Y-25.478
X7.612 Y-25.488
X7.524 Y-25.509
X-10.242 Y-29.484
X-10.329 Y-29.515 F800
X-10.411 Y-29.558
X-10.465 Y-29.608 Z7.305
X-10.519 Y-29.657 Z7.318
X-10.57 Y-29.705 Z7.341
X-10.606 Y-29.776 Z7.379
X-10.638 Y-29.841 Z7.429
X-10.667 Y-29.9 Z7.488
X-10.675 Y-29.956 Z7.559
X-10.682 Y-30.001 Z7.637
X-10.686 Y-30.034 Z7.721
X-10.689 Y-30.054 Z7.809
X-10.69 Y-30.061 Z7.9
G0 Z20
X28.05 Y-5.454
Z8.5
G1 Z7.9 F600
X28.045 Y-5.459 Z7.806
X28.029 Y-5.474 Z7.715
X28.004 Y-5.499 Z7.628
X27.968 Y-5.534 Z7.547
X27.925 Y-5.577 Z7.476
X27.874 Y-5.627 Z7.415
X27.817 Y-5.683 Z7.365
X27.755 Y-5.744 Z7.329
X27.689 Y-5.808 Z7.307
X27.622 Y-5.874 Z7.3
G3 X27.217 Y-6.547 I1.11 J-1.128
G1 X26.894 Y-7.774 F1300
X26.755 Y-8.262
X26.709 Y-8.388
X26.463 Y-9.002
X25.632 Y-11.048
X25.544 Y-11.252
X25.441 Y-11.457
X25.335 Y-11.661
X24.294 Y-13.503
X24.177 Y-13.707
X23.941 Y-14.116
X23.529 Y-14.918
X23.214 Y-15.762
X22.989 Y-16.634
X22.83 Y-17.521
X22.718 Y-18.415
X22.68 Y-18.864
X22.656 Y-19.201
X22.648 Y-19.313
X22.56 Y-19.52
X22.489 Y-19.608
X22.183 Y-19.939
X21.451 Y-20.463
X20.613 Y-20.794
X19.739 Y-21.011
X18.85 Y-21.157
X17.954 Y-21.256
X17.211 Y-21.311
X17.11 Y-21.328
X17.013 Y-21.361
X16.923 Y-21.41
X16.73 Y-21.539
X16.49 Y-21.686
X14.275 Y-23.019
X13.661 Y-23.332
X13.457 Y-23.423
X11.616 Y-24.231
X11.002 Y-24.495
X10.838 Y-24.55
X10.388 Y-24.689
X10.168 Y-24.755
X8.342 Y-25.289
X7.933 Y-25.402
X7.728 Y-25.459
X7.612 Y-25.488
X7.525 Y-25.52 F800
X7.444 Y-25.565
X7.391 Y-25.616 Z7.305
X7.339 Y-25.667 Z7.318
X7.288 Y-25.716 Z7.341
X7.255 Y-25.788 Z7.379
X7.224 Y-25.854 Z7.429
X7.196 Y-25.913 Z7.488
X7.189 Y-25.966 Z7.555
X7.184 Y-26.01 Z7.628
X7.179 Y-26.043 Z7.707
X7.177 Y-26.064 Z7.79
Y-26.072 Z7.845
Y-26.075 Z7.9
G0 Z20
X25.033 Y-13.282
Z8.5
G1 Z7.9 F600
X25.027 Y-13.285 Z7.806
X25.007 Y-13.296 Z7.715
X24.976 Y-13.314 Z7.628
X24.933 Y-13.338 Z7.547
X24.88 Y-13.368 Z7.476
X24.817 Y-13.403 Z7.415
X24.747 Y-13.442 Z7.365
X24.671 Y-13.484 Z7.329
X24.591 Y-13.529 Z7.307
X24.509 Y-13.575 Z7.3
G3 X23.941 Y-14.116 I0.773 J-1.381
G1 X23.891 Y-14.203 F1300
X23.816 Y-14.321
X23.668 Y-14.526
X23.482 Y-14.778
X22.254 Y-16.416
X21.98 Y-16.776
X21.845 Y-16.95
X21.627 Y-17.185
X21.23 Y-17.594
X19.799 Y-19.065
X19.594 Y-19.274
X19.39 Y-19.45
X19.185 Y-19.622
X17.549 Y-20.92
X16.935 Y-21.403
X16.923 Y-21.41
X16.853 Y-21.47 F800
X16.792 Y-21.54
X16.759 Y-21.606 Z7.305
X16.727 Y-21.671 Z7.318
X16.696 Y-21.735 Z7.341
X16.684 Y-21.82 Z7.383
X16.673 Y-21.898 Z7.438
X16.685 Y-21.96 Z7.499
X16.694 Y-22.012 Z7.569
X16.702 Y-22.054 Z7.645
X16.708 Y-22.085 Z7.727
X16.711 Y-22.103 Z7.812
X16.712 Y-22.11 Z7.899
G0 Z20
X-13.478 Y30.676
Z8.5
G1 Z7.9 F600
X-13.473 Y30.671 Z7.806
X-13.456 Y30.656 Z7.715
X-13.429 Y30.633 Z7.628
X-13.392 Y30.601 Z7.547
X-13.345 Y30.561 Z7.476
X-13.291 Y30.514 Z7.415
X-13.23 Y30.461 Z7.365
X-13.165 Y30.405 Z7.329
X-13.095 Y30.345 Z7.307
X-13.024 Y30.283 Z7.3
G3 X-12.321 Y29.934 I1.034 J1.198
G1 X-12.116 Y29.897 F1300
X-11.976 Y29.87
X-11.298 Y29.721
X4.864 Y26.105
X5.752 Y25.952
X6.641 Y25.803
X7.535 Y25.699
X8.433 Y25.627
X9.333 Y25.578
X10.233 Y25.544
X11.134 Y25.52
X12.035 Y25.504
X12.935 Y25.493
X13.836 Y25.486
X14.737 Y25.481
X15.638 Y25.477
X17.44 Y25.473
X20.255 Y25.471
X20.467 Y25.396
X20.556 Y25.327
X20.893 Y25.027
X21.427 Y24.302
X21.766 Y23.467
X21.989 Y22.594
X22.14 Y21.706
X22.242 Y20.811
X22.313 Y19.913
X22.361 Y19.013
X22.395 Y18.113
X22.418 Y17.213
X22.433 Y16.367
X22.448 Y16.243
X22.489 Y16.125
X22.553 Y16.017
X23.517 Y14.73
X23.686 Y14.501
X23.816 Y14.321
X23.891 Y14.203
X24.177 Y13.707
X24.41 Y13.298
X25.335 Y11.661
X25.441 Y11.457
X25.544 Y11.252
X25.632 Y11.048
X26.503 Y8.903
X26.513 Y8.878
X26.557 Y8.796 F800
X26.613 Y8.723
X26.671 Y8.677 Z7.305
X26.728 Y8.632 Z7.318
X26.784 Y8.589 Z7.341
X26.859 Y8.566 Z7.379
X26.929 Y8.544 Z7.429
X26.991 Y8.525 Z7.488
X27.028 Y8.523 Z7.532
X27.062 Y8.521 Z7.58
X27.101 Y8.524 Z7.654
X27.13 Y8.526 Z7.733
X27.148 Y8.527 Z7.816
X27.154 Y8.528 Z7.9
G0 Z20
X3.741 Y26.897
Z8.5
G1 Z7.9 F600
X3.746 Y26.892 Z7.806
X3.762 Y26.877 Z7.715
X3.788 Y26.852 Z7.628
X3.824 Y26.818 Z7.547
X3.869 Y26.776 Z7.476
X3.921 Y26.727 Z7.415
X3.979 Y26.672 Z7.365
X4.042 Y26.612 Z7.329
X4.109 Y26.549 Z7.307
X4.177 Y26.485 Z7.3
G3 X4.864 Y26.105 I1.086 J1.151
G1 X7.524 Y25.509 F1300
X7.728 Y25.459
X8.138 Y25.346
X8.342 Y25.289
X10.183 Y24.75
X10.388 Y24.689
X10.838 Y24.55
X11.002 Y24.495
X11.616 Y24.231
X13.457 Y23.423
X13.661 Y23.332
X14.275 Y23.019
X14.45 Y22.914
X15.232 Y22.495
X16.079 Y22.188
X16.487 Y21.998
X17.14 Y21.377
X17.203 Y21.259
X17.247 Y21.187
X17.301 Y21.122
X17.363 Y21.066
G3 X18.08 Y21.072 Z7.463 I0.354 J0.484 F800
G1 X18.145 Y21.129 Z7.482 F1300
X18.201 Y21.195 Z7.5
G3 X18.039 Y22.056 I-0.484 J0.355
G1 X15.099 Y23.923
G3 X14.274 Y23.743 I-0.322 J-0.507
G1 X14.232 Y23.667 Z7.482
X14.202 Y23.586 Z7.463
G3 X14.45 Y22.914 Z7.3 I0.576 J-0.169 F600
G1 X16.526 Y21.665 F1300
X16.73 Y21.539
X16.935 Y21.403
X17.614 Y20.868
X19.185 Y19.622
X19.407 Y19.436
X19.594 Y19.274
X20.235 Y18.617
X21.436 Y17.384
X21.64 Y17.171
X21.845 Y16.95
X21.98 Y16.776
X22.291 Y16.367
X22.553 Y16.017
X22.616 Y15.95 F800
X22.689 Y15.893
X22.757 Y15.864 Z7.305
X22.824 Y15.836 Z7.318
X22.889 Y15.808 Z7.341
X22.957 Y15.801 Z7.373
X23.02 Y15.794 Z7.413
X23.09 Y15.807 Z7.473
X23.149 Y15.818 Z7.543
X23.198 Y15.826 Z7.622
X23.233 Y15.833 Z7.708
X23.255 Y15.842 Z7.803
X23.263 Y15.845 Z7.9
G0 Z20
X34.337 Y-31.089
Z8.2
G1 Z7.6 F600
X34.33 Y-31.087 Z7.506
X34.309 Y-31.081 Z7.415
X34.274 Y-31.072 Z7.328
X34.226 Y-31.06 Z7.247
X34.167 Y-31.045 Z7.176
X34.098 Y-31.027 Z7.115
X34.02 Y-31.007 Z7.065
X33.936 Y-30.986 Z7.029
X33.847 Y-30.963 Z7.007
X33.756 Y-30.94 Z7
G3 X30.49 Y-30.47 I-3.801 J-14.839
G1 X30.377 F1300
X29.528 Y-30.17
X28.653 Y-29.956
X27.764 Y-29.806
X26.87 Y-29.701
X25.972 Y-29.628
X25.072 Y-29.578
X24.172 Y-29.544
X23.271 Y-29.521
X22.37 Y-29.505
X21.47 Y-29.494
X20.569 Y-29.486
X19.668 Y-29.481
X18.767 Y-29.477
X16.965 Y-29.473
X13.362 Y-29.471
X-9.161 Y-29.47
X-10.111
X-10.155 Y-29.472
X-10.198 Y-29.476
X-10.242 Y-29.484
X-11.298 Y-29.721
X-11.976 Y-29.87
X-12.116 Y-29.897
X-12.526 Y-29.97
X-12.73 Y-30.004
X-13.139 Y-30.049
X-13.344 Y-30.07
X-13.958 Y-30.096
X-14.367 Y-30.099
X-14.981 Y-30.1
X-24.801
X-25.31 Y-30.074
X-25.415 Y-30.069
X-25.619 Y-30.034
X-25.824 Y-29.984
X-26.028 Y-29.922
X-26.233 Y-29.843
X-26.438 Y-29.743
X-26.58 Y-29.665
X-26.847 Y-29.488
X-27.123 Y-29.256
X-27.256 Y-29.123
X-27.488 Y-28.847
X-27.665 Y-28.58
X-27.743 Y-28.438
X-27.843 Y-28.233
X-27.922 Y-28.028
X-27.984 Y-27.824
X-28.034 Y-27.619
X-28.069 Y-27.415
X-28.09 Y-27.005
X-28.1 Y-26.801
Y26.801
X-28.074 Y27.31
X-28.069 Y27.415
X-28.034 Y27.619
X-27.984 Y27.824
X-27.922 Y28.028
X-27.843 Y28.233
X-27.743 Y28.438
X-27.665 Y28.58
X-27.488 Y28.847
X-27.256 Y29.123
X-27.123 Y29.256
X-26.847 Y29.488
X-26.58 Y29.665
X-26.438 Y29.743
X-26.233 Y29.843
X-26.028 Y29.922
X-25.824 Y29.984
X-25.619 Y30.034
X-25.415 Y30.069
X-25.005 Y30.09
X-24.801 Y30.1
X-14.572
X-14.162 Y30.098
X-13.958 Y30.096
X-13.344 Y30.07
X-12.935 Y30.026
X-12.73 Y30.004
X-12.526 Y29.97
X-12.321 Y29.934
X-11.427 Y29.821
X-10.533 Y29.711
X-9.635 Y29.636
X-8.736 Y29.583
X-7.836 Y29.548
X-6.935 Y29.523
X-6.034 Y29.506
X-5.134 Y29.495
X-4.233 Y29.487
X-3.332 Y29.481
X-2.431 Y29.478
X-0.629 Y29.474
X2.073 Y29.471
X11.983 Y29.47
X24.708
X24.815 Y29.433
X24.99 Y29.291
X25.523 Y28.565
X25.846 Y27.724
X26.053 Y26.847
X26.19 Y25.957
X26.281 Y25.06
X26.342 Y24.162
X26.383 Y23.262
X26.411 Y22.361
X26.43 Y21.46
X26.443 Y20.56
X26.451 Y19.659
X26.457 Y18.758
X26.461 Y17.857
X26.466 Y16.055
X26.469 Y13.353
X26.47 Y9.101
X26.475 Y9.025
X26.489 Y8.95
X26.513 Y8.878
X26.709 Y8.388
X26.755 Y8.262
X26.894 Y7.774
X27.54 Y5.319
X27.573 Y5.188
X27.59 Y5.115
X27.629 Y4.91
X27.714 Y4.296
X27.952 Y2.455
X27.982 Y2.209
X28.025 Y1.841
X28.046 Y1.637
X28.052 Y1.023
Y-1.023
X28.046 Y-1.637
X28.025 Y-1.841
X27.978 Y-2.25
X27.899 Y-2.864
X27.714 Y-4.296
X27.629 Y-4.91
X27.59 Y-5.115
X27.573 Y-5.188
X27.486 Y-5.524
X27.217 Y-6.547
X27.031 Y-7.428
X26.858 Y-8.313
X26.738 Y-9.205
X26.654 Y-10.102
X26.596 Y-11.001
X26.556 Y-11.901
X26.529 Y-12.802
X26.51 Y-13.703
X26.497 Y-14.603
X26.489 Y-15.504
X26.483 Y-16.405
X26.479 Y-17.306
X26.474 Y-19.108
X26.471 Y-21.81
Y-23.95
X26.433 Y-24.056
X26.292 Y-24.231
X25.521 Y-24.697
X24.663 Y-24.974
X23.779 Y-25.148
X22.885 Y-25.259
X21.987 Y-25.332
X21.088 Y-25.379
X20.187 Y-25.41
X19.287 Y-25.431
X18.386 Y-25.444
X17.485 Y-25.453
X16.584 Y-25.459
X15.683 Y-25.463
X13.881 Y-25.467
X11.179 Y-25.469
X7.756 Y-25.47
X7.708 Y-25.472
X7.659 Y-25.478
X7.612 Y-25.488
X7.524 Y-25.509
X-10.242 Y-29.484
X-10.329 Y-29.515 F800
X-10.411 Y-29.558
X-10.465 Y-29.608 Z7.005
X-10.519 Y-29.657 Z7.018
X-10.57 Y-29.705 Z7.041
X-10.606 Y-29.776 Z7.079
X-10.638 Y-29.841 Z7.129
X-10.667 Y-29.9 Z7.188
X-10.675 Y-29.956 Z7.259
X-10.682 Y-30.001 Z7.337
X-10.686 Y-30.034 Z7.421
X-10.689 Y-30.054 Z7.509
X-10.69 Y-30.061 Z7.6
G0 Z20
X28.05 Y-5.454
Z8.2
G1 Z7.6 F600
X28.045 Y-5.459 Z7.506
X28.029 Y-5.474 Z7.415
X28.004 Y-5.499 Z7.328
X27.968 Y-5.534 Z7.247
X27.925 Y-5.577 Z7.176
X27.874 Y-5.627 Z7.115
X27.817 Y-5.683 Z7.065
X27.755 Y-5.744 Z7.029
X27.689 Y-5.808 Z7.007
X27.622 Y-5.874 Z7
G3 X27.217 Y-6.547 I1.11 J-1.128
G1 X26.894 Y-7.774 F1300
X26.755 Y-8.262
X26.709 Y-8.388
X26.463 Y-9.002
X25.632 Y-11.048
X25.544 Y-11.252
X25.441 Y-11.457
X25.335 Y-11.661
X24.294 Y-13.503
X24.177 Y-13.707
X23.941 Y-14.116
X23.529 Y-14.918
X23.214 Y-15.762
X22.989 Y-16.634
X22.83 Y-17.521
X22.718 Y-18.415
X22.68 Y-18.864
X22.656 Y-19.201
X22.648 Y-19.313
X22.56 Y-19.52
X22.489 Y-19.608
X22.183 Y-19.939
X21.451 Y-20.463
X20.613 Y-20.794
X19.739 Y-21.011
X18.85 Y-21.157
X17.954 Y-21.256
X17.211 Y-21.311
X17.11 Y-21.328
X17.013 Y-21.361
X16.923 Y-21.41
X16.73 Y-21.539
X16.49 Y-21.686
X14.275 Y-23.019
X13.661 Y-23.332
X13.457 Y-23.423
X11.616 Y-24.231
X11.002 Y-24.495
X10.838 Y-24.55
X10.388 Y-24.689
X10.168 Y-24.755
X8.342 Y-25.289
X7.933 Y-25.402
X7.728 Y-25.459
X7.612 Y-25.488
X7.525 Y-25.52 F800
X7.444 Y-25.565
X7.391 Y-25.616 Z7.005
X7.339 Y-25.667 Z7.018
X7.288 Y-25.716 Z7.041
X7.255 Y-25.788 Z7.079
X7.224 Y-25.854 Z7.129
X7.196 Y-25.913 Z7.188
X7.189 Y-25.966 Z7.255
X7.184 Y-26.01 Z7.328
X7.179 Y-26.043 Z7.407
X7.177 Y-26.064 Z7.49
Y-26.072 Z7.545
Y-26.075 Z7.6
G0 Z20
X25.033 Y-13.282
Z8.2
G1 Z7.6 F600
X25.027 Y-13.285 Z7.506
X25.007 Y-13.296 Z7.415
X24.976 Y-13.314 Z7.328
X24.933 Y-13.338 Z7.247
X24.88 Y-13.368 Z7.176
X24.817 Y-13.403 Z7.115
X24.747 Y-13.442 Z7.065
X24.671 Y-13.484 Z7.029
X24.591 Y-13.529 Z7.007
X24.509 Y-13.575 Z7
G3 X23.941 Y-14.116 I0.773 J-1.381
G1 X23.891 Y-14.203 F1300
X23.816 Y-14.321
X23.668 Y-14.526
X23.482 Y-14.778
X22.254 Y-16.416
X21.98 Y-16.776
X21.845 Y-16.95
X21.627 Y-17.185
X21.23 Y-17.594
X19.799 Y-19.065
X19.594 Y-19.274
X19.39 Y-19.45
X19.185 Y-19.622
X17.549 Y-20.92
X16.935 Y-21.403
X16.923 Y-21.41
X16.853 Y-21.47 F800
X16.792 Y-21.54
X16.759 Y-21.606 Z7.005
X16.727 Y-21.671 Z7.018
X16.696 Y-21.735 Z7.041
X16.684 Y-21.82 Z7.083
X16.673 Y-21.898 Z7.138
X16.685 Y-21.96 Z7.199
X16.694 Y-22.012 Z7.269
X16.702 Y-22.054 Z7.345
X16.708 Y-22.085 Z7.427
X16.711 Y-22.103 Z7.512
X16.712 Y-22.11 Z7.599
G0 Z20
X-13.478 Y30.676
Z8.2
G1 Z7.6 F600
X-13.473 Y30.671 Z7.506
X-13.456 Y30.656 Z7.415
X-13.429 Y30.633 Z7.328
X-13.392 Y30.601 Z7.247
X-13.345 Y30.561 Z7.176
X-13.291 Y30.514 Z7.115
X-13.23 Y30.461 Z7.065
X-13.165 Y30.405 Z7.029
X-13.095 Y30.345 Z7.007
X-13.024 Y30.283 Z7
G3 X-12.321 Y29.934 I1.034 J1.198
G1 X-12.116 Y29.897 F1300
X-11.976 Y29.87
X-11.298 Y29.721
X4.864 Y26.105
X5.752 Y25.952
X6.641 Y25.803
X7.535 Y25.699
X8.433 Y25.627
X9.333 Y25.578
X10.233 Y25.544
X11.134 Y25.52
X12.035 Y25.504
X12.935 Y25.493
X13.836 Y25.486
X14.737 Y25.481
X15.638 Y25.477
X17.44 Y25.473
X20.255 Y25.471
X20.467 Y25.396
X20.556 Y25.327
X20.893 Y25.027
X21.427 Y24.302
X21.766 Y23.467
X21.989 Y22.594
X22.14 Y21.706
X22.242 Y20.811
X22.313 Y19.913
X22.361 Y19.013
X22.395 Y18.113
X22.418 Y17.213
X22.433 Y16.367
X22.448 Y16.243
X22.489 Y16.125
X22.553 Y16.017
X23.517 Y14.73
X23.686 Y14.501
X23.816 Y14.321
X23.891 Y14.203
X24.177 Y13.707
X24.41 Y13.298
X25.335 Y11.661
X25.441 Y11.457
X25.544 Y11.252
X25.632 Y11.048
X26.503 Y8.903
X26.513 Y8.878
X26.557 Y8.796 F800
X26.613 Y8.723
X26.671 Y8.677 Z7.005
X26.728 Y8.632 Z7.018
X26.784 Y8.589 Z7.041
X26.859 Y8.566 Z7.079
X26.929 Y8.544 Z7.129
X26.991 Y8.525 Z7.188
X27.028 Y8.523 Z7.232
X27.062 Y8.521 Z7.28
X27.101 Y8.524 Z7.354
X27.13 Y8.526 Z7.433
X27.148 Y8.527 Z7.516
X27.154 Y8.528 Z7.6
G0 Z20
X3.741 Y26.897
Z8.2
G1 Z7.6 F600
X3.746 Y26.892 Z7.506
X3.762 Y26.877 Z7.415
X3.788 Y26.852 Z7.328
X3.824 Y26.818 Z7.247
X3.869 Y26.776 Z7.176
X3.921 Y26.727 Z7.115
X3.979 Y26.672 Z7.065
X4.042 Y26.612 Z7.029
X4.109 Y26.549 Z7.007
X4.177 Y26.485 Z7
G3 X4.864 Y26.105 I1.086 J1.151
G1 X7.524 Y25.509 F1300
X7.728 Y25.459
X8.138 Y25.346
X8.342 Y25.289
X10.183 Y24.75
X10.388 Y24.689
X10.838 Y24.55
X11.002 Y24.495
X11.616 Y24.231
X13.457 Y23.423
X13.661 Y23.332
X14.275 Y23.019
X14.45 Y22.914
X15.232 Y22.495
X16.079 Y22.188
X16.487 Y21.998
X17.14 Y21.377
X17.203 Y21.259
X17.247 Y21.187
X17.301 Y21.122
X17.363 Y21.066
G3 X18.08 Y21.072 Z7.163 I0.354 J0.484 F800
G1 X18.145 Y21.129 Z7.182 F1300
X18.201 Y21.195 Z7.2
G3 X18.039 Y22.056 I-0.484 J0.355
G1 X15.099 Y23.923
G3 X14.274 Y23.743 I-0.322 J-0.507
G1 X14.232 Y23.667 Z7.182
X14.202 Y23.586 Z7.163
G3 X14.45 Y22.914 Z7 I0.576 J-0.169 F600
G1 X16.526 Y21.665 F1300
X16.73 Y21.539
X16.935 Y21.403
X17.614 Y20.868
X19.185 Y19.622
X19.407 Y19.436
X19.594 Y19.274
X20.235 Y18.617
X21.436 Y17.384
X21.64 Y17.171
X21.845 Y16.95
X21.98 Y16.776
X22.291 Y16.367
X22.553 Y16.017
X22.616 Y15.95 F800
X22.689 Y15.893
X22.757 Y15.864 Z7.005
X22.824 Y15.836 Z7.018
X22.889 Y15.808 Z7.041
X22.957 Y15.801 Z7.073
X23.02 Y15.794 Z7.113
X23.09 Y15.807 Z7.173
X23.149 Y15.818 Z7.243
X23.198 Y15.826 Z7.322
X23.233 Y15.833 Z7.408
X23.255 Y15.842 Z7.503
X23.263 Y15.845 Z7.6
G0 Z20
X34.337 Y-31.089
Z7.9
G1 Z7.3 F600
X34.33 Y-31.087 Z7.206
X34.309 Y-31.081 Z7.115
X34.274 Y-31.072 Z7.028
X34.226 Y-31.06 Z6.947
X34.167 Y-31.045 Z6.876
X34.098 Y-31.027 Z6.815
X34.02 Y-31.007 Z6.765
X33.936 Y-30.986 Z6.729
X33.847 Y-30.963 Z6.707
X33.756 Y-30.94 Z6.7
G3 X30.49 Y-30.47 I-3.801 J-14.839
G1 X30.377 F1300
X29.528 Y-30.17
X28.653 Y-29.956
X27.764 Y-29.806
X26.87 Y-29.701
X25.972 Y-29.628
X25.072 Y-29.578
X24.172 Y-29.544
X23.271 Y-29.521
X22.37 Y-29.505
X21.47 Y-29.494
X20.569 Y-29.486
X19.668 Y-29.481
X18.767 Y-29.477
X16.965 Y-29.473
X13.362 Y-29.471
X-9.161 Y-29.47
X-10.111
X-10.155 Y-29.472
X-10.198 Y-29.476
X-10.242 Y-29.484
X-11.298 Y-29.721
X-11.976 Y-29.87
X-12.116 Y-29.897
X-12.526 Y-29.97
X-12.73 Y-30.004
X-13.139 Y-30.049
X-13.344 Y-30.07
X-13.958 Y-30.096
X-14.367 Y-30.099
X-14.981 Y-30.1
X-24.801
X-25.31 Y-30.074
X-25.415 Y-30.069
X-25.619 Y-30.034
X-25.824 Y-29.984
X-26.028 Y-29.922
X-26.233 Y-29.843
X-26.438 Y-29.743
X-26.58 Y-29.665
X-26.847 Y-29.488
X-27.123 Y-29.256
X-27.256 Y-29.123
X-27.488 Y-28.847
X-27.665 Y-28.58
X-27.743 Y-28.438
X-27.843 Y-28.233
X-27.922 Y-28.028
X-27.984 Y-27.824
X-28.034 Y-27.619
X-28.069 Y-27.415
X-28.09 Y-27.005
X-28.1 Y-26.801
Y26.801
X-28.074 Y27.31
X-28.069 Y27.415
X-28.034 Y27.619
X-27.984 Y27.824
X-27.922 Y28.028
X-27.843 Y28.233
X-27.743 Y28.438
X-27.665 Y28.58
X-27.488 Y28.847
X-27.256 Y29.123
X-27.123 Y29.256
X-26.847 Y29.488
X-26.58 Y29.665
X-26.438 Y29.743
X-26.233 Y29.843
X-26.028 Y29.922
X-25.824 Y29.984
X-25.619 Y30.034
X-25.415 Y30.069
X-25.005 Y30.09
X-24.801 Y30.1
X-14.572
X-14.162 Y30.098
X-13.958 Y30.096
X-13.344 Y30.07
X-12.935 Y30.026
X-12.73 Y30.004
X-12.526 Y29.97
X-12.321 Y29.934
X-11.427 Y29.821
X-10.533 Y29.711
X-9.635 Y29.636
X-8.736 Y29.583
X-7.836 Y29.548
X-6.935 Y29.523
X-6.034 Y29.506
X-5.134 Y29.495
X-4.233 Y29.487
X-3.332 Y29.481
X-2.431 Y29.478
X-0.629 Y29.474
X2.073 Y29.471
X11.983 Y29.47
X24.708
X24.815 Y29.433
X24.99 Y29.291
X25.523 Y28.565
X25.846 Y27.724
X26.053 Y26.847
X26.19 Y25.957
X26.281 Y25.06
X26.342 Y24.162
X26.383 Y23.262
X26.411 Y22.361
X26.43 Y21.46
X26.443 Y20.56
X26.451 Y19.659
X26.457 Y18.758
X26.461 Y17.857
X26.466 Y16.055
X26.469 Y13.353
X26.47 Y9.101
X26.475 Y9.025
X26.489 Y8.95
X26.513 Y8.878
X26.709 Y8.388
X26.755 Y8.262
X26.894 Y7.774
X27.54 Y5.319
X27.573 Y5.188
X27.59 Y5.115
X27.629 Y4.91
X27.714 Y4.296
X27.952 Y2.455
X27.982 Y2.209
X28.025 Y1.841
X28.046 Y1.637
X28.052 Y1.023
Y-1.023
X28.046 Y-1.637
X28.025 Y-1.841
X27.978 Y-2.25
X27.899 Y-2.864
X27.714 Y-4.296
X27.629 Y-4.91
X27.59 Y-5.115
X27.573 Y-5.188
X27.486 Y-5.524
X27.217 Y-6.547
X27.031 Y-7.428
X26.858 Y-8.313
X26.738 Y-9.205
X26.654 Y-10.102
X26.596 Y-11.001
X26.556 Y-11.901
X26.529 Y-12.802
X26.51 Y-13.703
X26.497 Y-14.603
X26.489 Y-15.504
X26.483 Y-16.405
X26.479 Y-17.306
X26.474 Y-19.108
X26.471 Y-21.81
Y-23.95
X26.433 Y-24.056
X26.292 Y-24.231
X25.521 Y-24.697
X24.663 Y-24.974
X23.779 Y-25.148
X22.885 Y-25.259
X21.987 Y-25.332
X21.088 Y-25.379
X20.187 Y-25.41
X19.287 Y-25.431
X18.386 Y-25.444
X17.485 Y-25.453
X16.584 Y-25.459
X15.683 Y-25.463
X13.881 Y-25.467
X11.179 Y-25.469
X7.756 Y-25.47
X7.708 Y-25.472
X7.659 Y-25.478
X7.612 Y-25.488
X7.524 Y-25.509
X-10.242 Y-29.484
X-10.329 Y-29.515 F800
X-10.411 Y-29.558
X-10.465 Y-29.608 Z6.705
X-10.519 Y-29.657 Z6.718
X-10.57 Y-29.705 Z6.741
X-10.606 Y-29.776 Z6.779
X-10.638 Y-29.841 Z6.829
X-10.667 Y-29.9 Z6.888
X-10.675 Y-29.956 Z6.959
X-10.682 Y-30.001 Z7.037
X-10.686 Y-30.034 Z7.121
X-10.689 Y-30.054 Z7.209
X-10.69 Y-30.061 Z7.3
G0 Z20
X28.05 Y-5.454
Z7.9
G1 Z7.3 F600
X28.045 Y-5.459 Z7.206
X28.029 Y-5.474 Z7.115
X28.004 Y-5.499 Z7.028
X27.968 Y-5.534 Z6.947
X27.925 Y-5.577 Z6.876
X27.874 Y-5.627 Z6.815
X27.817 Y-5.683 Z6.765
X27.755 Y-5.744 Z6.729
X27.689 Y-5.808 Z6.707
X27.622 Y-5.874 Z6.7
G3 X27.217 Y-6.547 I1.11 J-1.128
G1 X26.894 Y-7.774 F1300
X26.755 Y-8.262
X26.709 Y-8.388
X26.463 Y-9.002
X25.632 Y-11.048
X25.544 Y-11.252
X25.441 Y-11.457
X25.335 Y-11.661
X24.294 Y-13.503
X24.177 Y-13.707
X23.941 Y-14.116
X23.529 Y-14.918
X23.214 Y-15.762
X22.989 Y-16.634
X22.83 Y-17.521
X22.718 Y-18.415
X22.68 Y-18.864
X22.656 Y-19.201
X22.648 Y-19.313
X22.56 Y-19.52
X22.489 Y-19.608
X22.183 Y-19.939
X21.451 Y-20.463
X20.613 Y-20.794
X19.739 Y-21.011
X18.85 Y-21.157
X17.954 Y-21.256
X17.211 Y-21.311
X17.11 Y-21.328
X17.013 Y-21.361
X16.923 Y-21.41
X16.73 Y-21.539
X16.49 Y-21.686
X14.275 Y-23.019
X13.661 Y-23.332
X13.457 Y-23.423
X11.616 Y-24.231
X11.002 Y-24.495
X10.838 Y-24.55
X10.388 Y-24.689
X10.168 Y-24.755
X8.342 Y-25.289
X7.933 Y-25.402
X7.728 Y-25.459
X7.612 Y-25.488
X7.525 Y-25.52 F800
X7.444 Y-25.565
X7.391 Y-25.616 Z6.705
X7.339 Y-25.667 Z6.718
X7.288 Y-25.716 Z6.741
X7.255 Y-25.788 Z6.779
X7.224 Y-25.854 Z6.829
X7.196 Y-25.913 Z6.888
X7.189 Y-25.966 Z6.955
X7.184 Y-26.01 Z7.028
X7.179 Y-26.043 Z7.107
X7.177 Y-26.064 Z7.19
Y-26.072 Z7.245
Y-26.075 Z7.3
G0 Z20
X25.033 Y-13.282
Z7.9
G1 Z7.3 F600
X25.027 Y-13.285 Z7.206
X25.007 Y-13.296 Z7.115
X24.976 Y-13.314 Z7.028
X24.933 Y-13.338 Z6.947
X24.88 Y-13.368 Z6.876
X24.817 Y-13.403 Z6.815
X24.747 Y-13.442 Z6.765
X24.671 Y-13.484 Z6.729
X24.591 Y-13.529 Z6.707
X24.509 Y-13.575 Z6.7
G3 X23.941 Y-14.116 I0.773 J-1.381
G1 X23.891 Y-14.203 F1300
X23.816 Y-14.321
X23.668 Y-14.526
X23.482 Y-14.778
X22.254 Y-16.416
X21.98 Y-16.776
X21.845 Y-16.95
X21.627 Y-17.185
X21.23 Y-17.594
X19.799 Y-19.065
X19.594 Y-19.274
X19.39 Y-19.45
X19.185 Y-19.622
X17.549 Y-20.92
X16.935 Y-21.403
X16.923 Y-21.41
X16.853 Y-21.47 F800
X16.792 Y-21.54
X16.759 Y-21.606 Z6.705
X16.727 Y-21.671 Z6.718
X16.696 Y-21.735 Z6.741
X16.684 Y-21.82 Z6.783
X16.673 Y-21.898 Z6.838
X16.685 Y-21.96 Z6.899
X16.694 Y-22.012 Z6.969
X16.702 Y-22.054 Z7.045
X16.708 Y-22.085 Z7.127
X16.711 Y-22.103 Z7.212
X16.712 Y-22.11 Z7.299
G0 Z20
X-13.478 Y30.676
Z7.9
G1 Z7.3 F600
X-13.473 Y30.671 Z7.206
X-13.456 Y30.656 Z7.115
X-13.429 Y30.633 Z7.028
X-13.392 Y30.601 Z6.947
X-13.345 Y30.561 Z6.876
X-13.291 Y30.514 Z6.815
X-13.23 Y30.461 Z6.765
X-13.165 Y30.405 Z6.729
X-13.095 Y30.345 Z6.707
X-13.024 Y30.283 Z6.7
G3 X-12.321 Y29.934 I1.034 J1.198
G1 X-12.116 Y29.897 F1300
X-11.976 Y29.87
X-11.298 Y29.721
X4.864 Y26.105
X5.752 Y25.952
X6.641 Y25.803
X7.535 Y25.699
X8.433 Y25.627
X9.333 Y25.578
X10.233 Y25.544
X11.134 Y25.52
X12.035 Y25.504
X12.935 Y25.493
X13.836 Y25.486
X14.737 Y25.481
X15.638 Y25.477
X17.44 Y25.473
X20.255 Y25.471
X20.467 Y25.396
X20.556 Y25.327
X20.893 Y25.027
X21.427 Y24.302
X21.766 Y23.467
X21.989 Y22.594
X22.14 Y21.706
X22.242 Y20.811
X22.313 Y19.913
X22.361 Y19.013
X22.395 Y18.113
X22.418 Y17.213
X22.433 Y16.367
X22.448 Y16.243
X22.489 Y16.125
X22.553 Y16.017
X23.517 Y14.73
X23.686 Y14.501
X23.816 Y14.321
X23.891 Y14.203
X24.177 Y13.707
X24.41 Y13.298
X25.335 Y11.661
X25.441 Y11.457
X25.544 Y11.252
X25.632 Y11.048
X26.503 Y8.903
X26.513 Y8.878
X26.557 Y8.796 F800
X26.613 Y8.723
X26.671 Y8.677 Z6.705
X26.728 Y8.632 Z6.718
X26.784 Y8.589 Z6.741
X26.859 Y8.566 Z6.779
X26.929 Y8.544 Z6.829
X26.991 Y8.525 Z6.888
X27.028 Y8.523 Z6.932
X27.062 Y8.521 Z6.98
X27.101 Y8.524 Z7.054
X27.13 Y8.526 Z7.133
X27.148 Y8.527 Z7.216
X27.154 Y8.528 Z7.3
G0 Z20
X3.741 Y26.897
Z7.9
G1 Z7.3 F600
X3.746 Y26.892 Z7.206
X3.762 Y26.877 Z7.115
X3.788 Y26.852 Z7.028
X3.824 Y26.818 Z6.947
X3.869 Y26.776 Z6.876
X3.921 Y26.727 Z6.815
X3.979 Y26.672 Z6.765
X4.042 Y26.612 Z6.729
X4.109 Y26.549 Z6.707
X4.177 Y26.485 Z6.7
G3 X4.864 Y26.105 I1.086 J1.151
G1 X7.524 Y25.509 F1300
X7.728 Y25.459
X8.138 Y25.346
X8.342 Y25.289
X10.183 Y24.75
X10.388 Y24.689
X10.838 Y24.55
X11.002 Y24.495
X11.616 Y24.231
X13.457 Y23.423
X13.661 Y23.332
X14.275 Y23.019
X14.45 Y22.914
X15.232 Y22.495
X16.079 Y22.188
X16.487 Y21.998
X17.14 Y21.377
X17.203 Y21.259
X17.247 Y21.187
X17.301 Y21.122
X17.363 Y21.066
G3 X18.08 Y21.072 Z6.863 I0.354 J0.484 F800
G1 X18.145 Y21.129 Z6.882 F1300
X18.201 Y21.195 Z6.9
G3 X18.039 Y22.056 I-0.484 J0.355
G1 X15.099 Y23.923
G3 X14.274 Y23.743 I-0.322 J-0.507
G1 X14.232 Y23.667 Z6.882
X14.202 Y23.586 Z6.863
G3 X14.45 Y22.914 Z6.7 I0.576 J-0.169 F600
G1 X16.526 Y21.665 F1300
X16.73 Y21.539
X16.935 Y21.403
X17.614 Y20.868
X19.185 Y19.622
X19.407 Y19.436
X19.594 Y19.274
X20.235 Y18.617
X21.436 Y17.384
X21.64 Y17.171
X21.845 Y16.95
X21.98 Y16.776
X22.291 Y16.367
X22.553 Y16.017
X22.616 Y15.95 F800
X22.689 Y15.893
X22.757 Y15.864 Z6.705
X22.824 Y15.836 Z6.718
X22.889 Y15.808 Z6.741
X22.957 Y15.801 Z6.773
X23.02 Y15.794 Z6.813
X23.09 Y15.807 Z6.873
X23.149 Y15.818 Z6.943
X23.198 Y15.826 Z7.022
X23.233 Y15.833 Z7.108
X23.255 Y15.842 Z7.203
X23.263 Y15.845 Z7.3
G0 Z20
X34.337 Y-31.089
Z7.6
G1 Z7 F600
X34.33 Y-31.087 Z6.906
X34.309 Y-31.081 Z6.815
X34.274 Y-31.072 Z6.728
X34.226 Y-31.06 Z6.647
X34.167 Y-31.045 Z6.576
X34.098 Y-31.027 Z6.515
X34.02 Y-31.007 Z6.465
X33.936 Y-30.986 Z6.429
X33.847 Y-30.963 Z6.407
X33.756 Y-30.94 Z6.4
G3 X30.49 Y-30.47 I-3.801 J-14.839
G1 X30.377 F1300
X29.528 Y-30.17
X28.653 Y-29.956
X27.764 Y-29.806
X26.87 Y-29.701
X25.972 Y-29.628
X25.072 Y-29.578
X24.172 Y-29.544
X23.271 Y-29.521
X22.37 Y-29.505
X21.47 Y-29.494
X20.569 Y-29.486
X19.668 Y-29.481
X18.767 Y-29.477
X16.965 Y-29.473
X13.362 Y-29.471
X-9.161 Y-29.47
X-10.111
X-10.155 Y-29.472
X-10.198 Y-29.476
X-10.242 Y-29.484
X-11.298 Y-29.721
X-11.976 Y-29.87
X-12.116 Y-29.897
X-12.526 Y-29.97
X-12.73 Y-30.004
X-13.139 Y-30.049
X-13.344 Y-30.07
X-13.958 Y-30.096
X-14.367 Y-30.099
X-14.981 Y-30.1
X-24.801
X-25.31 Y-30.074
X-25.415 Y-30.069
X-25.619 Y-30.034
X-25.824 Y-29.984
X-26.028 Y-29.922
X-26.233 Y-29.843
X-26.438 Y-29.743
X-26.58 Y-29.665
X-26.847 Y-29.488
X-27.123 Y-29.256
X-27.256 Y-29.123
X-27.488 Y-28.847
X-27.665 Y-28.58
X-27.743 Y-28.438
X-27.843 Y-28.233
X-27.922 Y-28.028
X-27.984 Y-27.824
X-28.034 Y-27.619
X-28.069 Y-27.415
X-28.09 Y-27.005
X-28.1 Y-26.801
Y26.801
X-28.074 Y27.31
X-28.069 Y27.415
X-28.034 Y27.619
X-27.984 Y27.824
X-27.922 Y28.028
X-27.843 Y28.233
X-27.743 Y28.438
X-27.665 Y28.58
X-27.488 Y28.847
X-27.256 Y29.123
X-27.123 Y29.256
X-26.847 Y29.488
X-26.58 Y29.665
X-26.438 Y29.743
X-26.233 Y29.843
X-26.028 Y29.922
X-25.824 Y29.984
X-25.619 Y30.034
X-25.415 Y30.069
X-25.005 Y30.09
X-24.801 Y30.1
X-14.572
X-14.162 Y30.098
X-13.958 Y30.096
X-13.344 Y30.07
X-12.935 Y30.026
X-12.73 Y30.004
X-12.526 Y29.97
X-12.321 Y29.934
X-11.427 Y29.821
X-10.533 Y29.711
X-9.635 Y29.636
X-8.736 Y29.583
X-7.836 Y29.548
X-6.935 Y29.523
X-6.034 Y29.506
X-5.134 Y29.495
X-4.233 Y29.487
X-3.332 Y29.481
X-2.431 Y29.478
X-0.629 Y29.474
X2.073 Y29.471
X11.983 Y29.47
X24.708
X24.815 Y29.433
X24.99 Y29.291
X25.523 Y28.565
X25.846 Y27.724
X26.053 Y26.847
X26.19 Y25.957
X26.281 Y25.06
X26.342 Y24.162
X26.383 Y23.262
X26.411 Y22.361
X26.43 Y21.46
X26.443 Y20.56
X26.451 Y19.659
X26.457 Y18.758
X26.461 Y17.857
X26.466 Y16.055
X26.469 Y13.353
X26.47 Y9.101
X26.475 Y9.025
X26.489 Y8.95
X26.513 Y8.878
X26.709 Y8.388
X26.755 Y8.262
X26.894 Y7.774
X27.54 Y5.319
X27.573 Y5.188
X27.59 Y5.115
X27.629 Y4.91
X27.714 Y4.296
X27.952 Y2.455
X27.982 Y2.209
X28.025 Y1.841
X28.046 Y1.637
X28.052 Y1.023
Y-1.023
X28.046 Y-1.637
X28.025 Y-1.841
X27.978 Y-2.25
X27.899 Y-2.864
X27.714 Y-4.296
X27.629 Y-4.91
X27.59 Y-5.115
X27.573 Y-5.188
X27.486 Y-5.524
X27.217 Y-6.547
X27.031 Y-7.428
X26.858 Y-8.313
X26.738 Y-9.205
X26.654 Y-10.102
X26.596 Y-11.001
X26.556 Y-11.901
X26.529 Y-12.802
X26.51 Y-13.703
X26.497 Y-14.603
X26.489 Y-15.504
X26.483 Y-16.405
X26.479 Y-17.306
X26.474 Y-19.108
X26.471 Y-21.81
Y-23.95
X26.433 Y-24.056
X26.292 Y-24.231
X25.521 Y-24.697
X24.663 Y-24.974
X23.779 Y-25.148
X22.885 Y-25.259
X21.987 Y-25.332
X21.088 Y-25.379
X20.187 Y-25.41
X19.287 Y-25.431
X18.386 Y-25.444
X17.485 Y-25.453
X16.584 Y-25.459
X15.683 Y-25.463
X13.881 Y-25.467
X11.179 Y-25.469
X7.756 Y-25.47
X7.708 Y-25.472
X7.659 Y-25.478
X7.612 Y-25.488
X7.524 Y-25.509
X-10.242 Y-29.484
X-10.329 Y-29.515 F800
X-10.411 Y-29.558
X-10.465 Y-29.608 Z6.405
X-10.519 Y-29.657 Z6.418
X-10.57 Y-29.705 Z6.441
X-10.606 Y-29.776 Z6.479
X-10.638 Y-29.841 Z6.529
X-10.667 Y-29.9 Z6.588
X-10.675 Y-29.956 Z6.659
X-10.682 Y-30.001 Z6.737
X-10.686 Y-30.034 Z6.821
X-10.689 Y-30.054 Z6.909
X-10.69 Y-30.061 Z7
G0 Z20
X28.05 Y-5.454
Z7.6
G1 Z7 F600
X28.045 Y-5.459 Z6.906
X28.029 Y-5.474 Z6.815
X28.004 Y-5.499 Z6.728
X27.968 Y-5.534 Z6.647
X27.925 Y-5.577 Z6.576
X27.874 Y-5.627 Z6.515
X27.817 Y-5.683 Z6.465
X27.755 Y-5.744 Z6.429
X27.689 Y-5.808 Z6.407
X27.622 Y-5.874 Z6.4
G3 X27.217 Y-6.547 I1.11 J-1.128
G1 X26.894 Y-7.774 F1300
X26.755 Y-8.262
X26.709 Y-8.388
X26.463 Y-9.002
X25.632 Y-11.048
X25.544 Y-11.252
X25.441 Y-11.457
X25.335 Y-11.661
X24.294 Y-13.503
X24.177 Y-13.707
X23.941 Y-14.116
X23.529 Y-14.918
X23.214 Y-15.762
X22.989 Y-16.634
X22.83 Y-17.521
X22.718 Y-18.415
X22.68 Y-18.864
X22.656 Y-19.201
X22.648 Y-19.313
X22.56 Y-19.52
X22.489 Y-19.608
X22.183 Y-19.939
X21.451 Y-20.463
X20.613 Y-20.794
X19.739 Y-21.011
X18.85 Y-21.157
X17.954 Y-21.256
X17.211 Y-21.311
X17.11 Y-21.328
X17.013 Y-21.361
X16.923 Y-21.41
X16.73 Y-21.539
X16.49 Y-21.686
X14.275 Y-23.019
X13.661 Y-23.332
X13.457 Y-23.423
X11.616 Y-24.231
X11.002 Y-24.495
X10.838 Y-24.55
X10.388 Y-24.689
X10.168 Y-24.755
X8.342 Y-25.289
X7.933 Y-25.402
X7.728 Y-25.459
X7.612 Y-25.488
X7.525 Y-25.52 F800
X7.444 Y-25.565
X7.391 Y-25.616 Z6.405
X7.339 Y-25.667 Z6.418
X7.288 Y-25.716 Z6.441
X7.255 Y-25.788 Z6.479
X7.224 Y-25.854 Z6.529
X7.196 Y-25.913 Z6.588
X7.189 Y-25.966 Z6.655
X7.184 Y-26.01 Z6.728
X7.179 Y-26.043 Z6.807
X7.177 Y-26.064 Z6.89
Y-26.072 Z6.945
Y-26.075 Z7
G0 Z20
X25.033 Y-13.282
Z7.6
G1 Z7 F600
X25.027 Y-13.285 Z6.906
X25.007 Y-13.296 Z6.815
X24.976 Y-13.314 Z6.728
X24.933 Y-13.338 Z6.647
X24.88 Y-13.368 Z6.576
X24.817 Y-13.403 Z6.515
X24.747 Y-13.442 Z6.465
X24.671 Y-13.484 Z6.429
X24.591 Y-13.529 Z6.407
X24.509 Y-13.575 Z6.4
G3 X23.941 Y-14.116 I0.773 J-1.381
G1 X23.891 Y-14.203 F1300
X23.816 Y-14.321
X23.668 Y-14.526
X23.482 Y-14.778
X22.254 Y-16.416
X21.98 Y-16.776
X21.845 Y-16.95
X21.627 Y-17.185
X21.23 Y-17.594
X19.799 Y-19.065
X19.594 Y-19.274
X19.39 Y-19.45
X19.185 Y-19.622
X17.549 Y-20.92
X16.935 Y-21.403
X16.923 Y-21.41
X16.853 Y-21.47 F800
X16.792 Y-21.54
X16.759 Y-21.606 Z6.405
X16.727 Y-21.671 Z6.418
X16.696 Y-21.735 Z6.441
X16.684 Y-21.82 Z6.483
X16.673 Y-21.898 Z6.538
X16.685 Y-21.96 Z6.599
X16.694 Y-22.012 Z6.669
X16.702 Y-22.054 Z6.745
X16.708 Y-22.085 Z6.827
X16.711 Y-22.103 Z6.912
X16.712 Y-22.11 Z6.999
G0 Z20
X-13.478 Y30.676
Z7.6
G1 Z7 F600
X-13.473 Y30.671 Z6.906
X-13.456 Y30.656 Z6.815
X-13.429 Y30.633 Z6.728
X-13.392 Y30.601 Z6.647
X-13.345 Y30.561 Z6.576
X-13.291 Y30.514 Z6.515
X-13.23 Y30.461 Z6.465
X-13.165 Y30.405 Z6.429
X-13.095 Y30.345 Z6.407
X-13.024 Y30.283 Z6.4
G3 X-12.321 Y29.934 I1.034 J1.198
G1 X-12.116 Y29.897 F1300
X-11.976 Y29.87
X-11.298 Y29.721
X4.864 Y26.105
X5.752 Y25.952
X6.641 Y25.803
X7.535 Y25.699
X8.433 Y25.627
X9.333 Y25.578
X10.233 Y25.544
X11.134 Y25.52
