(cont2)
(T1  D=6 CR=0 - ZMIN=8 - flat end mill)
G90 G94
G17
G21
G28 G91 Z0
G90

(2D Contour1 6)
T1
S18000 M3
G54
G0 X13.6 Y-0.6
Z25
Z15
G1 Z12 F500
Z9.6
G18 G2 X14.2 Z9 I0.6 K0 F600
G1 X14.8
G17 G3 X15.4 Y0 I0 J0.6
X-11.4 Y0 I-13.4 J0 F1300
X15.4 Y0 I13.4 J0
X14.8 Y0.6 I-0.6 J0 F800
G1 X14.2
G18 G3 X13.6 Z9.6 I0 K0.6
G1 Y-0.6 F1300
Z8.6 F500
G2 X14.2 Z8 I0.6 K0 F600
G1 X14.8
G17 G3 X15.4 Y0 I0 J0.6
X-11.4 Y0 I-13.4 J0 F1300
X15.4 Y0 I13.4 J0
X14.8 Y0.6 I-0.6 J0 F800
G1 X14.2
G18 G3 X13.6 Z8.6 I0 K0.6
G0 Z25
G17
G28 G91 Z0
G90
G28 G91 X0 Y0
G90
M5
M30
