(cont1)
(T1  D=6 CR=0 - ZMIN=0 - flat end mill)
G90 G94
G17
G21
G28 G91 Z0
G90

(2D Contour1 5)
T1
S18000 M3
G54
G0 X11.2 Y-0.6
Z25
Z15
G1 Z12 F500
Z9.6
G18 G2 X11.8 Z9 I0.6 K0 F600
G1 X12.4
G17 G3 X13 Y0 I0 J0.6
X-9 Y0 I-11 J0 F1300
X13 Y0 I11 J0
X12.4 Y0.6 I-0.6 J0 F800
G1 X11.8
G18 G3 X11.2 Z9.6 I0 K0.6
G1 Y-0.6 F1300
Z8.6 F500
G2 X11.8 Z8 I0.6 K0 F600
G1 X12.4
G17 G3 X13 Y0 I0 J0.6
X-9 Y0 I-11 J0 F1300
X13 Y0 I11 J0
X12.4 Y0.6 I-0.6 J0 F800
G1 X11.8
G18 G3 X11.2 Z8.6 I0 K0.6
G1 Y-0.6 F1300
Z7.6 F500
G2 X11.8 Z7 I0.6 K0 F600
G1 X12.4
G17 G3 X13 Y0 I0 J0.6
X-9 Y0 I-11 J0 F1300
X13 Y0 I11 J0
X12.4 Y0.6 I-0.6 J0 F800
G1 X11.8
G18 G3 X11.2 Z7.6 I0 K0.6
G1 Y-0.6 F1300
Z6.6 F500
G2 X11.8 Z6 I0.6 K0 F600
G1 X12.4
G17 G3 X13 Y0 I0 J0.6
X-9 Y0 I-11 J0 F1300
X13 Y0 I11 J0
X12.4 Y0.6 I-0.6 J0 F800
G1 X11.8
G18 G3 X11.2 Z6.6 I0 K0.6
G1 Y-0.6 F1300
Z5.6 F500
G2 X11.8 Z5 I0.6 K0 F600
G1 X12.4
G17 G3 X13 Y0 I0 J0.6
X-9 Y0 I-11 J0 F1300
X13 Y0 I11 J0
X12.4 Y0.6 I-0.6 J0 F800
G1 X11.8
G18 G3 X11.2 Z5.6 I0 K0.6
G1 Y-0.6 F1300
Z4.6 F500
G2 X11.8 Z4 I0.6 K0 F600
G1 X12.4
G17 G3 X13 Y0 I0 J0.6
X-9 Y0 I-11 J0 F1300
X13 Y0 I11 J0
X12.4 Y0.6 I-0.6 J0 F800
G1 X11.8
G18 G3 X11.2 Z4.6 I0 K0.6
G1 Y-0.6 F1300
Z3.6 F500
G2 X11.8 Z3 I0.6 K0 F600
G1 X12.4
G17 G3 X13 Y0 I0 J0.6
X-9 Y0 I-11 J0 F1300
X13 Y0 I11 J0
X12.4 Y0.6 I-0.6 J0 F800
G1 X11.8
G18 G3 X11.2 Z3.6 I0 K0.6
G1 Y-0.6 F1300
Z2.6 F500
G2 X11.8 Z2 I0.6 K0 F600
G1 X12.4
G17 G3 X13 Y0 I0 J0.6
X-9 Y0 I-11 J0 F1300
X13 Y0 I11 J0
X12.4 Y0.6 I-0.6 J0 F800
G1 X11.8
G18 G3 X11.2 Z2.6 I0 K0.6
G1 Y-0.6 F1300
Z1.6 F500
G2 X11.8 Z1 I0.6 K0 F600
G1 X12.4
G17 G3 X13 Y0 I0 J0.6
X-9 Y0 I-11 J0 F1300
X13 Y0 I11 J0
X12.4 Y0.6 I-0.6 J0 F800
G1 X11.8
G18 G3 X11.2 Z1.6 I0 K0.6
G1 Y-0.6 F1300
Z0.6 F500
G2 X11.8 Z0 I0.6 K0 F600
G1 X12.4
G17 G3 X13 Y0 I0 J0.6
X-9 Y0 I-11 J0 F1300
X13 Y0 I11 J0
X12.4 Y0.6 I-0.6 J0 F800
G1 X11.8
G18 G3 X11.2 Z0.6 I0 K0.6
G0 Z15
X33.384
G1 Z9.6 F500
G3 X32.784 Z9 I-0.6 K0 F600
G1 X28.6
G17 G3 X28 Y0 I0 J-0.6
G2 X7.677 Y-25.373 I-26 J0 F1300
G1 X-11.925 Y-29.759
G2 X-14.109 Y-30 I-2.183 J9.759
G1 X-25
G2 X-28 Y-27 I0 J3
G1 Y27
G2 X-25 Y30 I3 J0
G1 X-14.109
G2 X-11.925 Y29.759 I0 J-10
G1 X7.677 Y25.373
G2 X28 Y0 I-5.677 J-25.373
G3 X28.6 Y-0.6 I0.6 J0 F800
G1 X29.2
G18 G2 X29.8 Z9.6 I0 K0.6
G1 X33.384 Y0.6 F1300
Z8.6 F500
G3 X32.784 Z8 I-0.6 K0 F600
G1 X28.6
G17 G3 X28 Y0 I0 J-0.6
G2 X7.677 Y-25.373 I-26 J0 F1300
G1 X-11.925 Y-29.759
G2 X-14.109 Y-30 I-2.183 J9.759
G1 X-25
G2 X-28 Y-27 I0 J3
G1 Y27
G2 X-25 Y30 I3 J0
G1 X-14.109
G2 X-11.925 Y29.759 I0 J-10
G1 X7.677 Y25.373
G2 X28 Y0 I-5.677 J-25.373
G3 X28.6 Y-0.6 I0.6 J0 F800
G1 X29.2
G18 G2 X29.8 Z8.6 I0 K0.6
G1 X33.384 Y0.6 F1300
Z7.6 F500
G3 X32.784 Z7 I-0.6 K0 F600
G1 X28.6
G17 G3 X28 Y0 I0 J-0.6
G2 X7.677 Y-25.373 I-26 J0 F1300
G1 X-11.925 Y-29.759
G2 X-14.109 Y-30 I-2.183 J9.759
G1 X-25
G2 X-28 Y-27 I0 J3
G1 Y27
G2 X-25 Y30 I3 J0
G1 X-14.109
G2 X-11.925 Y29.759 I0 J-10
G1 X7.677 Y25.373
G2 X28 Y0 I-5.677 J-25.373
G3 X28.6 Y-0.6 I0.6 J0 F800
G1 X29.2
G18 G2 X29.8 Z7.6 I0 K0.6
G1 X33.384 Y0.6 F1300
Z6.6 F500
G3 X32.784 Z6 I-0.6 K0 F600
G1 X28.6
G17 G3 X28 Y0 I0 J-0.6
G2 X7.677 Y-25.373 I-26 J0 F1300
G1 X-11.925 Y-29.759
G2 X-14.109 Y-30 I-2.183 J9.759
G1 X-25
G2 X-28 Y-27 I0 J3
G1 Y27
G2 X-25 Y30 I3 J0
G1 X-14.109
G2 X-11.925 Y29.759 I0 J-10
G1 X7.677 Y25.373
G2 X28 Y0 I-5.677 J-25.373
G3 X28.6 Y-0.6 I0.6 J0 F800
G1 X29.2
G18 G2 X29.8 Z6.6 I0 K0.6
G1 X33.384 Y0.6 F1300
Z5.6 F500
G3 X32.784 Z5 I-0.6 K0 F600
G1 X28.6
G17 G3 X28 Y0 I0 J-0.6
G2 X7.677 Y-25.373 I-26 J0 F1300
G1 X-11.925 Y-29.759
G2 X-14.109 Y-30 I-2.183 J9.759
G1 X-25
G2 X-28 Y-27 I0 J3
G1 Y27
G2 X-25 Y30 I3 J0
G1 X-14.109
G2 X-11.925 Y29.759 I0 J-10
G1 X7.677 Y25.373
G2 X28 Y0 I-5.677 J-25.373
G3 X28.6 Y-0.6 I0.6 J0 F800
G1 X29.2
G18 G2 X29.8 Z5.6 I0 K0.6
G1 X33.384 Y0.6 F1300
Z4.6 F500
G3 X32.784 Z4 I-0.6 K0 F600
G1 X28.6
G17 G3 X28 Y0 I0 J-0.6
G2 X7.677 Y-25.373 I-26 J0 F1300
G1 X-11.925 Y-29.759
G2 X-14.109 Y-30 I-2.183 J9.759
G1 X-25
G2 X-28 Y-27 I0 J3
G1 Y27
G2 X-25 Y30 I3 J0
G1 X-14.109
G2 X-11.925 Y29.759 I0 J-10
G1 X7.677 Y25.373
G2 X28 Y0 I-5.677 J-25.373
G3 X28.6 Y-0.6 I0.6 J0 F800
G1 X29.2
G18 G2 X29.8 Z4.6 I0 K0.6
G1 X33.384 Y0.6 F1300
Z3.6 F500
G3 X32.784 Z3 I-0.6 K0 F600
G1 X28.6
G17 G3 X28 Y0 I0 J-0.6
G2 X7.677 Y-25.373 I-26 J0 F1300
G1 X-11.925 Y-29.759
G2 X-14.109 Y-30 I-2.183 J9.759
G1 X-25
G2 X-28 Y-27 I0 J3
G1 Y27
G2 X-25 Y30 I3 J0
G1 X-14.109
G2 X-11.925 Y29.759 I0 J-10
G1 X7.677 Y25.373
G2 X28 Y0 I-5.677 J-25.373
G3 X28.6 Y-0.6 I0.6 J0 F800
G1 X29.2
G18 G2 X29.8 Z3.6 I0 K0.6
G1 X33.384 Y0.6 F1300
Z2.6 F500
G3 X32.784 Z2 I-0.6 K0 F600
G1 X28.6
G17 G3 X28 Y0 I0 J-0.6
G2 X7.677 Y-25.373 I-26 J0 F1300
G1 X-11.925 Y-29.759
G2 X-14.109 Y-30 I-2.183 J9.759
G1 X-25
G2 X-28 Y-27 I0 J3
G1 Y27
G2 X-25 Y30 I3 J0
G1 X-14.109
G2 X-11.925 Y29.759 I0 J-10
G1 X7.677 Y25.373
G2 X28 Y0 I-5.677 J-25.373
G3 X28.6 Y-0.6 I0.6 J0 F800
G1 X29.2
G18 G2 X29.8 Z2.6 I0 K0.6
G1 X33.384 Y0.6 F1300
Z1.6 F500
G3 X32.784 Z1 I-0.6 K0 F600
G1 X28.6
G17 G3 X28 Y0 I0 J-0.6
G2 X7.677 Y-25.373 I-26 J0 F1300
G1 X-11.925 Y-29.759
G2 X-14.109 Y-30 I-2.183 J9.759
G1 X-25
G2 X-28 Y-27 I0 J3
G1 Y27
G2 X-25 Y30 I3 J0
G1 X-14.109
G2 X-11.925 Y29.759 I0 J-10
G1 X7.677 Y25.373
G2 X28 Y0 I-5.677 J-25.373
G3 X28.6 Y-0.6 I0.6 J0 F800
G1 X29.2
G18 G2 X29.8 Z1.6 I0 K0.6
G1 X33.384 Y0.6 F1300
Z0.6 F500
G3 X32.784 Z0 I-0.6 K0 F600
G1 X28.6
G17 G3 X28 Y0 I0 J-0.6
G2 X7.677 Y-25.373 I-26 J0 F1300
G1 X-11.925 Y-29.759
G2 X-14.109 Y-30 I-2.183 J9.759
G1 X-25
G2 X-28 Y-27 I0 J3
G1 Y27
G2 X-25 Y30 I3 J0
G1 X-14.109
G2 X-11.925 Y29.759 I0 J-10
G1 X7.677 Y25.373
G2 X28 Y0 I-5.677 J-25.373
G3 X28.6 Y-0.6 I0.6 J0 F800
G1 X29.2
G18 G2 X29.8 Z0.6 I0 K0.6
G0 Z25
G17
G28 G91 Z0
G90
G28 G91 X0 Y0
G90
M5
M30
