(adap1)
(T6 D=3.175 CR=0 - ZMIN=0 - flat end mill)
G90 G94
G17
G21
G28 G91 Z0
G90

(Adaptive1 7)
T6
(18 Flat-45 degree helix)
S18000 M3
G17 G90 G94
G54
G0 X12.078 Y13.189
Z30
G0 Z20
Z10.3
G3 X12.707 Y11.771 Z10.238 I0.922 J-0.439 F600
X14.01 Y12.611 Z10.177 I0.292 J0.977
X12.979 Y13.767 Z10.115 I-1.01 J0.137
X11.998 Y12.572 Z10.054 I0.021 J-1.018
X13.329 Y11.787 Z9.992 I1.001 J0.177
X13.898 Y13.222 Z9.931 I-0.329 J0.961
X12.394 Y13.562 Z9.869 I-0.897 J-0.473
X12.29 Y12.025 Z9.808 I0.606 J-0.813
X13.823 Y12.16 Z9.746 I0.709 J0.723
X13.453 Y13.652 Z9.685 I-0.823 J0.588
X12.038 Y13.057 Z9.623 I-0.453 J-0.903
X12.843 Y11.752 Z9.562 I0.961 J-0.308
X14.007 Y12.748 Z9.5 I0.156 J0.996
X11.991 Y12.748 I-1.008 J0
X14.007 Y12.748 I1.008 J0
G1 X14.044 Y13.409 F1000
X14.043 Y13.492
X14.023 Y13.641
X13.973 Y13.782
X13.9 Y13.914
X13.808 Y14.032
X13.7 Y14.136
X13.58 Y14.226
X13.45 Y14.3
X13.311 Y14.358
X13.168 Y14.401
X13.02 Y14.428
X12.87 Y14.439
X12.72 Y14.435
X12.572 Y14.417
X12.425 Y14.384
X12.283 Y14.337
X12.145 Y14.277
X12.014 Y14.205
X11.889 Y14.121
X11.773 Y14.026
X11.666 Y13.922
X11.568 Y13.808
X11.48 Y13.686
X11.404 Y13.557
X11.339 Y13.422
X11.286 Y13.282
X11.245 Y13.137
X11.216 Y12.99
X11.2 Y12.841
X11.197 Y12.691
X11.207 Y12.541
X11.229 Y12.393
X11.263 Y12.247
X11.31 Y12.104
X11.368 Y11.966
X11.438 Y11.833
X11.518 Y11.707
X11.609 Y11.587
X11.709 Y11.476
X11.819 Y11.373
X11.936 Y11.28
X12.061 Y11.197
X12.192 Y11.124
X12.329 Y11.063
X12.471 Y11.013
X12.616 Y10.975
X12.764 Y10.949
X12.913 Y10.935
X13.063 Y10.934
X13.213 Y10.946
X13.361 Y10.969
X13.506 Y11.005
X13.649 Y11.053
X13.786 Y11.112
X13.919 Y11.183
X14.045 Y11.264
X14.164 Y11.355
X14.275 Y11.456
X14.377 Y11.566
X14.474 Y11.688
X14.581 Y11.849
X14.697 Y12.057
X14.797 Y12.278
X14.873 Y12.487
X14.926 Y12.682
X14.962 Y12.873
X14.98 Y13.049
X14.985 Y13.231
X14.976 Y13.398
X14.953 Y13.568
X14.917 Y13.732
X14.869 Y13.888
X14.807 Y14.046
X14.734 Y14.194
X14.65 Y14.335
X14.551 Y14.474
X14.442 Y14.604
X14.325 Y14.723
X14.193 Y14.837
X14.051 Y14.941
X13.902 Y15.033
X13.746 Y15.112
X13.578 Y15.181
X13.403 Y15.238
X13.223 Y15.28
X13.04 Y15.307
X12.853 Y15.32
X12.662 Y15.318
X12.469 Y15.301
X12.276 Y15.267
X12.085 Y15.218
X11.898 Y15.154
X11.716 Y15.074
X11.539 Y14.979
X11.368 Y14.868
X11.204 Y14.744
X11.051 Y14.605
X10.907 Y14.453
X10.776 Y14.29
X10.658 Y14.115
X10.554 Y13.932
X10.465 Y13.74
X10.391 Y13.54
X10.333 Y13.335
X10.292 Y13.125
X10.267 Y12.911
X10.26 Y12.696
X10.27 Y12.479
X10.298 Y12.264
X10.342 Y12.051
X10.404 Y11.841
X10.483 Y11.637
X10.578 Y11.44
X10.689 Y11.25
X10.815 Y11.07
X10.955 Y10.9
X11.108 Y10.742
X11.274 Y10.597
X11.451 Y10.465
X11.637 Y10.348
X11.833 Y10.246
X12.037 Y10.16
X12.247 Y10.091
X12.461 Y10.039
X12.68 Y10.004
X12.9 Y9.987
X13.121
X13.342 Y10.006
X13.56 Y10.042
X13.775 Y10.095
X13.985 Y10.165
X14.189 Y10.253
X14.387 Y10.357
X14.582 Y10.48
X14.778 Y10.628
X14.97 Y10.798
X15.151 Y10.988
X15.32 Y11.194
X15.473 Y11.416
X15.608 Y11.65
X15.723 Y11.892
X15.818 Y12.14
X15.891 Y12.392
X15.943 Y12.647
X15.974 Y12.902
X15.985 Y13.157
X15.975 Y13.41
X15.945 Y13.66
X15.896 Y13.907
X15.826 Y14.148
X15.738 Y14.382
X15.631 Y14.609
X15.506 Y14.827
X15.364 Y15.035
X15.205 Y15.231
X15.03 Y15.414
X14.84 Y15.584
X14.635 Y15.739
X14.417 Y15.878
X14.188 Y16
X13.949 Y16.103
X13.699 Y16.188
X13.442 Y16.253
X13.179 Y16.297
X12.911 Y16.32
X12.64 Y16.321
X12.368 Y16.301
X12.097 Y16.259
X11.829 Y16.194
X11.564 Y16.108
X11.305 Y16
X11.054 Y15.87
X10.813 Y15.72
X10.583 Y15.55
X10.367 Y15.361
X10.165 Y15.155
X9.98 Y14.932
X9.813 Y14.693
X9.665 Y14.442
X9.537 Y14.178
X9.43 Y13.904
X9.345 Y13.621
X9.283 Y13.332
X9.245 Y13.037
X9.23 Y12.74
X9.239 Y12.441
X9.272 Y12.144
X9.329 Y11.85
X9.41 Y11.56
X9.513 Y11.278
X9.639 Y11.004
X9.787 Y10.741
X9.956 Y10.49
X10.145 Y10.253
X10.352 Y10.032
X10.577 Y9.829
X10.817 Y9.644
X11.071 Y9.478
X11.338 Y9.334
X11.616 Y9.211
X11.903 Y9.111
X12.198 Y9.034
X12.497 Y8.981
X12.8 Y8.953
X13.105 Y8.949
X13.409 Y8.969
X13.71 Y9.013
X14.009 Y9.082
X14.306 Y9.177
X14.599 Y9.296
X14.887 Y9.442
X15.167 Y9.613
X15.436 Y9.809
X15.691 Y10.028
X15.931 Y10.269
X16.152 Y10.531
X16.352 Y10.811
X16.53 Y11.107
X16.683 Y11.416
X16.81 Y11.736
X16.912 Y12.065
X16.986 Y12.399
X17.033 Y12.737
X17.053 Y13.077
X17.046 Y13.416
X17.011 Y13.753
X16.949 Y14.086
X16.861 Y14.412
X16.748 Y14.731
X16.609 Y15.039
X16.445 Y15.335
X16.258 Y15.618
X16.048 Y15.886
X15.817 Y16.136
X15.566 Y16.368
X15.296 Y16.58
X15.008 Y16.77
X14.705 Y16.937
X14.388 Y17.08
X14.059 Y17.198
X13.72 Y17.289
X13.373 Y17.353
X13.02 Y17.39
X12.664 Y17.397
X12.306 Y17.377
X11.948 Y17.327
X11.594 Y17.248
X11.246 Y17.14
X10.905 Y17.005
X10.575 Y16.841
X10.258 Y16.651
X9.955 Y16.434
X9.67 Y16.194
X9.404 Y15.93
X9.159 Y15.644
X8.937 Y15.339
X8.739 Y15.016
X8.568 Y14.677
X8.424 Y14.324
X8.308 Y13.96
X8.222 Y13.587
X8.166 Y13.207
X8.14 Y12.823
X8.145 Y12.437
X8.182 Y12.053
X8.249 Y11.672
X8.347 Y11.296
X8.475 Y10.93
X8.632 Y10.574
X8.817 Y10.232
X9.029 Y9.905
X9.267 Y9.596
X9.53 Y9.307
X9.815 Y9.039
X10.12 Y8.796
X10.445 Y8.577
X10.786 Y8.385
X11.142 Y8.221
X11.509 Y8.086
X11.887 Y7.981
X12.272 Y7.907
X12.662 Y7.863
X13.055 Y7.851
X13.449 Y7.871
X13.842 Y7.923
X14.234 Y8.007
X14.621 Y8.123
X15.002 Y8.271
X15.373 Y8.451
X15.732 Y8.662
X16.075 Y8.903
X16.401 Y9.174
X16.706 Y9.471
X16.988 Y9.794
X17.243 Y10.139
X17.471 Y10.505
X17.668 Y10.888
X17.835 Y11.285
X17.968 Y11.695
X18.069 Y12.113
X18.135 Y12.538
X18.167 Y12.966
X18.165 Y13.395
X18.128 Y13.822
X18.057 Y14.245
X17.952 Y14.66
X17.815 Y15.066
X17.645 Y15.459
X17.444 Y15.839
X17.212 Y16.201
X16.952 Y16.544
X16.665 Y16.866
X16.352 Y17.164
X16.015 Y17.437
X15.656 Y17.683
X15.278 Y17.9
X14.881 Y18.087
X14.47 Y18.242
X14.046 Y18.364
X13.612 Y18.451
X13.17 Y18.504
X12.723 Y18.522
X12.275 Y18.503
X11.828 Y18.448
X11.385 Y18.357
X10.948 Y18.23
X10.521 Y18.068
X10.108 Y17.871
X9.709 Y17.641
X9.329 Y17.379
X8.97 Y17.086
X8.635 Y16.764
X8.326 Y16.416
X8.044 Y16.042
X7.793 Y15.646
X7.574 Y15.23
X7.389 Y14.796
X7.239 Y14.348
X7.124 Y13.889
X7.047 Y13.42
X7.008 Y12.947
X7.007 Y12.47
X7.044 Y11.994
X7.119 Y11.522
X7.232 Y11.057
X7.382 Y10.602
X7.569 Y10.16
X7.79 Y9.734
X8.046 Y9.327
X8.333 Y8.941
X8.651 Y8.579
X8.997 Y8.243
X9.369 Y7.937
X9.765 Y7.66
X10.181 Y7.417
X10.617 Y7.208
X11.067 Y7.034
X11.531 Y6.896
X12.004 Y6.797
X12.484 Y6.735
X12.97 Y6.713
X13.457 Y6.729
X13.944 Y6.785
X14.428 Y6.88
X14.906 Y7.015
X15.375 Y7.188
X15.832 Y7.401
X16.274 Y7.651
X16.697 Y7.938
X17.097 Y8.259
X17.473 Y8.614
X17.82 Y8.999
X18.136 Y9.411
X18.418 Y9.849
X18.665 Y10.309
X18.874 Y10.787
X19.045 Y11.28
X19.175 Y11.786
X19.264 Y12.3
X19.311 Y12.819
X19.317 Y13.34
X19.28 Y13.86
X19.203 Y14.375
X19.084 Y14.882
X18.924 Y15.379
X18.726 Y15.861
X18.489 Y16.326
X18.215 Y16.771
X17.906 Y17.193
X17.563 Y17.589
X17.189 Y17.958
X16.786 Y18.296
X16.356 Y18.602
X15.901 Y18.872
X15.425 Y19.106
X14.93 Y19.302
X14.42 Y19.458
X13.897 Y19.572
X13.364 Y19.645
X12.826 Y19.674
X12.285 Y19.661
X11.745 Y19.604
X11.209 Y19.503
X10.682 Y19.359
X10.165 Y19.172
X9.664 Y18.944
X9.181 Y18.676
X8.72 Y18.369
X8.284 Y18.025
X7.876 Y17.645
X7.498 Y17.233
X7.154 Y16.791
X6.845 Y16.322
X6.575 Y15.828
X6.345 Y15.313
X6.156 Y14.78
X6.01 Y14.233
X5.909 Y13.675
X5.852 Y13.109
X5.842 Y12.54
X5.877 Y11.971
X5.957 Y11.405
X6.083 Y10.848
X6.254 Y10.301
X6.468 Y9.77
X6.724 Y9.257
X7.021 Y8.765
X7.356 Y8.299
X7.728 Y7.861
X8.135 Y7.454
X8.572 Y7.08
X9.039 Y6.743
X9.532 Y6.444
X10.047 Y6.186
X10.581 Y5.97
X11.132 Y5.797
X11.695 Y5.668
X12.268 Y5.586
X12.847 Y5.549
X13.43 Y5.559
X14.012 Y5.616
X14.59 Y5.72
X15.162 Y5.871
X15.722 Y6.068
X16.268 Y6.311
X16.796 Y6.598
X17.301 Y6.929
X17.78 Y7.301
X18.23 Y7.712
X18.647 Y8.158
X19.027 Y8.639
X19.368 Y9.149
X19.668 Y9.685
X19.924 Y10.245
X20.134 Y10.823
X20.297 Y11.417
X20.412 Y12.021
X20.478 Y12.633
X20.495 Y13.249
X20.462 Y13.863
X20.38 Y14.473
X20.249 Y15.075
X20.071 Y15.664
X19.846 Y16.238
X19.575 Y16.792
X19.26 Y17.323
X18.903 Y17.827
X18.506 Y18.302
X18.072 Y18.745
X17.603 Y19.151
X17.101 Y19.52
X16.571 Y19.848
X16.014 Y20.133
X15.435 Y20.373
X14.837 Y20.566
X14.224 Y20.711
X13.599 Y20.807
X12.967 Y20.852
X12.331 Y20.846
X11.696 Y20.79
X11.066 Y20.682
X10.444 Y20.523
X9.836 Y20.314
X9.244 Y20.057
X8.673 Y19.752
X8.128 Y19.401
X7.611 Y19.007
X7.126 Y18.571
X6.676 Y18.097
X6.265 Y17.587
X5.896 Y17.044
X5.57 Y16.472
X5.291 Y15.875
X5.061 Y15.257
X4.88 Y14.62
X4.751 Y13.971
X4.675 Y13.313
X4.651 Y12.651
X4.68 Y11.989
X4.763 Y11.332
X4.897 Y10.683
X5.082 Y10.047
X5.318 Y9.428
X5.602 Y8.83
X5.933 Y8.256
X6.308 Y7.71
X6.726 Y7.196
X7.183 Y6.716
X7.676 Y6.274
X8.203 Y5.873
X8.76 Y5.515
X9.344 Y5.202
X9.951 Y4.936
X10.577 Y4.719
X11.218 Y4.552
X11.87 Y4.436
X12.53 Y4.373
X13.192 Y4.361
X13.853 Y4.401
X14.509 Y4.492
X15.156 Y4.635
X15.79 Y4.827
X16.407 Y5.067
X17.004 Y5.354
X17.578 Y5.685
X18.124 Y6.06
X18.641 Y6.474
X19.125 Y6.926
X19.574 Y7.413
X19.985 Y7.933
X20.356 Y8.482
X20.686 Y9.056
X20.97 Y9.654
X21.209 Y10.272
X21.4 Y10.907
X21.542 Y11.554
X21.636 Y12.209
X21.681 Y12.87
X21.677 Y13.533
X21.623 Y14.193
X21.52 Y14.847
X21.369 Y15.492
X21.17 Y16.124
X20.925 Y16.74
X20.635 Y17.335
X20.302 Y17.907
X19.926 Y18.453
X19.511 Y18.969
X19.057 Y19.452
X18.569 Y19.9
X18.049 Y20.31
X17.5 Y20.681
X16.925 Y21.01
X16.328 Y21.296
X15.711 Y21.538
X15.079 Y21.734
X14.433 Y21.884
X13.779 Y21.987
X13.119 Y22.042
X12.456 Y22.047
X11.795 Y22.003
X11.139 Y21.911
X10.492 Y21.772
X9.856 Y21.587
X9.234 Y21.357
X8.631 Y21.084
X8.048 Y20.769
X7.49 Y20.413
X6.958 Y20.018
X6.457 Y19.585
X5.988 Y19.117
X5.554 Y18.617
X5.156 Y18.087
X4.795 Y17.531
X4.475 Y16.952
X4.195 Y16.351
X3.958 Y15.733
X3.767 Y15.099
X3.621 Y14.452
X3.522 Y13.797
X3.468 Y13.137
X3.46 Y12.475
X3.497 Y11.813
X3.579 Y11.156
X3.707 Y10.506
X3.882 Y9.867
X4.102 Y9.242
X4.365 Y8.634
X4.669 Y8.046
X5.012 Y7.479
X5.394 Y6.938
X5.811 Y6.423
X6.264 Y5.94
X6.75 Y5.489
X7.266 Y5.075
X7.81 Y4.697
X8.379 Y4.357
X8.97 Y4.057
X9.579 Y3.798
X10.205 Y3.581
X10.844 Y3.408
X11.495 Y3.281
X12.152 Y3.2
X12.814 Y3.165
X13.476 Y3.175
X14.136 Y3.229
X14.791 Y3.328
X15.438 Y3.47
X16.074 Y3.656
X16.695 Y3.887
X17.299 Y4.159
X17.883 Y4.471
X18.445 Y4.821
X18.983 Y5.208
X19.495 Y5.629
X19.977 Y6.082
X20.43 Y6.566
X20.848 Y7.08
X21.23 Y7.621
X21.576 Y8.186
X21.884 Y8.773
X22.152 Y9.378
X22.38 Y10
X22.568 Y10.636
X22.713 Y11.282
X22.815 Y11.936
X22.872 Y12.596
X22.885 Y13.259
X22.854 Y13.92
X22.781 Y14.579
X22.665 Y15.231
X22.507 Y15.874
X22.308 Y16.506
X22.069 Y17.124
X21.788 Y17.724
X21.467 Y18.303
X21.109 Y18.861
X20.715 Y19.393
X20.287 Y19.899
X19.827 Y20.375
X19.337 Y20.821
X18.82 Y21.235
X18.276 Y21.612
X17.707 Y21.953
X17.118 Y22.256
X16.511 Y22.52
X15.888 Y22.745
X15.252 Y22.93
X14.605 Y23.074
X13.951 Y23.177
X13.291 Y23.237
X12.629 Y23.253
X11.967 Y23.224
X11.308 Y23.153
X10.656 Y23.041
X10.011 Y22.887
X9.378 Y22.693
X8.757 Y22.461
X8.153 Y22.19
X7.567 Y21.882
X7.002 Y21.536
X6.461 Y21.154
X5.945 Y20.738
X5.457 Y20.29
X4.997 Y19.813
X4.568 Y19.308
X4.171 Y18.778
X3.807 Y18.225
X3.478 Y17.65
X3.188 Y17.055
X2.935 Y16.442
X2.722 Y15.815
X2.548 Y15.176
X2.414 Y14.527
X2.32 Y13.871
X2.266 Y13.211
X2.252 Y12.549
X2.28 Y11.887
X2.35 Y11.228
X2.461 Y10.575
X2.613 Y9.93
X2.804 Y9.296
X3.034 Y8.675
X3.302 Y8.069
X3.605 Y7.48
X3.944 Y6.911
X4.317 Y6.364
X4.725 Y5.841
X5.164 Y5.345
X5.633 Y4.878
X6.13 Y4.44
X6.653 Y4.033
X7.199 Y3.659
X7.768 Y3.319
X8.355 Y3.013
X8.961 Y2.745
X9.582 Y2.515
X10.217 Y2.325
X10.862 Y2.174
X11.515 Y2.063
X12.174 Y1.992
X12.835 Y1.961
X13.498 Y1.969
X14.158 Y2.017
X14.815 Y2.106
X15.464 Y2.236
X16.105 Y2.404
X16.734 Y2.612
X17.349 Y2.857
X17.949 Y3.138
X18.531 Y3.454
X19.094 Y3.804
X19.635 Y4.186
X20.152 Y4.6
X20.644 Y5.044
X21.108 Y5.517
X21.543 Y6.016
X21.948 Y6.541
X22.321 Y7.088
X22.661 Y7.656
X22.968 Y8.243
X23.24 Y8.847
X23.476 Y9.466
X23.674 Y10.098
X23.834 Y10.741
X23.956 Y11.392
X24.039 Y12.049
X24.083 Y12.71
X24.088 Y13.373
X24.056 Y14.034
X23.985 Y14.693
X23.876 Y15.346
X23.728 Y15.992
X23.542 Y16.628
X23.319 Y17.252
X23.06 Y17.861
X22.765 Y18.454
X22.436 Y19.029
X22.075 Y19.584
X21.681 Y20.117
X21.258 Y20.627
X20.804 Y21.11
X20.323 Y21.565
X19.816 Y21.991
X19.285 Y22.386
X18.731 Y22.75
X18.157 Y23.081
X17.565 Y23.379
X17.492 Y23.417
X17.358 Y23.485
X17.223 Y23.551
X17.087 Y23.614
X16.95 Y23.675
X16.813 Y23.734
X16.674 Y23.791
X16.534 Y23.845
X16.393 Y23.897
X16.252 Y23.948
X16.11 Y23.996
X15.967 Y24.042
X15.823 Y24.085
X15.679 Y24.127
X15.535 Y24.167
X15.39 Y24.205
X15.244 Y24.24
X15.098 Y24.274
X14.951 Y24.305
X14.804 Y24.335
X14.657 Y24.363
X14.509 Y24.388
X14.361 Y24.411
X14.212 Y24.432
X14.063 Y24.452
X13.914 Y24.469
X13.765 Y24.485
X13.616 Y24.498
X13.466 Y24.509
X13.316 Y24.518
X13.167 Y24.525
X13.017 Y24.531
X12.867 Y24.534
X12.717 Y24.535
X12.567 Y24.534
X12.417 Y24.531
X12.267 Y24.526
X12.117 Y24.52
X11.967 Y24.511
X11.818 Y24.5
X11.668 Y24.488
X11.519 Y24.473
X11.37 Y24.457
X11.221 Y24.438
X11.072 Y24.418
X10.924 Y24.396
X10.776 Y24.372
X10.628 Y24.345
X10.481 Y24.317
X10.334 Y24.288
X10.187 Y24.256
X10.041 Y24.222
X9.895 Y24.187
X9.75 Y24.149
X9.605 Y24.111
X9.461 Y24.07
X9.317 Y24.027
X9.174 Y23.982
X9.031 Y23.936
X8.889 Y23.888
X8.748 Y23.838
X8.607 Y23.786
X8.467 Y23.732
X8.327 Y23.677
X8.189 Y23.62
X8.051 Y23.561
X7.914 Y23.5
X7.777 Y23.438
X7.642 Y23.373
X7.507 Y23.308
X7.373 Y23.24
X7.24 Y23.17
X7.108 Y23.099
X6.977 Y23.026
X6.847 Y22.952
X6.717 Y22.876
X6.589 Y22.798
X6.462 Y22.718
X6.336 Y22.637
X6.211 Y22.555
X6.087 Y22.47
X5.964 Y22.384
X5.842 Y22.296
X5.722 Y22.207
X5.602 Y22.117
X5.484 Y22.025
X5.366 Y21.931
X5.251 Y21.836
X5.136 Y21.739
X5.022 Y21.641
X4.91 Y21.542
X4.799 Y21.441
X4.689 Y21.338
X4.581 Y21.235
X4.474 Y21.13
X4.368 Y21.024
X4.264 Y20.916
X4.161 Y20.807
X4.059 Y20.696
X3.958 Y20.585
X3.86 Y20.472
X3.762 Y20.358
X3.666 Y20.243
X3.572 Y20.126
X3.478 Y20.009
X3.387 Y19.89
X3.297 Y19.77
X3.208 Y19.649
X3.121 Y19.527
X3.035 Y19.404
X2.951 Y19.28
X2.869 Y19.154
X2.789 Y19.028
X2.709 Y18.9
X2.632 Y18.772
X2.556 Y18.643
X2.482 Y18.512
X2.409 Y18.381
X2.338 Y18.249
X2.269 Y18.116
X2.202 Y17.982
X2.136 Y17.847
X2.072 Y17.711
X2.01 Y17.575
X1.949 Y17.438
X1.89 Y17.299
X1.833 Y17.161
X1.778 Y17.021
X1.724 Y16.881
X1.672 Y16.74
X1.623 Y16.599
X1.575 Y16.457
X1.528 Y16.314
X1.483 Y16.171
X1.44 Y16.027
X1.4 Y15.883
X1.361 Y15.738
X1.323 Y15.593
X1.288 Y15.447
X1.254 Y15.301
X1.222 Y15.154
X1.192 Y15.007
X1.164 Y14.86
X1.137 Y14.713
X1.113 Y14.565
X1.09 Y14.416
X1.069 Y14.268
X1.05 Y14.119
X1.033 Y13.97
X1.017 Y13.821
X1.004 Y13.671
X0.993 Y13.522
X0.983 Y13.372
X0.975 Y13.222
X0.969 Y13.072
X0.965 Y12.922
X0.963 Y12.772
Y12.622
X0.964 Y12.472
X0.967 Y12.323
X0.973 Y12.173
X0.98 Y12.023
X0.99 Y11.873
X1 Y11.723
X1.013 Y11.574
X1.028 Y11.425
X1.045 Y11.276
X1.064 Y11.127
X1.084 Y10.978
X1.106 Y10.83
X1.131 Y10.682
X1.157 Y10.534
X1.185 Y10.387
X1.215 Y10.24
X1.246 Y10.093
X1.28 Y9.947
X1.315 Y9.801
X1.352 Y9.656
X1.391 Y9.511
X1.432 Y9.367
X1.475 Y9.223
X1.519 Y9.08
X1.565 Y8.937
X1.613 Y8.795
X1.662 Y8.653
X1.714 Y8.512
X1.767 Y8.372
X1.822 Y8.232
X1.878 Y8.093
X1.937 Y7.955
X1.997 Y7.818
X2.058 Y7.681
X2.122 Y7.545
X2.186 Y7.41
X2.253 Y7.275
X2.322 Y7.142
X2.392 Y7.009
X2.464 Y6.878
X2.537 Y6.747
X2.612 Y6.617
X2.688 Y6.488
X2.767 Y6.36
X2.846 Y6.233
X2.928 Y6.107
X3.011 Y5.982
X3.095 Y5.858
X3.182 Y5.735
X3.269 Y5.613
X3.358 Y5.493
X3.449 Y5.373
X3.541 Y5.255
X3.635 Y5.138
X3.73 Y5.022
X3.826 Y4.907
X3.924 Y4.793
X4.024 Y4.681
X4.125 Y4.57
X4.227 Y4.46
X4.33 Y4.351
X4.435 Y4.244
X4.541 Y4.139
X4.649 Y4.034
X4.758 Y3.931
X4.868 Y3.829
X4.979 Y3.728
X5.092 Y3.629
X5.206 Y3.532
X5.321 Y3.435
X5.437 Y3.34
X5.554 Y3.247
X5.673 Y3.155
X5.793 Y3.065
X5.913 Y2.976
X6.035 Y2.888
X6.158 Y2.802
X6.282 Y2.718
X6.407 Y2.635
X6.533 Y2.553
X6.66 Y2.473
X6.788 Y2.395
X6.917 Y2.319
X7.047 Y2.244
X7.177 Y2.17
X7.309 Y2.098
X7.442 Y2.028
X7.575 Y1.96
X7.71 Y1.893
X7.845 Y1.828
X7.98 Y1.764
X8.117 Y1.703
X8.255 Y1.643
X8.393 Y1.585
X8.532 Y1.528
X8.672 Y1.473
X8.812 Y1.42
X8.953 Y1.369
X9.095 Y1.32
X9.237 Y1.272
X9.379 Y1.226
X9.523 Y1.182
X9.667 Y1.14
X9.811 Y1.099
X9.956 Y1.06
X10.101 Y1.023
X10.247 Y0.988
X10.394 Y0.955
X10.54 Y0.924
X10.687 Y0.894
X10.835 Y0.866
X10.982 Y0.84
X11.131 Y0.816
X11.279 Y0.794
X11.427 Y0.773
X11.576 Y0.754
X11.725 Y0.737
X11.875 Y0.722
X12.024 Y0.709
X12.173 Y0.697
X12.323 Y0.688
X12.473 Y0.68
X12.623 Y0.675
X12.773 Y0.67
X12.923 Y0.668
X13.073
X13.223 Y0.669
X13.373 Y0.673
X13.523 Y0.678
X13.673 Y0.685
X13.822 Y0.694
X13.972 Y0.704
X14.121 Y0.717
X14.271 Y0.732
X14.42 Y0.748
X14.569 Y0.766
X14.717 Y0.786
X14.866 Y0.808
X15.014 Y0.831
X15.162 Y0.857
X15.309 Y0.884
X15.456 Y0.913
X15.603 Y0.945
X15.749 Y0.977
X15.895 Y1.011
X16.041 Y1.048
X16.186 Y1.086
X16.33 Y1.126
X16.475 Y1.168
X16.618 Y1.211
X16.761 Y1.256
X16.904 Y1.304
X17.045 Y1.352
X17.187 Y1.403
X17.327 Y1.455
X17.467 Y1.509
X17.607 Y1.564
X17.745 Y1.622
X17.883 Y1.68
X18.021 Y1.741
X18.157 Y1.803
X18.293 Y1.867
X18.428 Y1.933
X18.562 Y2
X18.695 Y2.068
X18.828 Y2.139
X18.959 Y2.211
X19.09 Y2.284
X19.22 Y2.359
X19.349 Y2.435
X19.477 Y2.514
X19.604 Y2.593
X19.73 Y2.675
X20.256 Y3.078
X20.767 Y3.499
X21.261 Y3.941
X21.733 Y4.405
X22.182 Y4.892
X22.606 Y5.401
X23.003 Y5.931
X23.372 Y6.481
X23.712 Y7.05
X24.023 Y7.635
X24.301 Y8.236
X24.546 Y8.852
X24.757 Y9.48
X24.933 Y10.118
X25.076 Y10.765
X25.184 Y11.419
X25.258 Y12.077
X25.296 Y12.738
X25.301 Y13.401
X25.271 Y14.062
X25.207 Y14.722
X25.106 Y15.376
X24.97 Y16.025
X24.8 Y16.665
X24.596 Y17.295
X24.359 Y17.914
X24.09 Y18.519
X23.789 Y19.109
X23.458 Y19.683
X23.098 Y20.239
X22.709 Y20.775
X22.291 Y21.289
X21.846 Y21.78
X21.375 Y22.246
X20.881 Y22.686
X20.363 Y23.1
X19.825 Y23.486
X19.267 Y23.843
X18.694 Y24.176
X18.108 Y24.484
X17.507 Y24.763
X16.892 Y25.009
X16.264 Y25.22
X15.626 Y25.396
X14.978 Y25.537
X14.324 Y25.642
X13.666 Y25.712
X13.004 Y25.746
X12.342 Y25.745
X11.68 Y25.709
X11.021 Y25.639
X10.367 Y25.535
X9.719 Y25.397
X9.079 Y25.227
X8.449 Y25.024
X7.829 Y24.789
X7.223 Y24.522
X6.631 Y24.225
X6.055 Y23.898
X5.497 Y23.541
X4.958 Y23.156
X4.439 Y22.744
X3.942 Y22.307
X3.467 Y21.844
X3.017 Y21.359
X2.591 Y20.851
X2.192 Y20.323
X1.82 Y19.774
X1.648 Y19.491
X1.566 Y19.348
X1.241 Y18.77
X0.948 Y18.176
X0.915 Y18.1
X0.91 Y18.082 Z9.508 F600
X0.909 Y18.063 Z9.515
X0.933 Y17.603 Z9.7
X0.946 Y17.355
X1.347 Y9.577 F1000
X1.36 Y9.329 F600
X1.363 Y9.274 Z9.678
X1.372 Y9.239 Z9.663
X1.395 Y9.21 Z9.648
X1.427 Y9.192 Z9.633
X1.464 Y9.189 Z9.619
X1.499 Y9.2 Z9.604
X1.526 Y9.225 Z9.589
X1.541 Y9.258 Z9.574
X1.542 Y9.295 Z9.559
X1.529 Y9.329 Z9.544
X1.503 Y9.355 Z9.53
X1.469 Y9.368 Z9.515
X1.432 Y9.367 Z9.5
X1.352 Y9.344 F1000
X1.243 Y9.241
X1.159 Y9.117
X1.094 Y8.982
X1.044 Y8.841
X1.007 Y8.695
X0.982 Y8.547
X0.967 Y8.398
X0.962 Y8.248
X0.964 Y8.098
X0.973 Y7.948
X0.989 Y7.799
X1.011 Y7.651
X1.038 Y7.503
X1.071 Y7.357
X1.108 Y7.211
X1.149 Y7.067
X1.194 Y6.924
X1.243 Y6.782
X1.295 Y6.642
X1.351 Y6.502
X1.409 Y6.364
X1.47 Y6.227
X1.534 Y6.092
X1.601 Y5.957
X1.67 Y5.824
X1.741 Y5.692
X1.815 Y5.561
X1.89 Y5.432
X1.968 Y5.303
X2.048 Y5.176
X2.129 Y5.05
X2.213 Y4.926
X2.298 Y4.802
X2.385 Y4.68
X2.473 Y4.559
X2.563 Y4.439
X2.655 Y4.32
X2.748 Y4.203
X2.843 Y4.087
X2.939 Y3.972
X3.037 Y3.858
X3.136 Y3.745
X3.237 Y3.634
X3.338 Y3.524
X3.442 Y3.415
X3.546 Y3.307
X3.652 Y3.201
X3.759 Y3.096
X3.867 Y2.992
X3.977 Y2.889
X4.087 Y2.788
X4.199 Y2.688
X4.312 Y2.589
X4.426 Y2.492
X4.541 Y2.396
X4.658 Y2.301
X4.775 Y2.208
X4.893 Y2.116
X5.013 Y2.025
X5.133 Y1.936
X5.255 Y1.848
X5.377 Y1.761
X5.501 Y1.676
X5.625 Y1.592
X5.751 Y1.51
X5.877 Y1.429
X6.004 Y1.349
X6.132 Y1.271
X6.261 Y1.195
X6.391 Y1.12
X6.522 Y1.046
X6.653 Y0.974
X6.786 Y0.903
X6.915 Y0.995 Z9.564 F600
X6.853 Y1.329 Z9.7
X6.808 Y1.573
X6.19 Y4.908 F1000
X4.34 Y8.671
G3 X0.968 Y9.273 I-1.908 J-0.946
G1 X0.455 Y8.521
X0.244 Y7.908
X0.223 Y7.661 F600
X0.194 Y7.307 Z9.558
X0.193 Y7.259 Z9.538
X0.2 Y7.212 Z9.519
X0.214 Y7.166 Z9.5
X0.407 Y6.714 F1000
X0.472 Y6.564
X0.677 Y6.112
X0.766 Y5.962
X0.967 Y5.653
X1.957 Y4.156
X2.019 Y4.068
X2.068 Y4.005
X2.491 Y3.553
X3.521 Y2.475
X3.672 Y2.324
X3.799 Y2.199
X3.997 Y2.048
X4.122 Y1.955
X4.993 Y1.322
X5.324 Y1.296 Z9.633 F600
X5.488 Y1.327 Z9.7
X5.732 Y1.373
X14.339 Y3.004 F1000
G2 X16.772 Y2.023 I0.421 J-2.464
G1 X16.858 Y1.898 F600
X16.911 Y1.818
X17.187 Y1.403 Z9.5
X17.215 Y1.325 F1000
X17.324 Y1.223
X17.454 Y1.147
X17.593 Y1.091
X17.738 Y1.051
X17.885 Y1.024
X18.034 Y1.008
X18.184 Y1.003
X18.334 Y1.007
X18.484 Y1.019
X18.633 Y1.038
X18.78 Y1.064
X18.927 Y1.095
X19.072 Y1.132
X19.216 Y1.174
X19.359 Y1.221
X19.5 Y1.273
X19.639 Y1.329
X19.776 Y1.389
X19.912 Y1.453
X20.046 Y1.52
X20.179 Y1.59
X20.31 Y1.662
X20.44 Y1.737
X20.569 Y1.815
X20.695 Y1.895
X20.821 Y1.977
X20.946 Y2.06
X21.069 Y2.146
X21.191 Y2.233
X21.311 Y2.323
X21.43 Y2.414
X21.549 Y2.506
X21.666 Y2.6
X21.781 Y2.695
X21.895 Y2.793
X22.009 Y2.891
X22.121 Y2.991
X22.232 Y3.092
X22.341 Y3.194
X22.45 Y3.298
X22.557 Y3.403
X22.663 Y3.509
X22.768 Y3.616
X22.871 Y3.725
X22.974 Y3.834
X23.075 Y3.945
X23.175 Y4.057
X23.273 Y4.17
X23.371 Y4.284
X23.467 Y4.399
X23.561 Y4.516
X23.655 Y4.633
X23.747 Y4.751
X23.838 Y4.87
X23.928 Y4.991
X24.016 Y5.112
X24.104 Y5.234
X24.189 Y5.357
X24.273 Y5.481
X24.356 Y5.606
X24.438 Y5.732
X24.519 Y5.858
X24.598 Y5.986
X24.675 Y6.114
X24.751 Y6.244
X24.826 Y6.374
X24.899 Y6.504
X24.971 Y6.636
X25.042 Y6.769
X25.11 Y6.902
X25.178 Y7.036
X25.244 Y7.17
X25.309 Y7.306
X25.371 Y7.442
X25.433 Y7.579
X25.493 Y7.716
X25.552 Y7.854
X25.608 Y7.993
X25.664 Y8.133
X25.717 Y8.273
X25.77 Y8.413
X25.821 Y8.554
X25.87 Y8.696
X25.917 Y8.838
X25.963 Y8.981
X26.008 Y9.124
X26.051 Y9.268
X26.092 Y9.412
X26.132 Y9.557
X26.17 Y9.702
X26.207 Y9.847
X26.242 Y9.993
X26.275 Y10.14
X26.306 Y10.286
X26.337 Y10.433
X26.366 Y10.58
X26.393 Y10.728
X26.418 Y10.876
X26.441 Y11.024
X26.464 Y11.172
X26.484 Y11.321
X26.503 Y11.47
X26.521 Y11.619
X26.536 Y11.768
X26.55 Y11.917
X26.563 Y12.067
X26.574 Y12.216
X26.583 Y12.366
X26.591 Y12.516
X26.597 Y12.666
X26.602 Y12.815
X26.605 Y12.965
X26.606 Y13.115
X26.605 Y13.265
X26.604 Y13.415
X26.6 Y13.565
X26.595 Y13.715
X26.588 Y13.865
X26.579 Y14.015
X26.569 Y14.165
X26.558 Y14.314
X26.544 Y14.464
X26.529 Y14.613
X26.512 Y14.762
X26.494 Y14.911
X26.474 Y15.059
X26.453 Y15.208
X26.429 Y15.356
X26.404 Y15.504
X26.378 Y15.652
X26.35 Y15.799
X26.32 Y15.946
X26.289 Y16.093
X26.256 Y16.239
X26.222 Y16.385
X26.186 Y16.531
X26.148 Y16.676
X26.109 Y16.821
X26.068 Y16.965
X26.026 Y17.109
X25.982 Y17.252
X25.936 Y17.395
X25.889 Y17.538
X25.84 Y17.679
X25.79 Y17.821
X25.739 Y17.962
X25.685 Y18.102
X25.631 Y18.242
X25.574 Y18.381
X25.517 Y18.519
X25.458 Y18.657
X25.397 Y18.794
X25.335 Y18.931
X25.271 Y19.066
X25.206 Y19.202
X25.14 Y19.336
X25.071 Y19.47
X25.002 Y19.603
X24.931 Y19.735
X24.859 Y19.866
X24.785 Y19.997
X24.71 Y20.127
X24.634 Y20.256
X24.556 Y20.384
X24.477 Y20.512
X24.396 Y20.638
X24.314 Y20.764
X24.231 Y20.888
X24.146 Y21.012
X24.06 Y21.135
X23.973 Y21.257
X23.884 Y21.378
X23.794 Y21.498
X23.703 Y21.617
X23.61 Y21.735
X23.516 Y21.852
X23.421 Y21.968
X23.324 Y22.082
X23.227 Y22.196
X23.128 Y22.309
X23.027 Y22.42
X22.926 Y22.531
X22.823 Y22.64
X22.719 Y22.749
X22.614 Y22.856
X22.508 Y22.961
X22.422 Y23.044
X22.412 Y23.053
X22.334 Y23.122
X21.294 Y23.943
X20.759 Y24.333
X20.278 Y24.654
X20.267 Y24.66
G3 X19.836 Y24.536 Z9.7 I-0.153 J-0.278 F600
G1 X19.812 Y24.479
X19.799 Y24.418
X19.798 Y24.356
X19.809 Y24.295
X19.835 Y24.231 F1000
X19.874 Y24.175
X19.924 Y24.128
X21.927 Y22.635
X21.973 Y22.607
X22.022 Y22.587
X22.075 Y22.575
X22.128 Y22.573
X22.19 Y22.581 F600
X22.248 Y22.601
X22.302 Y22.632
X22.349 Y22.673
G3 X22.334 Y23.122 Z9.5 I-0.232 J0.217
G1 X21.4 Y23.938 F1000
X21.289 Y24.025
X21.066 Y24.175
X20.949 Y24.253
X19.296 Y25.24
X19.146 Y25.324
X18.996 Y25.394
X18.846 Y25.458
X16.893 Y26.191
X16.742 Y26.235
X16.592 Y26.277
X14.789 Y26.605
X14.339 Y26.684
X14.188 Y26.692
X13.888 Y26.699
X13.738 Y26.702
X12.235 Y26.701
X11.785 Y26.695
X11.634 Y26.676
X11.184 Y26.6
X9.831 Y26.355
X9.681 Y26.327
X9.23 Y26.227
X9.08 Y26.18
X7.277 Y25.504
X7.127 Y25.447
X6.971 Y25.38
X6.827 Y25.311
X6.526 Y25.134
X5.173 Y24.326
X5.024 Y24.233
X4.711 Y24.025
X4.573 Y23.914
X3.071 Y22.601
X2.98 Y22.52
X2.92 Y22.465
X2.839 Y22.369
X2.589 Y22.068
X2.466 Y21.917
X1.506 Y20.713
X1.394 Y20.563
X1.333 Y20.48
X1.281 Y20.262 Z9.59 F600
X1.458 Y20.052 Z9.7
X1.617 Y19.862
X3.221 Y17.951 F1000
X18.403 Y0.512
X18.566 Y0.325 F600
X18.695 Y0.177 Z9.621
X18.996 Y0.152 Z9.5
X19.897 Y0.586 F1000
X20.104 Y0.694
X20.198 Y0.743
X20.348 Y0.846
X20.498 Y0.953
X22.001 Y2.045
X22.197 Y2.199
X22.301 Y2.294
X22.502 Y2.5
X23.51 Y3.553
X23.932 Y4.005
X23.954 Y4.032
X24.042 Y4.156
X24.104 Y4.246
X25.038 Y5.661
X25.234 Y5.962
X25.306 Y6.076
X25.528 Y6.564
X25.757 Y7.098
X26.172 Y8.069
X26.235 Y8.22
X26.297 Y8.37
X26.358 Y8.588
X26.38 Y8.671
X26.826 Y10.628
X26.854 Y10.779
X26.88 Y10.929
X26.89 Y11.08
X26.898 Y11.23
X26.985 Y13.187
X26.979 Y13.338
X26.953 Y13.639
X26.938 Y13.789
X26.734 Y15.294
X26.671 Y15.746
X26.658 Y15.819
X26.64 Y15.896
X26.598 Y16.047
X26.207 Y17.251
X26.057 Y17.713
X26.011 Y17.853
X25.844 Y18.305
X25.773 Y18.455
X24.963 Y19.961
X24.799 Y20.262
X24.716 Y20.412
X24.555 Y20.638
X23.503 Y21.956
X23.161 Y22.369
X23.052 Y22.491
X23.022 Y22.52
X22.412 Y23.053
G3 X21.986 Y23.03 I-0.2 J-0.246 F600
G1 X21.958 Y22.984 Z9.505
X21.932 Y22.938 Z9.519
X21.907 Y22.896 Z9.542
X21.9 Y22.848 Z9.576
X21.894 Y22.807 Z9.619
X21.897 Y22.778 Z9.663
X21.9 Y22.756 Z9.712
X21.901 Y22.742 Z9.764
X21.902 Y22.738 Z9.817
G0 X12.078 Y13.189
Z9.8
G3 X12.707 Y11.771 Z9.738 I0.922 J-0.439 F600
X14.01 Y12.611 Z9.677 I0.292 J0.977
X12.979 Y13.767 Z9.615 I-1.01 J0.137
X11.998 Y12.572 Z9.554 I0.021 J-1.018
X13.329 Y11.787 Z9.492 I1.001 J0.177
X13.898 Y13.222 Z9.431 I-0.329 J0.961
X12.394 Y13.562 Z9.369 I-0.897 J-0.473
X12.29 Y12.025 Z9.308 I0.606 J-0.813
X13.823 Y12.16 Z9.246 I0.709 J0.723
X13.453 Y13.652 Z9.185 I-0.823 J0.588
X12.038 Y13.057 Z9.123 I-0.453 J-0.903
X12.843 Y11.752 Z9.062 I0.961 J-0.308
X14.007 Y12.748 Z9 I0.156 J0.996
X11.991 Y12.748 I-1.008 J0
X14.007 Y12.748 I1.008 J0
G1 X14.044 Y13.409 F1000
X14.043 Y13.492
X14.023 Y13.641
X13.973 Y13.782
X13.9 Y13.914
X13.808 Y14.032
X13.7 Y14.136
X13.58 Y14.226
X13.45 Y14.3
X13.311 Y14.358
X13.168 Y14.401
X13.02 Y14.428
X12.87 Y14.439
X12.72 Y14.435
X12.572 Y14.417
X12.425 Y14.384
X12.283 Y14.337
X12.145 Y14.277
X12.014 Y14.205
X11.889 Y14.121
X11.773 Y14.026
X11.666 Y13.922
X11.568 Y13.808
X11.48 Y13.686
X11.404 Y13.557
X11.339 Y13.422
X11.286 Y13.282
X11.245 Y13.137
X11.216 Y12.99
X11.2 Y12.841
X11.197 Y12.691
X11.207 Y12.541
X11.229 Y12.393
X11.263 Y12.247
X11.31 Y12.104
X11.368 Y11.966
X11.438 Y11.833
X11.518 Y11.707
X11.609 Y11.587
X11.709 Y11.476
X11.819 Y11.373
X11.936 Y11.28
X12.061 Y11.197
X12.192 Y11.124
X12.329 Y11.063
X12.471 Y11.013
X12.616 Y10.975
X12.764 Y10.949
X12.913 Y10.935
X13.063 Y10.934
X13.213 Y10.946
X13.361 Y10.969
X13.506 Y11.005
X13.649 Y11.053
X13.786 Y11.112
X13.919 Y11.183
X14.045 Y11.264
X14.164 Y11.355
X14.275 Y11.456
X14.377 Y11.566
X14.474 Y11.688
X14.581 Y11.849
X14.697 Y12.057
X14.797 Y12.278
X14.873 Y12.487
X14.926 Y12.682
X14.962 Y12.873
X14.98 Y13.049
X14.985 Y13.231
X14.976 Y13.398
X14.953 Y13.568
X14.917 Y13.732
X14.869 Y13.888
X14.807 Y14.046
X14.734 Y14.194
X14.65 Y14.335
X14.551 Y14.474
X14.442 Y14.604
X14.325 Y14.723
X14.193 Y14.837
X14.051 Y14.941
X13.902 Y15.033
X13.746 Y15.112
X13.578 Y15.181
X13.403 Y15.238
X13.223 Y15.28
X13.04 Y15.307
X12.853 Y15.32
X12.662 Y15.318
X12.469 Y15.301
X12.276 Y15.267
X12.085 Y15.218
X11.898 Y15.154
X11.716 Y15.074
X11.539 Y14.979
X11.368 Y14.868
X11.204 Y14.744
X11.051 Y14.605
X10.907 Y14.453
X10.776 Y14.29
X10.658 Y14.115
X10.554 Y13.932
X10.465 Y13.74
X10.391 Y13.54
X10.333 Y13.335
X10.292 Y13.125
X10.267 Y12.911
X10.26 Y12.696
X10.27 Y12.479
X10.298 Y12.264
X10.342 Y12.051
X10.404 Y11.841
X10.483 Y11.637
X10.578 Y11.44
X10.689 Y11.25
X10.815 Y11.07
X10.955 Y10.9
X11.108 Y10.742
X11.274 Y10.597
X11.451 Y10.465
X11.637 Y10.348
X11.833 Y10.246
X12.037 Y10.16
X12.247 Y10.091
X12.461 Y10.039
X12.68 Y10.004
X12.9 Y9.987
X13.121
X13.342 Y10.006
X13.56 Y10.042
X13.775 Y10.095
X13.985 Y10.165
X14.189 Y10.253
X14.387 Y10.357
X14.582 Y10.48
X14.778 Y10.628
X14.97 Y10.798
X15.151 Y10.988
X15.32 Y11.194
X15.473 Y11.416
X15.608 Y11.65
X15.723 Y11.892
X15.818 Y12.14
X15.891 Y12.392
X15.943 Y12.647
X15.974 Y12.902
X15.985 Y13.157
X15.975 Y13.41
X15.945 Y13.66
X15.896 Y13.907
X15.826 Y14.148
X15.738 Y14.382
X15.631 Y14.609
X15.506 Y14.827
X15.364 Y15.035
X15.205 Y15.231
X15.03 Y15.414
X14.84 Y15.584
X14.635 Y15.739
X14.417 Y15.878
X14.188 Y16
X13.949 Y16.103
X13.699 Y16.188
X13.442 Y16.253
X13.179 Y16.297
X12.911 Y16.32
X12.64 Y16.321
X12.368 Y16.301
X12.097 Y16.259
X11.829 Y16.194
X11.564 Y16.108
X11.305 Y16
X11.054 Y15.87
X10.813 Y15.72
X10.583 Y15.55
X10.367 Y15.361
X10.165 Y15.155
X9.98 Y14.932
X9.813 Y14.693
X9.665 Y14.442
X9.537 Y14.178
X9.43 Y13.904
X9.345 Y13.621
X9.283 Y13.332
X9.245 Y13.037
X9.23 Y12.74
X9.239 Y12.441
X9.272 Y12.144
X9.329 Y11.85
X9.41 Y11.56
X9.513 Y11.278
X9.639 Y11.004
X9.787 Y10.741
X9.956 Y10.49
X10.145 Y10.253
X10.352 Y10.032
X10.577 Y9.829
X10.817 Y9.644
X11.071 Y9.478
X11.338 Y9.334
X11.616 Y9.211
X11.903 Y9.111
X12.198 Y9.034
X12.497 Y8.981
X12.8 Y8.953
X13.105 Y8.949
X13.409 Y8.969
X13.71 Y9.013
X14.009 Y9.082
X14.306 Y9.177
X14.599 Y9.296
X14.887 Y9.442
X15.167 Y9.613
X15.436 Y9.809
X15.691 Y10.028
X15.931 Y10.269
X16.152 Y10.531
X16.352 Y10.811
X16.53 Y11.107
X16.683 Y11.416
X16.81 Y11.736
X16.912 Y12.065
X16.986 Y12.399
X17.033 Y12.737
X17.053 Y13.077
X17.046 Y13.416
X17.011 Y13.753
X16.949 Y14.086
X16.861 Y14.412
X16.748 Y14.731
X16.609 Y15.039
X16.445 Y15.335
X16.258 Y15.618
X16.048 Y15.886
X15.817 Y16.136
X15.566 Y16.368
X15.296 Y16.58
X15.008 Y16.77
X14.705 Y16.937
X14.388 Y17.08
X14.059 Y17.198
X13.72 Y17.289
X13.373 Y17.353
X13.02 Y17.39
X12.664 Y17.397
X12.306 Y17.377
X11.948 Y17.327
X11.594 Y17.248
X11.246 Y17.14
X10.905 Y17.005
X10.575 Y16.841
X10.258 Y16.651
X9.955 Y16.434
X9.67 Y16.194
X9.404 Y15.93
X9.159 Y15.644
X8.937 Y15.339
X8.739 Y15.016
X8.568 Y14.677
X8.424 Y14.324
X8.308 Y13.96
X8.222 Y13.587
X8.166 Y13.207
X8.14 Y12.823
X8.145 Y12.437
X8.182 Y12.053
X8.249 Y11.672
X8.347 Y11.296
X8.475 Y10.93
X8.632 Y10.574
X8.817 Y10.232
X9.029 Y9.905
X9.267 Y9.596
X9.53 Y9.307
X9.815 Y9.039
X10.12 Y8.796
X10.445 Y8.577
X10.786 Y8.385
X11.142 Y8.221
X11.509 Y8.086
X11.887 Y7.981
X12.272 Y7.907
X12.662 Y7.863
X13.055 Y7.851
X13.449 Y7.871
X13.842 Y7.923
X14.234 Y8.007
X14.621 Y8.123
X15.002 Y8.271
X15.373 Y8.451
X15.732 Y8.662
X16.075 Y8.903
X16.401 Y9.174
X16.706 Y9.471
X16.988 Y9.794
X17.243 Y10.139
X17.471 Y10.505
X17.668 Y10.888
X17.835 Y11.285
X17.968 Y11.695
X18.069 Y12.113
X18.135 Y12.538
X18.167 Y12.966
X18.165 Y13.395
X18.128 Y13.822
X18.057 Y14.245
X17.952 Y14.66
X17.815 Y15.066
X17.645 Y15.459
X17.444 Y15.839
X17.212 Y16.201
X16.952 Y16.544
X16.665 Y16.866
X16.352 Y17.164
X16.015 Y17.437
X15.656 Y17.683
X15.278 Y17.9
X14.881 Y18.087
X14.47 Y18.242
X14.046 Y18.364
X13.612 Y18.451
X13.17 Y18.504
X12.723 Y18.522
X12.275 Y18.503
X11.828 Y18.448
X11.385 Y18.357
X10.948 Y18.23
X10.521 Y18.068
X10.108 Y17.871
X9.709 Y17.641
X9.329 Y17.379
X8.97 Y17.086
X8.635 Y16.764
X8.326 Y16.416
X8.044 Y16.042
X7.793 Y15.646
X7.574 Y15.23
X7.389 Y14.796
X7.239 Y14.348
X7.124 Y13.889
X7.047 Y13.42
X7.008 Y12.947
X7.007 Y12.47
X7.044 Y11.994
X7.119 Y11.522
X7.232 Y11.057
X7.382 Y10.602
X7.569 Y10.16
X7.79 Y9.734
X8.046 Y9.327
X8.333 Y8.941
X8.651 Y8.579
X8.997 Y8.243
X9.369 Y7.937
X9.765 Y7.66
X10.181 Y7.417
X10.617 Y7.208
X11.067 Y7.034
X11.531 Y6.896
X12.004 Y6.797
X12.484 Y6.735
X12.97 Y6.713
X13.457 Y6.729
X13.944 Y6.785
X14.428 Y6.88
X14.906 Y7.015
X15.375 Y7.188
X15.832 Y7.401
X16.274 Y7.651
X16.697 Y7.938
X17.097 Y8.259
X17.473 Y8.614
X17.82 Y8.999
X18.136 Y9.411
X18.418 Y9.849
X18.665 Y10.309
X18.874 Y10.787
X19.045 Y11.28
X19.175 Y11.786
X19.264 Y12.3
X19.311 Y12.819
X19.317 Y13.34
X19.28 Y13.86
X19.203 Y14.375
X19.084 Y14.882
X18.924 Y15.379
X18.726 Y15.861
X18.489 Y16.326
X18.215 Y16.771
X17.906 Y17.193
X17.563 Y17.589
X17.189 Y17.958
X16.786 Y18.296
X16.356 Y18.602
X15.901 Y18.872
X15.425 Y19.106
X14.93 Y19.302
X14.42 Y19.458
X13.897 Y19.572
X13.364 Y19.645
X12.826 Y19.674
X12.285 Y19.661
X11.745 Y19.604
X11.209 Y19.503
X10.682 Y19.359
X10.165 Y19.172
X9.664 Y18.944
X9.181 Y18.676
X8.72 Y18.369
X8.284 Y18.025
X7.876 Y17.645
X7.498 Y17.233
X7.154 Y16.791
X6.845 Y16.322
X6.575 Y15.828
X6.345 Y15.313
X6.156 Y14.78
X6.01 Y14.233
X5.909 Y13.675
X5.852 Y13.109
X5.842 Y12.54
X5.877 Y11.971
X5.957 Y11.405
X6.083 Y10.848
X6.254 Y10.301
X6.468 Y9.77
X6.724 Y9.257
X7.021 Y8.765
X7.356 Y8.299
X7.728 Y7.861
X8.135 Y7.454
X8.572 Y7.08
X9.039 Y6.743
X9.532 Y6.444
X10.047 Y6.186
X10.581 Y5.97
X11.132 Y5.797
X11.695 Y5.668
X12.268 Y5.586
X12.847 Y5.549
X13.43 Y5.559
X14.012 Y5.616
X14.59 Y5.72
X15.162 Y5.871
X15.722 Y6.068
X16.268 Y6.311
X16.796 Y6.598
X17.301 Y6.929
X17.78 Y7.301
X18.23 Y7.712
X18.647 Y8.158
X19.027 Y8.639
X19.368 Y9.149
X19.668 Y9.685
X19.924 Y10.245
X20.134 Y10.823
X20.297 Y11.417
X20.412 Y12.021
X20.478 Y12.633
X20.495 Y13.249
X20.462 Y13.863
X20.38 Y14.473
X20.249 Y15.075
X20.071 Y15.664
X19.846 Y16.238
X19.575 Y16.792
X19.26 Y17.323
X18.903 Y17.827
X18.506 Y18.302
X18.072 Y18.745
X17.603 Y19.151
X17.101 Y19.52
X16.571 Y19.848
X16.014 Y20.133
X15.435 Y20.373
X14.837 Y20.566
X14.224 Y20.711
X13.599 Y20.807
X12.967 Y20.852
X12.331 Y20.846
X11.696 Y20.79
X11.066 Y20.682
X10.444 Y20.523
X9.836 Y20.314
X9.244 Y20.057
X8.673 Y19.752
X8.128 Y19.401
X7.611 Y19.007
X7.126 Y18.571
X6.676 Y18.097
X6.265 Y17.587
X5.896 Y17.044
X5.57 Y16.472
X5.291 Y15.875
X5.061 Y15.257
X4.88 Y14.62
X4.751 Y13.971
X4.675 Y13.313
X4.651 Y12.651
X4.68 Y11.989
X4.763 Y11.332
X4.897 Y10.683
X5.082 Y10.047
X5.318 Y9.428
X5.602 Y8.83
X5.933 Y8.256
X6.308 Y7.71
X6.726 Y7.196
X7.183 Y6.716
X7.676 Y6.274
X8.203 Y5.873
X8.76 Y5.515
X9.344 Y5.202
X9.951 Y4.936
X10.577 Y4.719
X11.218 Y4.552
X11.87 Y4.436
X12.53 Y4.373
X13.192 Y4.361
X13.853 Y4.401
X14.509 Y4.492
X15.156 Y4.635
X15.79 Y4.827
X16.407 Y5.067
X17.004 Y5.354
X17.578 Y5.685
X18.124 Y6.06
X18.641 Y6.474
X19.125 Y6.926
X19.574 Y7.413
X19.985 Y7.933
X20.356 Y8.482
X20.686 Y9.056
X20.97 Y9.654
X21.209 Y10.272
X21.4 Y10.907
X21.542 Y11.554
X21.636 Y12.209
X21.681 Y12.87
X21.677 Y13.533
X21.623 Y14.193
X21.52 Y14.847
X21.369 Y15.492
X21.17 Y16.124
X20.925 Y16.74
X20.635 Y17.335
X20.302 Y17.907
X19.926 Y18.453
X19.511 Y18.969
X19.057 Y19.452
X18.569 Y19.9
X18.049 Y20.31
X17.5 Y20.681
X16.925 Y21.01
X16.328 Y21.296
X15.711 Y21.538
X15.079 Y21.734
X14.433 Y21.884
X13.779 Y21.987
X13.119 Y22.042
X12.456 Y22.047
X11.795 Y22.003
X11.139 Y21.911
X10.492 Y21.772
X9.856 Y21.587
X9.234 Y21.357
X8.631 Y21.084
X8.048 Y20.769
X7.49 Y20.413
X6.958 Y20.018
X6.457 Y19.585
X5.988 Y19.117
X5.554 Y18.617
X5.156 Y18.087
X4.795 Y17.531
X4.475 Y16.952
X4.195 Y16.351
X3.958 Y15.733
X3.767 Y15.099
X3.621 Y14.452
X3.522 Y13.797
X3.468 Y13.137
X3.46 Y12.475
X3.497 Y11.813
X3.579 Y11.156
X3.707 Y10.506
X3.882 Y9.867
X4.102 Y9.242
X4.365 Y8.634
X4.669 Y8.046
X5.012 Y7.479
X5.394 Y6.938
X5.811 Y6.423
X6.264 Y5.94
X6.75 Y5.489
X7.266 Y5.075
X7.81 Y4.697
X8.379 Y4.357
X8.97 Y4.057
X9.579 Y3.798
X10.205 Y3.581
X10.844 Y3.408
X11.495 Y3.281
X12.152 Y3.2
X12.814 Y3.165
X13.476 Y3.175
X14.136 Y3.229
X14.791 Y3.328
X15.438 Y3.47
X16.074 Y3.656
X16.695 Y3.887
X17.299 Y4.159
X17.883 Y4.471
X18.445 Y4.821
X18.983 Y5.208
X19.495 Y5.629
X19.977 Y6.082
X20.43 Y6.566
X20.848 Y7.08
X21.23 Y7.621
X21.576 Y8.186
X21.884 Y8.773
X22.152 Y9.378
X22.38 Y10
X22.568 Y10.636
X22.713 Y11.282
X22.815 Y11.936
X22.872 Y12.596
X22.885 Y13.259
X22.854 Y13.92
X22.781 Y14.579
X22.665 Y15.231
X22.507 Y15.874
X22.308 Y16.506
X22.069 Y17.124
X21.788 Y17.724
X21.467 Y18.303
X21.109 Y18.861
X20.715 Y19.393
X20.287 Y19.899
X19.827 Y20.375
X19.337 Y20.821
X18.82 Y21.235
X18.276 Y21.612
X17.707 Y21.953
X17.118 Y22.256
X16.511 Y22.52
X15.888 Y22.745
X15.252 Y22.93
X14.605 Y23.074
X13.951 Y23.177
X13.291 Y23.237
X12.629 Y23.253
X11.967 Y23.224
X11.308 Y23.153
X10.656 Y23.041
X10.011 Y22.887
X9.378 Y22.693
X8.757 Y22.461
X8.153 Y22.19
X7.567 Y21.882
X7.002 Y21.536
X6.461 Y21.154
X5.945 Y20.738
X5.457 Y20.29
X4.997 Y19.813
X4.568 Y19.308
X4.171 Y18.778
X3.807 Y18.225
X3.478 Y17.65
X3.188 Y17.055
X2.935 Y16.442
X2.722 Y15.815
X2.548 Y15.176
X2.414 Y14.527
X2.32 Y13.871
X2.266 Y13.211
X2.252 Y12.549
X2.28 Y11.887
X2.35 Y11.228
X2.461 Y10.575
X2.613 Y9.93
X2.804 Y9.296
X3.034 Y8.675
X3.302 Y8.069
X3.605 Y7.48
X3.944 Y6.911
X4.317 Y6.364
X4.725 Y5.841
X5.164 Y5.345
X5.633 Y4.878
X6.13 Y4.44
X6.653 Y4.033
X7.199 Y3.659
X7.768 Y3.319
X8.355 Y3.013
X8.961 Y2.745
X9.582 Y2.515
X10.217 Y2.325
X10.862 Y2.174
X11.515 Y2.063
X12.174 Y1.992
X12.835 Y1.961
X13.498 Y1.969
X14.158 Y2.017
X14.815 Y2.106
X15.464 Y2.236
X16.105 Y2.404
X16.734 Y2.612
X17.349 Y2.857
X17.949 Y3.138
X18.531 Y3.454
X19.094 Y3.804
X19.635 Y4.186
X20.152 Y4.6
X20.644 Y5.044
X21.108 Y5.517
X21.543 Y6.016
X21.948 Y6.541
X22.321 Y7.088
X22.661 Y7.656
X22.968 Y8.243
X23.24 Y8.847
X23.476 Y9.466
X23.674 Y10.098
X23.834 Y10.741
X23.956 Y11.392
X24.039 Y12.049
X24.083 Y12.71
X24.088 Y13.373
X24.056 Y14.034
X23.985 Y14.693
X23.876 Y15.346
X23.728 Y15.992
X23.542 Y16.628
X23.319 Y17.252
X23.06 Y17.861
X22.765 Y18.454
X22.436 Y19.029
X22.075 Y19.584
X21.681 Y20.117
X21.258 Y20.627
X20.804 Y21.11
X20.323 Y21.565
X19.816 Y21.991
X19.285 Y22.386
X18.731 Y22.75
X18.157 Y23.081
X17.565 Y23.379
X17.492 Y23.417
X17.358 Y23.485
X17.223 Y23.551
X17.087 Y23.614
X16.95 Y23.675
X16.813 Y23.734
X16.674 Y23.791
X16.534 Y23.845
X16.393 Y23.897
X16.252 Y23.948
X16.11 Y23.996
X15.967 Y24.042
X15.823 Y24.085
X15.679 Y24.127
X15.535 Y24.167
X15.39 Y24.205
X15.244 Y24.24
X15.098 Y24.274
X14.951 Y24.305
X14.804 Y24.335
X14.657 Y24.363
X14.509 Y24.388
X14.361 Y24.411
X14.212 Y24.432
X14.063 Y24.452
X13.914 Y24.469
X13.765 Y24.485
X13.616 Y24.498
X13.466 Y24.509
X13.316 Y24.518
X13.167 Y24.525
X13.017 Y24.531
X12.867 Y24.534
X12.717 Y24.535
X12.567 Y24.534
X12.417 Y24.531
X12.267 Y24.526
X12.117 Y24.52
X11.967 Y24.511
X11.818 Y24.5
X11.668 Y24.488
X11.519 Y24.473
X11.37 Y24.457
X11.221 Y24.438
X11.072 Y24.418
X10.924 Y24.396
X10.776 Y24.372
X10.628 Y24.345
X10.481 Y24.317
X10.334 Y24.288
X10.187 Y24.256
X10.041 Y24.222
X9.895 Y24.187
X9.75 Y24.149
X9.605 Y24.111
X9.461 Y24.07
X9.317 Y24.027
X9.174 Y23.982
X9.031 Y23.936
X8.889 Y23.888
X8.748 Y23.838
X8.607 Y23.786
X8.467 Y23.732
X8.327 Y23.677
X8.189 Y23.62
X8.051 Y23.561
X7.914 Y23.5
X7.777 Y23.438
X7.642 Y23.373
X7.507 Y23.308
X7.373 Y23.24
X7.24 Y23.17
X7.108 Y23.099
X6.977 Y23.026
X6.847 Y22.952
X6.717 Y22.876
X6.589 Y22.798
X6.462 Y22.718
X6.336 Y22.637
X6.211 Y22.555
X6.087 Y22.47
X5.964 Y22.384
X5.842 Y22.296
X5.722 Y22.207
X5.602 Y22.117
X5.484 Y22.025
X5.366 Y21.931
X5.251 Y21.836
X5.136 Y21.739
X5.022 Y21.641
X4.91 Y21.542
X4.799 Y21.441
X4.689 Y21.338
X4.581 Y21.235
X4.474 Y21.13
X4.368 Y21.024
X4.264 Y20.916
X4.161 Y20.807
X4.059 Y20.696
X3.958 Y20.585
X3.86 Y20.472
X3.762 Y20.358
X3.666 Y20.243
X3.572 Y20.126
X3.478 Y20.009
X3.387 Y19.89
X3.297 Y19.77
X3.208 Y19.649
X3.121 Y19.527
X3.035 Y19.404
X2.951 Y19.28
X2.869 Y19.154
X2.789 Y19.028
X2.709 Y18.9
X2.632 Y18.772
X2.556 Y18.643
X2.482 Y18.512
X2.409 Y18.381
X2.338 Y18.249
X2.269 Y18.116
X2.202 Y17.982
X2.136 Y17.847
X2.072 Y17.711
X2.01 Y17.575
X1.949 Y17.438
X1.89 Y17.299
X1.833 Y17.161
X1.778 Y17.021
X1.724 Y16.881
X1.672 Y16.74
X1.623 Y16.599
X1.575 Y16.457
X1.528 Y16.314
X1.483 Y16.171
X1.44 Y16.027
X1.4 Y15.883
X1.361 Y15.738
X1.323 Y15.593
X1.288 Y15.447
X1.254 Y15.301
X1.222 Y15.154
X1.192 Y15.007
X1.164 Y14.86
X1.137 Y14.713
X1.113 Y14.565
X1.09 Y14.416
X1.069 Y14.268
X1.05 Y14.119
X1.033 Y13.97
X1.017 Y13.821
X1.004 Y13.671
X0.993 Y13.522
X0.983 Y13.372
X0.975 Y13.222
X0.969 Y13.072
X0.965 Y12.922
X0.963 Y12.772
Y12.622
X0.964 Y12.472
X0.967 Y12.323
X0.973 Y12.173
X0.98 Y12.023
X0.99 Y11.873
X1 Y11.723
X1.013 Y11.574
X1.028 Y11.425
X1.045 Y11.276
X1.064 Y11.127
X1.084 Y10.978
X1.106 Y10.83
X1.131 Y10.682
X1.157 Y10.534
X1.185 Y10.387
X1.215 Y10.24
X1.246 Y10.093
X1.28 Y9.947
X1.315 Y9.801
X1.352 Y9.656
X1.391 Y9.511
X1.432 Y9.367
X1.475 Y9.223
X1.519 Y9.08
X1.565 Y8.937
X1.613 Y8.795
X1.662 Y8.653
X1.714 Y8.512
X1.767 Y8.372
X1.822 Y8.232
X1.878 Y8.093
X1.937 Y7.955
X1.997 Y7.818
X2.058 Y7.681
X2.122 Y7.545
X2.186 Y7.41
X2.253 Y7.275
X2.322 Y7.142
X2.392 Y7.009
X2.464 Y6.878
X2.537 Y6.747
X2.612 Y6.617
X2.688 Y6.488
X2.767 Y6.36
X2.846 Y6.233
X2.928 Y6.107
X3.011 Y5.982
X3.095 Y5.858
X3.182 Y5.735
X3.269 Y5.613
X3.358 Y5.493
X3.449 Y5.373
X3.541 Y5.255
X3.635 Y5.138
X3.73 Y5.022
X3.826 Y4.907
X3.924 Y4.793
X4.024 Y4.681
X4.125 Y4.57
X4.227 Y4.46
X4.33 Y4.351
X4.435 Y4.244
X4.541 Y4.139
X4.649 Y4.034
X4.758 Y3.931
X4.868 Y3.829
X4.979 Y3.728
X5.092 Y3.629
X5.206 Y3.532
X5.321 Y3.435
X5.437 Y3.34
X5.554 Y3.247
X5.673 Y3.155
X5.793 Y3.065
X5.913 Y2.976
X6.035 Y2.888
X6.158 Y2.802
X6.282 Y2.718
X6.407 Y2.635
X6.533 Y2.553
X6.66 Y2.473
X6.788 Y2.395
X6.917 Y2.319
X7.047 Y2.244
X7.177 Y2.17
X7.309 Y2.098
X7.442 Y2.028
X7.575 Y1.96
X7.71 Y1.893
X7.845 Y1.828
X7.98 Y1.764
X8.117 Y1.703
X8.255 Y1.643
X8.393 Y1.585
X8.532 Y1.528
X8.672 Y1.473
X8.812 Y1.42
X8.953 Y1.369
X9.095 Y1.32
X9.237 Y1.272
X9.379 Y1.226
X9.523 Y1.182
X9.667 Y1.14
X9.811 Y1.099
X9.956 Y1.06
X10.101 Y1.023
X10.247 Y0.988
X10.394 Y0.955
X10.54 Y0.924
X10.687 Y0.894
X10.835 Y0.866
X10.982 Y0.84
X11.131 Y0.816
X11.279 Y0.794
X11.427 Y0.773
X11.576 Y0.754
X11.725 Y0.737
X11.875 Y0.722
X12.024 Y0.709
X12.173 Y0.697
X12.323 Y0.688
X12.473 Y0.68
X12.623 Y0.675
X12.773 Y0.67
X12.923 Y0.668
X13.073
X13.223 Y0.669
X13.373 Y0.673
X13.523 Y0.678
X13.673 Y0.685
X13.822 Y0.694
X13.972 Y0.704
X14.121 Y0.717
X14.271 Y0.732
X14.42 Y0.748
X14.569 Y0.766
X14.717 Y0.786
X14.866 Y0.808
X15.014 Y0.831
X15.162 Y0.857
X15.309 Y0.884
X15.456 Y0.913
X15.603 Y0.945
X15.749 Y0.977
X15.895 Y1.011
X16.041 Y1.048
X16.186 Y1.086
X16.33 Y1.126
X16.475 Y1.168
X16.618 Y1.211
X16.761 Y1.256
X16.904 Y1.304
X17.045 Y1.352
X17.187 Y1.403
X17.327 Y1.455
X17.467 Y1.509
X17.607 Y1.564
X17.745 Y1.622
X17.883 Y1.68
X18.021 Y1.741
X18.157 Y1.803
X18.293 Y1.867
X18.428 Y1.933
X18.562 Y2
X18.695 Y2.068
X18.828 Y2.139
X18.959 Y2.211
X19.09 Y2.284
X19.22 Y2.359
X19.349 Y2.435
X19.477 Y2.514
X19.604 Y2.593
X19.73 Y2.675
X20.256 Y3.078
X20.767 Y3.499
X21.261 Y3.941
X21.733 Y4.405
X22.182 Y4.892
X22.606 Y5.401
X23.003 Y5.931
X23.372 Y6.481
X23.712 Y7.05
X24.023 Y7.635
X24.301 Y8.236
X24.546 Y8.852
X24.757 Y9.48
X24.933 Y10.118
X25.076 Y10.765
X25.184 Y11.419
X25.258 Y12.077
X25.296 Y12.738
X25.301 Y13.401
X25.271 Y14.062
X25.207 Y14.722
X25.106 Y15.376
X24.97 Y16.025
X24.8 Y16.665
X24.596 Y17.295
X24.359 Y17.914
X24.09 Y18.519
X23.789 Y19.109
X23.458 Y19.683
X23.098 Y20.239
X22.709 Y20.775
X22.291 Y21.289
X21.846 Y21.78
X21.375 Y22.246
X20.881 Y22.686
X20.363 Y23.1
X19.825 Y23.486
X19.267 Y23.843
X18.694 Y24.176
X18.108 Y24.484
X17.507 Y24.763
X16.892 Y25.009
X16.264 Y25.22
X15.626 Y25.396
X14.978 Y25.537
X14.324 Y25.642
X13.666 Y25.712
X13.004 Y25.746
X12.342 Y25.745
X11.68 Y25.709
X11.021 Y25.639
X10.367 Y25.535
X9.719 Y25.397
X9.079 Y25.227
X8.449 Y25.024
X7.829 Y24.789
X7.223 Y24.522
X6.631 Y24.225
X6.055 Y23.898
X5.497 Y23.541
X4.958 Y23.156
X4.439 Y22.744
X3.942 Y22.307
X3.467 Y21.844
X3.017 Y21.359
X2.591 Y20.851
X2.192 Y20.323
X1.82 Y19.774
X1.648 Y19.491
X1.566 Y19.348
X1.241 Y18.77
X0.948 Y18.176
X0.915 Y18.1
X0.91 Y18.082 Z9.008 F600
X0.909 Y18.063 Z9.015
X0.933 Y17.603 Z9.2
X0.946 Y17.355
X1.347 Y9.577 F1000
X1.36 Y9.329 F600
X1.363 Y9.274 Z9.178
X1.372 Y9.239 Z9.163
X1.395 Y9.21 Z9.148
X1.427 Y9.192 Z9.133
X1.464 Y9.189 Z9.119
X1.499 Y9.2 Z9.104
X1.526 Y9.225 Z9.089
X1.541 Y9.258 Z9.074
X1.542 Y9.295 Z9.059
X1.529 Y9.329 Z9.044
X1.503 Y9.355 Z9.03
X1.469 Y9.368 Z9.015
X1.432 Y9.367 Z9
X1.352 Y9.344 F1000
X1.243 Y9.241
X1.159 Y9.117
X1.094 Y8.982
X1.044 Y8.841
X1.007 Y8.695
X0.982 Y8.547
X0.967 Y8.398
X0.962 Y8.248
X0.964 Y8.098
X0.973 Y7.948
X0.989 Y7.799
X1.011 Y7.651
X1.038 Y7.503
X1.071 Y7.357
X1.108 Y7.211
X1.149 Y7.067
X1.194 Y6.924
X1.243 Y6.782
X1.295 Y6.642
X1.351 Y6.502
X1.409 Y6.364
X1.47 Y6.227
X1.534 Y6.092
X1.601 Y5.957
X1.67 Y5.824
X1.741 Y5.692
X1.815 Y5.561
X1.89 Y5.432
X1.968 Y5.303
X2.048 Y5.176
X2.129 Y5.05
X2.213 Y4.926
X2.298 Y4.802
X2.385 Y4.68
X2.473 Y4.559
X2.563 Y4.439
X2.655 Y4.32
X2.748 Y4.203
X2.843 Y4.087
X2.939 Y3.972
X3.037 Y3.858
X3.136 Y3.745
X3.237 Y3.634
X3.338 Y3.524
X3.442 Y3.415
X3.546 Y3.307
X3.652 Y3.201
X3.759 Y3.096
X3.867 Y2.992
X3.977 Y2.889
X4.087 Y2.788
X4.199 Y2.688
X4.312 Y2.589
X4.426 Y2.492
X4.541 Y2.396
X4.658 Y2.301
X4.775 Y2.208
X4.893 Y2.116
X5.013 Y2.025
X5.133 Y1.936
X5.255 Y1.848
X5.377 Y1.761
X5.501 Y1.676
X5.625 Y1.592
X5.751 Y1.51
X5.877 Y1.429
X6.004 Y1.349
X6.132 Y1.271
X6.261 Y1.195
X6.391 Y1.12
X6.522 Y1.046
X6.653 Y0.974
X6.786 Y0.903
X6.915 Y0.995 Z9.064 F600
X6.853 Y1.329 Z9.2
X6.808 Y1.573
X6.19 Y4.908 F1000
X4.34 Y8.671
G3 X0.968 Y9.273 I-1.908 J-0.946
G1 X0.455 Y8.521
X0.244 Y7.908
X0.223 Y7.661 F600
X0.194 Y7.307 Z9.058
X0.193 Y7.259 Z9.038
X0.2 Y7.212 Z9.019
X0.214 Y7.166 Z9
X0.407 Y6.714 F1000
X0.472 Y6.564
X0.677 Y6.112
X0.766 Y5.962
X0.967 Y5.653
X1.957 Y4.156
X2.019 Y4.068
X2.068 Y4.005
X2.491 Y3.553
X3.521 Y2.475
X3.672 Y2.324
X3.799 Y2.199
X3.997 Y2.048
X4.122 Y1.955
X4.993 Y1.322
X5.04 Y1.296 F600
X5.091 Y1.278
X5.145 Y1.269
X5.411 Y1.247
X5.481 Y1.241 Z9.008
X5.548 Y1.235 Z9.031
X5.608 Y1.23 Z9.069
X5.658 Y1.226 Z9.12
X5.696 Y1.223 Z9.18
X5.719 Y1.221 Z9.247
X5.727 Y1.22 Z9.318
G0 Z20
X17.111 Y4.444
Z9.3
G3 X17.741 Y3.027 Z9.238 I0.922 J-0.439 F600
X19.043 Y3.867 Z9.177 I0.292 J0.977
X18.013 Y5.023 Z9.115 I-1.01 J0.137
X17.031 Y3.827 Z9.054 I0.021 J-1.018
X18.362 Y3.043 Z8.992 I1.001 J0.177
X18.931 Y4.478 Z8.931 I-0.329 J0.961
X17.427 Y4.818 Z8.869 I-0.897 J-0.473
X17.324 Y3.281 Z8.808 I0.606 J-0.813
X18.856 Y3.416 Z8.746 I0.709 J0.723
X18.487 Y4.908 Z8.685 I-0.823 J0.588
X17.071 Y4.313 Z8.623 I-0.453 J-0.903
X17.877 Y3.008 Z8.562 I0.961 J-0.308
X19.041 Y4.004 Z8.5 I0.156 J0.996
X17.024 Y4.004 I-1.008 J0
X19.041 Y4.004 I1.008 J0
G1 X19.077 Y4.665 F1000
X19.076 Y4.748
X19.056 Y4.897
X19.007 Y5.038
X18.934 Y5.169
X18.842 Y5.288
X18.734 Y5.392
X18.613 Y5.482
X18.483 Y5.556
X18.345 Y5.614
X18.201 Y5.657
X18.053 Y5.684
X17.904 Y5.695
X17.754 Y5.691
X17.605 Y5.673
X17.459 Y5.64
X17.316 Y5.593
X17.179 Y5.533
X17.047 Y5.461
X16.923 Y5.377
X16.806 Y5.282
X16.699 Y5.178
X16.601 Y5.064
X16.514 Y4.942
X16.437 Y4.813
X16.372 Y4.678
X16.319 Y4.537
X16.278 Y4.393
X16.25 Y4.246
X16.234 Y4.097
X16.231 Y3.947
X16.24 Y3.797
X16.262 Y3.649
X16.297 Y3.503
X16.343 Y3.36
X16.401 Y3.222
X16.471 Y3.089
X16.552 Y2.962
X16.642 Y2.843
X16.743 Y2.732
X16.852 Y2.629
X16.97 Y2.536
X17.094 Y2.452
X17.226 Y2.38
X17.363 Y2.319
X17.504 Y2.269
X17.649 Y2.231
X17.797 Y2.205
X17.946 Y2.191
X18.096 Y2.19
X18.246 Y2.202
X18.394 Y2.225
X18.54 Y2.261
X18.682 Y2.309
X18.82 Y2.368
X18.952 Y2.439
X19.078 Y2.52
X19.197 Y2.611
X19.308 Y2.712
X19.411 Y2.822
X19.507 Y2.944
X19.614 Y3.105
X19.73 Y3.313
X19.83 Y3.534
X19.906 Y3.743
X19.943 Y3.88
X19.97 Y4.073
X19.945 Y4.265
X19.871 Y4.445
X19.146 Y5.704
X19.065 Y5.83
X18.971 Y5.947
X18.865 Y6.054
X18.749 Y6.148
X18.624 Y6.231
X18.492 Y6.302
X18.354 Y6.361
X18.212 Y6.408
X18.066 Y6.444
X17.91 Y6.469
X17.746 Y6.482
X17.579
X17.411 Y6.468
X17.238 Y6.44
X17.063 Y6.396
X16.889 Y6.338
X16.718 Y6.265
X16.551 Y6.177
X16.39 Y6.075
X16.234 Y5.959
X16.086 Y5.827
X15.947 Y5.683
X15.818 Y5.525
X15.702 Y5.357
X15.673 Y5.306
X15.593 Y5.105
X15.574 Y4.888
X15.62 Y4.676
G3 X15.913 Y4.48 Z8.666 I0.293 J0.121 F600
G1 X15.953 Y4.482 Z8.686
X15.992 Y4.49 Z8.706
X16.035 Y4.501 Z8.729
X16.262 Y4.559 Z8.761
X16.276 Y4.563 Z8.763 F1000
X16.442 Z8.791
G2 X17.194 Y3.855 Z9.015 I0.021 J-0.731
G1 X17.19 Y2.5 Z9.2
X17.189 Y2.146
X17.188 Y1.861 F600
X17.187 Y1.403 Z9
X17.215 Y1.325 F1000
X17.324 Y1.223
X17.454 Y1.147
X17.593 Y1.091
X17.738 Y1.051
X17.885 Y1.024
X18.034 Y1.008
X18.184 Y1.003
X18.334 Y1.007
X18.484 Y1.019
X18.633 Y1.038
X18.78 Y1.064
X18.927 Y1.095
X19.072 Y1.132
X19.216 Y1.174
X19.359 Y1.221
X19.5 Y1.273
X19.639 Y1.329
X19.776 Y1.389
X19.912 Y1.453
X20.046 Y1.52
X20.179 Y1.59
X20.31 Y1.662
X20.44 Y1.737
X20.569 Y1.815
X20.695 Y1.895
X20.821 Y1.977
X20.946 Y2.06
X21.069 Y2.146
X21.191 Y2.233
X21.311 Y2.323
X21.43 Y2.414
X21.549 Y2.506
X21.666 Y2.6
X21.781 Y2.695
X21.895 Y2.793
X22.009 Y2.891
X22.121 Y2.991
X22.232 Y3.092
X22.341 Y3.194
X22.45 Y3.298
X22.557 Y3.403
X22.663 Y3.509
X22.768 Y3.616
X22.871 Y3.725
X22.974 Y3.834
X23.075 Y3.945
X23.175 Y4.057
X23.273 Y4.17
X23.371 Y4.284
X23.467 Y4.399
X23.561 Y4.516
X23.655 Y4.633
X23.747 Y4.751
X23.838 Y4.87
X23.928 Y4.991
X24.016 Y5.112
X24.104 Y5.234
X24.189 Y5.357
X24.273 Y5.481
X24.356 Y5.606
X24.438 Y5.732
X24.519 Y5.858
X24.598 Y5.986
X24.675 Y6.114
X24.751 Y6.244
X24.826 Y6.374
X24.899 Y6.504
X24.971 Y6.636
X25.042 Y6.769
X25.11 Y6.902
X25.178 Y7.036
X25.244 Y7.17
X25.309 Y7.306
X25.371 Y7.442
X25.433 Y7.579
X25.493 Y7.716
X25.552 Y7.854
X25.608 Y7.993
X25.664 Y8.133
X25.717 Y8.273
X25.77 Y8.413
X25.821 Y8.554
X25.87 Y8.696
X25.917 Y8.838
X25.963 Y8.981
X26.008 Y9.124
X26.051 Y9.268
X26.092 Y9.412
X26.132 Y9.557
X26.17 Y9.702
X26.207 Y9.847
X26.242 Y9.993
X26.275 Y10.14
X26.306 Y10.286
X26.337 Y10.433
X26.366 Y10.58
X26.393 Y10.728
X26.418 Y10.876
X26.441 Y11.024
X26.464 Y11.172
X26.484 Y11.321
X26.503 Y11.47
X26.521 Y11.619
X26.536 Y11.768
X26.55 Y11.917
X26.563 Y12.067
X26.574 Y12.216
X26.583 Y12.366
X26.591 Y12.516
X26.597 Y12.666
X26.602 Y12.815
X26.605 Y12.965
X26.606 Y13.115
X26.605 Y13.265
X26.604 Y13.415
X26.6 Y13.565
X26.595 Y13.715
X26.588 Y13.865
X26.579 Y14.015
X26.569 Y14.165
X26.558 Y14.314
X26.544 Y14.464
X26.529 Y14.613
X26.512 Y14.762
X26.494 Y14.911
X26.474 Y15.059
X26.453 Y15.208
X26.429 Y15.356
X26.404 Y15.504
X26.378 Y15.652
X26.35 Y15.799
X26.32 Y15.946
X26.289 Y16.093
X26.256 Y16.239
X26.222 Y16.385
X26.186 Y16.531
X26.148 Y16.676
X26.109 Y16.821
X26.068 Y16.965
X26.026 Y17.109
X25.982 Y17.252
X25.936 Y17.395
X25.889 Y17.538
X25.84 Y17.679
X25.79 Y17.821
X25.739 Y17.962
X25.685 Y18.102
X25.631 Y18.242
X25.574 Y18.381
X25.517 Y18.519
X25.458 Y18.657
X25.397 Y18.794
X25.335 Y18.931
X25.271 Y19.066
X25.206 Y19.202
X25.14 Y19.336
X25.071 Y19.47
X25.002 Y19.603
X24.931 Y19.735
X24.859 Y19.866
X24.785 Y19.997
X24.71 Y20.127
X24.634 Y20.256
X24.556 Y20.384
X24.477 Y20.512
X24.396 Y20.638
X24.314 Y20.764
X24.231 Y20.888
X24.146 Y21.012
X24.06 Y21.135
X23.973 Y21.257
X23.884 Y21.378
X23.794 Y21.498
X23.703 Y21.617
X23.61 Y21.735
X23.516 Y21.852
X23.421 Y21.968
X23.324 Y22.082
X23.227 Y22.196
X23.128 Y22.309
X23.027 Y22.42
X22.926 Y22.531
X22.823 Y22.64
X22.719 Y22.749
X22.614 Y22.856
X22.508 Y22.961
X22.422 Y23.044
X22.412 Y23.053
X22.334 Y23.122
X21.294 Y23.943
X20.759 Y24.333
X20.278 Y24.654
X20.267 Y24.66
G3 X19.836 Y24.536 Z9.2 I-0.153 J-0.278 F600
G1 X19.812 Y24.479
X19.799 Y24.418
X19.798 Y24.356
X19.809 Y24.295
X19.835 Y24.231 F1000
X19.874 Y24.175
X19.924 Y24.128
X21.927 Y22.635
X21.973 Y22.607
X22.022 Y22.587
X22.075 Y22.575
X22.128 Y22.573
X22.19 Y22.581 F600
X22.248 Y22.601
X22.302 Y22.632
X22.349 Y22.673
G3 X22.334 Y23.122 Z9 I-0.232 J0.217
G1 X21.4 Y23.938 F1000
X21.289 Y24.025
X21.066 Y24.175
X20.949 Y24.253
X19.296 Y25.24
X19.146 Y25.324
X18.996 Y25.394
X18.846 Y25.458
X16.893 Y26.191
X16.742 Y26.235
X16.592 Y26.277
X14.789 Y26.605
X14.339 Y26.684
X14.188 Y26.692
X13.888 Y26.699
X13.738 Y26.702
X12.235 Y26.701
X11.785 Y26.695
X11.634 Y26.676
X11.184 Y26.6
X9.831 Y26.355
X9.681 Y26.327
X9.23 Y26.227
X9.08 Y26.18
X7.277 Y25.504
X7.127 Y25.447
X6.971 Y25.38
X6.827 Y25.311
X6.526 Y25.134
X5.173 Y24.326
X5.024 Y24.233
X4.711 Y24.025
X4.573 Y23.914
X3.071 Y22.601
X2.98 Y22.52
X2.92 Y22.465
X2.839 Y22.369
X2.589 Y22.068
X2.466 Y21.917
X1.506 Y20.713
X1.394 Y20.563
X1.333 Y20.48
X1.281 Y20.262 Z9.09 F600
X1.458 Y20.052 Z9.2
X1.617 Y19.862
X3.221 Y17.951 F1000
X18.403 Y0.512
X18.566 Y0.325 F600
X18.695 Y0.177 Z9.121
X18.996 Y0.152 Z9
X19.897 Y0.586 F1000
X20.104 Y0.694
X20.198 Y0.743
X20.348 Y0.846
X20.498 Y0.953
X22.001 Y2.045
X22.197 Y2.199
X22.301 Y2.294
X22.502 Y2.5
X23.51 Y3.553
X23.932 Y4.005
X23.954 Y4.032
X24.042 Y4.156
X24.104 Y4.246
X25.038 Y5.661
X25.234 Y5.962
X25.306 Y6.076
X25.528 Y6.564
X25.757 Y7.098
X26.172 Y8.069
X26.235 Y8.22
X26.297 Y8.37
X26.358 Y8.588
X26.38 Y8.671
X26.826 Y10.628
X26.854 Y10.779
X26.88 Y10.929
X26.89 Y11.08
X26.898 Y11.23
X26.985 Y13.187
X26.979 Y13.338
X26.953 Y13.639
X26.938 Y13.789
X26.734 Y15.294
X26.671 Y15.746
X26.658 Y15.819
X26.64 Y15.896
X26.598 Y16.047
X26.207 Y17.251
X26.057 Y17.713
X26.011 Y17.853
X25.844 Y18.305
X25.773 Y18.455
X24.963 Y19.961
X24.799 Y20.262
X24.716 Y20.412
X24.555 Y20.638
X23.503 Y21.956
X23.161 Y22.369
X23.052 Y22.491
X23.022 Y22.52
X22.412 Y23.053
G3 X21.986 Y23.03 I-0.2 J-0.246 F600
G1 X21.958 Y22.984 Z9.005
X21.932 Y22.938 Z9.019
X21.907 Y22.896 Z9.042
X21.9 Y22.848 Z9.076
X21.894 Y22.807 Z9.119
X21.897 Y22.778 Z9.163
X21.9 Y22.756 Z9.212
X21.901 Y22.742 Z9.264
X21.902 Y22.738 Z9.317
G0 X12.081 Y13.19
Z9.3
G3 X12.711 Y11.772 Z9.238 I0.922 J-0.439 F600
X14.013 Y12.612 Z9.177 I0.292 J0.977
X12.983 Y13.768 Z9.115 I-1.01 J0.137
X12.001 Y12.573 Z9.054 I0.021 J-1.018
X13.332 Y11.789 Z8.992 I1.001 J0.177
X13.901 Y13.223 Z8.931 I-0.329 J0.961
X12.397 Y13.563 Z8.869 I-0.897 J-0.473
X12.293 Y12.027 Z8.808 I0.606 J-0.813
X13.826 Y12.161 Z8.746 I0.709 J0.723
X13.457 Y13.653 Z8.685 I-0.823 J0.588
X12.041 Y13.059 Z8.623 I-0.453 J-0.903
X12.846 Y11.753 Z8.562 I0.961 J-0.308
X14.01 Y12.75 Z8.5 I0.156 J0.996
X11.994 Y12.75 I-1.008 J0
X14.01 Y12.75 I1.008 J0
G1 X14.047 Y13.411 F1000
X14.046 Y13.494
X14.026 Y13.642
X13.976 Y13.784
X13.903 Y13.915
X13.811 Y14.033
X13.704 Y14.138
X13.583 Y14.227
X13.453 Y14.301
X13.315 Y14.36
X13.171 Y14.402
X13.023 Y14.429
X12.874 Y14.441
X12.724 Y14.437
X12.575 Y14.418
X12.428 Y14.385
X12.286 Y14.338
X12.148 Y14.279
X12.017 Y14.206
X11.892 Y14.123
X11.776 Y14.028
X11.669 Y13.923
X11.571 Y13.809
X11.484 Y13.687
X11.407 Y13.558
X11.342 Y13.423
X11.289 Y13.283
X11.248 Y13.139
X11.219 Y12.991
X11.204 Y12.842
X11.2 Y12.692
X11.21 Y12.543
X11.232 Y12.394
X11.266 Y12.248
X11.313 Y12.106
X11.371 Y11.967
X11.441 Y11.835
X11.521 Y11.708
X11.612 Y11.589
X11.713 Y11.477
X11.822 Y11.374
X11.939 Y11.281
X12.064 Y11.198
X12.196 Y11.125
X12.332 Y11.064
X12.474 Y11.014
X12.619 Y10.976
X12.767 Y10.95
X12.916 Y10.937
X13.066 Y10.936
X13.216 Y10.947
X13.364 Y10.971
X13.509 Y11.007
X13.652 Y11.054
X13.789 Y11.114
X13.922 Y11.184
X14.048 Y11.265
X14.167 Y11.357
X14.278 Y11.458
X14.38 Y11.567
X14.477 Y11.69
X14.584 Y11.85
X14.7 Y12.059
X14.8 Y12.279
X14.876 Y12.488
X14.929 Y12.684
X14.965 Y12.874
X14.984 Y13.051
X14.988 Y13.232
X14.979 Y13.399
X14.956 Y13.569
X14.92 Y13.734
X14.872 Y13.889
X14.81 Y14.047
X14.737 Y14.196
X14.653 Y14.337
X14.554 Y14.476
X14.445 Y14.605
X14.328 Y14.725
X14.197 Y14.838
X14.054 Y14.942
X13.905 Y15.034
X13.749 Y15.114
X13.582 Y15.183
X13.406 Y15.239
X13.226 Y15.281
X13.043 Y15.309
X12.856 Y15.322
X12.665 Y15.32
X12.472 Y15.302
X12.279 Y15.269
X12.088 Y15.22
X11.901 Y15.155
X11.719 Y15.075
X11.542 Y14.98
X11.371 Y14.87
X11.208 Y14.745
X11.054 Y14.606
X10.911 Y14.455
X10.779 Y14.291
X10.661 Y14.117
X10.557 Y13.933
X10.468 Y13.741
X10.394 Y13.542
X10.336 Y13.336
X10.295 Y13.126
X10.27 Y12.913
X10.263 Y12.697
X10.273 Y12.481
X10.301 Y12.265
X10.346 Y12.052
X10.408 Y11.843
X10.486 Y11.639
X10.581 Y11.441
X10.692 Y11.252
X10.818 Y11.072
X10.958 Y10.902
X11.111 Y10.744
X11.277 Y10.598
X11.454 Y10.466
X11.641 Y10.349
X11.836 Y10.247
X12.04 Y10.162
X12.25 Y10.092
X12.465 Y10.04
X12.683 Y10.005
X12.903 Y9.988
X13.125 Y9.989
X13.345 Y10.007
X13.564 Y10.043
X13.778 Y10.096
X13.988 Y10.167
X14.192 Y10.254
X14.39 Y10.358
X14.585 Y10.482
X14.781 Y10.629
X14.973 Y10.8
X15.155 Y10.989
X15.323 Y11.196
X15.477 Y11.418
X15.611 Y11.651
X15.726 Y11.893
X15.821 Y12.141
X15.894 Y12.393
X15.946 Y12.648
X15.978 Y12.903
X15.988 Y13.158
X15.978 Y13.412
X15.949 Y13.662
X15.899 Y13.908
X15.829 Y14.15
X15.741 Y14.384
X15.635 Y14.61
X15.509 Y14.828
X15.367 Y15.036
X15.208 Y15.232
X15.033 Y15.416
X14.843 Y15.586
X14.638 Y15.741
X14.421 Y15.88
X14.191 Y16.001
X14.052 Y16.062
X13.95 Y16.098
X13.845 Y16.121
X13.738 Y16.131
X13.287 Y16.143
X12.836 Y16.147
X12.686 Y16.139
X12.235 Y16.077
X12.085 Y16.062
X11.934 Y16.048
X11.725 Y16.01
X11.512 Y15.954
X11.299 Y15.879
X11.086 Y15.784
X11.032 Y15.755
X10.91 Y15.672
X10.807 Y15.566
X10.727 Y15.442
G3 X10.821 Y15.056 I0.288 J-0.135 F600
G1 X10.88 Y15.02 Z8.508
X10.928 Y15.009 Z8.523
X10.974 Y14.999 Z8.547
X11.015 Y14.99 Z8.578
X11.06 Y14.997 Z8.628
X11.094 Y15.003 Z8.686
X11.114 Y15.007 Z8.75
X11.122 Y15.008 Z8.817
G0 Z20
X-0.017 Y13.207
Z9.3
G3 X0.613 Y11.789 Z9.238 I0.922 J-0.439 F600
X1.915 Y12.629 Z9.177 I0.292 J0.977
X0.885 Y13.785 Z9.115 I-1.01 J0.137
X-0.097 Y12.59 Z9.054 I0.021 J-1.018
X1.234 Y11.805 Z8.992 I1.001 J0.177
X1.803 Y13.24 Z8.931 I-0.329 J0.961
X0.299 Y13.58 Z8.869 I-0.897 J-0.473
X0.195 Y12.044 Z8.808 I0.606 J-0.813
X1.728 Y12.178 Z8.746 I0.709 J0.723
X1.359 Y13.67 Z8.685 I-0.823 J0.588
X-0.057 Y13.075 Z8.623 I-0.453 J-0.903
X0.749 Y11.77 Z8.562 I0.961 J-0.308
X1.912 Y12.766 Z8.5 I0.156 J0.996
X-0.104 Y12.766 I-1.008 J0
X1.912 Y12.766 I1.008 J0
G1 X1.949 Y13.428 F1000
X1.948 Y13.51
X1.928 Y13.659
X1.878 Y13.801
X1.805 Y13.932
X1.713 Y14.05
X1.606 Y14.155
X1.485 Y14.244
X1.355 Y14.318
X1.05 Y14.447
X0.788 Y14.65
X0.676 Y14.781
X0.636 Y14.824
X0.592 Y14.864
X0.545 Y14.901
X0.517 Y14.921
X0.421 Y14.993
X0.366 Y15.043
X0.269 Y15.144
X0.216 Y15.207
X0.154 Y15.294
X0.066 Y15.423
X0.054 Y15.445
X-0.019 Y15.595
X-0.084 Y15.75
X-0.098 Y15.773
X-0.115 Y15.796
X-0.135 Y15.82
X-0.159 Y15.843
X-0.197 Y15.87
X-0.235 Y15.891
X-0.249 Y15.896
X-0.283 Y15.908
X-0.317 Y15.915
G3 X-0.654 Y15.619 Z8.7 I-0.02 J-0.317 F600
G1 Y15.618
X-0.67 Y15.371
X-0.867 Y12.381 F1000
X-0.883 Y12.134 F600
X-0.916 Y11.636 Z8.5
X-0.898 Y11.23 F1000
X-0.89 Y11.08
X-0.88 Y10.929
X-0.836 Y10.671
X-0.685 Y10.011
X-0.65 Y9.876
X-0.635 Y9.847
X-0.098 Y10.078
X0.019 Y10.141
X0.123 Y10.225
X0.21 Y10.325
G3 X0.078 Y10.739 Z8.7 I-0.231 J0.154 F600
G1 X0.03 Y10.753
X-0.021 Y10.757
X-0.071 Y10.752
X-0.164 Y10.729
G3 X-0.445 Y10.56 I0.226 J-0.693 F1000
G1 X-0.501 Y10.499 F600
X-0.55 Y10.433
X-0.591 Y10.361
G3 X-0.65 Y9.876 Z8.5 I0.652 J-0.325
G1 X-0.633 Y9.839 F1000
X-0.61 Y9.802
X-0.593 Y9.781
X-0.572 Y9.759
X-0.53 Y9.725
X-0.494 Y9.704
X-0.457 Y9.689
X-0.421 Y9.679
X-0.385 Y9.673
X-0.347 Y9.671
X-0.31 Y9.674
X-0.272 Y9.682
X-0.235 Y9.694
X-0.206 Y9.708
X-0.177 Y9.725
X-0.149 Y9.746
X-0.121 Y9.773
X-0.101 Y9.796
X-0.084 Y9.82
X-0.069 Y9.848
X0.011 Y10.026
X0.066 Y10.119
X0.103 Y10.177
X0.211 Y10.327
X0.366 Y10.5
X0.517 Y10.618
X0.667 Y10.721
X0.817 Y10.798
X0.967 Y10.86
X1.118 Y10.904
X1.239 Y10.929
X1.385 Y10.963
X1.534 Y11.015
X1.676 Y11.078
X1.812 Y11.152
X1.94 Y11.236
X2.061 Y11.33
X2.174 Y11.432
X2.277 Y11.543
X2.374 Y11.665
X2.481 Y11.825
X2.597 Y12.032
X2.702 Y12.262
X2.779 Y12.475
X2.835 Y12.678
X2.872 Y12.87
X2.892 Y13.051
X2.897 Y13.234
X2.888 Y13.403
X2.865 Y13.575
X2.829 Y13.74
X2.781 Y13.897
X2.719 Y14.056
X2.646 Y14.205
X2.641 Y14.214
X2.523 Y14.365
X2.371 Y14.48
X2.194 Y14.553
X2.004 Y14.578
X1.869
X1.719 Y14.579
X1.486 Y14.589
G3 X1.167 Y14.302 Z8.689 I-0.002 J-0.317 F600
G1 X1.165 Y14.274 Z8.7
X1.141 Y14.027
X0.895 Y11.446 F1000
X0.878 Y11.274 F600
X0.877 Y11.236
X0.88 Y11.198
G3 X1.239 Y10.929 Z8.5 I0.314 J0.045
G1 X1.268 Y10.934 F1000
X1.719 Y10.952
X1.869 Y10.953
X2.102
X2.251 Y10.96
X2.398 Y10.994
X2.538 Y11.045
X2.673 Y11.112
X2.801 Y11.19
X2.928 Y11.283
X3.055 Y11.393
X3.177 Y11.517
X3.297 Y11.661
X3.411 Y11.821
X3.515 Y11.996
X3.606 Y12.183
X3.684 Y12.38
X3.747 Y12.588
X3.794 Y12.805
X3.824 Y13.028
X3.837 Y13.257
X3.831 Y13.486
X3.81 Y13.681
X3.772 Y13.882
X3.725 Y14.051
X3.712 Y14.088
X3.604 Y14.286
X3.441 Y14.442
X3.239 Y14.542
X3.016 Y14.576
X2.004 Y14.578
G3 X1.698 Y14.25 Z8.7 I0.011 J-0.317 F600
G1 X1.706 Y14.002
X1.787 Y11.529 F1000
X1.795 Y11.281 F600
X1.796 Y11.26 Z8.691
G3 X2.102 Y10.953 Z8.5 I0.317 J0.01
G1 X3.003 Y10.951 F1000
X3.153 Y10.959
X3.3 Y10.988
X3.442 Y11.036
X3.579 Y11.098
X3.708 Y11.173
X3.831 Y11.259
X3.958 Y11.365
X4.08 Y11.484
X4.2 Y11.622
X4.319 Y11.782
X4.429 Y11.959
X4.527 Y12.151
X4.616 Y12.363
X4.689 Y12.589
X4.746 Y12.827
X4.784 Y13.07
X4.8 Y13.287
X4.799 Y13.499
X4.781 Y13.7
X4.753 Y13.867
X4.709 Y14.042
X4.699 Y14.073
X4.592 Y14.276
X4.429 Y14.436
X4.224 Y14.539
X3.998 Y14.575
X3.016 Y14.576
G3 X2.71 Y14.26 Z8.695 I0.011 J-0.317 F600
G1 X2.709 Y14.249 Z8.7
X2.708 Y14
X2.698 Y11.528 F1000
X2.697 Y11.28 F600
Y11.27 Z8.696
G3 X3.003 Y10.951 Z8.5 I0.317 J-0.001
G1 X3.905 Y10.95 F1000
X4.054 Y10.957
X4.202 Y10.982
X4.346 Y11.026
X4.484 Y11.085
X4.615 Y11.158
X4.74 Y11.241
X4.87 Y11.345
X4.995 Y11.462
X5.121 Y11.601
X5.247 Y11.763
X5.362 Y11.939
X5.467 Y12.134
X5.561 Y12.346
X5.64 Y12.573
X5.701 Y12.806
X5.744 Y13.047
X5.764 Y13.259
X5.767 Y13.469
X5.754 Y13.669
X5.741 Y13.759
X5.673 Y13.977
X5.543 Y14.164
X5.361 Y14.302
G3 X4.936 Y14.16 Z8.7 I-0.142 J-0.284 F600
G1 X4.933 Y14.154
X4.829 Y13.936
X3.68 Y11.511 F1000
X3.629 Y11.403 F600
X3.608 Y11.343
X3.599 Y11.279
G3 X3.905 Y10.95 Z8.5 I0.317 J-0.011
G1 X4.122 F1000
X4.273 Y10.951
X4.723 Y11.012
X4.874 Y11.035
X5.024 Y11.06
X5.058 Y11.068
X5.092 Y11.08
X5.174 Y11.12
X5.55 Y11.323
X5.587 Y11.347
X5.627 Y11.381
X6.044 Y11.832
X6.184 Y11.999
X6.285 Y12.141
X6.382 Y12.305
X6.469 Y12.482
X6.511 Y12.588
X6.56 Y12.803
X6.544 Y13.024
X6.464 Y13.23
X6.326 Y13.402
G3 X5.879 Y13.371 Z8.7 I-0.208 J-0.24 F600
G1 X5.85 Y13.333
X5.828 Y13.29
X5.812 Y13.245
X5.784 Y13.144
X5.513 Y12.139 F1000
X5.504 Y12.097
X5.502 Y12.054
X5.508 Y11.992 F600
X5.526 Y11.933
X5.556 Y11.878
X5.596 Y11.831
G3 X6.044 Y11.832 Z8.5 I0.224 J0.225
G1 X6.184 Y11.983 F1000
X6.226 Y12.024
X6.376 Y12.161
X6.526 Y12.288
X6.72 Y12.434
X6.752 Y12.457
X6.793 Y12.485
X6.814 Y12.501
X6.844 Y12.527
X6.872 Y12.555
X6.897 Y12.585
G3 X6.847 Y12.941 Z8.654 I-0.274 J0.143 F600
G1 X6.804 Y12.979 Z8.677
X6.754 Y13.007 Z8.7
X6.695 Y13.026
X6.634 Y13.033
X6.572 Y13.027
X6.513 Y13.009
X6.461 Y12.98 F1000
X6.416 Y12.941
X6.38 Y12.894
X6.353 Y12.841
X6.337 Y12.781 F600
X6.334 Y12.719
X6.344 Y12.658
X6.366 Y12.6
G3 X6.793 Y12.485 Z8.5 I0.265 J0.135
G1 X6.827 Y12.509 F1000
X6.847 Y12.526
X6.868 Y12.547
X6.897 Y12.585
X6.919 Y12.623
X6.934 Y12.66
X6.944 Y12.698
X6.949 Y12.735
X6.95 Y12.773
X6.946 Y12.811
X6.937 Y12.848
X6.924 Y12.886
X6.908 Y12.917
X6.888 Y12.949
X6.861 Y12.98
X6.827 Y13.011
X6.676 Y13.109
X6.572 Y13.187
X6.526 Y13.226
X6.376 Y13.356
X6.234 Y13.488
X5.925 Y13.819
X5.625 Y14.145
X5.587 Y14.176
X5.55 Y14.2
X5.174 Y14.404
X5.099 Y14.442
X5.061 Y14.454
X5.024 Y14.463
X4.558 Y14.542
X4.273 Y14.574
X3.998 Y14.575
G3 X3.692 Y14.278 I0.011 J-0.317 F600
G1 X3.691 Y14.258 Z8.501
X3.705 Y14.204 Z8.509
X3.718 Y14.153 Z8.528
X3.73 Y14.106 Z8.555
X3.761 Y14.071 Z8.594
X3.786 Y14.041 Z8.642
X3.805 Y14.02 Z8.697
X3.817 Y14.006 Z8.756
X3.821 Y14.002 Z8.817
G0 Z20
X-0.018 Y13.207
Z8.8
G3 X0.612 Y11.789 Z8.738 I0.922 J-0.439 F600
X1.914 Y12.629 Z8.677 I0.292 J0.977
X0.884 Y13.785 Z8.615 I-1.01 J0.137
X-0.098 Y12.59 Z8.554 I0.021 J-1.018
X1.234 Y11.805 Z8.492 I1.001 J0.177
X1.802 Y13.24 Z8.431 I-0.329 J0.961
X0.299 Y13.58 Z8.369 I-0.897 J-0.473
X0.195 Y12.043 Z8.308 I0.606 J-0.813
X1.728 Y12.178 Z8.246 I0.709 J0.723
X1.358 Y13.67 Z8.185 I-0.823 J0.588
X-0.057 Y13.075 Z8.123 I-0.453 J-0.903
X0.748 Y11.77 Z8.062 I0.961 J-0.308
X1.912 Y12.766 Z8 I0.156 J0.996
X-0.104 Y12.766 I-1.008 J0
X1.912 Y12.766 I1.008 J0
G1 X1.949 Y13.428 F1000
X1.948 Y13.51
X1.927 Y13.659
X1.878 Y13.801
X1.805 Y13.932
X1.713 Y14.05
X1.605 Y14.154
X1.485 Y14.244
X1.354 Y14.318
X1.049 Y14.447
X0.788 Y14.65
X0.675 Y14.781
X0.635 Y14.825
X0.591 Y14.865
X0.544 Y14.901
X0.517 Y14.921
X0.421 Y14.993
X0.366 Y15.043
X0.269 Y15.144
X0.216 Y15.207
X0.154 Y15.294
X0.066 Y15.423
X0.054 Y15.445
X-0.019 Y15.595
X-0.084 Y15.75
X-0.098 Y15.773
X-0.115 Y15.796
X-0.135 Y15.82
X-0.159 Y15.843
X-0.197 Y15.87
X-0.235 Y15.891
X-0.249 Y15.896
X-0.283 Y15.908
X-0.317 Y15.915
G3 X-0.654 Y15.619 Z8.2 I-0.02 J-0.317 F600
G1 Y15.618
X-0.67 Y15.371
X-0.867 Y12.381 F1000
X-0.883 Y12.134 F600
X-0.916 Y11.636 Z8
X-0.898 Y11.23 F1000
X-0.89 Y11.08
X-0.88 Y10.929
X-0.836 Y10.671
X-0.685 Y10.011
X-0.65 Y9.876
X-0.635 Y9.847
X-0.098 Y10.078
X0.019 Y10.141
X0.123 Y10.225
X0.21 Y10.325
G3 X0.078 Y10.739 Z8.2 I-0.231 J0.154 F600
G1 X0.029 Y10.752
X-0.021 Y10.757
X-0.071 Y10.752
X-0.164 Y10.729
G3 X-0.445 Y10.56 I0.226 J-0.693 F1000
G1 X-0.501 Y10.499 F600
X-0.55 Y10.433
X-0.591 Y10.361
G3 X-0.65 Y9.876 Z8 I0.652 J-0.325
G1 X-0.633 Y9.839 F1000
X-0.61 Y9.802
X-0.593 Y9.781
X-0.572 Y9.759
X-0.53 Y9.725
X-0.494 Y9.704
X-0.457 Y9.689
X-0.421 Y9.679
X-0.385 Y9.673
X-0.347 Y9.671
X-0.31 Y9.674
X-0.272 Y9.682
X-0.235 Y9.694
X-0.206 Y9.708
X-0.177 Y9.725
X-0.149 Y9.746
X-0.121 Y9.773
X-0.101 Y9.796
X-0.084 Y9.82
X-0.069 Y9.848
X0.011 Y10.026
X0.066 Y10.119
X0.103 Y10.177
X0.211 Y10.327
X0.366 Y10.5
X0.517 Y10.618
X0.667 Y10.721
X0.817 Y10.798
X0.967 Y10.86
X1.118 Y10.904
X1.239 Y10.929
X1.385 Y10.963
X1.534 Y11.015
X1.676 Y11.078
X1.812 Y11.152
X1.94 Y11.236
X2.061 Y11.33
X2.173 Y11.433
X2.277 Y11.543
X2.374 Y11.666
X2.481 Y11.826
X2.596 Y12.033
X2.702 Y12.263
X2.779 Y12.476
X2.835 Y12.679
X2.872 Y12.871
X2.891 Y13.051
X2.896 Y13.235
X2.887 Y13.403
X2.864 Y13.576
X2.828 Y13.741
X2.781 Y13.898
X2.718 Y14.057
X2.646 Y14.205
X2.64 Y14.215
X2.522 Y14.365
X2.37 Y14.48
X2.193 Y14.553
X2.004 Y14.578
X1.869
X1.719 Y14.579
X1.486 Y14.589
G3 X1.167 Y14.302 Z8.189 I-0.002 J-0.317 F600
G1 X1.165 Y14.274 Z8.2
X1.141 Y14.027
X0.895 Y11.446 F1000
X0.878 Y11.274 F600
X0.877 Y11.236
X0.88 Y11.198
G3 X1.239 Y10.929 Z8 I0.314 J0.045
G1 X1.268 Y10.934 F1000
X1.719 Y10.952
X1.869 Y10.953
X2.064
X2.214 Y10.96
X2.362 Y10.989
X2.504 Y11.036
X2.64 Y11.098
X2.77 Y11.174
X2.898 Y11.263
X3.021 Y11.366
X3.146 Y11.487
X3.268 Y11.627
X3.383 Y11.782
X3.487 Y11.95
X3.582 Y12.133
X3.663 Y12.328
X3.731 Y12.535
X3.782 Y12.75
X3.817 Y12.972
X3.834 Y13.2
X3.833 Y13.43
X3.816 Y13.631
X3.782 Y13.833
X3.737 Y14.01
X3.716 Y14.074
X3.609 Y14.277
X3.446 Y14.437
X3.241 Y14.541
X3.015 Y14.576
X2.004 Y14.578
G3 X1.697 Y14.254 Z8.198 I0.011 J-0.317 F600
G1 Y14.25 Z8.2
X1.702 Y14.002
X1.753 Y11.53 F1000
X1.758 Y11.281 F600
X1.759 Y11.263 Z8.193
G3 X2.064 Y10.953 Z8 I0.317 J0.007
G1 X3.003 Y10.951 F1000
X3.153 Y10.959
X3.3 Y10.989
X3.442 Y11.036
X3.578 Y11.099
X3.708 Y11.174
X3.831 Y11.261
X3.955 Y11.363
X4.081 Y11.487
X4.2 Y11.624
X4.316 Y11.781
X4.428 Y11.961
X4.528 Y12.156
X4.616 Y12.366
X4.689 Y12.59
X4.745 Y12.827
X4.783 Y13.07
X4.799 Y13.284
X4.797 Y13.503
X4.78 Y13.7
X4.752 Y13.866
X4.707 Y14.044
X4.697 Y14.073
X4.591 Y14.276
X4.427 Y14.436
X4.223 Y14.539
X3.997 Y14.575
X3.015 Y14.576
G3 X2.714 Y14.318 I0.011 J-0.317 F600
G1 X2.708 Y14.26 Z8.005
Y14.2 Z8.023
Y14.144 Z8.052
Y14.095 Z8.091
X2.707 Y14.055 Z8.14
Y14.025 Z8.195
Y14.007 Z8.255
Y14 Z8.318
G0 Z9.018
X12.31 Y15.521
G1 Z8.7 F600
X12.349 Y15.569
X12.379 Y15.624
X12.396 Y15.683
X12.402 Y15.745
G3 X12.085 Y16.062 Z8.5 I-0.318 J0
G1 X11.935 Y16.057 F1000
X11.785 Y16.063
X11.634 Y16.087
X11.484 Y16.124
X11.334 Y16.171
X11.284 Y16.188
X11.233 Y16.198
X11.184 Y16.199
X11.17 Y16.198
X11.135 Y16.192
X11.101 Y16.183
X11.067 Y16.169
X11.033 Y16.151
X10.978 Y16.109
X10.947 Y16.078
X10.923 Y16.047
X10.899 Y16.005
X10.883 Y15.963
X10.87 Y15.896
X10.836 Y15.746
X10.793 Y15.595
X10.729 Y15.445
X10.652 Y15.294
X10.583 Y15.188
X10.551 Y15.144
X10.318 Y14.843
X10.205 Y14.692
X10.132 Y14.581
X10.014 Y14.391
X9.785 Y13.94
X9.681 Y13.785
X9.531 Y13.579
X9.459 Y13.488
X9.381 Y13.402
X9.317 Y13.338
X9.23 Y13.256
X9.08 Y13.14
X8.905 Y13.037
X8.866 Y13.008
X8.827 Y12.973
X8.8 Y12.941
X8.78 Y12.91
X8.768 Y12.886
X8.753 Y12.848
X8.744 Y12.811
X8.739 Y12.773
Y12.735
X8.743 Y12.701
X8.75 Y12.666
X8.763 Y12.631
X8.78 Y12.596
X8.786 Y12.585
X8.816 Y12.545
X8.837 Y12.523
X8.858 Y12.504
X8.894 Y12.479
X8.93 Y12.46
X8.974 Y12.434
X9.08 Y12.369
X9.23 Y12.252
X9.352 Y12.133
X9.381 Y12.103
X9.489 Y11.983
X9.531 Y11.926
X9.704 Y11.682
X9.804 Y11.531
X9.982 Y11.172
X10.029 Y11.08
X10.132 Y10.929
X10.346 Y10.628
X10.432 Y10.509
X10.458 Y10.478
X10.583 Y10.311
X10.668 Y10.177
X10.748 Y10.05
X10.871 Y9.907
X11.011 Y9.767
X11.174 Y9.63
X11.269 Y9.562
X11.428 Y9.476
X11.604 Y9.434
X11.785 Y9.437
G3 X12.078 Y9.777 Z8.7 I-0.023 J0.317 F600
G1 X12.067 Y9.838
X12.045 Y9.896
X12.012 Y9.948
X11.97 Y9.993
X11.942 Y10.015 F1000
X11.136 Y10.572
X11.1 Y10.594
X11.062 Y10.61
X11.002 Y10.625 F600
X10.94 Y10.628
X10.879 Y10.619
X10.821 Y10.599
G3 X10.668 Y10.177 Z8.5 I0.135 J-0.287
G1 X10.733 Y10.049 F1000
X10.803 Y9.876
X10.843 Y9.725
X10.874 Y9.574
X10.883 Y9.54
X10.894 Y9.511
X10.908 Y9.482
X10.926 Y9.453
X10.948 Y9.424
X10.991 Y9.381
X11.033 Y9.35
X11.071 Y9.329
X11.108 Y9.315
X11.146 Y9.306
X11.184 Y9.302
X11.221
X11.259 Y9.306
X11.296 Y9.315
X11.334 Y9.329
X11.484 Y9.375
X11.634 Y9.415
X11.785 Y9.437
X11.935 Y9.443
X12.085 Y9.438
X12.235 Y9.423
X12.385 Y9.401
X12.686 Y9.362
X12.836 Y9.354
X13.287 Y9.357
X13.738 Y9.367
X13.783 Y9.361
X13.933 Y9.35
X14.121 Y9.369
X14.321 Y9.406
X14.536 Y9.464
X14.755 Y9.543
X14.977 Y9.643
X15.087 Y9.704
X15.228 Y9.804
X15.341 Y9.935
X15.421 Y10.088
G3 X15.224 Y10.491 Z8.7 I-0.3 J0.103 F600
G1 X15.169 Y10.505
X15.113 Y10.508
X15.057 Y10.502
X15.003 Y10.485
X14.982 Y10.477
X13.715 Y9.969 F1000
X13.68 Y9.952
X13.647 Y9.931
X13.6 Y9.89 F600
X13.563 Y9.84
X13.536 Y9.785
X13.52 Y9.725
G3 X13.783 Y9.361 Z8.5 I0.313 J-0.05
G1 X13.888 Y9.348 F1000
X14.188 Y9.303
X14.309 Y9.273
X14.339 Y9.265
X14.489 Y9.215
X14.571 Y9.18
X14.712 Y9.128
X14.728 Y9.125
X14.891 Y9.124
X15.044 Y9.177
X15.171 Y9.278
X15.257 Y9.416
X15.292 Y9.574
G3 X15.231 Y9.884 Z8.629 I-0.521 J0.058 F600
G1 X15.182 Y9.958 Z8.664
X15.12 Y10.022 Z8.7
X15.054 Y10.071
X14.98 Y10.109
X14.902 Y10.135
G3 X14.306 Y9.807 I-0.116 J-0.494 F1000
G1 X14.285 Y9.727 F600
X14.278 Y9.645
X14.284 Y9.562
G3 X14.571 Y9.18 Z8.5 I0.502 J0.078
G1 X14.639 Y9.151 F1000
X14.692 Y9.123
X14.789 Y9.066
X14.827 Y9.046
X14.864 Y9.031
X14.902 Y9.022
X14.94 Y9.018
X14.977
X15.015 Y9.023
X15.052 Y9.032
X15.09 Y9.047
X15.116 Y9.061
X15.143 Y9.078
X15.196 Y9.123
X15.22 Y9.151
X15.24 Y9.18
X15.264 Y9.227
X15.278 Y9.273
X15.285 Y9.311
X15.287 Y9.349
X15.286 Y9.39
G3 X14.962 Y9.7 Z8.7 I-0.317 J-0.007 F600
G1 X14.9 Y9.693
X14.841 Y9.674
X14.787 Y9.644
X14.74 Y9.604
G3 X15.197 Y9.163 I0.228 J-0.22 F1000
X15.226 Y9.569 I-0.228 J0.22
G1 X15 Y9.882
G3 X14.485 Y9.509 I-0.257 J-0.186
X14.939 Y9.447 I0.257 J0.186
G1 X14.976 Y9.476
X15.068 Y9.56 F600
X15.153 Y9.65
G3 X15.415 Y10.072 Z8.5 I-1.195 J1.037
G1 X15.455 Y10.177 F1000
X15.54 Y10.38
X15.587 Y10.478
X15.676 Y10.628
X15.87 Y10.929
X15.965 Y11.08
X16.043 Y11.23
X16.112 Y11.381
X16.177 Y11.531
X16.239 Y11.682
X16.299 Y11.832
X16.377 Y11.983
X16.442 Y12.093
X16.471 Y12.133
X16.558 Y12.256
X16.637 Y12.405
X16.672 Y12.487
X16.725 Y12.682
X16.724 Y12.885
X16.668 Y13.079
X16.561 Y13.252
G3 X16.113 Y13.278 Z8.7 I-0.237 J-0.211 F600
G1 X16.074 Y13.237
X16.044 Y13.19
X16.022 Y13.138
X16.009 Y13.083
X16.006 Y13.061
X15.914 Y12.382 F1000
X15.913 Y12.313
X15.924 Y12.252 F600
X15.947 Y12.194
X15.98 Y12.142
X16.023 Y12.097
G3 X16.471 Y12.133 Z8.5 I0.206 J0.242
G1 X16.592 Y12.286 F1000
X16.742 Y12.435
X16.84 Y12.519
X16.862 Y12.542
X16.893 Y12.585
X16.912 Y12.623
X16.926 Y12.66
X16.934 Y12.698
X16.938 Y12.735
X16.937 Y12.773
X16.932 Y12.811
X16.922 Y12.848
X16.907 Y12.886
X16.893 Y12.913
X16.871 Y12.944
X16.844 Y12.975
X16.742 Y13.062
X16.617 Y13.187
X16.592 Y13.214
X16.49 Y13.338
X16.442 Y13.404
X16.394 Y13.488
X16.312 Y13.639
X16.126 Y14.09
X16.063 Y14.241
X15.984 Y14.391
X15.691 Y14.85
X15.607 Y14.993
X15.54 Y15.127
X15.471 Y15.294
X15.413 Y15.445
X15.39 Y15.507
X15.361 Y15.595
X15.342 Y15.678
X15.301 Y15.822
X15.298 Y15.83
X15.183 Y16.016
X15.019 Y16.161
X14.819 Y16.252
X14.602 Y16.28
X14.386 Y16.244
G3 X14.197 Y15.837 Z8.7 I0.109 J-0.298 F600
G1 X14.228 Y15.773
X14.273 Y15.718
X14.329 Y15.675
X14.359 Y15.656
X14.854 Y15.353 F1000
X14.865 Y15.346 F600
X14.917 Y15.32
X14.974 Y15.305
X15.033 Y15.3
X15.092 Y15.306
G3 X15.342 Y15.678 Z8.5 I-0.061 J0.312
G1 X15.326 Y15.746 F1000
X15.303 Y15.896
X15.294 Y16.047
Y16.093
X15.293 Y16.124
Y16.165
X15.289 Y16.202
X15.283 Y16.233
X15.275 Y16.263
G3 X15.038 Y16.381 I-0.197 J-0.098 F600
X14.862 Y16.169 I0.039 J-0.212
X15.293 Y16.165 I0.216 J0
G1 X15.292 Y16.198 F1000
X15.285 Y16.23
X15.275 Y16.263
X15.26 Y16.296
X15.24 Y16.328
X15.225 Y16.348
X15.191 Y16.384
X15.157 Y16.412
X15.124 Y16.434
X15.09 Y16.451
X15.052 Y16.464
X15.015 Y16.473
X14.977 Y16.476
X14.94 Y16.475
X14.902 Y16.47
X14.864 Y16.46
X14.827 Y16.444
X14.656 Y16.348
X14.639 Y16.339
X14.489 Y16.277
X14.339 Y16.228
X14.223 Y16.198
X14.188 Y16.192
X13.888 Y16.149
X13.738 Y16.131
G3 X13.469 Y15.799 I0.049 J-0.314 F600
G1 X13.485 Y15.747 Z8.505
X13.501 Y15.697 Z8.519
X13.516 Y15.65 Z8.542
X13.552 Y15.616 Z8.578
X13.582 Y15.587 Z8.622
X13.605 Y15.564 Z8.673
X13.621 Y15.549 Z8.729
X13.629 Y15.541 Z8.789
X13.63 Z8.818
G0 Z9.018
X18.777 Y5.205
G1 Z8.7 F600
X18.945 Y5.248
X18.98 Y5.259
X19.015 Y5.275
G3 X19.146 Y5.704 Z8.5 I-0.149 J0.28
G1 X19.084 Y5.811 F1000
X18.989 Y5.962
X18.677 Y6.413
X18.545 Y6.574
X18.427 Y6.714
X18.395 Y6.741
X18.199 Y6.865
X18.095 Y6.929
X17.954 Y7.016
X17.944 Y7.021
X17.907 Y7.037
X17.869 Y7.05
X17.343 Y7.169
X16.893 Y7.283
X16.8 Y7.317
X16.442 Y7.453
X16.408 Y7.467
X16.292 Y7.526
X16.254 Y7.537
X16.217 Y7.542
X16.179 Y7.544
X16.141 Y7.541
X16.104 Y7.533
X16.066 Y7.52
X16.029 Y7.502
X15.991 Y7.479
X15.976 Y7.467
X15.936 Y7.429
X15.908 Y7.392
X15.887 Y7.354
X15.873 Y7.317
X15.863 Y7.279
X15.858 Y7.241
X15.844 Y7.016
X15.841 Y6.997
X15.817 Y6.865
X15.784 Y6.714
X15.691 Y6.35
X15.666 Y6.263
X15.525 Y5.811
X15.479 Y5.661
X15.472 Y5.623
X15.469 Y5.586
X15.479 Y5.209
X15.486 Y5.059
X15.494 Y5.021
X15.505 Y4.983
X15.645 Y4.607
X15.691 Y4.51
X15.863 Y4.156
X15.941 Y4.005
X17.043 Y2.091
X17.124 Y1.965
X17.217 Y1.847
X17.325 Y1.743
X17.444 Y1.652
X17.572 Y1.575
X17.708 Y1.51
X17.849 Y1.459
X17.994 Y1.42
X18.141 Y1.393
X18.291 Y1.378
X18.441 Y1.374
X18.59 Y1.381
X18.739 Y1.399
X18.887 Y1.426
X19.032 Y1.464
X19.175 Y1.51
X19.314 Y1.566
X19.449 Y1.63
X19.581 Y1.703
X19.708 Y1.783
X19.83 Y1.869
X19.948 Y1.963
X20.06 Y2.062
X20.168 Y2.166
X20.27 Y2.276
X20.367 Y2.39
X20.459 Y2.509
X20.505 Y2.576
X20.605 Y2.784
X20.635 Y3.013
X20.594 Y3.24
X20.485 Y3.444
X20.348 Y3.625
X20.299 Y3.704
X20.198 Y3.877
X19.871 Y4.445
G3 X19.434 Y4.547 Z8.7 I-0.269 J-0.168 F600
G1 X19.39 Y4.514
X19.246 Y4.385
X17.355 Y2.693 F1000
X17.17 Y2.528 F600
X17.112 Y2.476 Z8.669
G3 X17.043 Y2.091 Z8.5 I0.212 J-0.237
G1 X17.193 Y1.825 F1000
X17.226 Y1.747
X17.289 Y1.597
X17.343 Y1.399
X17.358 Y1.296
X17.374 Y1.145
X17.377 Y0.995
X17.362 Y0.844
X17.343 Y0.724
X17.298 Y0.543
X17.24 Y0.392
X17.193 Y0.291
X17.167 Y0.242
X17.073 Y0.091
X16.971 Y-0.059
X16.956 Y-0.097
X16.945 Y-0.134
X16.94 Y-0.172
G3 X17.341 Y-0.474 I0.317 J0.004 F600
G1 X17.38 Y-0.464
X18.097 Y-0.269
X18.138 Y-0.256
X18.395 Y-0.137 F1000
X19.897 Y0.586
X20.104 Y0.694
X20.198 Y0.743
X20.348 Y0.846
X20.498 Y0.953
X20.615 Y1.047
X20.835 Y1.263
X20.993 Y1.445
X21.119 Y1.617
X21.233 Y1.802
X21.314 Y1.961
X21.381 Y2.123
X21.388 Y2.146
X21.423 Y2.351
X21.4 Y2.559
X21.319 Y2.752
X21.188 Y2.914
X21.017 Y3.034
G3 X20.596 Y2.879 Z8.7 I-0.133 J-0.288 F600
G1 X20.586 Y2.855
X20.509 Y2.646
X20.026 Y1.327 F1000
X20.013 Y1.281
X20.006 Y1.219 F600
X20.012 Y1.158
X20.03 Y1.098
X20.059 Y1.043
G3 X20.498 Y0.953 Z8.5 I0.265 J0.175
G1 X21.592 Y1.747 F1000
X21.709 Y1.841
X21.823 Y2.03
X21.869 Y2.246
X21.84 Y2.466
X21.74 Y2.663
X21.58 Y2.815
X21.379 Y2.906
G3 X20.999 Y2.666 Z8.7 I-0.069 J-0.31 F600
G1 X20.992 Y2.603
X20.997 Y2.54
X21.018 Y2.421
X21.081 Y2.069 F1000
X21.102 Y1.954 F600
X21.12 Y1.891
X21.151 Y1.833
G3 X21.592 Y1.747 Z8.5 I0.263 J0.178
G1 X22.001 Y2.044 F1000
X22.116 Y2.14
X22.176 Y2.295
X22.179 Y2.462
X22.125 Y2.619
X22.02 Y2.748
X21.878 Y2.833
X21.715 Y2.865
G3 X21.468 Y2.777 Z8.607 I0.009 J-0.415 F600
G1 X21.411 Y2.724 Z8.638
X21.364 Y2.663 Z8.669
X21.329 Y2.594 Z8.7
X21.304 Y2.515
X21.294 Y2.433
X21.299 Y2.351
X21.319 Y2.271 F1000
X21.353 Y2.196
X21.4 Y2.128 F600
X21.459 Y2.07
X21.527 Y2.023
G3 X22.001 Y2.044 Z8.5 I0.219 J0.396
G1 X22.151 Y2.157 F1000
X22.201 Y2.199
X22.301 Y2.291
X22.332 Y2.323
X22.358 Y2.349
X22.377 Y2.379
X22.393 Y2.405
X22.407 Y2.433
X22.42 Y2.462
G3 X21.993 Y2.549 I-0.213 J0.044 F600
X22.149 Y2.296 I0.213 J-0.044
G1 X22.205 Y2.288
X22.26 Y2.295
X22.313 Y2.316
X22.358 Y2.349
X22.385 Y2.387 F1000
X22.405 Y2.425
X22.42 Y2.462
X22.429 Y2.5
X22.433 Y2.537
Y2.575
X22.428 Y2.613
X22.419 Y2.65
X22.404 Y2.688
X22.384 Y2.726
X22.356 Y2.763
X22.321 Y2.801
X22.301 Y2.819
X22.264 Y2.845
X22.226 Y2.864
X22.189 Y2.877
X22.151 Y2.886
X22.113 Y2.889
X22.076 Y2.888
X22.035 Y2.882
G3 X21.775 Y2.544 I0.057 J-0.312 F600
G1 X21.793 Y2.492 Z8.505
X21.81 Y2.442 Z8.519
X21.826 Y2.396 Z8.542
X21.862 Y2.362 Z8.578
X21.893 Y2.334 Z8.622
X21.917 Y2.312 Z8.673
X21.933 Y2.297 Z8.729
X21.942 Y2.29 Z8.789
X21.943 Y2.289 Z8.818
G0 Z9.2
X17.111 Y4.444
Z8.8
G3 X17.741 Y3.027 Z8.738 I0.922 J-0.439 F600
X19.043 Y3.867 Z8.677 I0.292 J0.977
X18.013 Y5.023 Z8.615 I-1.01 J0.137
X17.031 Y3.827 Z8.554 I0.021 J-1.018
X18.362 Y3.043 Z8.492 I1.001 J0.177
X18.931 Y4.478 Z8.431 I-0.329 J0.961
X17.427 Y4.818 Z8.369 I-0.897 J-0.473
X17.324 Y3.281 Z8.308 I0.606 J-0.813
X18.856 Y3.416 Z8.246 I0.709 J0.723
X18.487 Y4.908 Z8.185 I-0.823 J0.588
X17.071 Y4.313 Z8.123 I-0.453 J-0.903
X17.877 Y3.008 Z8.062 I0.961 J-0.308
X19.041 Y4.004 Z8 I0.156 J0.996
X17.024 Y4.004 I-1.008 J0
X19.041 Y4.004 I1.008 J0
G1 X19.077 Y4.665 F1000
X19.076 Y4.748
X19.056 Y4.897
X19.007 Y5.038
X18.934 Y5.169
X18.842 Y5.288
X18.734 Y5.392
X18.613 Y5.482
X18.483 Y5.556
X18.345 Y5.614
X18.201 Y5.657
X18.053 Y5.684
X17.904 Y5.695
X17.754 Y5.691
X17.605 Y5.673
X17.459 Y5.64
X17.316 Y5.593
X17.179 Y5.533
X17.047 Y5.461
X16.923 Y5.377
X16.806 Y5.282
X16.699 Y5.178
X16.601 Y5.064
X16.514 Y4.942
X16.437 Y4.813
X16.372 Y4.678
X16.319 Y4.537
X16.278 Y4.393
X16.25 Y4.246
X16.234 Y4.097
X16.231 Y3.947
X16.24 Y3.797
X16.262 Y3.649
X16.297 Y3.503
X16.343 Y3.36
X16.401 Y3.222
X16.471 Y3.089
X16.552 Y2.962
X16.642 Y2.843
X16.743 Y2.732
X16.852 Y2.629
X16.97 Y2.536
X17.094 Y2.452
X17.226 Y2.38
X17.363 Y2.319
X17.504 Y2.269
X17.649 Y2.231
X17.797 Y2.205
X17.946 Y2.191
X18.096 Y2.19
X18.246 Y2.202
X18.394 Y2.225
X18.54 Y2.261
X18.682 Y2.309
X18.82 Y2.368
X18.952 Y2.439
X19.078 Y2.52
X19.197 Y2.611
X19.308 Y2.712
X19.411 Y2.822
X19.507 Y2.944
X19.614 Y3.105
X19.73 Y3.313
X19.83 Y3.534
X19.906 Y3.743
X19.943 Y3.88
X19.97 Y4.073
X19.945 Y4.265
X19.871 Y4.445
X19.146 Y5.704
X19.065 Y5.83
X18.971 Y5.947
X18.865 Y6.054
X18.749 Y6.148
X18.624 Y6.231
X18.492 Y6.302
X18.354 Y6.361
X18.212 Y6.408
X18.066 Y6.444
X17.91 Y6.469
X17.746 Y6.482
X17.579
X17.411 Y6.468
X17.238 Y6.44
X17.063 Y6.396
X16.889 Y6.338
X16.718 Y6.265
X16.551 Y6.177
X16.39 Y6.075
X16.234 Y5.959
X16.086 Y5.827
X15.947 Y5.683
X15.818 Y5.525
X15.702 Y5.357
X15.673 Y5.306
X15.593 Y5.105
X15.574 Y4.888
X15.62 Y4.676
G3 X15.992 Y4.49 Z8.182 I0.293 J0.121 F600
G1 X16.035 Y4.501 Z8.2
X16.276 Y4.563
X18.777 Y5.205 F1000
X18.945 Y5.248 F600
X18.98 Y5.259
X19.015 Y5.275
G3 X19.146 Y5.704 Z8 I-0.149 J0.28
G1 X19.084 Y5.811 F1000
X18.989 Y5.962
X18.677 Y6.413
X18.545 Y6.574
X18.427 Y6.714
X18.395 Y6.741
X18.199 Y6.865
X18.095 Y6.929
X17.954 Y7.016
X17.944 Y7.021
X17.907 Y7.037
X17.869 Y7.05
X17.494 Y7.135
X17.346 Y7.161
X17.186 Y7.172
X17.012 Y7.17
X16.831 Y7.153
X16.646 Y7.121
X16.453 Y7.071
X16.254 Y7.002
X16.138 Y6.951
X15.95 Y6.832
X15.806 Y6.662
X15.718 Y6.457
G3 X15.96 Y6.079 Z8.2 I0.31 J-0.068 F600
G1 X16.015 Y6.072
X16.07 Y6.074
X16.124 Y6.086
X16.202 Y6.111
X17.508 Y6.525 F1000
X17.573 Y6.554
X17.623 Y6.591 F600
X17.665 Y6.636
X17.698 Y6.689
X17.719 Y6.747
G3 X17.494 Y7.135 Z8 I-0.307 J0.081
G1 X17.343 Y7.169 F1000
X16.893 Y7.283
X16.8 Y7.317
X16.51 Y7.427
X16.367 Y7.474
X16.216 Y7.469
X16.076 Y7.416
X15.959 Y7.32
X15.88 Y7.193
X15.846 Y7.046
G3 X15.918 Y6.758 Z8.121 I0.544 J-0.017 F600
G1 X15.954 Y6.704 Z8.147
X15.998 Y6.655 Z8.174
X16.049 Y6.612 Z8.2
X16.12 Y6.569
X16.197 Y6.54
X16.278 Y6.524
G3 X16.758 Y6.804 I0.048 J0.469 F1000
G1 X16.784 Y6.882 F600
X16.797 Y6.964
X16.795 Y7.047
G3 X16.51 Y7.427 Z8 I-0.468 J-0.054
G1 X16.442 Y7.453 F1000
X16.408 Y7.467
X16.292 Y7.526
X16.254 Y7.537
X16.217 Y7.542
X16.179 Y7.544
X16.141 Y7.541
X16.104 Y7.533
X16.066 Y7.52
X16.029 Y7.502
X15.991 Y7.479
X15.976 Y7.467
X15.936 Y7.429
X15.908 Y7.392
X15.887 Y7.354
X15.873 Y7.317
X15.863 Y7.279
X15.858 Y7.241
X15.844 Y7.016
X15.841 Y6.997
X15.817 Y6.865
X15.784 Y6.714
X15.691 Y6.35
X15.666 Y6.263
X15.525 Y5.811
X15.479 Y5.661
X15.472 Y5.623
X15.469 Y5.586
X15.479 Y5.209
X15.486 Y5.059
X15.494 Y5.021
X15.505 Y4.983
X15.645 Y4.607
X15.691 Y4.51
X15.863 Y4.156
X15.941 Y4.005
X17.043 Y2.091
X17.124 Y1.965
X17.217 Y1.847
X17.325 Y1.743
X17.444 Y1.652
X17.572 Y1.575
X17.708 Y1.51
X17.849 Y1.459
X17.994 Y1.42
X18.141 Y1.393
X18.291 Y1.378
X18.441 Y1.374
X18.59 Y1.381
X18.739 Y1.399
X18.887 Y1.426
X19.032 Y1.464
X19.175 Y1.51
X19.314 Y1.566
X19.449 Y1.63
X19.581 Y1.703
X19.708 Y1.783
X19.83 Y1.869
X19.948 Y1.963
X20.06 Y2.062
X20.168 Y2.166
X20.27 Y2.276
X20.367 Y2.39
X20.459 Y2.509
X20.505 Y2.576
X20.605 Y2.784
X20.635 Y3.013
X20.594 Y3.24
X20.485 Y3.444
X20.348 Y3.625
X20.299 Y3.704
X20.198 Y3.877
X19.871 Y4.445
G3 X19.434 Y4.547 Z8.2 I-0.269 J-0.168 F600
G1 X19.39 Y4.514
X19.246 Y4.385
X17.355 Y2.693 F1000
X17.17 Y2.528 F600
X17.112 Y2.476 Z8.169
G3 X17.043 Y2.091 Z8 I0.212 J-0.237
G1 X17.193 Y1.825 F1000
X17.226 Y1.747
X17.289 Y1.597
X17.343 Y1.399
X17.358 Y1.296
X17.374 Y1.145
X17.377 Y0.995
X17.362 Y0.844
X17.343 Y0.724
X17.298 Y0.543
X17.24 Y0.392
X17.193 Y0.291
X17.167 Y0.242
X17.073 Y0.091
X16.971 Y-0.059
X16.956 Y-0.097
X16.945 Y-0.134
X16.94 Y-0.172
G3 X17.341 Y-0.474 I0.317 J0.004 F600
G1 X17.38 Y-0.464
X18.097 Y-0.269
X18.138 Y-0.256
X18.395 Y-0.137 F1000
X19.897 Y0.586
X20.104 Y0.694
X20.198 Y0.743
X20.348 Y0.846
X20.498 Y0.953
X20.615 Y1.047
X20.835 Y1.263
X20.993 Y1.445
X21.119 Y1.617
X21.233 Y1.802
X21.314 Y1.961
X21.381 Y2.123
X21.388 Y2.146
X21.423 Y2.351
X21.4 Y2.559
X21.319 Y2.752
X21.188 Y2.914
X21.017 Y3.034
G3 X20.596 Y2.879 Z8.2 I-0.133 J-0.288 F600
G1 X20.586 Y2.855
X20.509 Y2.646
X20.026 Y1.327 F1000
X20.013 Y1.281
X20.006 Y1.219 F600
X20.012 Y1.158
X20.03 Y1.098
X20.059 Y1.043
G3 X20.498 Y0.953 Z8 I0.265 J0.175
G1 X21.592 Y1.747 F1000
X21.709 Y1.841
X21.823 Y2.03
X21.869 Y2.246
X21.84 Y2.466
X21.74 Y2.663
X21.58 Y2.815
X21.379 Y2.906
G3 X20.999 Y2.666 Z8.2 I-0.069 J-0.31 F600
G1 X20.992 Y2.603
X20.997 Y2.54
X21.018 Y2.421
X21.081 Y2.069 F1000
X21.102 Y1.954 F600
X21.12 Y1.891
X21.151 Y1.833
G3 X21.592 Y1.747 Z8 I0.263 J0.178
G1 X22.001 Y2.044 F1000
X22.116 Y2.14
X22.176 Y2.295
X22.179 Y2.462
X22.125 Y2.619
X22.02 Y2.748
X21.878 Y2.833
X21.715 Y2.865
G3 X21.468 Y2.777 Z8.107 I0.009 J-0.415 F600
G1 X21.411 Y2.724 Z8.138
X21.364 Y2.663 Z8.169
X21.329 Y2.594 Z8.2
X21.304 Y2.515
X21.294 Y2.433
X21.299 Y2.351
X21.319 Y2.271 F1000
X21.353 Y2.196
X21.4 Y2.128 F600
X21.459 Y2.07
X21.527 Y2.023
G3 X22.001 Y2.044 Z8 I0.219 J0.396
G1 X22.151 Y2.157 F1000
X22.201 Y2.199
X22.301 Y2.291
X22.332 Y2.323
X22.358 Y2.349
X22.377 Y2.379
X22.393 Y2.405
X22.407 Y2.433
X22.42 Y2.462
G3 X21.993 Y2.549 I-0.213 J0.044 F600
X22.149 Y2.296 I0.213 J-0.044
G1 X22.205 Y2.288
X22.26 Y2.295
X22.313 Y2.316
X22.358 Y2.349
X22.385 Y2.387 F1000
X22.405 Y2.425
X22.42 Y2.462
X22.429 Y2.5
X22.433 Y2.537
Y2.575
X22.428 Y2.613
X22.419 Y2.65
X22.404 Y2.688
X22.384 Y2.726
X22.356 Y2.763
X22.321 Y2.801
X22.301 Y2.819
X22.264 Y2.845
X22.226 Y2.864
X22.189 Y2.877
X22.151 Y2.886
X22.113 Y2.889
X22.076 Y2.888
X22.035 Y2.882
G3 X21.775 Y2.544 I0.057 J-0.312 F600
G1 X21.793 Y2.492 Z8.005
X21.81 Y2.442 Z8.019
X21.826 Y2.396 Z8.042
X21.862 Y2.362 Z8.078
X21.893 Y2.334 Z8.122
X21.917 Y2.312 Z8.173
X21.933 Y2.297 Z8.229
X21.942 Y2.29 Z8.289
X21.943 Y2.289 Z8.318
G0 Z9.2
X17.111 Y4.444
Z8.3
G3 X17.741 Y3.027 Z8.238 I0.922 J-0.439 F600
X19.043 Y3.867 Z8.177 I0.292 J0.977
X18.013 Y5.023 Z8.115 I-1.01 J0.137
X17.031 Y3.827 Z8.054 I0.021 J-1.018
X18.362 Y3.043 Z7.992 I1.001 J0.177
X18.931 Y4.478 Z7.931 I-0.329 J0.961
X17.427 Y4.818 Z7.869 I-0.897 J-0.473
X17.324 Y3.281 Z7.808 I0.606 J-0.813
X18.856 Y3.416 Z7.746 I0.709 J0.723
X18.487 Y4.908 Z7.685 I-0.823 J0.588
X17.071 Y4.313 Z7.623 I-0.453 J-0.903
X17.877 Y3.008 Z7.562 I0.961 J-0.308
X19.041 Y4.004 Z7.5 I0.156 J0.996
X17.024 Y4.004 I-1.008 J0
X19.041 Y4.004 I1.008 J0
G1 X19.077 Y4.665 F1000
X19.076 Y4.748
X19.056 Y4.897
X19.007 Y5.038
X18.934 Y5.169
X18.842 Y5.288
X18.734 Y5.392
X18.613 Y5.482
X18.483 Y5.556
X18.345 Y5.614
X18.201 Y5.657
X18.053 Y5.684
X17.904 Y5.695
X17.754 Y5.691
X17.605 Y5.673
X17.459 Y5.64
X17.316 Y5.593
X17.179 Y5.533
X17.047 Y5.461
X16.923 Y5.377
X16.806 Y5.282
X16.699 Y5.178
X16.601 Y5.064
X16.514 Y4.942
X16.437 Y4.813
X16.372 Y4.678
X16.319 Y4.537
X16.278 Y4.393
X16.25 Y4.246
X16.234 Y4.097
X16.231 Y3.947
X16.24 Y3.797
X16.262 Y3.649
X16.297 Y3.503
X16.343 Y3.36
X16.401 Y3.222
X16.471 Y3.089
X16.552 Y2.962
X16.642 Y2.843
X16.743 Y2.732
X16.852 Y2.629
X16.97 Y2.536
X17.094 Y2.452
X17.226 Y2.38
X17.363 Y2.319
X17.504 Y2.269
X17.649 Y2.231
X17.797 Y2.205
X17.946 Y2.191
X18.096 Y2.19
X18.246 Y2.202
X18.394 Y2.225
X18.54 Y2.261
X18.682 Y2.309
X18.82 Y2.368
X18.952 Y2.439
X19.078 Y2.52
X19.197 Y2.611
X19.308 Y2.712
X19.411 Y2.822
X19.507 Y2.944
X19.614 Y3.105
X19.73 Y3.313
X19.83 Y3.534
X19.906 Y3.743
X19.943 Y3.88
X19.97 Y4.073
X19.945 Y4.265
X19.871 Y4.445
X19.146 Y5.704
X19.065 Y5.83
X18.971 Y5.947
X18.865 Y6.054
X18.749 Y6.148
X18.624 Y6.231
X18.492 Y6.302
X18.354 Y6.361
X18.212 Y6.408
X18.066 Y6.444
X17.91 Y6.469
X17.746 Y6.482
X17.579
X17.411 Y6.468
X17.238 Y6.44
X17.063 Y6.396
X16.889 Y6.338
X16.718 Y6.265
X16.551 Y6.177
X16.39 Y6.075
X16.234 Y5.959
X16.086 Y5.827
X15.947 Y5.683
X15.818 Y5.525
X15.702 Y5.357
X15.673 Y5.306
X15.593 Y5.105
X15.574 Y4.888
X15.62 Y4.676
G3 X15.968 Y4.485 I0.293 J0.121 F600
G1 X15.992 Y4.49 Z7.501
X16.056 Y4.506 Z7.513
X16.117 Y4.522 Z7.54
X16.17 Y4.536 Z7.578
X16.215 Y4.547 Z7.628
X16.248 Y4.556 Z7.686
X16.269 Y4.561 Z7.75
X16.276 Y4.563 Z7.818
G0 Z9.3
X17.127 Y21.905
G3 X17.756 Y20.487 Z9.238 I0.922 J-0.439 F600
X19.059 Y21.328 Z9.177 I0.292 J0.977
X18.028 Y22.483 Z9.115 I-1.01 J0.137
X17.047 Y21.288 Z9.054 I0.021 J-1.018
X18.378 Y20.504 Z8.992 I1.001 J0.177
X18.947 Y21.938 Z8.931 I-0.329 J0.961
X17.443 Y22.279 Z8.869 I-0.897 J-0.473
X17.339 Y20.742 Z8.808 I0.606 J-0.813
X18.872 Y20.877 Z8.746 I0.709 J0.723
X18.502 Y22.369 Z8.685 I-0.823 J0.588
X17.087 Y21.774 Z8.623 I-0.453 J-0.903
X17.892 Y20.469 Z8.562 I0.961 J-0.308
X19.056 Y21.465 Z8.5 I0.156 J0.996
X17.04 Y21.465 I-1.008 J0
X19.056 Y21.465 I1.008 J0
G1 X19.093 Y22.126 F1000
X19.092 Y22.209
X19.072 Y22.358
X19.022 Y22.499
X18.949 Y22.63
X18.857 Y22.749
X18.749 Y22.853
X18.629 Y22.943
X18.499 Y23.017
X18.36 Y23.075
X18.217 Y23.118
X18.069 Y23.144
X17.919 Y23.156
X17.769 Y23.152
X17.621 Y23.133
X17.474 Y23.1
X17.332 Y23.054
X17.194 Y22.994
X17.063 Y22.922
X16.938 Y22.838
X16.822 Y22.743
X16.715 Y22.638
X16.617 Y22.525
X16.529 Y22.403
X16.453 Y22.274
X16.388 Y22.139
X16.335 Y21.998
X16.294 Y21.854
X16.265 Y21.707
X16.249 Y21.558
X16.246 Y21.408
X16.256 Y21.258
X16.278 Y21.11
X16.312 Y20.964
X16.359 Y20.821
X16.417 Y20.683
X16.487 Y20.55
X16.567 Y20.423
X16.658 Y20.304
X16.758 Y20.192
X16.868 Y20.09
X16.985 Y19.997
X17.11 Y19.913
X17.241 Y19.841
X17.378 Y19.779
X17.52 Y19.73
X17.665 Y19.692
X17.813 Y19.666
X17.962 Y19.652
X18.112 Y19.651
X18.262 Y19.662
X18.41 Y19.686
X18.555 Y19.722
X18.698 Y19.77
X18.835 Y19.829
X18.968 Y19.899
X19.094 Y19.981
X19.213 Y20.072
X19.324 Y20.173
X19.426 Y20.283
X19.523 Y20.405
X19.569 Y20.476
X19.577 Y20.489
X19.62 Y20.563
X19.789 Y20.891
X19.875 Y21.098
X19.942 Y21.305
X19.985 Y21.487
X20.015 Y21.675
X20.027 Y21.849
X20.026 Y22.022
X20.011 Y22.193
X19.984 Y22.354
X19.942 Y22.518
X19.889 Y22.673
X19.825 Y22.823
X19.745 Y22.972
X19.656 Y23.111
X19.556 Y23.243
X19.441 Y23.371
X19.317 Y23.489
X19.185 Y23.596
X19.041 Y23.695
X18.885 Y23.783
X18.724 Y23.859
X18.557 Y23.922
X18.381 Y23.972
X18.199 Y24.009
X18.011 Y24.031
X17.821 Y24.038
X17.63 Y24.004
X17.453 Y23.921
X17.305 Y23.795
X17.194 Y23.635
X17.085 Y23.423
X17.043 Y23.346
X15.954 Y21.466
X15.91 Y21.383
X15.846 Y21.247
X15.798 Y21.105
X15.769 Y20.958
X15.757 Y20.808
X15.76 Y20.659
X15.778 Y20.51
X15.809 Y20.363
X15.853 Y20.219
X15.911 Y20.074
X15.982 Y19.931
X16.066 Y19.789
X16.166 Y19.65
X16.28 Y19.515
X16.409 Y19.385
X16.479 Y19.324
X16.553 Y19.265
X16.705 Y19.154
X16.868 Y19.053
X17.042 Y18.965
X17.226 Y18.889
X17.419 Y18.827
X17.618 Y18.78
X17.823 Y18.749
X18.032 Y18.734
X18.075 Y18.735
X18.288 Y18.768
X18.482 Y18.862
X18.642 Y19.008
G3 X18.603 Y19.433 Z8.688 I-0.253 J0.192 F600
G1 X18.581 Y19.454 Z8.7
X18.398 Y19.622
X16.531 Y21.338 F1000
X16.4 Y21.458 F600
X16.343 Y21.5
G3 X15.91 Y21.383 Z8.5 I-0.158 J-0.275
G1 X15.874 Y21.315 F1000
X15.66 Y20.864
X15.54 Y20.546
X15.516 Y20.479
X15.505 Y20.412
X15.499 Y20.262
X15.49 Y19.961
Y19.885
X15.495 Y19.848
X15.504 Y19.81
X15.691 Y19.208
X15.731 Y19.058
X15.805 Y18.756
X15.838 Y18.606
X15.862 Y18.455
X15.878 Y18.23
X15.887 Y18.192
X15.901 Y18.154
X15.936 Y18.091
X15.96 Y18.059
X15.991 Y18.027
X16.021 Y18.004
X16.051 Y17.985
X16.081 Y17.971
X16.111 Y17.961
X16.141 Y17.953
X16.179 Y17.948
X16.217
X16.254 Y17.952
X16.292 Y17.96
X16.338 Y17.978
X16.385 Y18.004
X16.442 Y18.03
X16.766 Y18.154
X16.893 Y18.201
X17.343 Y18.315
X17.866 Y18.432
X17.901 Y18.442
X17.944 Y18.459
X18.095 Y18.547
X18.395 Y18.732
X18.427 Y18.756
X18.462 Y18.79
X18.56 Y18.907
X18.682 Y19.058
X19.002 Y19.509
X19.097 Y19.66
X19.577 Y20.489
G3 X19.462 Y20.923 Z8.7 I-0.275 J0.159 F600
G1 X19.406 Y20.949
X19.345 Y20.963
X19.283 Y20.965
X19.222 Y20.956
X19.177 Y20.94 F1000
X19.134 Y20.918
X19.096 Y20.889
X18.689 Y20.54
G3 X19.051 Y20.022 I0.207 J-0.241
G1 X19.091 Y20.045
X19.195 Y20.113 F600
X19.293 Y20.189
G3 X19.62 Y20.563 Z8.5 I-1.015 J1.215
G1 X20.23 Y21.616 F1000
X20.348 Y21.817
X20.37 Y21.848
X20.453 Y21.973
X20.512 Y22.111
X20.554 Y22.255
X20.581 Y22.402
X20.592 Y22.552
X20.59 Y22.702
X20.576 Y22.852
X20.548 Y23.007
X20.506 Y23.17
X20.447 Y23.338
X20.373 Y23.505
X20.283 Y23.671
X20.175 Y23.836
X20.049 Y23.998
X19.906 Y24.156
X19.746 Y24.305
X19.571 Y24.444
X19.381 Y24.572
X19.178 Y24.686
X18.972 Y24.781
X18.783 Y24.849
X18.589 Y24.903
X18.422 Y24.935
X18.242 Y24.955
X18.159 Y24.957
X17.942 Y24.931
X17.742 Y24.842
X17.576 Y24.699
X17.46 Y24.514
X17.402 Y24.303
G3 X17.503 Y24.044 Z8.615 I0.316 J-0.026 F600
G1 X17.658 Y23.9 Z8.7
X17.84 Y23.731
X19.742 Y21.964 F1000
X19.905 Y21.812 F600
X19.925 Y21.796
G3 X20.37 Y21.848 Z8.5 I0.197 J0.249
G1 X20.498 Y22.021 F1000
X20.516 Y22.045
X20.54 Y22.068
X20.702 Y22.219
X20.755 Y22.26
X20.869 Y22.358
X20.963 Y22.475
X21.038 Y22.605
X21.095 Y22.744
X21.135 Y22.888
X21.161 Y23.036
X21.172 Y23.186
X21.171 Y23.336
X21.156 Y23.498
X21.127 Y23.671
X21.082 Y23.846
X21.019 Y24.031
X21.008 Y24.056
X20.932 Y24.19
X20.831 Y24.305
X20.708 Y24.397
G3 X20.277 Y24.272 Z8.7 I-0.153 J-0.278 F600
G1 X20.255 Y24.223
X20.242 Y24.17
X20.238 Y24.116
Y24.03
X20.251 Y22.565 F1000
Y22.514 F600
X20.258 Y22.449
X20.279 Y22.387
X20.312 Y22.33
G3 X20.755 Y22.26 Z8.5 I0.257 J0.187
G1 X20.799 Y22.294 F1000
X20.949 Y22.395
X21.024 Y22.435
X21.099 Y22.469
X21.197 Y22.509
X21.333 Y22.573
X21.452 Y22.665
X21.554 Y22.775
X21.64 Y22.898
X21.665 Y22.946
X21.734 Y23.132
X21.751 Y23.329
X21.715 Y23.524
X21.629 Y23.702
X21.498 Y23.852
G3 X21.052 Y23.806 Z8.7 I-0.2 J-0.246 F600
G1 X21.015 Y23.749
X20.991 Y23.686
X20.962 Y23.577
X20.794 Y22.94 F1000
X20.78 Y22.888 F600
X20.77 Y22.824
X20.773 Y22.76
X20.789 Y22.697
G3 X21.197 Y22.509 Z8.5 I0.298 J0.11
G1 X21.222 Y22.52 F1000
X21.4 Y22.57
X21.55 Y22.597
X21.595 Y22.601
X21.744 Y22.621
X21.896 Y22.715
X22.008 Y22.853
X22.067 Y23.022
X22.066 Y23.2
X22.006 Y23.368
X21.894 Y23.506
X21.843 Y23.543 Z8.525 F600
X21.788 Y23.573 Z8.55
X21.73 Y23.596 Z8.575
G3 X21.424 Y23.6 Z8.7 I-0.16 J-0.485
G1 X21.347 Y23.57
X21.276 Y23.528
X21.212 Y23.475
G3 X21.066 Y23.031 I0.358 J-0.364 F1000
G1 X21.086 Y22.95 F600
X21.118 Y22.874
X21.162 Y22.804
G3 X21.595 Y22.601 Z8.5 I0.408 J0.306
G1 X21.7 Y22.61 F1000
X21.85 Y22.614
X21.933 Y22.607
X21.97 Y22.604
X22.001 Y22.601
X22.061 Y22.598
X22.087 Y22.599
X22.113 Y22.601
X22.128 Y22.626 Z8.512 F600
G3 X22.075 Y23.01 Z8.679 I-0.276 J0.158
G1 X22.037 Y23.047 Z8.7
X21.861 Y23.221
X21.693 Y23.387 F1000
G3 X21.231 Y23.369 I-0.223 J-0.226
X21.278 Y22.908 I0.24 J-0.208
G1 X21.315 Y22.88
X21.419 Y22.812 F600
X21.528 Y22.752
G3 X22.001 Y22.601 Z8.5 I0.71 J1.414
G1 X22.038 Y22.597 F1000
X22.076
X22.113 Y22.601
X22.151 Y22.61
X22.179 Y22.62
X22.207 Y22.633
X22.246 Y22.66
X22.274 Y22.682
X22.301 Y22.706
G3 X21.913 Y23.018 I-0.194 J0.156 F600
X22.014 Y22.631 I0.194 J-0.156
G1 X22.061 Y22.617
X22.111 Y22.613
X22.16 Y22.618
X22.207 Y22.633
X22.235 Y22.649 F1000
X22.263 Y22.67
X22.301 Y22.706
X22.326 Y22.735
X22.345 Y22.763
X22.361 Y22.792
X22.373 Y22.821
X22.383 Y22.858
X22.389 Y22.896
X22.391 Y22.934
X22.388 Y22.971
X22.38 Y23.009
X22.368 Y23.046
X22.35 Y23.084
X22.325 Y23.122
X22.301 Y23.149
X22.151 Y23.281
X21.4 Y23.938
X21.289 Y24.025
X21.066 Y24.175
X20.949 Y24.253
X19.296 Y25.24
X19.146 Y25.324
X18.996 Y25.394
X18.846 Y25.458
X18.545 Y25.571
X18.402 Y25.616
X18.255 Y25.643
X18.164 Y25.649
X17.94 Y25.63
X17.732 Y25.546
X17.558 Y25.404
X17.434 Y25.217
X17.37 Y25.002
X17.373 Y24.777
G3 X17.746 Y24.528 Z8.7 I0.311 J0.062 F600
G1 X17.798 Y24.543
X17.846 Y24.566
X17.967 Y24.638
X18.547 Y24.982 F1000
X18.585 Y25.004 F600
X18.64 Y25.045
X18.684 Y25.096
X18.717 Y25.156
G3 X18.545 Y25.571 Z8.5 I-0.293 J0.122
G1 X17.893 Y25.815 F1000
X17.75 Y25.861
X17.576 Y25.838
X17.419 Y25.758
X17.298 Y25.63
X17.227 Y25.469
X17.214 Y25.294
X17.26 Y25.124
G3 X17.525 Y24.888 Z8.646 I0.439 J0.225 F600
G1 X17.59 Y24.868 Z8.673
X17.657 Y24.857 Z8.7
X17.739
X17.821 Y24.87
X17.899 Y24.896
G3 X18.176 Y25.198 I-0.198 J0.458 F1000
G1 X18.195 Y25.278 F600
X18.201 Y25.361
X18.193 Y25.443
G3 X17.893 Y25.815 Z8.5 I-0.491 J-0.088
G1 X17.524 Y25.954 F1000
X17.381 Y26
X17.23 Y25.953
X17.111 Y25.85
X17.044 Y25.707
X17.04 Y25.549
X17.1 Y25.404
X17.144 Y25.354 F600
X17.197 Y25.314
X17.257 Y25.284
G3 X17.524 Y25.954 I0.129 J0.337
G1 X17.397 Y26.002 F1000
X17.37 Y26.01
X17.343 Y26.016
X17.306 Y26.021
X17.268
X17.231 Y26.016
X17.193 Y26.007
X17.163 Y25.996
X17.133 Y25.982
X17.088 Y25.951
X17.065 Y25.931
X17.043 Y25.907
X17.016 Y25.869
X16.996 Y25.831
X16.983 Y25.793
X16.974 Y25.756
X16.97 Y25.718
Y25.681
X16.974 Y25.643
X16.982 Y25.605
X16.995 Y25.568
X17.014 Y25.53
X17.043 Y25.487
G3 X17.461 Y25.403 I0.256 J0.188 F600
G1 X17.499 Y25.441 Z8.505
X17.537 Y25.478 Z8.519
X17.572 Y25.513 Z8.542
X17.586 Y25.561 Z8.578
X17.597 Y25.6 Z8.622
X17.607 Y25.632 Z8.673
X17.613 Y25.653 Z8.729
X17.616 Y25.663 Z8.789
Y25.665 Z8.818
G0 Z9.2
X17.127 Y21.905
Z8.8
G3 X17.756 Y20.487 Z8.738 I0.922 J-0.439 F600
X19.059 Y21.328 Z8.677 I0.292 J0.977
X18.028 Y22.483 Z8.615 I-1.01 J0.137
X17.047 Y21.288 Z8.554 I0.021 J-1.018
X18.378 Y20.504 Z8.492 I1.001 J0.177
X18.947 Y21.938 Z8.431 I-0.329 J0.961
X17.443 Y22.279 Z8.369 I-0.897 J-0.473
X17.339 Y20.742 Z8.308 I0.606 J-0.813
X18.872 Y20.877 Z8.246 I0.709 J0.723
X18.502 Y22.369 Z8.185 I-0.823 J0.588
X17.087 Y21.774 Z8.123 I-0.453 J-0.903
X17.892 Y20.469 Z8.062 I0.961 J-0.308
X19.056 Y21.465 Z8 I0.156 J0.996
X17.04 Y21.465 I-1.008 J0
X19.056 Y21.465 I1.008 J0
G1 X19.093 Y22.126 F1000
X19.092 Y22.209
X19.072 Y22.358
X19.022 Y22.499
X18.949 Y22.63
X18.857 Y22.749
X18.749 Y22.853
X18.629 Y22.943
X18.499 Y23.017
X18.36 Y23.075
X18.217 Y23.118
X18.069 Y23.144
X17.919 Y23.156
X17.769 Y23.152
X17.621 Y23.133
X17.474 Y23.1
X17.332 Y23.054
X17.194 Y22.994
X17.063 Y22.922
X16.938 Y22.838
X16.822 Y22.743
X16.715 Y22.638
X16.617 Y22.525
X16.529 Y22.403
X16.453 Y22.274
X16.388 Y22.139
X16.335 Y21.998
X16.294 Y21.854
X16.265 Y21.707
X16.249 Y21.558
X16.246 Y21.408
X16.256 Y21.258
X16.278 Y21.11
X16.312 Y20.964
X16.359 Y20.821
X16.417 Y20.683
X16.487 Y20.55
X16.567 Y20.423
X16.658 Y20.304
X16.758 Y20.192
X16.868 Y20.09
X16.985 Y19.997
X17.11 Y19.913
X17.241 Y19.841
X17.378 Y19.779
X17.52 Y19.73
X17.665 Y19.692
X17.813 Y19.666
X17.962 Y19.652
X18.112 Y19.651
X18.262 Y19.662
X18.41 Y19.686
X18.555 Y19.722
X18.698 Y19.77
X18.835 Y19.829
X18.968 Y19.899
X19.094 Y19.981
X19.213 Y20.072
X19.324 Y20.173
X19.426 Y20.283
X19.523 Y20.405
X19.569 Y20.476
X19.577 Y20.489
X19.62 Y20.563
X19.789 Y20.891
X19.875 Y21.098
X19.942 Y21.305
X19.985 Y21.487
X20.015 Y21.675
X20.027 Y21.849
X20.026 Y22.022
X20.011 Y22.193
X19.984 Y22.354
X19.942 Y22.518
X19.889 Y22.673
X19.825 Y22.823
X19.745 Y22.972
X19.656 Y23.111
X19.556 Y23.243
X19.441 Y23.371
X19.317 Y23.489
X19.185 Y23.596
X19.041 Y23.695
X18.885 Y23.783
X18.724 Y23.859
X18.557 Y23.922
X18.381 Y23.972
X18.199 Y24.009
X18.011 Y24.031
X17.821 Y24.038
X17.63 Y24.004
X17.453 Y23.921
X17.305 Y23.795
X17.194 Y23.635
X17.085 Y23.423
X17.043 Y23.346
X15.954 Y21.466
X15.91 Y21.383
X15.846 Y21.247
X15.798 Y21.105
X15.769 Y20.958
X15.757 Y20.808
X15.76 Y20.659
X15.778 Y20.51
X15.809 Y20.363
X15.853 Y20.219
X15.911 Y20.074
X15.982 Y19.931
X16.066 Y19.789
X16.166 Y19.65
X16.28 Y19.515
X16.409 Y19.385
X16.55 Y19.263
X16.704 Y19.151
X16.868 Y19.05
X17.043 Y18.962
X17.228 Y18.886
X17.421 Y18.824
X17.621 Y18.778
X17.827 Y18.747
X18.037 Y18.733
X18.075
X18.288 Y18.767
X18.482 Y18.861
X18.641 Y19.007
G3 X18.602 Y19.432 Z8.188 I-0.253 J0.192 F600
G1 X18.58 Y19.452 Z8.2
X18.398 Y19.62
X16.531 Y21.338 F1000
X16.4 Y21.458 F600
X16.343 Y21.5
G3 X15.91 Y21.383 Z8 I-0.158 J-0.275
G1 X15.874 Y21.315 F1000
X15.66 Y20.864
X15.54 Y20.546
X15.516 Y20.479
X15.505 Y20.412
X15.499 Y20.262
X15.49 Y19.961
Y19.885
X15.495 Y19.848
X15.504 Y19.81
X15.644 Y19.359
X15.696 Y19.218
X15.76 Y19.082
X15.84 Y18.944
X15.937 Y18.803
X16.049 Y18.667
X16.179 Y18.53
X16.33 Y18.397
X16.383 Y18.357
X16.576 Y18.253
X16.791 Y18.209
X17.009 Y18.231
G3 X17.226 Y18.624 Z8.2 I-0.088 J0.305 F600
G1 X17.205 Y18.677
X17.176 Y18.725
X17.138 Y18.768
X17.081 Y18.821
X16.167 Y19.674 F1000
X16.138 Y19.698
X16.107 Y19.718
X16.05 Y19.743 F600
X15.99 Y19.757
X15.928 Y19.759
X15.867 Y19.748
G3 X15.644 Y19.359 Z8 I0.084 J-0.306
G1 X15.691 Y19.208 F1000
X15.731 Y19.058
X15.805 Y18.756
X15.838 Y18.606
X15.862 Y18.455
X15.886 Y18.307
X15.977 Y18.156
X16.12 Y18.051
X16.293 Y18.01
X16.467 Y18.04
G3 X16.683 Y18.216 Z8.113 I-0.194 J0.457 F600
G1 X16.719 Y18.278 Z8.142
X16.744 Y18.346 Z8.171
X16.759 Y18.416 Z8.2
X16.761 Y18.499
X16.748 Y18.581
X16.721 Y18.659
G3 X16.337 Y18.92 I-0.409 J-0.188 F1000
G1 X16.254 Y18.917 F600
X16.174 Y18.899
X16.098 Y18.866
G3 X15.862 Y18.455 Z8 I0.214 J-0.396
G1 X15.878 Y18.23 F1000
X15.887 Y18.192
X15.901 Y18.154
X15.936 Y18.091
X15.96 Y18.059
X15.991 Y18.027
X16.021 Y18.004
X16.051 Y17.985
X16.081 Y17.971
X16.111 Y17.961
X16.141 Y17.953
X16.179 Y17.948
X16.217
X16.254 Y17.952
X16.292 Y17.96
X16.338 Y17.978
X16.385 Y18.004
X16.442 Y18.03
X16.804 Y18.169
X16.893 Y18.201
X17.343 Y18.315
X17.866 Y18.432
X17.901 Y18.442
X17.944 Y18.459
X18.095 Y18.547
X18.395 Y18.732
X18.427 Y18.756
X18.462 Y18.79
X18.56 Y18.907
X18.682 Y19.058
X19.002 Y19.509
X19.097 Y19.66
X19.577 Y20.489
G3 X19.462 Y20.923 Z8.2 I-0.275 J0.159 F600
G1 X19.406 Y20.949
X19.345 Y20.963
X19.283 Y20.965
X19.222 Y20.956
X19.177 Y20.94 F1000
X19.134 Y20.918
X19.096 Y20.889
X18.689 Y20.54
G3 X19.051 Y20.022 I0.207 J-0.241
G1 X19.091 Y20.045
X19.195 Y20.113 F600
X19.293 Y20.189
G3 X19.62 Y20.563 Z8 I-1.015 J1.215
G1 X20.23 Y21.616 F1000
X20.348 Y21.817
X20.37 Y21.848
X20.453 Y21.973
X20.512 Y22.111
X20.554 Y22.255
X20.581 Y22.402
X20.592 Y22.552
X20.59 Y22.702
X20.576 Y22.852
X20.548 Y23.007
X20.506 Y23.17
X20.447 Y23.338
X20.373 Y23.505
X20.283 Y23.671
X20.175 Y23.836
X20.049 Y23.998
X19.906 Y24.156
X19.746 Y24.305
X19.571 Y24.444
X19.381 Y24.572
X19.178 Y24.686
X18.972 Y24.781
X18.783 Y24.849
X18.589 Y24.903
X18.422 Y24.935
X18.242 Y24.955
X18.159 Y24.957
X17.942 Y24.931
X17.742 Y24.842
X17.576 Y24.699
X17.46 Y24.514
X17.402 Y24.303
G3 X17.503 Y24.044 Z8.115 I0.316 J-0.026 F600
G1 X17.658 Y23.9 Z8.2
X17.84 Y23.731
X19.742 Y21.964 F1000
X19.905 Y21.812 F600
X19.925 Y21.796
G3 X20.37 Y21.848 Z8 I0.197 J0.249
G1 X20.498 Y22.021 F1000
X20.516 Y22.045
X20.54 Y22.068
X20.702 Y22.219
X20.755 Y22.26
