(adap2)
(T6 D=3.175 CR=0 - ZMIN=1 - flat end mill)
G90 G94
G17
G21
G28 G91 Z0
G90

(Adaptive1 8)
T6
(18 Flat-45 degree helix)
S18000 M3
G17 G90 G94
G54
G0 X27.258 Y-3.545
Z23
G0 Z13
Z10.135
G1 Z9.818 F600
X27.262 Y-3.538 Z9.747
X27.274 Y-3.518 Z9.68
X27.294 Y-3.486 Z9.62
X27.319 Y-3.442 Z9.569
X27.35 Y-3.391 Z9.531
X27.384 Y-3.333 Z9.508
X27.42 Y-3.272 Z9.5
G3 X27.913 Y-1.597 I-3.024 J1.798
G1 Y-1.415 F1000
X27.911 Y-1.377
X27.814 Y-1.263
X27.703 Y-1.162
X27.581 Y-1.073
X27.426 Y-0.976
X27.226 Y-0.874
X26.965 Y-0.765
X26.614 Y-0.652
X26.118 Y-0.534
X25.463 Y-0.434
X24.803 Y-0.377
X24.142 Y-0.345
X23.48 Y-0.326
X22.817 Y-0.316
X22.155 Y-0.31
X21.492 Y-0.306
X20.168 Y-0.303
X16.701 Y-0.302
X16.634 Y-0.305
X16.568 Y-0.314
X16.504 Y-0.328
X15.768 Y-0.532
X15.551 Y-0.589
X15.467 Y-0.61
X15.317 Y-0.632
X15.166 Y-0.649
X13.362 Y-0.811
X13.212 Y-0.824
X13.061 Y-0.835
X12.911 Y-0.831
X12.761 Y-0.822
X10.806 Y-0.646
X10.656 Y-0.629
X10.506 Y-0.602
X10.454 Y-0.589
X9.803 Y-0.467
X9.144 Y-0.396
X8.483 Y-0.355
X7.821 Y-0.332
X7.159 Y-0.319
X6.496 Y-0.312
X5.834 Y-0.307
X5.172 Y-0.305
X3.847 Y-0.303
X1.528 Y-0.302
X1.364 Y-0.284
X1.05 Y-0.176
X0.789 Y0.027
X0.357 Y0.529
X0.088 Y1.135
X-0.074 Y1.777
X-0.169 Y2.432
X-0.225 Y3.092
X-0.258 Y3.754
X-0.276 Y4.416
X-0.287 Y5.079
X-0.293 Y5.741
X-0.297 Y6.403
X-0.3 Y7.728
X-0.301 Y10.099
X-0.303 Y10.155
X-0.31 Y10.21
X-0.32 Y10.264
X-0.418 Y10.694
X-0.449 Y10.844
X-0.471 Y10.995
X-0.48 Y11.145
X-0.515 Y11.897
X-0.562 Y12.951
X-0.564 Y13.101
X-0.565 Y13.402
X-0.553 Y13.552
X-0.493 Y14.004
X-0.437 Y14.664
X-0.379 Y15.324
X-0.346 Y15.985
X-0.327 Y16.647
X-0.316 Y17.31
X-0.31 Y17.972
X-0.306 Y18.634
X-0.303 Y19.959
X-0.302 Y23.271
Y26.922
X-0.338 Y27.151
X-0.443 Y27.357
X-0.607 Y27.521
X-0.814 Y27.626
X-1.042 Y27.663
G3 X-1.219 Y27.089 I0.011 J-0.317 F600
G1 X-1.162 Y27.047 Z9.508
X-1.108 Y27.008 Z9.531
X-1.06 Y26.972 Z9.569
X-1.019 Y26.942 Z9.62
X-0.989 Y26.92 Z9.68
X-0.97 Y26.906 Z9.747
X-0.963 Y26.901 Z9.818
G0 Z13
X-1.011 Y13.038
Z10.135
G1 Z9.818 F600
X-1.006 Y13.044 Z9.747
X-0.991 Y13.063 Z9.68
X-0.968 Y13.092 Z9.62
X-0.937 Y13.132 Z9.569
X-0.899 Y13.179 Z9.531
X-0.857 Y13.231 Z9.508
X-0.814 Y13.287 Z9.5
G3 X-0.493 Y14.004 I-1.239 J0.984
G1 X-0.31 Y15.358 F1000
X-0.285 Y15.508
X-0.229 Y15.809
X-0.193 Y15.959
X0.433 Y17.885
X0.444 Y17.915
X0.613 Y18.431
X0.731 Y18.925
X0.833 Y19.579
X0.891 Y20.239
X0.924 Y20.901
X0.943 Y21.563
X0.954 Y22.225
X0.96 Y22.887
X0.964 Y23.55
X0.967 Y24.875
Y25.537
X0.964 Y26.135
X0.937 Y26.449
X0.889 Y26.736
X0.836 Y26.947
X0.763 Y27.161
X0.74 Y27.215
X0.627 Y27.398
X0.467 Y27.541
X0.272 Y27.631
X0.06 Y27.663
G3 X-0.117 Y27.089 I0.011 J-0.317 F600
G1 X-0.06 Y27.047 Z9.508
X-0.006 Y27.008 Z9.531
X0.043 Y26.972 Z9.569
X0.083 Y26.942 Z9.62
X0.114 Y26.92 Z9.68
X0.133 Y26.906 Z9.747
X0.139 Y26.901 Z9.818
G0 Z13
X-0.281 Y17.094
Z10.135
G1 Z9.818 F600
X-0.275 Y17.099 Z9.747
X-0.256 Y17.113 Z9.68
X-0.227 Y17.137 Z9.62
X-0.187 Y17.168 Z9.569
X-0.14 Y17.205 Z9.531
X-0.087 Y17.247 Z9.508
X-0.032 Y17.29 Z9.5
G3 X0.444 Y17.915 I-0.981 J1.242
G1 X0.502 Y18.066 F1000
X0.568 Y18.216
X0.647 Y18.366
X1.485 Y19.923
X1.539 Y20.021
X1.615 Y20.162
X1.728 Y20.422
X1.847 Y20.768
X1.969 Y21.243
X2.081 Y21.896
X2.147 Y22.555
X2.185 Y23.217
X2.207 Y23.879
X2.22 Y24.541
X2.226 Y25.203
X2.205 Y25.856
X2.152 Y26.327
X2.088 Y26.656
X2.01 Y26.931
X1.932 Y27.142
X1.89 Y27.233
X1.776 Y27.409
X1.617 Y27.546
X1.426 Y27.633
X1.218 Y27.663
X0.06
G3 X-0.246 Y27.334 Z9.7 I0.011 J-0.317 F600
G1 X-0.242 Y27.293
X-0.208 Y27.089
X0.96 Y20.142 F1000
X0.963 Y20.127
X0.982 Y20.068 F600
X1.012 Y20.014
X1.052 Y19.967
X1.1 Y19.928
G3 X1.539 Y20.021 Z9.5 I0.173 J0.266
G1 X1.635 Y20.181 F1000
X1.723 Y20.322
X2.201 Y20.924
X2.538 Y21.346
X2.669 Y21.529
X2.782 Y21.716
X2.9 Y21.953
X3.022 Y22.255
X3.148 Y22.66
X3.276 Y23.23
X3.369 Y23.885
X3.421 Y24.546
X3.437 Y25.208
X3.408 Y25.82
X3.347 Y26.298
X3.274 Y26.647
X3.187 Y26.941
X3.104 Y27.156
X3.062 Y27.243
X2.947 Y27.415
X2.789 Y27.549
X2.6 Y27.634
X2.394 Y27.663
X1.218
G3 X0.912 Y27.334 Z9.7 I0.011 J-0.317 F600
G1 X0.917 Y27.288
X0.953 Y27.09
X1.978 Y21.526 F1000
X1.984 Y21.495 F600
X1.998 Y21.443
X2.021 Y21.394
X2.052 Y21.349
X2.09 Y21.311
G3 X2.538 Y21.346 Z9.5 I0.206 J0.241
G1 X2.989 Y21.911 F1000
X3.139 Y22.096
X3.289 Y22.243
X3.327 Y22.278
X3.499 Y22.428
X3.657 Y22.58
X3.766 Y22.704
X3.873 Y22.847
X3.99 Y23.033
X4.11 Y23.263
X4.226 Y23.537
X4.342 Y23.887
X4.439 Y24.281
X4.512 Y24.735
X4.551 Y25.226
Y25.706
X4.514 Y26.16
X4.455 Y26.526
X4.38 Y26.828
X4.303 Y27.06
X4.238 Y27.212
X4.126 Y27.396
X3.965 Y27.54
X3.77 Y27.631
X3.556 Y27.663
X2.394
G3 X2.088 Y27.334 Z9.7 I0.011 J-0.317 F600
G1 X2.094 Y27.286
X2.131 Y27.09
X2.97 Y22.704 F1000
X2.987 Y22.615 F600
X3.001 Y22.564
X3.023 Y22.517
X3.053 Y22.474
G3 X3.499 Y22.428 Z9.5 I0.246 J0.201
G1 X4.705 Y23.481 F1000
X4.816 Y23.588
X4.916 Y23.7
X5.022 Y23.841
X5.132 Y24.013
X5.234 Y24.206
X5.337 Y24.447
X5.424 Y24.705
X5.5 Y25.012
X5.557 Y25.35
X5.586 Y25.7
X5.587 Y26.054
X5.562 Y26.385
X5.517 Y26.67
X5.457 Y26.916
X5.392 Y27.113
X5.352 Y27.209
X5.24 Y27.394
X5.079 Y27.539
X4.883 Y27.631
X4.669 Y27.663
X3.556
G3 X3.25 Y27.334 Z9.7 I0.011 J-0.317 F600
G1 X3.26 Y27.265
X3.305 Y27.093
X4.17 Y23.759 F1000
X4.198 Y23.649 F600
X4.222 Y23.586
X4.259 Y23.529
G3 X4.506 Y23.411 Z9.586 I0.247 J0.199
G1 X4.559 Y23.416 Z9.565
X4.611 Y23.429 Z9.543
X4.66 Y23.451 Z9.522
X4.705 Y23.481 Z9.5
X4.943 Y23.687 F1000
X5.081 Y23.782
X5.394 Y23.977
X5.544 Y24.067
X5.669 Y24.15
X5.787 Y24.244
X5.894 Y24.348
X5.995 Y24.465
X6.093 Y24.6
X6.191 Y24.76
X6.282 Y24.943
X6.369 Y25.156
X6.441 Y25.382
X6.499 Y25.635
X6.539 Y25.904
X6.557 Y26.179
X6.553 Y26.434
X6.53 Y26.671
X6.492 Y26.886
X6.446 Y27.063
X6.41 Y27.166
X6.303 Y27.367
X6.14 Y27.526
X5.936 Y27.627
X5.711 Y27.663
X4.669
G3 X4.363 Y27.334 Z9.7 I0.011 J-0.317 F600
G1 X4.371 Y27.272
X4.414 Y27.092
X5.045 Y24.43 F1000
X5.082 Y24.272 F600
X5.095 Y24.231
X5.113 Y24.192
G3 X5.544 Y24.067 Z9.5 I0.278 J0.153
G1 X6.578 Y24.685 F1000
X6.703 Y24.768
X6.817 Y24.866
X6.92 Y24.974
X7.015 Y25.093
X7.105 Y25.228
X7.19 Y25.38
X7.27 Y25.555
X7.338 Y25.741
X7.393 Y25.942
X7.434 Y26.154
X7.456 Y26.357
X7.461 Y26.558
X7.451 Y26.754
X7.429 Y26.917
X7.393 Y27.083
X7.377 Y27.136
X7.274 Y27.348
X7.109 Y27.517
X6.9 Y27.625
X6.668 Y27.663
X5.711
G3 X5.405 Y27.334 Z9.7 I0.011 J-0.317 F600
G1 X5.408 Y27.294
X5.417 Y27.255
X5.465 Y27.094
X6.07 Y25.045 F1000
X6.121 Y24.873 F600
X6.147 Y24.81
G3 X6.578 Y24.685 Z9.5 I0.278 J0.153
G1 X6.897 Y24.876 F1000
X7.101 Y24.986
X7.198 Y25.031
X7.348 Y25.09
X7.486 Y25.15
X7.612 Y25.231
X7.728 Y25.327
X7.832 Y25.434
X7.925 Y25.552
X8.007 Y25.677
X8.081 Y25.812
X8.148 Y25.961
X8.205 Y26.124
X8.248 Y26.284
X8.275 Y26.436
X8.293 Y26.609
X8.295 Y26.764
X8.286 Y26.914
X8.263 Y27.066
X8.257 Y27.09
X8.187 Y27.276
X8.07 Y27.435
X7.915 Y27.558
X7.732 Y27.636
X7.536 Y27.663
X6.668
G3 X6.362 Y27.334 Z9.7 I0.011 J-0.317 F600
G1 X6.365 Y27.295
X6.374 Y27.257
X6.421 Y27.094
X6.876 Y25.526 F1000
X6.941 Y25.302 F600
X6.946 Y25.288
G3 X7.348 Y25.09 Z9.5 I0.301 J0.102
G1 X8.183 Y25.403 F1000
X8.32 Y25.463
X8.448 Y25.542
X8.565 Y25.636
X8.669 Y25.744
X8.762 Y25.862
X8.844 Y25.988
X8.913 Y26.121
X8.971 Y26.259
X9.017 Y26.402
X9.049 Y26.548
X9.07 Y26.697
X9.076 Y26.847
X9.069 Y26.996
X9.065 Y27.024
X9.006 Y27.227
X8.892 Y27.405
X8.733 Y27.544
X8.54 Y27.632
X8.331 Y27.663
X7.536
G3 X7.23 Y27.334 Z9.7 I0.011 J-0.317 F600
G1 X7.235 Y27.29
X7.245 Y27.247
X7.295 Y27.096
X7.704 Y25.839 F1000
X7.78 Y25.606 F600
X7.781 Y25.603
G3 X8.183 Y25.403 Z9.5 I0.301 J0.101
G1 X9.002 Y25.71 F1000
X9.141 Y25.768
X9.267 Y25.849
X9.381 Y25.947
X9.482 Y26.058
X9.57 Y26.179
X9.644 Y26.31
X9.703 Y26.448
X9.748 Y26.591
X9.777 Y26.738
X9.79 Y26.887
Y26.929
X9.751 Y27.157
X9.645 Y27.361
X9.482 Y27.523
X9.276 Y27.627
X9.049 Y27.663
X8.331
G3 X8.025 Y27.334 Z9.7 I0.011 J-0.317 F600
G1 X8.032 Y27.277
X8.05 Y27.222
X8.101 Y27.1
X8.505 Y26.143 F1000
X8.602 Y25.915 F600
X8.612 Y25.889 Z9.689
G3 X9.002 Y25.71 Z9.5 I0.292 J0.123
G1 X9.303 Y25.819 F1000
X9.453 Y25.859
X9.6 Y25.888
X9.746 Y25.926
X9.883 Y25.985
X10.008 Y26.068
X10.12 Y26.168
X10.216 Y26.283
X10.296 Y26.41
X10.361 Y26.546
X10.406 Y26.688
X10.436 Y26.835
X10.438 Y26.861
X10.426 Y27.064
X10.36 Y27.257
X10.244 Y27.424
X10.087 Y27.553
X9.901 Y27.635
X9.699 Y27.663
X9.049
G3 X8.742 Y27.334 Z9.7 I0.011 J-0.317 F600
G1 X8.75 Y27.276
X8.768 Y27.221
X8.819 Y27.1
X9.129 Y26.375 F1000
X9.226 Y26.146 F600
X9.256 Y26.077 Z9.67
G3 X9.6 Y25.888 Z9.5 I0.292 J0.125
G1 X9.754 Y25.92 F1000
X9.904 Y25.949
X10.288 Y26.018
X10.434 Y26.052
X10.569 Y26.117
X10.692 Y26.203
X10.798 Y26.31
X10.888 Y26.429
X10.959 Y26.562
X11.012 Y26.702
X11.024 Y26.752
X11.042 Y26.973
X10.994 Y27.189
X10.884 Y27.382
X10.722 Y27.533
X10.522 Y27.629
X10.303 Y27.663
X9.699
G3 X9.393 Y27.334 Z9.7 I0.011 J-0.317 F600
G1 X9.404 Y27.264
X9.429 Y27.198
X9.479 Y27.104
X9.796 Y26.5 F1000
X9.911 Y26.28 F600
X9.961 Y26.185 Z9.657
G3 X10.288 Y26.018 Z9.5 I0.281 J0.147
G1 X10.926 Y26.134 F1000
X11.072 Y26.168
X11.206 Y26.236
X11.325 Y26.328
X11.425 Y26.439
X11.506 Y26.566
X11.568 Y26.702
X11.573 Y26.722
X11.6 Y26.947
X11.558 Y27.17
X11.45 Y27.369
X11.287 Y27.527
X11.084 Y27.628
X10.86 Y27.663
X10.303
G3 X9.997 Y27.334 Z9.7 I0.011 J-0.317 F600
G1 X10.004 Y27.279
X10.02 Y27.225
X10.046 Y27.176
X10.089 Y27.108
X10.409 Y26.601 F1000
X10.541 Y26.391 F600
X10.612 Y26.279 Z9.647
G3 X10.926 Y26.134 Z9.5 I0.268 J0.17
G1 X11.257 Y26.194 F1000
X11.408 Y26.22
X11.49 Y26.233
X11.637 Y26.264
X11.771 Y26.332
X11.888 Y26.426
X11.984 Y26.541
X11.987 Y26.546
X12.069 Y26.751
X12.087 Y26.972
X12.039 Y27.189
X11.929 Y27.381
X11.767 Y27.533
X11.568 Y27.629
X11.348 Y27.663
X10.86
G3 X10.554 Y27.334 Z9.7 I0.011 J-0.317 F600
G1 X10.562 Y27.272
X10.583 Y27.213
X10.614 Y27.158
X10.649 Y27.11
X10.954 Y26.692 F1000
X11.1 Y26.491 F600
X11.194 Y26.361 Z9.636
G3 X11.49 Y26.233 Z9.5 I0.257 J0.187
G1 X11.708 Y26.268 F1000
X11.859 Y26.285
X11.941 Y26.286
X12.091 Y26.295
X12.23 Y26.352
X12.351 Y26.44
X12.466 Y26.616
X12.527 Y26.817
X12.529 Y27.027
X12.471 Y27.229
X12.358 Y27.407
X12.2 Y27.545
X12.009 Y27.632
X11.801 Y27.663
X11.348
G3 X11.042 Y27.334 Z9.7 I0.011 J-0.317 F600
G1 X11.052 Y27.268
X11.075 Y27.205
X11.111 Y27.148
X11.139 Y27.112
X11.409 Y26.773 F1000
X11.563 Y26.578 F600
X11.7 Y26.405 Z9.612
G3 X11.941 Y26.286 Z9.5 I0.249 J0.197
G1 X12.355 Y26.289 F1000
X12.387
X12.537 Y26.297
X12.676 Y26.353
X12.797 Y26.442
X12.914 Y26.616
X12.977 Y26.816
X12.98 Y27.026
X12.923 Y27.228
X12.811 Y27.406
X12.654 Y27.544
X12.463 Y27.632
X12.256 Y27.663
X11.801
G3 X11.495 Y27.334 Z9.7 I0.011 J-0.317 F600
G1 X11.504 Y27.268
X11.527 Y27.205
X11.563 Y27.148
X11.592 Y27.112
X11.856 Y26.779 F1000
X12.01 Y26.584 F600
X12.149 Y26.409 Z9.61
G3 X12.387 Y26.289 Z9.5 I0.249 J0.197
G1 X12.838 F1000
X12.988 Y26.297
X13.127 Y26.353
X13.247 Y26.442
X13.364 Y26.616
X13.427 Y26.817
X13.43 Y27.026
X13.374 Y27.228
X13.262 Y27.406
X13.104 Y27.544
X12.914 Y27.632
X12.706 Y27.663
X12.256
G3 X11.949 Y27.334 Z9.7 I0.011 J-0.317 F600
G1 X11.959 Y27.268
X11.982 Y27.205
X12.017 Y27.149
X12.047 Y27.112
X12.308 Y26.78 F1000
X12.462 Y26.585 F600
X12.6 Y26.41 Z9.611
G3 X12.838 Y26.289 Z9.5 I0.249 J0.197
G1 X13.289 F1000
X13.439 Y26.297
X13.578 Y26.354
X13.698 Y26.443
X13.823 Y26.636
X13.881 Y26.859
X13.865 Y27.089
X13.777 Y27.302
X13.625 Y27.476
X13.427 Y27.593
X13.202 Y27.642
X12.911 Y27.656
X12.761 Y27.663
X12.706
G3 X12.4 Y27.334 Z9.7 I0.011 J-0.317 F600
G1 X12.409 Y27.268
X12.432 Y27.205
X12.468 Y27.149
X12.497 Y27.112
X12.759 Y26.78 F1000
X12.913 Y26.585 F600
X13.051 Y26.41 Z9.611
G3 X13.289 Y26.289 Z9.5 I0.249 J0.197
G1 X13.708 F1000
X13.858 Y26.296
X14 Y26.346
X14.124 Y26.43
X14.252 Y26.614
X14.315 Y26.83
X14.306 Y27.055
X14.226 Y27.265
X14.083 Y27.439
X13.892 Y27.558
X13.673 Y27.61
X13.362 Y27.633
X13.202 Y27.642
G3 X12.879 Y27.33 Z9.7 I-0.005 J-0.317 F600
G1 X12.886 Y27.262
X12.906 Y27.196
X12.94 Y27.137
X12.966 Y27.103
X13.193 Y26.791 F1000
X13.339 Y26.591 F600
X13.464 Y26.419 Z9.615
G3 X13.708 Y26.289 Z9.5 I0.256 J0.187
G1 X13.813 Y26.288 F1000
X14.159 Y26.28
X14.309 Y26.283
X14.449 Y26.336
X14.599 Y26.483
X14.697 Y26.668
X14.735 Y26.874
X14.71 Y27.082
X14.623 Y27.272
X14.482 Y27.427
X14.301 Y27.533
X14.097 Y27.58
X13.673 Y27.61
G3 X13.344 Y27.305 Z9.7 I-0.012 J-0.317 F600
G1 X13.347 Y27.251
X13.358 Y27.199
X13.379 Y27.149
X13.407 Y27.103
X13.427 Y27.077
X13.643 Y26.786 F1000
X13.792 Y26.587 F600
X13.925 Y26.407 Z9.61
G3 X14.159 Y26.28 Z9.5 I0.255 J0.19
G1 X14.264 Y26.277 F1000
X14.497 Y26.237
X14.646 Y26.218
X14.792 Y26.253
X14.924 Y26.323
X15.058 Y26.479
X15.14 Y26.667
X15.165 Y26.871
X15.129 Y27.073
X15.036 Y27.257
X14.894 Y27.405
X14.715 Y27.506
X14.515 Y27.55
X14.097 Y27.58
G3 X13.768 Y27.275 Z9.7 I-0.012 J-0.317 F600
G1 X13.773 Y27.209
X13.791 Y27.145
X13.821 Y27.087
X13.849 Y27.045
X14.021 Y26.787 F1000
X14.158 Y26.581 F600
X14.298 Y26.371 Z9.599
X14.337 Y26.324 Z9.574
X14.384 Y26.284 Z9.55
X14.438 Y26.255 Z9.525
X14.497 Y26.237 Z9.5
X14.769 Y26.189 F1000
X14.911 Y26.164
X15.06 Y26.144
X15.206 Y26.176
X15.339 Y26.246
X15.456 Y26.34
X15.568 Y26.525
X15.619 Y26.736
X15.604 Y26.952
X15.526 Y27.154
X15.39 Y27.322
X15.21 Y27.443
X15.003 Y27.504
X14.866 Y27.522
X14.715 Y27.536
X14.515 Y27.55
G3 X14.186 Y27.245 Z9.7 I-0.012 J-0.317 F600
G1 X14.19 Y27.182
X14.206 Y27.121
X14.234 Y27.064
X14.265 Y27.014
X14.447 Y26.724 F1000
X14.579 Y26.513 F600
X14.709 Y26.305 Z9.602
X14.748 Y26.255 Z9.576
X14.796 Y26.214 Z9.551
X14.851 Y26.183 Z9.525
X14.911 Y26.164 Z9.5
X15.362 Y26.082 F1000
X15.511 Y26.062
X15.657 Y26.096
X15.791 Y26.163
X15.944 Y26.335
X16.036 Y26.546
X16.056 Y26.775
X16.002 Y26.999
X15.881 Y27.195
X15.705 Y27.342
X15.49 Y27.427
X15.317 Y27.462
X15.003 Y27.504
G3 X14.655 Y27.219 Z9.7 I-0.031 J-0.316 F600
G1 X14.656 Y27.154
X14.669 Y27.09
X14.696 Y27.03
X14.722 Y26.985
X14.914 Y26.651 F1000
X15.038 Y26.436 F600
X15.154 Y26.234 Z9.606
G3 X15.362 Y26.082 Z9.5 I0.275 J0.158
G1 X15.768 Y26.008 F1000
X15.916 Y25.989
X16.064 Y26.014
X16.201 Y26.076
X16.361 Y26.24
X16.46 Y26.447
X16.487 Y26.675
X16.44 Y26.899
X16.322 Y27.096
X16.148 Y27.245
X15.934 Y27.33
X15.49 Y27.427
G3 X15.121 Y27.171 Z9.7 I-0.057 J-0.312 F600
G1 X15.116 Y27.103
X15.126 Y27.035
X15.15 Y26.971
X15.17 Y26.933
X15.342 Y26.59 F1000
X15.454 Y26.368 F600
X15.552 Y26.175 Z9.613
G3 X15.768 Y26.008 Z9.5 I0.283 J0.143
G1 X16.219 Y25.926 F1000
X16.367 Y25.902
X16.513 Y25.933
X16.688 Y26.057
X16.817 Y26.228
X16.888 Y26.43
X16.894 Y26.644
X16.835 Y26.85
X16.717 Y27.028
X16.55 Y27.162
X16.35 Y27.24
X15.934 Y27.33
G3 X15.565 Y27.074 Z9.7 I-0.057 J-0.312 F600
G1 X15.561 Y27.004
X15.572 Y26.934
X15.598 Y26.868
X15.614 Y26.837
X15.789 Y26.51 F1000
X15.906 Y26.291 F600
X16.017 Y26.084 Z9.606
G3 X16.219 Y25.926 Z9.5 I0.28 J0.15
G1 X16.602 Y25.842 F1000
X16.75 Y25.817
X16.898 Y25.842
X17.036 Y25.901
X17.196 Y26.064
X17.295 Y26.269
X17.322 Y26.496
X17.275 Y26.719
X17.159 Y26.915
X16.985 Y27.063
X16.773 Y27.147
X16.35 Y27.24
G3 X15.981 Y26.984 Z9.7 I-0.057 J-0.312 F600
G1 X15.976 Y26.916
X15.985 Y26.849
X16.009 Y26.785
X16.029 Y26.746
X16.185 Y26.433 F1000
X16.296 Y26.211 F600
X16.397 Y26.008 Z9.609
G3 X16.602 Y25.842 Z9.5 I0.284 J0.142
G1 X16.67 Y25.827 F1000
X16.82 Y25.777
X16.97 Y25.721
X17.113 Y25.676
X17.263 Y25.69
X17.404 Y25.739
X17.562 Y25.871
X17.675 Y26.042
X17.735 Y26.239
X17.736 Y26.445
X17.678 Y26.642
X17.565 Y26.814
X17.409 Y26.947
X17.221 Y27.03
X16.97 Y27.099
X16.82 Y27.137
X16.773 Y27.147
G3 X16.404 Y26.892 Z9.7 I-0.057 J-0.312 F600
G1 X16.399 Y26.828
X16.407 Y26.764
X16.428 Y26.703
X16.451 Y26.653
X16.591 Y26.345 F1000
X16.695 Y26.119 F600
X16.803 Y25.882 Z9.595
X16.833 Y25.831 Z9.572
X16.871 Y25.786 Z9.548
X16.918 Y25.749 Z9.524
X16.97 Y25.721 Z9.5
X17.355 Y25.577 F1000
X17.498 Y25.531
X17.648 Y25.537
X17.791 Y25.581
X17.973 Y25.722
X18.101 Y25.915
X18.159 Y26.138
X18.143 Y26.368
X18.054 Y26.58
X17.901 Y26.753
X17.702 Y26.868
X17.421 Y26.972
X17.243 Y27.024
X17.221 Y27.03
G3 X16.838 Y26.795 Z9.7 I-0.074 J-0.309 F600
G1 X16.83 Y26.732
X16.834 Y26.668
X16.851 Y26.606
X16.871 Y26.554
X17.004 Y26.213 F1000
X17.093 Y25.981 F600
X17.181 Y25.755 Z9.603
X17.21 Y25.698 Z9.577
X17.25 Y25.648 Z9.551
X17.299 Y25.607 Z9.526
X17.355 Y25.577 Z9.5
X17.771 Y25.421 F1000
X17.914 Y25.375
X18.064 Y25.382
X18.207 Y25.427
X18.389 Y25.568
X18.517 Y25.76
X18.575 Y25.983
X18.559 Y26.212
X18.471 Y26.425
X18.318 Y26.598
X18.118 Y26.712
X17.702 Y26.868
G3 X17.3 Y26.667 Z9.7 I-0.101 J-0.301 F600
G1 X17.285 Y26.6
X17.286 Y26.531
X17.301 Y26.463
X17.314 Y26.425
X17.438 Y26.063 F1000
X17.518 Y25.828 F600
X17.593 Y25.611 Z9.608
G3 X17.771 Y25.421 Z9.5 I0.3 J0.103
G1 X18.173 Y25.27 F1000
X18.316 Y25.224
X18.466 Y25.228
X18.61 Y25.269
X18.796 Y25.407
X18.926 Y25.599
X18.988 Y25.822
X18.974 Y26.053
X18.886 Y26.268
X18.733 Y26.442
X18.533 Y26.558
X18.118 Y26.712
G3 X17.717 Y26.512 Z9.7 I-0.101 J-0.301 F600
G1 X17.702 Y26.446
Y26.378
X17.716 Y26.312
X17.73 Y26.269
X17.846 Y25.914 F1000
X17.923 Y25.678 F600
X17.993 Y25.464 Z9.61
G3 X18.173 Y25.27 Z9.5 I0.302 J0.099
G1 X18.581 Y25.117 F1000
X18.724 Y25.071
X18.874 Y25.073
X19.019 Y25.113
X19.204 Y25.249
X19.336 Y25.438
X19.4 Y25.658
X19.389 Y25.888
X19.306 Y26.102
X19.158 Y26.278
X18.961 Y26.397
X18.925 Y26.411
X18.533 Y26.558
G3 X18.131 Y26.357 Z9.7 I-0.101 J-0.301 F600
G1 X18.117 Y26.292
X18.116 Y26.225
X18.13 Y26.16
X18.144 Y26.114
X18.257 Y25.762 F1000
X18.333 Y25.526 F600
X18.401 Y25.313 Z9.61
G3 X18.581 Y25.117 Z9.5 I0.302 J0.097
G1 X18.624 Y25.101 F1000
X18.774 Y25.04
X18.905 Y24.986
X18.925 Y24.976
X19.059 Y24.908
X19.208 Y24.894
X19.356 Y24.916
X19.549 Y25.032
X19.696 Y25.203
X19.78 Y25.412
X19.793 Y25.637
X19.735 Y25.854
X19.61 Y26.042
X19.432 Y26.181
X19.376 Y26.211
X19.225 Y26.291
X18.961 Y26.397
G3 X18.555 Y26.205 Z9.7 I-0.107 J-0.299 F600
G1 X18.539 Y26.142
X18.537 Y26.077
X18.548 Y26.012
X18.562 Y25.962
X18.648 Y25.652 F1000
X18.715 Y25.413 F600
X18.786 Y25.161 Z9.595
X18.807 Y25.105 Z9.571
X18.838 Y25.055 Z9.547
X18.878 Y25.011 Z9.524
X18.925 Y24.976 Z9.5
X19.17 Y24.835 F1000
X19.271 Y24.775
X19.403 Y24.705
X19.552 Y24.683
X19.701 Y24.698
X19.905 Y24.805
X20.062 Y24.973
X20.156 Y25.183
X20.177 Y25.412
X20.122 Y25.636
X19.997 Y25.829
X19.816 Y25.971
X19.432 Y26.181
G3 X19.006 Y26.039 Z9.7 I-0.142 J-0.284 F600
G1 X18.983 Y25.976
X18.973 Y25.908
X18.978 Y25.841
X18.985 Y25.797
X19.045 Y25.464 F1000
X19.089 Y25.22 F600
X19.131 Y24.986 Z9.604
G3 X19.271 Y24.775 Z9.5 I0.313 J0.056
G1 X19.644 Y24.552 F1000
X19.776 Y24.482
X19.924 Y24.46
X20.074 Y24.476
X20.257 Y24.566
X20.407 Y24.705
X20.51 Y24.881
X20.559 Y25.08
X20.548 Y25.284
X20.48 Y25.476
X20.359 Y25.641
X20.195 Y25.764
X19.816 Y25.971
G3 X19.39 Y25.83 Z9.7 I-0.142 J-0.284 F600
G1 X19.367 Y25.768
X19.357 Y25.702
X19.36 Y25.636
X19.368 Y25.588
X19.425 Y25.243 F1000
X19.465 Y24.998 F600
X19.503 Y24.768 Z9.606
G3 X19.644 Y24.552 Z9.5 I0.313 J0.051
G1 X20.023 Y24.326 F1000
X20.155 Y24.255
X20.303 Y24.234
X20.453 Y24.25
X20.639 Y24.341
X20.79 Y24.482
X20.895 Y24.661
X20.945 Y24.862
X20.934 Y25.069
X20.864 Y25.265
X20.742 Y25.431
X20.576 Y25.556
X20.195 Y25.764
G3 X19.769 Y25.623 Z9.7 I-0.142 J-0.284 F600
G1 X19.746 Y25.561
X19.736 Y25.496
X19.74 Y25.43
X19.747 Y25.38
X19.806 Y25.017 F1000
X19.845 Y24.772 F600
X19.881 Y24.542 Z9.607
G3 X20.023 Y24.326 Z9.5 I0.314 J0.05
G1 X20.398 Y24.102 F1000
X20.53 Y24.031
X20.678 Y24.008
X20.828 Y24.023
X21.016 Y24.112
X21.17 Y24.252
X21.279 Y24.43
X21.331 Y24.632
X21.324 Y24.84
X21.258 Y25.037
X21.138 Y25.208
X20.974 Y25.336
X20.879 Y25.391
X20.576 Y25.556
G3 X20.15 Y25.415 Z9.7 I-0.142 J-0.284 F600
G1 X20.127 Y25.354
X20.117 Y25.29
X20.12 Y25.225
X20.128 Y25.173
X20.185 Y24.793 F1000
X20.222 Y24.548 F600
X20.256 Y24.321 Z9.608
G3 X20.398 Y24.102 Z9.5 I0.314 J0.047
G1 X20.578 Y23.994 F1000
X20.729 Y23.902
X20.774 Y23.873
X20.905 Y23.8
X21.053 Y23.776
X21.203 Y23.789
X21.401 Y23.884
X21.56 Y24.036
X21.665 Y24.23
X21.703 Y24.446
X21.673 Y24.664
X21.576 Y24.862
X21.423 Y25.02
X21.18 Y25.202
X21.058 Y25.287
X20.999 Y25.322
X20.974 Y25.336
G3 X20.545 Y25.204 Z9.7 I-0.148 J-0.281 F600
G1 X20.52 Y25.143
X20.509 Y25.078
X20.511 Y25.012
X20.518 Y24.962
X20.572 Y24.568 F1000
X20.606 Y24.322 F600
X20.637 Y24.093 Z9.607
G3 X20.774 Y23.873 Z9.5 I0.315 J0.043
G1 X20.92 Y23.782 F1000
X21.03 Y23.708
X21.081 Y23.666
X21.202 Y23.577
X21.346 Y23.536
X21.496 Y23.531
X21.707 Y23.61
X21.881 Y23.753
X22 Y23.944
X22.05 Y24.164
X22.027 Y24.388
X21.932 Y24.593
X21.776 Y24.756
X21.423 Y25.02
G3 X20.981 Y24.941 Z9.7 I-0.181 J-0.261 F600
G1 X20.948 Y24.879
X20.929 Y24.812
X20.925 Y24.741
X20.927 Y24.704
X20.945 Y24.381 F1000
X20.959 Y24.133 F600
X20.973 Y23.887 Z9.601
X20.983 Y23.825 Z9.576
X21.005 Y23.766 Z9.551
X21.038 Y23.712 Z9.525
X21.081 Y23.666 Z9.5
X21.123 Y23.632 F1000
X21.401 Y23.389
X21.518 Y23.296
X21.662 Y23.254
X21.812 Y23.248
X22.032 Y23.324
X22.215 Y23.468
X22.34 Y23.664
X22.395 Y23.89
X22.373 Y24.122
X22.276 Y24.333
X22.116 Y24.501
X21.776 Y24.756
G3 X21.334 Y24.677 Z9.7 I-0.181 J-0.261 F600
G1 X21.302 Y24.618
X21.283 Y24.554
X21.277 Y24.487
X21.279 Y24.44
X21.287 Y24.108 F1000
X21.294 Y23.86 F600
X21.3 Y23.613 Z9.601
X21.308 Y23.55 Z9.576
X21.328 Y23.491 Z9.55
X21.359 Y23.436 Z9.525
X21.401 Y23.389 Z9.5
X21.717 Y23.112 F1000
X21.835 Y23.019
X21.978 Y22.973
X22.127 Y22.962
X22.329 Y23.022
X22.505 Y23.138
X22.64 Y23.3
X22.722 Y23.494
X22.744 Y23.703
X22.704 Y23.91
X22.605 Y24.096
X22.457 Y24.246
X22.116 Y24.501
G3 X21.674 Y24.422 Z9.7 I-0.181 J-0.261 F600
G1 X21.643 Y24.366
X21.624 Y24.305
X21.617 Y24.241
Y24.186
Y23.831 F1000
Y23.583 F600
Y23.344 Z9.604
G3 X21.717 Y23.112 Z9.5 I0.317 J0
G1 X22.038 Y22.833 F1000
X22.156 Y22.74
X22.296 Y22.688
X22.446 Y22.674
X22.595 Y22.691
X22.785 Y22.782
X22.94 Y22.925
X23.048 Y23.107
X23.098 Y23.312
X23.087 Y23.522
X23.016 Y23.721
X22.89 Y23.89
X22.834 Y23.946
X22.683 Y24.075
X22.457 Y24.246
G3 X22.015 Y24.167 Z9.7 I-0.181 J-0.261 F600
G1 X21.985 Y24.113
X21.966 Y24.054
X21.959 Y23.993
X21.957 Y23.93
X21.948 Y23.551 F1000
X21.943 Y23.303 F600
X21.937 Y23.071 Z9.607
G3 X22.038 Y22.833 Z9.5 I0.317 J-0.007
G1 X22.383 Y22.531 F1000
X22.5 Y22.438
X22.641 Y22.387
X22.79 Y22.371
X23.007 Y22.431
X23.194 Y22.556
X23.332 Y22.734
X23.406 Y22.947
X23.41 Y23.172
X23.343 Y23.386
X23.211 Y23.569
X22.89 Y23.89
G3 X22.441 Y23.875 Z9.7 I-0.217 J-0.232 F600
G1 X22.399 Y23.818
X22.37 Y23.753
X22.357 Y23.684
X22.354 Y23.648
X22.321 Y23.249 F1000
X22.301 Y23.001 F600
X22.283 Y22.789 Z9.615
G3 X22.383 Y22.531 Z9.5 I0.316 J-0.026
G1 X22.683 Y22.269 F1000
X22.707 Y22.245
X22.818 Y22.144
X22.958 Y22.091
X23.107 Y22.076
X23.322 Y22.132
X23.508 Y22.253
X23.645 Y22.427
X23.721 Y22.636
X23.726 Y22.858
X23.66 Y23.07
X23.53 Y23.25
X23.211 Y23.569
G3 X22.762 Y23.554 Z9.7 I-0.217 J-0.232 F600
G1 X22.729 Y23.511
X22.703 Y23.463
X22.686 Y23.411
X22.678 Y23.357
X22.676 Y23.327
X22.653 Y22.969 F1000
X22.637 Y22.721 F600
X22.622 Y22.482 Z9.604
G3 X22.707 Y22.245 Z9.5 I0.317 J-0.02
G1 X22.834 Y22.118 F1000
X22.959 Y21.977
X23.058 Y21.865
X23.192 Y21.796
X23.338 Y21.762
X23.54 Y21.792
X23.724 Y21.88
X23.875 Y22.017
X23.98 Y22.192
X24.03 Y22.39
X24.02 Y22.594
X23.951 Y22.787
X23.829 Y22.951
X23.53 Y23.25
G3 X23.082 Y23.234 Z9.7 I-0.217 J-0.232 F600
G1 X23.041 Y23.181
X23.013 Y23.12
X22.998 Y23.055
X22.993 Y23.008
X22.957 Y22.707 F1000
X22.928 Y22.46 F600
X22.898 Y22.204 Z9.597
X22.897 Y22.144 Z9.572
X22.906 Y22.085 Z9.548
X22.927 Y22.028 Z9.524
X22.959 Y21.977 Z9.5
X23.225 Y21.644 F1000
X23.324 Y21.531
X23.457 Y21.461
X23.603 Y21.428
X23.753 Y21.424
X23.962 Y21.494
X24.139 Y21.624
X24.269 Y21.801
X24.338 Y22.009
X24.342 Y22.229
X24.278 Y22.44
X24.153 Y22.621
X24.051 Y22.729
X23.829 Y22.951
G3 X23.381 Y22.935 Z9.7 I-0.217 J-0.232 F600
G1 X23.342 Y22.885
X23.315 Y22.827
X23.299 Y22.766
X23.29 Y22.709
X23.24 Y22.371 F1000
X23.203 Y22.126 F600
X23.166 Y21.88 Z9.6
X23.163 Y21.818 Z9.575
X23.172 Y21.756 Z9.55
X23.193 Y21.697 Z9.525
X23.225 Y21.644 Z9.5
X23.501 Y21.298 F1000
X23.6 Y21.186
X23.73 Y21.112
X23.875 Y21.073
X24.105 Y21.098
X24.315 Y21.195
X24.483 Y21.354
X24.592 Y21.558
X24.63 Y21.786
X24.594 Y22.014
X24.487 Y22.219
X24.33 Y22.428
X24.187 Y22.585
X24.153 Y22.621
G3 X23.704 Y22.618 Z9.7 I-0.223 J-0.226 F600
G1 X23.665 Y22.57
X23.636 Y22.515
X23.618 Y22.455
X23.607 Y22.395
X23.535 Y22.022 F1000
X23.488 Y21.778 F600
X23.444 Y21.547 Z9.606
X23.438 Y21.488 Z9.582
Y21.487 Z9.581
X23.445 Y21.42 Z9.554
X23.466 Y21.356 Z9.527
X23.501 Y21.298 Z9.5
X23.77 Y20.96 F1000
X23.87 Y20.847
X23.999 Y20.772
X24.144 Y20.731
X24.372 Y20.752
X24.581 Y20.845
X24.75 Y21
X24.86 Y21.201
X24.899 Y21.427
X24.864 Y21.653
X24.759 Y21.856
X24.487 Y22.219
G3 X24.041 Y22.268 Z9.7 I-0.247 J-0.199 F600
G1 X23.992 Y22.219
X23.955 Y22.161
X23.931 Y22.096
X23.921 Y22.056
X23.829 Y21.679 F1000
X23.769 Y21.437 F600
X23.717 Y21.224 Z9.612
G3 X23.77 Y20.96 Z9.5 I0.308 J-0.076
G1 X24.036 Y20.626 F1000
X24.136 Y20.514
X24.263 Y20.435
X24.407 Y20.391
X24.634 Y20.408
X24.843 Y20.498
X25.012 Y20.65
X25.123 Y20.849
X25.164 Y21.073
X25.13 Y21.298
X25.025 Y21.5
X24.759 Y21.856
G3 X24.312 Y21.905 Z9.7 I-0.247 J-0.199 F600
G1 X24.265 Y21.857
X24.228 Y21.801
X24.204 Y21.738
X24.193 Y21.694
X24.101 Y21.343 F1000
X24.038 Y21.103 F600
X23.984 Y20.895 Z9.614
G3 X24.036 Y20.626 Z9.5 I0.307 J-0.08
G1 X24.277 Y20.322 F1000
X24.295 Y20.292
X24.38 Y20.168
X24.506 Y20.087
X24.648 Y20.04
X24.877 Y20.053
X25.089 Y20.138
X25.262 Y20.288
X25.377 Y20.485
X25.423 Y20.709
X25.393 Y20.936
X25.292 Y21.141
X25.231 Y21.225
X25.025 Y21.5
G3 X24.579 Y21.549 Z9.7 I-0.247 J-0.199 F600
G1 X24.53 Y21.499
X24.493 Y21.441
X24.469 Y21.376
X24.46 Y21.337
X24.383 Y21.017 F1000
X24.324 Y20.776 F600
X24.263 Y20.523 Z9.596
X24.255 Y20.464 Z9.572
X24.257 Y20.405 Z9.548
X24.271 Y20.347 Z9.524
X24.295 Y20.292 Z9.5
X24.337 Y20.224 F1000
X24.487 Y19.967
X24.569 Y19.841
X24.687 Y19.748
X24.824 Y19.687
X25.034 Y19.678
X25.238 Y19.731
X25.417 Y19.841
X25.556 Y19.999
X25.643 Y20.19
X25.669 Y20.399
X25.634 Y20.606
X25.539 Y20.794
X25.292 Y21.141
G3 X24.847 Y21.198 Z9.7 I-0.251 J-0.194 F600
G1 X24.801 Y21.155
X24.765 Y21.104
X24.739 Y21.046
X24.721 Y20.99
X24.619 Y20.681 F1000
X24.541 Y20.445 F600
X24.466 Y20.216 Z9.603
G3 X24.487 Y19.967 Z9.5 I0.302 J-0.099
G1 X24.543 Y19.871 F1000
X24.691 Y19.595
X24.769 Y19.467
X24.885 Y19.372
X25.022 Y19.31
X25.168 Y19.276
X25.377 Y19.301
X25.57 Y19.387
X25.729 Y19.526
X25.84 Y19.706
X25.892 Y19.91
X25.882 Y20.121
X25.81 Y20.32
X25.644 Y20.623
X25.553 Y20.773
X25.539 Y20.794
G3 X25.094 Y20.854 Z9.7 I-0.252 J-0.193 F600
G1 X25.049 Y20.813
X25.013 Y20.764
X24.987 Y20.709
X24.965 Y20.647
X24.843 Y20.306 F1000
X24.759 Y20.072 F600
X24.677 Y19.843 Z9.602
X24.662 Y19.781 Z9.577
X24.659 Y19.718 Z9.551
X24.669 Y19.655 Z9.526
X24.691 Y19.595 Z9.5
X24.906 Y19.196 F1000
X24.984 Y19.068
X25.1 Y18.972
X25.235 Y18.907
X25.466 Y18.892
X25.69 Y18.953
X25.882 Y19.083
X26.023 Y19.268
X26.096 Y19.488
X26.094 Y19.72
X26.018 Y19.939
X25.81 Y20.32
G3 X25.375 Y20.431 Z9.7 I-0.273 J-0.162 F600
G1 X25.321 Y20.391
X25.276 Y20.34
X25.244 Y20.281
X25.226 Y20.239
X25.082 Y19.897 F1000
X24.986 Y19.668 F600
X24.898 Y19.46 Z9.609
G3 X24.906 Y19.196 Z9.5 I0.293 J-0.123
G1 X25.11 Y18.818 F1000
X25.187 Y18.689
X25.302 Y18.592
X25.436 Y18.526
X25.669 Y18.507
X25.894 Y18.565
X26.089 Y18.692
X26.232 Y18.877
X26.307 Y19.097
X26.306 Y19.33
X26.23 Y19.55
X26.018 Y19.939
G3 X25.583 Y20.05 Z9.7 I-0.273 J-0.162 F600
G1 X25.529 Y20.01
X25.485 Y19.96
X25.453 Y19.902
X25.434 Y19.858
X25.288 Y19.518 F1000
X25.191 Y19.29 F600
X25.103 Y19.083 Z9.61
G3 X25.11 Y18.818 Z9.5 I0.292 J-0.125
G1 X25.316 Y18.434 F1000
X25.394 Y18.306
X25.507 Y18.208
X25.642 Y18.141
X25.845 Y18.119
X26.047 Y18.156
X26.229 Y18.249
X26.377 Y18.39
X26.479 Y18.568
X26.525 Y18.768
X26.512 Y18.972
X26.441 Y19.164
X26.23 Y19.55
G3 X25.795 Y19.662 Z9.7 I-0.273 J-0.162 F600
G1 X25.742 Y19.622
X25.698 Y19.573
X25.666 Y19.515
X25.646 Y19.47
X25.498 Y19.133 F1000
X25.399 Y18.905 F600
X25.31 Y18.702 Z9.611
G3 X25.316 Y18.434 Z9.5 I0.291 J-0.127
G1 X25.353 Y18.366 F1000
X25.389 Y18.293
X25.498 Y18.066
X25.564 Y17.931
X25.672 Y17.827
X25.803 Y17.755
X26.022 Y17.723
X26.241 Y17.762
X26.435 Y17.866
X26.588 Y18.027
X26.682 Y18.228
X26.709 Y18.447
X26.665 Y18.664
X26.606 Y18.818
X26.464 Y19.119
X26.441 Y19.164
G3 X26.006 Y19.276 Z9.7 I-0.273 J-0.162 F600
G1 X25.954 Y19.237
X25.911 Y19.189
X25.878 Y19.133
X25.856 Y19.084
X25.71 Y18.762 F1000
X25.607 Y18.535 F600
X25.505 Y18.31 Z9.601
X25.485 Y18.251 Z9.576
X25.477 Y18.189 Z9.55
X25.482 Y18.126 Z9.525
X25.498 Y18.066 Z9.5
X25.54 Y17.968 F1000
X25.621 Y17.719
X25.675 Y17.579
X25.771 Y17.464
X25.892 Y17.376
X26.117 Y17.322
X26.346 Y17.344
X26.555 Y17.44
X26.722 Y17.6
X26.827 Y17.805
X26.86 Y18.033
X26.816 Y18.259
X26.665 Y18.664
G3 X26.251 Y18.837 Z9.7 I-0.293 J-0.121 F600
G1 X26.192 Y18.805
X26.141 Y18.761
X26.1 Y18.707
X26.076 Y18.668
X25.906 Y18.386 F1000
X25.778 Y18.174 F600
X25.655 Y17.971 Z9.605
G3 X25.621 Y17.719 Z9.5 I0.272 J-0.164
G1 X25.753 Y17.313 F1000
X25.807 Y17.173
X25.902 Y17.057
X26.023 Y16.969
X26.221 Y16.914
X26.426 Y16.918
X26.621 Y16.982
X26.79 Y17.099
X26.917 Y17.26
X26.992 Y17.451
X27.01 Y17.655
X26.967 Y17.856
X26.816 Y18.259
G3 X26.402 Y18.431 Z9.7 I-0.293 J-0.121 F600
G1 X26.344 Y18.4
X26.295 Y18.358
X26.254 Y18.307
X26.226 Y18.263
X26.046 Y17.976 F1000
X25.913 Y17.766 F600
X25.79 Y17.57 Z9.607
G3 X25.753 Y17.313 Z9.5 I0.269 J-0.169
G1 X25.89 Y16.892 F1000
X25.943 Y16.752
X26.039 Y16.637
X26.161 Y16.55
X26.362 Y16.495
X26.57 Y16.5
X26.768 Y16.564
X26.939 Y16.684
X27.068 Y16.847
X27.144 Y17.041
X27.161 Y17.248
X27.117 Y17.452
X26.967 Y17.856
G3 X26.552 Y18.028 Z9.7 I-0.293 J-0.121 F600
G1 X26.495 Y17.997
X26.445 Y17.956
X26.405 Y17.905
X26.377 Y17.86
X26.183 Y17.554 F1000
X26.05 Y17.345 F600
X25.927 Y17.15 Z9.608
X25.9 Y17.097 Z9.584
X25.883 Y17.039 Z9.56
X25.878 Y16.98 Z9.536
X25.881 Y16.936 Z9.518
X25.89 Y16.892 Z9.5
X26.025 Y16.478 F1000
X26.078 Y16.338
X26.172 Y16.222
X26.294 Y16.133
X26.515 Y16.073
X26.744 Y16.085
X26.958 Y16.169
X27.134 Y16.316
X27.254 Y16.512
X27.307 Y16.735
X27.286 Y16.963
X27.273 Y17.012
X27.225 Y17.163
X27.117 Y17.452
G3 X26.703 Y17.624 Z9.7 I-0.293 J-0.121 F600
G1 X26.647 Y17.594
X26.597 Y17.553
X26.557 Y17.503
X26.527 Y17.456
X26.321 Y17.138 F1000
X26.187 Y16.929 F600
X26.063 Y16.738 Z9.609
G3 X26.025 Y16.478 Z9.5 I0.267 J-0.172
G1 X26.159 Y16.064 F1000
X26.212 Y15.924
X26.306 Y15.807
X26.426 Y15.717
X26.638 Y15.655
X26.858 Y15.663
X27.065 Y15.739
X27.238 Y15.876
X27.359 Y16.061
X27.416 Y16.274
X27.404 Y16.494
X27.389 Y16.561
X27.286 Y16.963
G3 X26.892 Y17.179 Z9.7 I-0.305 J-0.089 F600
G1 X26.827 Y17.152
X26.77 Y17.111
X26.723 Y17.059
X26.701 Y17.028
X26.474 Y16.711 F1000
X26.33 Y16.509 F600
X26.206 Y16.337 Z9.615
G3 X26.159 Y16.064 Z9.5 I0.258 J-0.185
G1 X26.193 Y15.959 F1000
X26.229 Y15.809
X26.251 Y15.689
X26.286 Y15.543
X26.37 Y15.419
X26.482 Y15.318
X26.694 Y15.24
X26.92 Y15.235
X27.135 Y15.303
X27.317 Y15.437
X27.446 Y15.623
X27.508 Y15.84
X27.497 Y16.066
X27.404 Y16.494
G3 X27.018 Y16.723 Z9.7 I-0.308 J-0.079 F600
G1 X26.953 Y16.699
X26.895 Y16.661
X26.846 Y16.611
X26.822 Y16.58
X26.616 Y16.317 F1000
X26.463 Y16.121 F600
X26.315 Y15.932 Z9.604
G3 X26.251 Y15.689 Z9.5 I0.25 J-0.196
G1 X26.291 Y15.475 F1000
X26.31 Y15.358
X26.316 Y15.312
X26.343 Y15.165
X26.416 Y15.033
X26.519 Y14.924
X26.705 Y14.836
X26.909 Y14.807
X27.113 Y14.838
X27.298 Y14.928
X27.45 Y15.068
X27.553 Y15.246
X27.6 Y15.447
X27.587 Y15.653
X27.497 Y16.066
G3 X27.111 Y16.295 Z9.7 I-0.308 J-0.078 F600
G1 X27.051 Y16.273
X26.996 Y16.239
X26.949 Y16.195
X26.913 Y16.154
X26.712 Y15.921 F1000
X26.549 Y15.733 F600
X26.392 Y15.552 Z9.604
G3 X26.316 Y15.312 Z9.5 I0.24 J-0.208
G1 X26.377 Y14.861 F1000
X26.404 Y14.713
X26.482 Y14.585
X26.59 Y14.481
X26.782 Y14.395
X26.99 Y14.368
X27.198 Y14.403
X27.386 Y14.497
X27.539 Y14.641
X27.644 Y14.823
X27.691 Y15.028
X27.677 Y15.238
X27.587 Y15.653
G3 X27.201 Y15.882 Z9.7 I-0.308 J-0.078 F600
G1 X27.14 Y15.86
X27.085 Y15.826
X27.038 Y15.781
X27.003 Y15.74
X26.771 Y15.471 F1000
X26.609 Y15.282 F600
X26.452 Y15.099 Z9.603
G3 X26.377 Y14.861 Z9.5 I0.241 J-0.207
G1 X26.432 Y14.455 F1000
X26.459 Y14.307
X26.529 Y14.175
X26.631 Y14.065
X26.753 Y13.978
X26.961 Y13.92
X27.176 Y13.926
X27.379 Y13.996
X27.553 Y14.123
X27.681 Y14.296
X27.751 Y14.499
X27.759 Y14.714
X27.736 Y14.906
X27.716 Y15.057
X27.677 Y15.238
G3 X27.291 Y15.467 Z9.7 I-0.308 J-0.078 F600
G1 X27.234 Y15.447
X27.182 Y15.416
X27.136 Y15.375
X27.092 Y15.327
X26.839 Y15.053 F1000
X26.671 Y14.871 F600
X26.515 Y14.702 Z9.608
G3 X26.432 Y14.455 Z9.5 I0.233 J-0.215
G1 X26.493 Y14.004 F1000
X26.521 Y13.856
X26.59 Y13.723
X26.691 Y13.612
X26.894 Y13.512
X27.119 Y13.482
X27.341 Y13.525
X27.539 Y13.636
X27.691 Y13.805
X27.782 Y14.012
X27.802 Y14.238
X27.787 Y14.455
X27.772 Y14.605
X27.759 Y14.714
G3 X27.397 Y14.98 Z9.7 I-0.314 J-0.048 F600
G1 X27.333 Y14.963
X27.273 Y14.933
X27.221 Y14.891
X27.187 Y14.858
X26.915 Y14.588 F1000
X26.739 Y14.413 F600
X26.585 Y14.261 Z9.613
G3 X26.493 Y14.004 Z9.5 I0.224 J-0.225
G1 X26.553 Y13.552 F1000
X26.573 Y13.404
X26.648 Y13.273
X26.816 Y13.147
X27.014 Y13.078
X27.224 Y13.071
X27.427 Y13.127
X27.603 Y13.242
X27.737 Y13.404
X27.816 Y13.599
X27.833 Y13.808
X27.802 Y14.238
G3 X27.453 Y14.52 Z9.7 I-0.316 J-0.034 F600
G1 X27.399 Y14.509
X27.347 Y14.49
X27.3 Y14.461
X27.258 Y14.425
X27.239 Y14.405
X26.982 Y14.139 F1000
X26.809 Y13.96 F600
X26.642 Y13.787 Z9.603
G3 X26.553 Y13.552 Z9.5 I0.228 J-0.221
G1 X26.565 Y13.402 F1000
X26.564 Y13.206
X26.571 Y13.056
X26.628 Y12.917
X26.719 Y12.798
X26.92 Y12.681
X27.147 Y12.636
X27.377 Y12.669
X27.584 Y12.775
X27.744 Y12.943
X27.841 Y13.154
X27.863 Y13.385
X27.833 Y13.808
G3 X27.484 Y14.09 Z9.7 I-0.316 J-0.034 F600
G1 X27.418 Y14.076
X27.357 Y14.049
X27.303 Y14.009
X27.268 Y13.977
X27.033 Y13.762 F1000
X26.85 Y13.595 F600
X26.667 Y13.428 Z9.601
X26.626 Y13.381 Z9.576
X26.594 Y13.327 Z9.55
X26.573 Y13.268 Z9.525
X26.564 Y13.206 Z9.5
Y13.101 F1000
X26.562 Y12.951
X26.555 Y12.8
X26.556 Y12.65
X26.609 Y12.51
X26.695 Y12.387
X26.869 Y12.269
X27.069 Y12.207
X27.279 Y12.205
X27.48 Y12.265
X27.655 Y12.381
X27.79 Y12.542
X27.871 Y12.735
X27.893 Y12.944
X27.883 Y13.101
X27.863 Y13.385
G3 X27.514 Y13.667 Z9.7 I-0.316 J-0.034 F600
G1 X27.452 Y13.654
X27.394 Y13.629
X27.341 Y13.593
X27.298 Y13.555
X27.044 Y13.339 F1000
X26.855 Y13.178 F600
X26.666 Y13.016 Z9.6
X26.622 Y12.972 Z9.575
X26.589 Y12.919 Z9.55
X26.566 Y12.861 Z9.525
X26.555 Y12.8 Z9.5
X26.536 Y12.379 F1000
X26.537 Y12.229
X26.585 Y12.087
X26.669 Y11.963
X26.775 Y11.857
X26.98 Y11.763
X27.203 Y11.735
X27.424 Y11.777
X27.622 Y11.884
X27.779 Y12.046
X27.878 Y12.247
X27.912 Y12.47
Y12.499
X27.893 Y12.944
G3 X27.552 Y13.236 Z9.7 I-0.317 J-0.025 F600
G1 X27.491 Y13.225
X27.433 Y13.203
X27.381 Y13.17
X27.332 Y13.131
X27.039 Y12.902 F1000
X26.843 Y12.749 F600
X26.657 Y12.604 Z9.605
G3 X26.536 Y12.379 Z9.5 I0.195 J-0.25
G1 X26.516 Y11.928 F1000
X26.517 Y11.778
X26.563 Y11.635
X26.644 Y11.508
X26.818 Y11.376
X27.023 Y11.302
X27.241 Y11.29
X27.453 Y11.342
X27.64 Y11.453
X27.787 Y11.615
X27.88 Y11.812
X27.913 Y12.027
X27.912 Y12.47
G3 X27.583 Y12.775 Z9.7 I-0.317 J-0.012 F600
G1 X27.521 Y12.766
X27.462 Y12.746
X27.408 Y12.714
X27.359 Y12.679
X27.028 Y12.438 F1000
X26.827 Y12.292 F600
X26.646 Y12.159 Z9.61
G3 X26.516 Y11.928 Z9.5 I0.187 J-0.257
G1 X26.496 Y11.477 F1000
Y11.327
X26.543 Y11.184
X26.625 Y11.058
X26.729 Y10.951
X26.746 Y10.939
X26.953 Y10.838
X27.181 Y10.805
X27.407 Y10.843
X27.611 Y10.949
X27.773 Y11.113
X27.877 Y11.318
X27.913 Y11.545
Y12.027
G3 X27.584 Y12.334 Z9.7 I-0.317 J-0.011 F600
G1 X27.522 Y12.325
X27.463 Y12.305
X27.409 Y12.274
X27.36 Y12.238
X27.009 Y11.985 F1000
X26.808 Y11.839 F600
X26.626 Y11.708 Z9.61
G3 X26.496 Y11.477 Z9.5 I0.186 J-0.257
G1 X26.48 Y11.145 F1000
X26.472 Y11.025
X26.469 Y10.875
X26.51 Y10.731
X26.585 Y10.601
X26.685 Y10.489
X26.804 Y10.398
X26.82 Y10.389
X27.024 Y10.315
X27.242 Y10.304
X27.454 Y10.356
X27.641 Y10.468
X27.787 Y10.629
X27.88 Y10.826
X27.913 Y11.041
Y11.545
G3 X27.584 Y11.852 Z9.7 I-0.317 J-0.011 F600
G1 X27.526 Y11.844
X27.47 Y11.826
X27.418 Y11.798
X27.359 Y11.758
X26.999 Y11.517 F1000
X26.793 Y11.379 F600
X26.611 Y11.257 Z9.612
G3 X26.472 Y11.025 Z9.5 I0.177 J-0.264
G1 X26.47 Y10.995 F1000
X26.397 Y10.611
X26.376 Y10.463
X26.402 Y10.315
X26.461 Y10.177
X26.547 Y10.054
X26.652 Y9.947
X26.775 Y9.861
X26.909 Y9.793
X26.94 Y9.783
X27.169 Y9.745
X27.399 Y9.781
X27.606 Y9.886
X27.77 Y10.05
X27.876 Y10.257
X27.913 Y10.486
Y11.041
G3 X27.584 Y11.347 Z9.7 I-0.317 J-0.011 F600
G1 X27.535 Y11.342
X27.487 Y11.329
X27.442 Y11.308
X27.355 Y11.26
X26.972 Y11.05 F1000
X26.755 Y10.93 F600
X26.553 Y10.819 Z9.608
G3 X26.397 Y10.611 Z9.5 I0.153 J-0.278
G1 X26.384 Y10.543 F1000
X26.291 Y10.139
X26.265 Y9.991
X26.282 Y9.842
X26.33 Y9.7
X26.404 Y9.57
X26.498 Y9.453
X26.61 Y9.353
X26.735 Y9.27
X26.871 Y9.206
X27.014 Y9.161
X27.036 Y9.157
X27.252 Y9.148
X27.461 Y9.203
X27.645 Y9.315
X27.789 Y9.476
X27.881 Y9.671
X27.913 Y9.885
Y10.486
G3 X27.584 Y10.792 Z9.7 I-0.317 J-0.011 F600
G1 X27.527 Y10.785
X27.473 Y10.768
X27.35 Y10.717
X26.897 Y10.527 F1000
X26.668 Y10.431 F600
X26.476 Y10.351 Z9.617
G3 X26.291 Y10.139 Z9.5 I0.123 J-0.293
G1 X26.178 Y9.641 F1000
X26.152 Y9.493
X26.157 Y9.343
X26.193 Y9.198
X26.254 Y9.06
X26.335 Y8.935
X26.435 Y8.823
X26.549 Y8.725
X26.676 Y8.645
X26.811 Y8.58
X26.954 Y8.533
X27.101 Y8.505
X27.114 Y8.504
X27.317 Y8.516
X27.508 Y8.583
X27.675 Y8.699
X27.803 Y8.856
X27.885 Y9.042
X27.913 Y9.243
Y9.885
G3 X27.584 Y10.191 Z9.7 I-0.317 J-0.011 F600
G1 X27.546 Y10.187
X27.509 Y10.179
X27.344 Y10.133
X26.8 Y9.979 F1000
X26.561 Y9.911 F600
X26.398 Y9.865 Z9.632
G3 X26.178 Y9.641 Z9.5 I0.086 J-0.305
G1 X26.04 Y9.039 F1000
X26.014 Y8.891
X26.024 Y8.742
X26.062 Y8.597
X26.122 Y8.459
X26.201 Y8.332
X26.296 Y8.216
X26.406 Y8.113
X26.527 Y8.024
X26.657 Y7.95
X26.796 Y7.893
X26.94 Y7.851
X27.088 Y7.827
X27.132 Y7.825
X27.331 Y7.841
X27.519 Y7.91
X27.681 Y8.027
X27.807 Y8.183
X27.886 Y8.366
X27.913 Y8.564
Y9.243
G3 X27.584 Y9.549 Z9.7 I-0.317 J-0.011 F600
G1 X27.527 Y9.542
X27.341 Y9.501
X26.67 Y9.353 F1000
X26.427 Y9.299 F600
X26.279 Y9.267 Z9.639
G3 X26.04 Y9.039 Z9.5 I0.068 J-0.31
G1 X25.991 Y8.828 F1000
X25.932 Y8.588
X25.914 Y8.542
X25.867 Y8.4
X25.853 Y8.251
X25.868 Y8.101
X25.908 Y7.957
X25.968 Y7.819
X26.046 Y7.691
X26.139 Y7.573
X26.244 Y7.466
X26.361 Y7.372
X26.487 Y7.291
X26.621 Y7.223
X26.761 Y7.171
X26.906 Y7.133
X27.055 Y7.11
X27.205 Y7.104
X27.214 Y7.105
X27.433 Y7.151
X27.628 Y7.26
X27.781 Y7.423
X27.879 Y7.624
X27.913 Y7.844
Y8.564
G3 X27.584 Y8.871 Z9.7 I-0.317 J-0.011 F600
G1 X27.564 Y8.869
X27.337 Y8.847
X26.581 Y8.773 F1000
X26.334 Y8.748 F600
X26.175 Y8.733 Z9.636
G3 X25.914 Y8.542 Z9.5 I0.031 J-0.316
G1 X25.873 Y8.437 F1000
X25.751 Y8.136
X25.69 Y7.991
X25.638 Y7.851
X25.618 Y7.702
X25.624 Y7.552
X25.653 Y7.405
X25.702 Y7.263
X25.767 Y7.128
X25.847 Y7.001
X25.94 Y6.883
X26.044 Y6.776
X26.158 Y6.678
X26.281 Y6.591
X26.41 Y6.516
X26.547 Y6.454
X26.688 Y6.404
X26.834 Y6.368
X26.983 Y6.347
X27.132 Y6.339
X27.204 Y6.342
X27.425 Y6.386
X27.623 Y6.494
X27.779 Y6.657
X27.878 Y6.859
X27.913 Y7.082
Y7.844
G3 X27.6 Y8.151 Z9.694 I-0.317 J-0.011 F600
G1 X27.584 Z9.7
X27.336 Y8.155
X26.365 Y8.168 F1000
X26.117 Y8.172 F600
X25.982 Y8.174 Z9.646
G3 X25.69 Y7.991 Z9.5 I-0.005 J-0.317
G1 X25.431 Y7.384 F1000
X25.379 Y7.244
X25.355 Y7.095
X25.356 Y6.945
X25.378 Y6.797
X25.419 Y6.653
X25.475 Y6.514
X25.546 Y6.381
X25.629 Y6.257
X25.724 Y6.14
X25.828 Y6.032
X25.941 Y5.934
X26.065 Y5.842
X26.193 Y5.763
X26.326 Y5.695
X26.474 Y5.634
X26.617 Y5.589
X26.763 Y5.555
X26.912 Y5.535
X27.062 Y5.528
X27.212 Y5.533
X27.269 Y5.541
X27.474 Y5.598
X27.653 Y5.712
X27.793 Y5.872
X27.882 Y6.065
X27.913 Y6.275
Y7.082
G3 X27.625 Y7.387 Z9.684 I-0.317 J-0.011 F600
G1 X27.585 Y7.391 Z9.7
X27.337 Y7.414
X26.104 Y7.532 F1000
X25.857 Y7.555 F600
X25.748 Y7.565 Z9.656
G3 X25.431 Y7.384 Z9.5 I-0.03 J-0.316
G1 X25.154 Y6.737 F1000
X25.102 Y6.596
X25.074 Y6.449
X25.07 Y6.299
X25.086 Y6.15
X25.119 Y6.004
X25.169 Y5.862
X25.232 Y5.726
X25.307 Y5.596
X25.393 Y5.473
X25.49 Y5.356
X25.602 Y5.241
X25.727 Y5.133
X25.863 Y5.032
X26.01 Y4.941
X26.167 Y4.86
X26.318 Y4.796
X26.477 Y4.745
X26.64 Y4.705
X26.789 Y4.682
X26.938 Y4.672
X27.094 Y4.673
X27.243 Y4.686
X27.302 Y4.697
X27.498 Y4.761
X27.668 Y4.876
X27.8 Y5.034
X27.884 Y5.222
X27.913 Y5.426
Y6.275
G3 X27.644 Y6.577 Z9.676 I-0.317 J-0.011 F600
G1 X27.585 Y6.587 Z9.7
X27.34 Y6.625
X25.824 Y6.863 F1000
X25.579 Y6.902 F600
X25.491 Y6.916 Z9.664
G3 X25.154 Y6.737 Z9.5 I-0.049 J-0.314
G1 X25.045 Y6.482 F1000
X24.973 Y6.331
X24.938 Y6.267
X24.885 Y6.181
X24.81 Y6.051
X24.762 Y5.909
X24.738 Y5.761
X24.735 Y5.611
X24.75 Y5.462
X24.781 Y5.315
X24.826 Y5.172
X24.884 Y5.033
X24.956 Y4.896
X25.041 Y4.761
X25.14 Y4.629
X25.256 Y4.497
X25.389 Y4.37
X25.534 Y4.25
X25.692 Y4.141
X25.861 Y4.043
X26.041 Y3.957
X26.227 Y3.886
X26.399 Y3.835
X26.587 Y3.796
X26.757 Y3.775
X26.912 Y3.768
X27.082 Y3.774
X27.234 Y3.792
X27.317 Y3.808
X27.508 Y3.875
X27.675 Y3.991
X27.803 Y4.148
X27.885 Y4.334
X27.913 Y4.535
Y5.426
G3 X27.669 Y5.724 Z9.666 I-0.317 J-0.011 F600
G1 X27.586 Y5.743 Z9.7
X27.344 Y5.801
X25.576 Y6.222 F1000
X25.335 Y6.28 F600
X25.219 Y6.307 Z9.652
G3 X24.885 Y6.181 Z9.5 I-0.074 J-0.309
G1 X24.787 Y6.03 F1000
X24.489 Y5.579
X24.413 Y5.45
X24.362 Y5.309
X24.332 Y5.162
X24.321 Y5.012
X24.328 Y4.862
X24.349 Y4.714
X24.384 Y4.568
X24.43 Y4.425
X24.493 Y4.276
X24.574 Y4.121
X24.669 Y3.969
X24.782 Y3.817
X24.915 Y3.665
X25.065 Y3.519
X25.231 Y3.382
X25.411 Y3.256
X25.604 Y3.143
X25.807 Y3.045
X26.02 Y2.963
X26.236 Y2.899
X26.434 Y2.857
X26.645 Y2.83
X26.824 Y2.821
X26.998 Y2.827
X27.174 Y2.847
X27.324 Y2.876
X27.372 Y2.889
X27.548 Y2.965
X27.699 Y3.083
X27.815 Y3.235
X27.888 Y3.413
X27.913 Y3.603
Y4.535
G3 X27.688 Y4.827 Z9.658 I-0.317 J-0.011 F600
G1 X27.588 Y4.858 Z9.7
X27.35 Y4.931
X25.176 Y5.596 F1000
X24.938 Y5.669 F600
X24.841 Y5.698 Z9.659
G3 X24.489 Y5.579 Z9.5 I-0.093 J-0.304
G1 X24.061 Y4.931 F1000
X23.985 Y4.802
X23.921 Y4.666
X23.877 Y4.523
X23.851 Y4.375
X23.841 Y4.225
X23.847 Y4.075
X23.866 Y3.927
X23.898 Y3.78
X23.941 Y3.636
X23.994 Y3.496
X24.056 Y3.36
X24.127 Y3.228
X24.207 Y3.1
X24.293 Y2.978
X24.386 Y2.86
X24.486 Y2.748
X24.591 Y2.641
X24.702 Y2.54
X24.817 Y2.444
X24.937 Y2.354
X25.061 Y2.269
X25.189 Y2.191
X25.32 Y2.118
X25.455 Y2.052
X25.592 Y1.992
X25.732 Y1.938
X25.874 Y1.891
X26.019 Y1.85
X26.165 Y1.816
X26.312 Y1.788
X26.461 Y1.768
X26.61 Y1.756
X26.76 Y1.751
X26.91 Y1.755
X27.06 Y1.769
X27.208 Y1.791
X27.355 Y1.823
X27.38 Y1.831
X27.554 Y1.907
X27.703 Y2.025
X27.817 Y2.177
X27.888 Y2.353
X27.913 Y2.542
Y3.603
G3 X27.701 Y3.891 I-0.317 J-0.011 F600
G1 X27.654 Y3.907
X27.588 Y3.931 Z9.508
X27.524 Y3.953 Z9.531
X27.468 Y3.973 Z9.569
X27.42 Y3.99 Z9.62
X27.385 Y4.003 Z9.68
X27.362 Y4.01 Z9.747
X27.355 Y4.013 Z9.818
G0 Z13
X27.337 Y-1.704
Z10.018
G1 Z9.7 F600
X27.573 Y-1.72
X27.584 Y-1.721
G3 X27.913 Y-1.415 Z9.5 I0.011 J0.317
G1 Y2.542 F1000
G3 X27.615 Y2.848 I-0.317 J-0.011 F600
G1 X27.595 Z9.501
X27.542 Y2.835 Z9.509
X27.491 Y2.822 Z9.527
X27.444 Y2.81 Z9.554
X27.408 Y2.779 Z9.594
X27.379 Y2.753 Z9.642
X27.357 Y2.734 Z9.697
X27.344 Y2.722 Z9.756
X27.339 Y2.719 Z9.817
G0 Z13
X24.743 Y4.934
Z10.018
G1 Z9.7 F600
X24.509 Y5.017
X24.426 Y5.046 Z9.665
G3 X24.061 Y4.931 Z9.5 I-0.106 J-0.299
G1 X23.886 Y4.665 F1000
X23.585 Y4.238
X23.505 Y4.111
X23.44 Y3.976
X23.395 Y3.833
X23.367 Y3.685
X23.355 Y3.536
X23.358 Y3.386
X23.373 Y3.235
X23.402 Y3.074
X23.448 Y2.904
X23.504 Y2.748
X23.523 Y2.583
X23.506 Y2.419
X23.452 Y2.262
X23.365 Y2.121
X23.133 Y1.885
X22.583 Y1.515
X21.96 Y1.289
X21.312 Y1.155
X20.654 Y1.076
X19.993 Y1.03
X19.895 Y1.017
X19.8 Y0.991
X19.709 Y0.954
G3 X19.802 Y0.361 I0.149 J-0.28 F600
G1 X19.872 Y0.349 Z9.508
X19.938 Y0.337 Z9.531
X19.997 Y0.326 Z9.569
X20.047 Y0.317 Z9.62
X20.084 Y0.311 Z9.68
X20.107 Y0.306 Z9.747
X20.115 Y0.305 Z9.818
G0 Z13
X24.491 Y4.855
Z10.135
G1 Z9.818 F600
X24.483 Y4.852 Z9.747
X24.462 Y4.842 Z9.68
X24.427 Y4.827 Z9.62
X24.381 Y4.807 Z9.569
X24.326 Y4.782 Z9.531
X24.265 Y4.755 Z9.508
X24.201 Y4.726 Z9.5
G3 X23.585 Y4.238 I0.645 J-1.445
G1 X23.576 Y4.225 F1000
X23.435 Y4.072
X22.143 Y2.721
X22.082 Y2.658
X21.932 Y2.519
X21.815 Y2.42
X20.988 Y1.818
X20.127 Y1.193
X19.929 Y1.066
X19.827 Y1.012
X19.63 Y0.915
X18.173 Y0.214
X17.718 Y0.013
X17.572 Y-0.032
X16.97 Y-0.2
X16.504 Y-0.328
X16.023 Y-0.461 Z9.7 F600
X15.784 Y-0.527
X15.768 Y-0.532 F1000
X15.617 Y-0.572
X15.551 Y-0.589
X15.467 Y-0.61
X15.317 Y-0.632
X15.166 Y-0.649
X13.362 Y-0.811
X13.212 Y-0.824
X13.061 Y-0.835
X12.911 Y-0.831
X12.761 Y-0.822
X11.194 Y-0.681
X10.947 Y-0.659 F600
X10.806 Y-0.646 Z9.643
X10.656 Y-0.629 Z9.583
X10.506 Y-0.602 Z9.521
X10.454 Y-0.589 Z9.5
X10.355 Y-0.565 F1000
X8.401 Y-0.026
X8.285 Y0.013
X8.251 Y0.025
X8.1 Y0.083
X7.649 Y0.299
X7.499 Y0.372
X7.215 Y0.492
X6.867 Y0.606
X6.376 Y0.725
X5.722 Y0.829
X5.063 Y0.888
X4.401 Y0.922
X3.739 Y0.942
X3.077 Y0.953
X2.753 Y1.023
X2.457 Y1.171
X1.94 Y1.585
X1.583 Y2.144
X1.35 Y2.764
X1.203 Y3.41
X1.111 Y4.066
X1.055 Y4.726
X1.021 Y5.387
X1 Y6.049
X0.996 Y6.253
X0.987 Y6.351
X0.966 Y6.448
X0.932 Y6.54
X0.884 Y6.649
X0.282 Y8.056
X0.249 Y8.136
X0.127 Y8.437
X0.067 Y8.588
X0.029 Y8.738
X-0.143 Y9.49
X-0.32 Y10.264
G3 X-0.918 Y10.309 I-0.307 J-0.081 F600
G1 X-0.946 Y10.244 Z9.508
X-0.973 Y10.182 Z9.531
X-0.997 Y10.127 Z9.569
X-1.017 Y10.081 Z9.62
X-1.032 Y10.046 Z9.68
X-1.041 Y10.025 Z9.747
X-1.044 Y10.017 Z9.818
G0 Z13
X8.257 Y-0.419
Z10.135
G1 Z9.818 F600
X8.253 Y-0.412 Z9.747
X8.24 Y-0.393 Z9.68
X8.219 Y-0.361 Z9.62
X8.191 Y-0.319 Z9.569
X8.158 Y-0.269 Z9.531
X8.121 Y-0.213 Z9.508
X8.082 Y-0.155 Z9.5
G3 X7.499 Y0.372 I-1.319 J-0.875
G1 X6.446 Y0.879 F1000
X6.374 Y0.915
X5.995 Y1.117
X5.841 Y1.216
X5.634 Y1.367
X5.439 Y1.494
X5.238 Y1.603
X4.98 Y1.717
X4.355 Y1.936
X4.049 Y2.062
X3.487 Y2.413
X3.068 Y2.926
X2.777 Y3.521
X2.679 Y3.841
X2.643 Y3.935
X2.594 Y4.024
X2.534 Y4.105
G3 X2.085 Y4.125 Z9.7 I-0.234 J-0.215 F600
G1 X2.044 Y4.078
X2.012 Y4.025
X1.992 Y3.967
X1.983 Y3.905
G3 X2.09 Y3.653 I0.317 J-0.015 F1000
G1 X5.228 Y0.879
G3 X5.478 Y0.801 I0.21 J0.238
G1 X5.539 Y0.815 F600
X5.595 Y0.84
X5.646 Y0.876
X5.689 Y0.921
G3 X5.634 Y1.367 Z9.5 I-0.25 J0.195
G1 X4.492 Y2.196 F1000
X4.396 Y2.269
X4.012 Y2.57
X3.891 Y2.686
X2.538 Y4.101
X2.431 Y4.225
X2.214 Y4.526
X2.107 Y4.676
X1.184 Y6.073
X1.116 Y6.181
X1.034 Y6.315
X1.026 Y6.331
X0.932 Y6.54
G3 X0.535 Y6.698 I-0.285 J-0.139 F600
G1 X0.491 Y6.668 Z9.505
X0.447 Y6.637 Z9.519
X0.407 Y6.609 Z9.542
X0.385 Y6.565 Z9.578
X0.366 Y6.528 Z9.622
X0.351 Y6.499 Z9.673
X0.341 Y6.479 Z9.729
X0.336 Y6.47 Z9.789
Y6.468 Z9.818
G0 Z13
X27.258 Y-3.545
Z9.635
G1 Z9.318 F600
X27.262 Y-3.538 Z9.247
X27.274 Y-3.518 Z9.18
X27.294 Y-3.486 Z9.12
X27.319 Y-3.442 Z9.069
X27.35 Y-3.391 Z9.031
X27.384 Y-3.333 Z9.008
X27.42 Y-3.272 Z9
G3 X27.913 Y-1.597 I-3.024 J1.798
G1 Y-1.415 F1000
X27.911 Y-1.377
X27.814 Y-1.263
X27.703 Y-1.162
X27.581 Y-1.073
X27.426 Y-0.976
X27.226 Y-0.874
X26.965 Y-0.765
X26.614 Y-0.652
X26.118 Y-0.534
X25.463 Y-0.434
X24.803 Y-0.377
X24.142 Y-0.345
X23.48 Y-0.326
X22.817 Y-0.316
X22.155 Y-0.31
X21.492 Y-0.306
X20.168 Y-0.303
X16.701 Y-0.302
X16.634 Y-0.305
X16.568 Y-0.314
X16.504 Y-0.328
X15.768 Y-0.532
X15.551 Y-0.589
X15.467 Y-0.61
X15.317 Y-0.632
X15.166 Y-0.649
X13.362 Y-0.811
X13.212 Y-0.824
X13.061 Y-0.835
X12.911 Y-0.831
X12.761 Y-0.822
X10.806 Y-0.646
X10.656 Y-0.629
X10.506 Y-0.602
X10.454 Y-0.589
X9.803 Y-0.467
X9.144 Y-0.396
X8.483 Y-0.355
X7.821 Y-0.332
X7.159 Y-0.319
X6.496 Y-0.312
X5.834 Y-0.307
X5.172 Y-0.305
X3.847 Y-0.303
X1.528 Y-0.302
X1.364 Y-0.284
X1.05 Y-0.176
X0.789 Y0.027
X0.357 Y0.529
X0.088 Y1.135
X-0.074 Y1.777
X-0.169 Y2.432
X-0.225 Y3.092
X-0.258 Y3.754
X-0.276 Y4.416
X-0.287 Y5.079
X-0.293 Y5.741
X-0.297 Y6.403
X-0.3 Y7.728
X-0.301 Y10.099
X-0.303 Y10.155
X-0.31 Y10.21
X-0.32 Y10.264
X-0.418 Y10.694
X-0.449 Y10.844
X-0.471 Y10.995
X-0.48 Y11.145
X-0.515 Y11.897
X-0.562 Y12.951
X-0.564 Y13.101
X-0.565 Y13.402
X-0.553 Y13.552
X-0.493 Y14.004
X-0.437 Y14.664
X-0.379 Y15.324
X-0.346 Y15.985
X-0.327 Y16.647
X-0.316 Y17.31
X-0.31 Y17.972
X-0.306 Y18.634
X-0.303 Y19.959
X-0.302 Y23.271
Y26.922
X-0.338 Y27.151
X-0.443 Y27.357
X-0.607 Y27.521
X-0.814 Y27.626
X-1.042 Y27.663
G3 X-1.348 Y27.365 I0.011 J-0.317 F600
G1 X-1.349 Y27.345 Z9.001
X-1.335 Y27.292 Z9.009
X-1.322 Y27.241 Z9.027
X-1.31 Y27.194 Z9.054
X-1.279 Y27.158 Z9.094
X-1.254 Y27.129 Z9.142
X-1.235 Y27.107 Z9.197
X-1.223 Y27.094 Z9.256
X-1.219 Y27.089 Z9.317
G0 Z13
X-1.011 Y13.038
Z9.635
G1 Z9.318 F600
X-1.006 Y13.044 Z9.247
X-0.991 Y13.063 Z9.18
X-0.968 Y13.092 Z9.12
X-0.937 Y13.132 Z9.069
X-0.899 Y13.179 Z9.031
X-0.857 Y13.231 Z9.008
X-0.814 Y13.287 Z9
G3 X-0.493 Y14.004 I-1.239 J0.984
G1 X-0.31 Y15.358 F1000
X-0.285 Y15.508
X-0.229 Y15.809
X-0.193 Y15.959
X0.433 Y17.885
X0.444 Y17.915
X0.613 Y18.431
X0.731 Y18.925
X0.833 Y19.579
X0.891 Y20.239
X0.924 Y20.901
X0.943 Y21.563
X0.954 Y22.225
X0.96 Y22.887
X0.964 Y23.55
X0.967 Y24.875
Y25.537
X0.964 Y26.135
X0.937 Y26.449
X0.889 Y26.736
X0.836 Y26.947
X0.763 Y27.161
X0.74 Y27.215
X0.627 Y27.398
X0.467 Y27.541
X0.272 Y27.631
X0.06 Y27.663
G3 X-0.246 Y27.365 I0.011 J-0.317 F600
G1 X-0.247 Y27.345 Z9.001
X-0.233 Y27.292 Z9.009
X-0.22 Y27.241 Z9.027
X-0.208 Y27.194 Z9.054
X-0.177 Y27.158 Z9.094
X-0.151 Y27.129 Z9.142
X-0.133 Y27.107 Z9.197
X-0.121 Y27.094 Z9.256
X-0.117 Y27.089 Z9.317
G0 Z13
X-0.281 Y17.094
Z9.635
G1 Z9.318 F600
X-0.275 Y17.099 Z9.247
X-0.256 Y17.113 Z9.18
X-0.227 Y17.137 Z9.12
X-0.187 Y17.168 Z9.069
X-0.14 Y17.205 Z9.031
X-0.087 Y17.247 Z9.008
X-0.032 Y17.29 Z9
G3 X0.444 Y17.915 I-0.981 J1.242
G1 X0.502 Y18.066 F1000
X0.568 Y18.216
X0.647 Y18.366
X1.485 Y19.923
X1.539 Y20.021
X1.615 Y20.162
X1.728 Y20.422
X1.847 Y20.768
X1.969 Y21.243
X2.081 Y21.896
X2.147 Y22.555
X2.185 Y23.217
X2.207 Y23.879
X2.22 Y24.541
X2.226 Y25.203
X2.205 Y25.856
X2.152 Y26.327
X2.088 Y26.656
X2.01 Y26.931
X1.932 Y27.142
X1.89 Y27.233
X1.776 Y27.409
X1.617 Y27.546
X1.426 Y27.633
X1.218 Y27.663
X0.06
G3 X-0.246 Y27.334 Z9.2 I0.011 J-0.317 F600
G1 X-0.242 Y27.293
X-0.208 Y27.089
X0.96 Y20.142 F1000
X0.963 Y20.127
X0.982 Y20.068 F600
X1.012 Y20.014
X1.052 Y19.967
X1.1 Y19.928
G3 X1.539 Y20.021 Z9 I0.173 J0.266
G1 X1.635 Y20.181 F1000
X1.723 Y20.322
X2.201 Y20.924
X2.538 Y21.346
X2.669 Y21.529
X2.782 Y21.716
X2.9 Y21.953
X3.022 Y22.255
X3.148 Y22.66
X3.276 Y23.23
X3.369 Y23.885
X3.421 Y24.546
X3.437 Y25.208
X3.408 Y25.82
X3.347 Y26.298
X3.274 Y26.647
X3.187 Y26.941
X3.104 Y27.156
X3.062 Y27.243
X2.947 Y27.415
X2.789 Y27.549
X2.6 Y27.634
X2.394 Y27.663
X1.218
G3 X0.912 Y27.334 Z9.2 I0.011 J-0.317 F600
G1 X0.917 Y27.288
X0.953 Y27.09
X1.978 Y21.526 F1000
X1.984 Y21.495 F600
X1.998 Y21.443
X2.021 Y21.394
X2.052 Y21.349
X2.09 Y21.311
G3 X2.538 Y21.346 Z9 I0.206 J0.241
G1 X2.989 Y21.911 F1000
X3.139 Y22.096
X3.289 Y22.243
X3.327 Y22.278
X3.499 Y22.428
X3.657 Y22.58
X3.766 Y22.704
X3.873 Y22.847
X3.99 Y23.033
X4.11 Y23.263
X4.226 Y23.537
X4.342 Y23.887
X4.439 Y24.281
X4.512 Y24.735
X4.551 Y25.226
Y25.706
X4.514 Y26.16
X4.455 Y26.526
X4.38 Y26.828
X4.303 Y27.06
X4.238 Y27.212
X4.126 Y27.396
X3.965 Y27.54
X3.77 Y27.631
X3.556 Y27.663
X2.394
G3 X2.088 Y27.334 Z9.2 I0.011 J-0.317 F600
G1 X2.094 Y27.286
X2.131 Y27.09
X2.97 Y22.704 F1000
X2.987 Y22.615 F600
X3.001 Y22.564
X3.023 Y22.517
X3.053 Y22.474
G3 X3.499 Y22.428 Z9 I0.246 J0.201
G1 X4.705 Y23.481 F1000
X4.816 Y23.588
X4.916 Y23.7
X5.022 Y23.841
X5.132 Y24.013
X5.234 Y24.206
X5.337 Y24.447
X5.424 Y24.705
X5.5 Y25.012
X5.557 Y25.35
X5.586 Y25.7
X5.587 Y26.054
X5.562 Y26.385
X5.517 Y26.67
X5.457 Y26.916
X5.392 Y27.113
X5.352 Y27.209
X5.24 Y27.394
X5.079 Y27.539
X4.883 Y27.631
X4.669 Y27.663
X3.556
G3 X3.25 Y27.334 Z9.2 I0.011 J-0.317 F600
G1 X3.26 Y27.265
X3.305 Y27.093
X4.17 Y23.759 F1000
X4.198 Y23.649 F600
X4.222 Y23.586
X4.259 Y23.529
G3 X4.506 Y23.411 Z9.086 I0.247 J0.199
G1 X4.559 Y23.416 Z9.065
X4.611 Y23.429 Z9.043
X4.66 Y23.451 Z9.022
X4.705 Y23.481 Z9
X4.943 Y23.687 F1000
X5.081 Y23.782
X5.394 Y23.977
X5.544 Y24.067
X5.669 Y24.15
X5.787 Y24.244
X5.894 Y24.348
X5.995 Y24.465
X6.093 Y24.6
X6.191 Y24.76
X6.282 Y24.943
X6.369 Y25.156
X6.441 Y25.382
X6.499 Y25.635
X6.539 Y25.904
X6.557 Y26.179
X6.553 Y26.434
X6.53 Y26.671
X6.492 Y26.886
X6.446 Y27.063
X6.41 Y27.166
X6.303 Y27.367
X6.14 Y27.526
X5.936 Y27.627
X5.711 Y27.663
X4.669
G3 X4.363 Y27.334 Z9.2 I0.011 J-0.317 F600
G1 X4.371 Y27.272
X4.414 Y27.092
X5.045 Y24.43 F1000
X5.082 Y24.272 F600
X5.095 Y24.231
X5.113 Y24.192
G3 X5.544 Y24.067 Z9 I0.278 J0.153
G1 X6.578 Y24.685 F1000
X6.703 Y24.768
X6.817 Y24.866
X6.92 Y24.974
X7.015 Y25.093
X7.105 Y25.228
X7.19 Y25.38
X7.27 Y25.555
X7.338 Y25.741
X7.393 Y25.942
X7.434 Y26.154
X7.456 Y26.357
X7.461 Y26.558
X7.451 Y26.754
X7.429 Y26.917
X7.393 Y27.083
X7.377 Y27.136
X7.274 Y27.348
X7.109 Y27.517
X6.9 Y27.625
X6.668 Y27.663
X5.711
G3 X5.405 Y27.334 Z9.2 I0.011 J-0.317 F600
G1 X5.408 Y27.294
X5.417 Y27.255
X5.465 Y27.094
X6.07 Y25.045 F1000
X6.121 Y24.873 F600
X6.147 Y24.81
G3 X6.578 Y24.685 Z9 I0.278 J0.153
G1 X6.897 Y24.876 F1000
X7.101 Y24.986
X7.198 Y25.031
X7.348 Y25.09
X7.486 Y25.15
X7.612 Y25.231
X7.728 Y25.327
X7.832 Y25.434
X7.925 Y25.552
X8.007 Y25.677
X8.081 Y25.812
X8.148 Y25.961
X8.205 Y26.124
X8.248 Y26.284
X8.275 Y26.436
X8.293 Y26.609
X8.295 Y26.764
X8.286 Y26.914
X8.263 Y27.066
X8.257 Y27.09
X8.187 Y27.276
X8.07 Y27.435
X7.915 Y27.558
X7.732 Y27.636
X7.536 Y27.663
X6.668
G3 X6.362 Y27.334 Z9.2 I0.011 J-0.317 F600
G1 X6.365 Y27.295
X6.374 Y27.257
X6.421 Y27.094
X6.876 Y25.526 F1000
X6.941 Y25.302 F600
X6.946 Y25.288
G3 X7.348 Y25.09 Z9 I0.301 J0.102
G1 X8.183 Y25.403 F1000
X8.32 Y25.463
X8.448 Y25.542
X8.565 Y25.636
X8.669 Y25.744
X8.762 Y25.862
X8.844 Y25.988
X8.913 Y26.121
X8.971 Y26.259
X9.017 Y26.402
X9.049 Y26.548
X9.07 Y26.697
X9.076 Y26.847
X9.069 Y26.996
X9.065 Y27.024
X9.006 Y27.227
X8.892 Y27.405
X8.733 Y27.544
X8.54 Y27.632
X8.331 Y27.663
X7.536
G3 X7.23 Y27.334 Z9.2 I0.011 J-0.317 F600
G1 X7.235 Y27.29
X7.245 Y27.247
X7.295 Y27.096
X7.704 Y25.839 F1000
X7.78 Y25.606 F600
X7.781 Y25.603
G3 X8.183 Y25.403 Z9 I0.301 J0.101
G1 X9.002 Y25.71 F1000
X9.141 Y25.768
X9.267 Y25.849
X9.381 Y25.947
X9.482 Y26.058
X9.57 Y26.179
X9.644 Y26.31
X9.703 Y26.448
X9.748 Y26.591
X9.777 Y26.738
X9.79 Y26.887
Y26.929
X9.751 Y27.157
X9.645 Y27.361
X9.482 Y27.523
X9.276 Y27.627
X9.049 Y27.663
X8.331
G3 X8.025 Y27.334 Z9.2 I0.011 J-0.317 F600
G1 X8.032 Y27.277
X8.05 Y27.222
X8.101 Y27.1
X8.505 Y26.143 F1000
X8.602 Y25.915 F600
X8.612 Y25.889 Z9.189
G3 X9.002 Y25.71 Z9 I0.292 J0.123
G1 X9.303 Y25.819 F1000
X9.453 Y25.859
X9.6 Y25.888
X9.746 Y25.926
X9.883 Y25.985
X10.008 Y26.068
X10.12 Y26.168
X10.216 Y26.283
X10.296 Y26.41
X10.361 Y26.546
X10.406 Y26.688
X10.436 Y26.835
X10.438 Y26.861
X10.426 Y27.064
X10.36 Y27.257
X10.244 Y27.424
X10.087 Y27.553
X9.901 Y27.635
X9.699 Y27.663
X9.049
G3 X8.742 Y27.334 Z9.2 I0.011 J-0.317 F600
G1 X8.75 Y27.276
X8.768 Y27.221
X8.819 Y27.1
X9.129 Y26.375 F1000
X9.226 Y26.146 F600
X9.256 Y26.077 Z9.17
G3 X9.6 Y25.888 Z9 I0.292 J0.125
G1 X9.754 Y25.92 F1000
X9.904 Y25.949
X10.288 Y26.018
X10.434 Y26.052
X10.569 Y26.117
X10.692 Y26.203
X10.798 Y26.31
X10.888 Y26.429
X10.959 Y26.562
X11.012 Y26.702
X11.024 Y26.752
X11.042 Y26.973
X10.994 Y27.189
X10.884 Y27.382
X10.722 Y27.533
X10.522 Y27.629
X10.303 Y27.663
X9.699
G3 X9.393 Y27.334 Z9.2 I0.011 J-0.317 F600
G1 X9.404 Y27.264
X9.429 Y27.198
X9.479 Y27.104
X9.796 Y26.5 F1000
X9.911 Y26.28 F600
X9.961 Y26.185 Z9.157
G3 X10.288 Y26.018 Z9 I0.281 J0.147
G1 X10.926 Y26.134 F1000
X11.072 Y26.168
X11.206 Y26.236
X11.325 Y26.328
X11.425 Y26.439
X11.506 Y26.566
X11.568 Y26.702
X11.573 Y26.722
X11.6 Y26.947
X11.558 Y27.17
X11.45 Y27.369
X11.287 Y27.527
X11.084 Y27.628
X10.86 Y27.663
X10.303
G3 X9.997 Y27.334 Z9.2 I0.011 J-0.317 F600
G1 X10.004 Y27.279
X10.02 Y27.225
X10.046 Y27.176
X10.089 Y27.108
X10.409 Y26.601 F1000
X10.541 Y26.391 F600
X10.612 Y26.279 Z9.147
G3 X10.926 Y26.134 Z9 I0.268 J0.17
G1 X11.257 Y26.194 F1000
X11.408 Y26.22
X11.49 Y26.233
X11.637 Y26.264
X11.771 Y26.332
X11.888 Y26.426
X11.984 Y26.541
X11.987 Y26.546
X12.069 Y26.751
X12.087 Y26.972
X12.039 Y27.189
X11.929 Y27.381
X11.767 Y27.533
X11.568 Y27.629
X11.348 Y27.663
X10.86
G3 X10.554 Y27.334 Z9.2 I0.011 J-0.317 F600
G1 X10.562 Y27.272
X10.583 Y27.213
X10.614 Y27.158
X10.649 Y27.11
X10.954 Y26.692 F1000
X11.1 Y26.491 F600
X11.194 Y26.361 Z9.136
G3 X11.49 Y26.233 Z9 I0.257 J0.187
G1 X11.708 Y26.268 F1000
X11.859 Y26.285
X11.941 Y26.286
X12.091 Y26.295
X12.23 Y26.352
X12.351 Y26.44
X12.466 Y26.616
X12.527 Y26.817
X12.529 Y27.027
X12.471 Y27.229
X12.358 Y27.407
X12.2 Y27.545
X12.009 Y27.632
X11.801 Y27.663
X11.348
G3 X11.042 Y27.334 Z9.2 I0.011 J-0.317 F600
G1 X11.052 Y27.268
X11.075 Y27.205
X11.111 Y27.148
X11.139 Y27.112
X11.409 Y26.773 F1000
X11.563 Y26.578 F600
X11.7 Y26.405 Z9.112
G3 X11.941 Y26.286 Z9 I0.249 J0.197
G1 X12.355 Y26.289 F1000
X12.387
X12.537 Y26.297
X12.676 Y26.353
X12.797 Y26.442
X12.914 Y26.616
X12.977 Y26.816
X12.98 Y27.026
X12.923 Y27.228
X12.811 Y27.406
X12.654 Y27.544
X12.463 Y27.632
X12.256 Y27.663
X11.801
G3 X11.495 Y27.334 Z9.2 I0.011 J-0.317 F600
G1 X11.504 Y27.268
X11.527 Y27.205
X11.563 Y27.148
X11.592 Y27.112
X11.856 Y26.779 F1000
X12.01 Y26.584 F600
X12.149 Y26.409 Z9.11
G3 X12.387 Y26.289 Z9 I0.249 J0.197
G1 X12.838 F1000
X12.988 Y26.297
X13.127 Y26.353
X13.247 Y26.442
X13.364 Y26.616
X13.427 Y26.817
X13.43 Y27.026
X13.374 Y27.228
X13.262 Y27.406
X13.104 Y27.544
X12.914 Y27.632
X12.706 Y27.663
X12.256
G3 X11.949 Y27.334 Z9.2 I0.011 J-0.317 F600
G1 X11.959 Y27.268
X11.982 Y27.205
X12.017 Y27.149
X12.047 Y27.112
X12.308 Y26.78 F1000
X12.462 Y26.585 F600
X12.6 Y26.41 Z9.111
G3 X12.838 Y26.289 Z9 I0.249 J0.197
G1 X13.289 F1000
X13.439 Y26.297
X13.578 Y26.354
X13.698 Y26.443
X13.823 Y26.636
X13.881 Y26.859
X13.865 Y27.089
X13.777 Y27.302
X13.625 Y27.476
X13.427 Y27.593
X13.202 Y27.642
X12.911 Y27.656
X12.761 Y27.663
X12.706
G3 X12.4 Y27.334 Z9.2 I0.011 J-0.317 F600
G1 X12.409 Y27.268
X12.432 Y27.205
X12.468 Y27.149
X12.497 Y27.112
X12.759 Y26.78 F1000
X12.913 Y26.585 F600
X13.051 Y26.41 Z9.111
G3 X13.289 Y26.289 Z9 I0.249 J0.197
G1 X13.708 F1000
X13.858 Y26.296
X14 Y26.346
X14.124 Y26.43
X14.252 Y26.614
X14.315 Y26.83
X14.306 Y27.055
X14.226 Y27.265
X14.083 Y27.439
X13.892 Y27.558
X13.673 Y27.61
X13.362 Y27.633
X13.202 Y27.642
G3 X12.879 Y27.33 Z9.2 I-0.005 J-0.317 F600
G1 X12.886 Y27.262
X12.906 Y27.196
X12.94 Y27.137
X12.966 Y27.103
X13.193 Y26.791 F1000
X13.339 Y26.591 F600
X13.464 Y26.419 Z9.115
G3 X13.708 Y26.289 Z9 I0.256 J0.187
G1 X13.813 Y26.288 F1000
X14.159 Y26.28
X14.309 Y26.283
X14.449 Y26.336
X14.599 Y26.483
X14.697 Y26.668
X14.735 Y26.874
X14.71 Y27.082
X14.623 Y27.272
X14.482 Y27.427
X14.301 Y27.533
X14.097 Y27.58
X13.673 Y27.61
G3 X13.344 Y27.305 Z9.2 I-0.012 J-0.317 F600
G1 X13.347 Y27.251
X13.358 Y27.199
X13.379 Y27.149
X13.407 Y27.103
X13.427 Y27.077
X13.643 Y26.786 F1000
X13.792 Y26.587 F600
X13.925 Y26.407 Z9.11
G3 X14.159 Y26.28 Z9 I0.255 J0.19
G1 X14.264 Y26.277 F1000
X14.497 Y26.237
X14.646 Y26.218
X14.792 Y26.253
X14.924 Y26.323
X15.058 Y26.479
X15.14 Y26.667
X15.165 Y26.871
X15.129 Y27.073
X15.036 Y27.257
X14.894 Y27.405
X14.715 Y27.506
X14.515 Y27.55
X14.097 Y27.58
G3 X13.768 Y27.275 Z9.2 I-0.012 J-0.317 F600
G1 X13.773 Y27.209
X13.791 Y27.145
X13.821 Y27.087
X13.849 Y27.045
X14.021 Y26.787 F1000
X14.158 Y26.581 F600
X14.298 Y26.371 Z9.099
X14.337 Y26.324 Z9.074
X14.384 Y26.284 Z9.05
X14.438 Y26.255 Z9.025
X14.497 Y26.237 Z9
X14.769 Y26.189 F1000
X14.911 Y26.164
X15.06 Y26.144
X15.206 Y26.176
X15.339 Y26.246
X15.456 Y26.34
X15.568 Y26.525
X15.619 Y26.736
X15.604 Y26.952
X15.526 Y27.154
X15.39 Y27.322
X15.21 Y27.443
X15.003 Y27.504
X14.866 Y27.522
X14.715 Y27.536
X14.515 Y27.55
G3 X14.186 Y27.245 Z9.2 I-0.012 J-0.317 F600
G1 X14.19 Y27.182
X14.206 Y27.121
X14.234 Y27.064
X14.265 Y27.014
X14.447 Y26.724 F1000
X14.579 Y26.513 F600
X14.709 Y26.305 Z9.102
X14.748 Y26.255 Z9.076
X14.796 Y26.214 Z9.051
X14.851 Y26.183 Z9.025
X14.911 Y26.164 Z9
X15.362 Y26.082 F1000
X15.511 Y26.062
X15.657 Y26.096
X15.791 Y26.163
X15.944 Y26.335
X16.036 Y26.546
X16.056 Y26.775
X16.002 Y26.999
X15.881 Y27.195
X15.705 Y27.342
X15.49 Y27.427
X15.317 Y27.462
X15.003 Y27.504
G3 X14.655 Y27.219 Z9.2 I-0.031 J-0.316 F600
G1 X14.656 Y27.154
X14.669 Y27.09
X14.696 Y27.03
X14.722 Y26.985
X14.914 Y26.651 F1000
X15.038 Y26.436 F600
X15.154 Y26.234 Z9.106
G3 X15.362 Y26.082 Z9 I0.275 J0.158
G1 X15.768 Y26.008 F1000
X15.916 Y25.989
X16.064 Y26.014
X16.201 Y26.076
X16.361 Y26.24
X16.46 Y26.447
X16.487 Y26.675
X16.44 Y26.899
X16.322 Y27.096
X16.148 Y27.245
X15.934 Y27.33
X15.49 Y27.427
G3 X15.121 Y27.171 Z9.2 I-0.057 J-0.312 F600
G1 X15.116 Y27.103
X15.126 Y27.035
X15.15 Y26.971
X15.17 Y26.933
X15.342 Y26.59 F1000
X15.454 Y26.368 F600
X15.552 Y26.175 Z9.113
G3 X15.768 Y26.008 Z9 I0.283 J0.143
G1 X16.219 Y25.926 F1000
X16.367 Y25.902
X16.513 Y25.933
X16.688 Y26.057
X16.817 Y26.228
X16.888 Y26.43
X16.894 Y26.644
X16.835 Y26.85
X16.717 Y27.028
X16.55 Y27.162
X16.35 Y27.24
X15.934 Y27.33
G3 X15.565 Y27.074 Z9.2 I-0.057 J-0.312 F600
G1 X15.561 Y27.004
X15.572 Y26.934
X15.598 Y26.868
X15.614 Y26.837
X15.789 Y26.51 F1000
X15.906 Y26.291 F600
X16.017 Y26.084 Z9.106
G3 X16.219 Y25.926 Z9 I0.28 J0.15
G1 X16.602 Y25.842 F1000
X16.75 Y25.817
X16.898 Y25.842
X17.036 Y25.901
X17.196 Y26.064
X17.295 Y26.269
X17.322 Y26.496
X17.275 Y26.719
X17.159 Y26.915
X16.985 Y27.063
X16.773 Y27.147
X16.35 Y27.24
G3 X15.981 Y26.984 Z9.2 I-0.057 J-0.312 F600
G1 X15.976 Y26.916
X15.985 Y26.849
X16.009 Y26.785
X16.029 Y26.746
X16.185 Y26.433 F1000
X16.296 Y26.211 F600
X16.397 Y26.008 Z9.109
G3 X16.602 Y25.842 Z9 I0.284 J0.142
G1 X16.67 Y25.827 F1000
X16.82 Y25.777
X16.97 Y25.721
X17.113 Y25.676
X17.263 Y25.69
X17.404 Y25.739
X17.562 Y25.871
X17.675 Y26.042
X17.735 Y26.239
X17.736 Y26.445
X17.678 Y26.642
X17.565 Y26.814
X17.409 Y26.947
X17.221 Y27.03
X16.97 Y27.099
X16.82 Y27.137
X16.773 Y27.147
G3 X16.404 Y26.892 Z9.2 I-0.057 J-0.312 F600
G1 X16.399 Y26.828
X16.407 Y26.764
X16.428 Y26.703
X16.451 Y26.653
X16.591 Y26.345 F1000
X16.695 Y26.119 F600
X16.803 Y25.882 Z9.095
X16.833 Y25.831 Z9.072
X16.871 Y25.786 Z9.048
X16.918 Y25.749 Z9.024
X16.97 Y25.721 Z9
X17.355 Y25.577 F1000
X17.498 Y25.531
X17.648 Y25.537
X17.791 Y25.581
X17.973 Y25.722
X18.101 Y25.915
X18.159 Y26.138
X18.143 Y26.368
X18.054 Y26.58
X17.901 Y26.753
X17.702 Y26.868
X17.421 Y26.972
X17.243 Y27.024
X17.221 Y27.03
G3 X16.838 Y26.795 Z9.2 I-0.074 J-0.309 F600
G1 X16.83 Y26.732
X16.834 Y26.668
X16.851 Y26.606
X16.871 Y26.554
X17.004 Y26.213 F1000
X17.093 Y25.981 F600
X17.181 Y25.755 Z9.103
X17.21 Y25.698 Z9.077
X17.25 Y25.648 Z9.051
X17.299 Y25.607 Z9.026
X17.355 Y25.577 Z9
X17.771 Y25.421 F1000
X17.914 Y25.375
X18.064 Y25.382
X18.207 Y25.427
X18.389 Y25.568
X18.517 Y25.76
X18.575 Y25.983
X18.559 Y26.212
X18.471 Y26.425
X18.318 Y26.598
X18.118 Y26.712
X17.702 Y26.868
G3 X17.3 Y26.667 Z9.2 I-0.101 J-0.301 F600
G1 X17.285 Y26.6
X17.286 Y26.531
X17.301 Y26.463
X17.314 Y26.425
X17.438 Y26.063 F1000
X17.518 Y25.828 F600
X17.593 Y25.611 Z9.108
G3 X17.771 Y25.421 Z9 I0.3 J0.103
G1 X18.173 Y25.27 F1000
X18.316 Y25.224
X18.466 Y25.228
X18.61 Y25.269
X18.796 Y25.407
X18.926 Y25.599
X18.988 Y25.822
X18.974 Y26.053
X18.886 Y26.268
X18.733 Y26.442
X18.533 Y26.558
X18.118 Y26.712
G3 X17.717 Y26.512 Z9.2 I-0.101 J-0.301 F600
G1 X17.702 Y26.446
Y26.378
X17.716 Y26.312
X17.73 Y26.269
X17.846 Y25.914 F1000
X17.923 Y25.678 F600
X17.993 Y25.464 Z9.11
G3 X18.173 Y25.27 Z9 I0.302 J0.099
G1 X18.581 Y25.117 F1000
X18.724 Y25.071
X18.874 Y25.073
X19.019 Y25.113
X19.204 Y25.249
X19.336 Y25.438
X19.4 Y25.658
X19.389 Y25.888
X19.306 Y26.102
X19.158 Y26.278
X18.961 Y26.397
X18.925 Y26.411
X18.533 Y26.558
G3 X18.131 Y26.357 Z9.2 I-0.101 J-0.301 F600
G1 X18.117 Y26.292
X18.116 Y26.225
X18.13 Y26.16
X18.144 Y26.114
X18.257 Y25.762 F1000
X18.333 Y25.526 F600
X18.401 Y25.313 Z9.11
G3 X18.581 Y25.117 Z9 I0.302 J0.097
G1 X18.624 Y25.101 F1000
X18.774 Y25.04
X18.905 Y24.986
X18.925 Y24.976
X19.059 Y24.908
X19.208 Y24.894
X19.356 Y24.916
X19.549 Y25.032
X19.696 Y25.203
X19.78 Y25.412
X19.793 Y25.637
X19.735 Y25.854
X19.61 Y26.042
X19.432 Y26.181
X19.376 Y26.211
X19.225 Y26.291
X18.961 Y26.397
G3 X18.555 Y26.205 Z9.2 I-0.107 J-0.299 F600
G1 X18.539 Y26.142
X18.537 Y26.077
X18.548 Y26.012
X18.562 Y25.962
X18.648 Y25.652 F1000
X18.715 Y25.413 F600
X18.786 Y25.161 Z9.095
X18.807 Y25.105 Z9.071
X18.838 Y25.055 Z9.047
X18.878 Y25.011 Z9.024
X18.925 Y24.976 Z9
X19.17 Y24.835 F1000
X19.271 Y24.775
X19.403 Y24.705
X19.552 Y24.683
X19.701 Y24.698
X19.905 Y24.805
X20.062 Y24.973
X20.156 Y25.183
X20.177 Y25.412
X20.122 Y25.636
X19.997 Y25.829
X19.816 Y25.971
X19.432 Y26.181
G3 X19.006 Y26.039 Z9.2 I-0.142 J-0.284 F600
G1 X18.983 Y25.976
X18.973 Y25.908
X18.978 Y25.841
X18.985 Y25.797
X19.045 Y25.464 F1000
X19.089 Y25.22 F600
X19.131 Y24.986 Z9.104
G3 X19.271 Y24.775 Z9 I0.313 J0.056
G1 X19.644 Y24.552 F1000
X19.776 Y24.482
X19.924 Y24.46
X20.074 Y24.476
X20.257 Y24.566
X20.407 Y24.705
X20.51 Y24.881
X20.559 Y25.08
X20.548 Y25.284
X20.48 Y25.476
X20.359 Y25.641
X20.195 Y25.764
X19.816 Y25.971
G3 X19.39 Y25.83 Z9.2 I-0.142 J-0.284 F600
G1 X19.367 Y25.768
X19.357 Y25.702
X19.36 Y25.636
X19.368 Y25.588
X19.425 Y25.243 F1000
X19.465 Y24.998 F600
X19.503 Y24.768 Z9.106
G3 X19.644 Y24.552 Z9 I0.313 J0.051
G1 X20.023 Y24.326 F1000
X20.155 Y24.255
X20.303 Y24.234
X20.453 Y24.25
X20.639 Y24.341
X20.79 Y24.482
X20.895 Y24.661
X20.945 Y24.862
X20.934 Y25.069
X20.864 Y25.265
X20.742 Y25.431
X20.576 Y25.556
X20.195 Y25.764
G3 X19.769 Y25.623 Z9.2 I-0.142 J-0.284 F600
G1 X19.746 Y25.561
X19.736 Y25.496
X19.74 Y25.43
X19.747 Y25.38
X19.806 Y25.017 F1000
X19.845 Y24.772 F600
X19.881 Y24.542 Z9.107
G3 X20.023 Y24.326 Z9 I0.314 J0.05
G1 X20.398 Y24.102 F1000
X20.53 Y24.031
X20.678 Y24.008
X20.828 Y24.023
X21.016 Y24.112
X21.17 Y24.252
X21.279 Y24.43
X21.331 Y24.632
X21.324 Y24.84
X21.258 Y25.037
X21.138 Y25.208
X20.974 Y25.336
X20.879 Y25.391
X20.576 Y25.556
G3 X20.15 Y25.415 Z9.2 I-0.142 J-0.284 F600
G1 X20.127 Y25.354
X20.117 Y25.29
X20.12 Y25.225
X20.128 Y25.173
X20.185 Y24.793 F1000
X20.222 Y24.548 F600
X20.256 Y24.321 Z9.108
G3 X20.398 Y24.102 Z9 I0.314 J0.047
G1 X20.578 Y23.994 F1000
X20.729 Y23.902
X20.774 Y23.873
X20.905 Y23.8
X21.053 Y23.776
X21.203 Y23.789
X21.401 Y23.884
X21.56 Y24.036
X21.665 Y24.23
X21.703 Y24.446
X21.673 Y24.664
X21.576 Y24.862
X21.423 Y25.02
X21.18 Y25.202
X21.058 Y25.287
X20.999 Y25.322
X20.974 Y25.336
G3 X20.545 Y25.204 Z9.2 I-0.148 J-0.281 F600
G1 X20.52 Y25.143
X20.509 Y25.078
X20.511 Y25.012
X20.518 Y24.962
X20.572 Y24.568 F1000
X20.606 Y24.322 F600
X20.637 Y24.093 Z9.107
G3 X20.774 Y23.873 Z9 I0.315 J0.043
G1 X20.92 Y23.782 F1000
X21.03 Y23.708
X21.081 Y23.666
X21.202 Y23.577
X21.346 Y23.536
X21.496 Y23.531
X21.707 Y23.61
X21.881 Y23.753
X22 Y23.944
X22.05 Y24.164
X22.027 Y24.388
X21.932 Y24.593
X21.776 Y24.756
X21.423 Y25.02
G3 X20.981 Y24.941 Z9.2 I-0.181 J-0.261 F600
G1 X20.948 Y24.879
X20.929 Y24.812
X20.925 Y24.741
X20.927 Y24.704
X20.945 Y24.381 F1000
X20.959 Y24.133 F600
X20.973 Y23.887 Z9.101
X20.983 Y23.825 Z9.076
X21.005 Y23.766 Z9.051
X21.038 Y23.712 Z9.025
X21.081 Y23.666 Z9
X21.123 Y23.632 F1000
X21.401 Y23.389
X21.518 Y23.296
X21.662 Y23.254
X21.812 Y23.248
X22.032 Y23.324
X22.215 Y23.468
X22.34 Y23.664
X22.395 Y23.89
X22.373 Y24.122
X22.276 Y24.333
X22.116 Y24.501
X21.776 Y24.756
G3 X21.334 Y24.677 Z9.2 I-0.181 J-0.261 F600
G1 X21.302 Y24.618
X21.283 Y24.554
X21.277 Y24.487
X21.279 Y24.44
X21.287 Y24.108 F1000
X21.294 Y23.86 F600
X21.3 Y23.613 Z9.101
X21.308 Y23.55 Z9.076
X21.328 Y23.491 Z9.05
X21.359 Y23.436 Z9.025
X21.401 Y23.389 Z9
X21.717 Y23.112 F1000
X21.835 Y23.019
X21.978 Y22.973
X22.127 Y22.962
X22.329 Y23.022
X22.505 Y23.138
X22.64 Y23.3
X22.722 Y23.494
X22.744 Y23.703
X22.704 Y23.91
X22.605 Y24.096
X22.457 Y24.246
X22.116 Y24.501
G3 X21.674 Y24.422 Z9.2 I-0.181 J-0.261 F600
G1 X21.643 Y24.366
X21.624 Y24.305
X21.617 Y24.241
Y24.186
Y23.831 F1000
Y23.583 F600
Y23.344 Z9.104
G3 X21.717 Y23.112 Z9 I0.317 J0
G1 X22.038 Y22.833 F1000
X22.156 Y22.74
X22.296 Y22.688
X22.446 Y22.674
X22.595 Y22.691
X22.785 Y22.782
X22.94 Y22.925
X23.048 Y23.107
X23.098 Y23.312
X23.087 Y23.522
X23.016 Y23.721
X22.89 Y23.89
X22.834 Y23.946
X22.683 Y24.075
X22.457 Y24.246
G3 X22.015 Y24.167 Z9.2 I-0.181 J-0.261 F600
G1 X21.985 Y24.113
X21.966 Y24.054
X21.959 Y23.993
X21.957 Y23.93
X21.948 Y23.551 F1000
X21.943 Y23.303 F600
X21.937 Y23.071 Z9.107
G3 X22.038 Y22.833 Z9 I0.317 J-0.007
G1 X22.383 Y22.531 F1000
X22.5 Y22.438
X22.641 Y22.387
X22.79 Y22.371
X23.007 Y22.431
X23.194 Y22.556
X23.332 Y22.734
X23.406 Y22.947
X23.41 Y23.172
X23.343 Y23.386
X23.211 Y23.569
X22.89 Y23.89
G3 X22.441 Y23.875 Z9.2 I-0.217 J-0.232 F600
G1 X22.399 Y23.818
X22.37 Y23.753
X22.357 Y23.684
X22.354 Y23.648
X22.321 Y23.249 F1000
X22.301 Y23.001 F600
X22.283 Y22.789 Z9.115
G3 X22.383 Y22.531 Z9 I0.316 J-0.026
G1 X22.683 Y22.269 F1000
X22.707 Y22.245
X22.818 Y22.144
X22.958 Y22.091
X23.107 Y22.076
X23.322 Y22.132
X23.508 Y22.253
X23.645 Y22.427
X23.721 Y22.636
X23.726 Y22.858
X23.66 Y23.07
X23.53 Y23.25
X23.211 Y23.569
G3 X22.762 Y23.554 Z9.2 I-0.217 J-0.232 F600
G1 X22.729 Y23.511
X22.703 Y23.463
X22.686 Y23.411
X22.678 Y23.357
X22.676 Y23.327
X22.653 Y22.969 F1000
X22.637 Y22.721 F600
X22.622 Y22.482 Z9.104
G3 X22.707 Y22.245 Z9 I0.317 J-0.02
G1 X22.834 Y22.118 F1000
X22.959 Y21.977
X23.058 Y21.865
X23.192 Y21.796
X23.338 Y21.762
X23.54 Y21.792
X23.724 Y21.88
X23.875 Y22.017
X23.98 Y22.192
X24.03 Y22.39
X24.02 Y22.594
X23.951 Y22.787
X23.829 Y22.951
X23.53 Y23.25
G3 X23.082 Y23.234 Z9.2 I-0.217 J-0.232 F600
G1 X23.041 Y23.181
X23.013 Y23.12
X22.998 Y23.055
X22.993 Y23.008
X22.957 Y22.707 F1000
X22.928 Y22.46 F600
X22.898 Y22.204 Z9.097
X22.897 Y22.144 Z9.072
X22.906 Y22.085 Z9.048
X22.927 Y22.028 Z9.024
X22.959 Y21.977 Z9
X23.225 Y21.644 F1000
X23.324 Y21.531
X23.457 Y21.461
X23.603 Y21.428
X23.753 Y21.424
X23.962 Y21.494
X24.139 Y21.624
X24.269 Y21.801
X24.338 Y22.009
X24.342 Y22.229
X24.278 Y22.44
X24.153 Y22.621
X24.051 Y22.729
X23.829 Y22.951
G3 X23.381 Y22.935 Z9.2 I-0.217 J-0.232 F600
G1 X23.342 Y22.885
X23.315 Y22.827
X23.299 Y22.766
X23.29 Y22.709
X23.24 Y22.371 F1000
X23.203 Y22.126 F600
X23.166 Y21.88 Z9.1
X23.163 Y21.818 Z9.075
X23.172 Y21.756 Z9.05
X23.193 Y21.697 Z9.025
X23.225 Y21.644 Z9
X23.501 Y21.298 F1000
X23.6 Y21.186
X23.73 Y21.112
X23.875 Y21.073
X24.105 Y21.098
X24.315 Y21.195
X24.483 Y21.354
X24.592 Y21.558
X24.63 Y21.786
X24.594 Y22.014
X24.487 Y22.219
X24.33 Y22.428
X24.187 Y22.585
X24.153 Y22.621
G3 X23.704 Y22.618 Z9.2 I-0.223 J-0.226 F600
G1 X23.665 Y22.57
X23.636 Y22.515
X23.618 Y22.455
X23.607 Y22.395
X23.535 Y22.022 F1000
X23.488 Y21.778 F600
X23.444 Y21.547 Z9.106
X23.438 Y21.488 Z9.082
Y21.487 Z9.081
X23.445 Y21.42 Z9.054
X23.466 Y21.356 Z9.027
X23.501 Y21.298 Z9
X23.77 Y20.96 F1000
X23.87 Y20.847
X23.999 Y20.772
X24.144 Y20.731
X24.372 Y20.752
X24.581 Y20.845
X24.75 Y21
X24.86 Y21.201
X24.899 Y21.427
X24.864 Y21.653
X24.759 Y21.856
X24.487 Y22.219
G3 X24.041 Y22.268 Z9.2 I-0.247 J-0.199 F600
G1 X23.992 Y22.219
X23.955 Y22.161
X23.931 Y22.096
X23.921 Y22.056
X23.829 Y21.679 F1000
X23.769 Y21.437 F600
X23.717 Y21.224 Z9.112
G3 X23.77 Y20.96 Z9 I0.308 J-0.076
G1 X24.036 Y20.626 F1000
X24.136 Y20.514
X24.263 Y20.435
X24.407 Y20.391
X24.634 Y20.408
X24.843 Y20.498
X25.012 Y20.65
X25.123 Y20.849
X25.164 Y21.073
X25.13 Y21.298
X25.025 Y21.5
X24.759 Y21.856
G3 X24.312 Y21.905 Z9.2 I-0.247 J-0.199 F600
G1 X24.265 Y21.857
X24.228 Y21.801
X24.204 Y21.738
X24.193 Y21.694
X24.101 Y21.343 F1000
X24.038 Y21.103 F600
X23.984 Y20.895 Z9.114
G3 X24.036 Y20.626 Z9 I0.307 J-0.08
G1 X24.277 Y20.322 F1000
X24.295 Y20.292
X24.38 Y20.168
X24.506 Y20.087
X24.648 Y20.04
X24.877 Y20.053
X25.089 Y20.138
X25.262 Y20.288
X25.377 Y20.485
X25.423 Y20.709
X25.393 Y20.936
X25.292 Y21.141
X25.231 Y21.225
X25.025 Y21.5
G3 X24.579 Y21.549 Z9.2 I-0.247 J-0.199 F600
G1 X24.53 Y21.499
X24.493 Y21.441
X24.469 Y21.376
X24.46 Y21.337
X24.383 Y21.017 F1000
X24.324 Y20.776 F600
X24.263 Y20.523 Z9.096
X24.255 Y20.464 Z9.072
X24.257 Y20.405 Z9.048
X24.271 Y20.347 Z9.024
X24.295 Y20.292 Z9
X24.337 Y20.224 F1000
X24.487 Y19.967
X24.569 Y19.841
X24.687 Y19.748
X24.824 Y19.687
X25.034 Y19.678
X25.238 Y19.731
X25.417 Y19.841
X25.556 Y19.999
X25.643 Y20.19
X25.669 Y20.399
X25.634 Y20.606
X25.539 Y20.794
X25.292 Y21.141
G3 X24.847 Y21.198 Z9.2 I-0.251 J-0.194 F600
G1 X24.801 Y21.155
X24.765 Y21.104
X24.739 Y21.046
X24.721 Y20.99
X24.619 Y20.681 F1000
X24.541 Y20.445 F600
X24.466 Y20.216 Z9.103
G3 X24.487 Y19.967 Z9 I0.302 J-0.099
G1 X24.543 Y19.871 F1000
X24.691 Y19.595
X24.769 Y19.467
X24.885 Y19.372
X25.022 Y19.31
X25.168 Y19.276
X25.377 Y19.301
X25.57 Y19.387
X25.729 Y19.526
X25.84 Y19.706
X25.892 Y19.91
X25.882 Y20.121
X25.81 Y20.32
X25.644 Y20.623
X25.553 Y20.773
X25.539 Y20.794
G3 X25.094 Y20.854 Z9.2 I-0.252 J-0.193 F600
G1 X25.049 Y20.813
X25.013 Y20.764
X24.987 Y20.709
X24.965 Y20.647
X24.843 Y20.306 F1000
X24.759 Y20.072 F600
X24.677 Y19.843 Z9.102
X24.662 Y19.781 Z9.077
X24.659 Y19.718 Z9.051
X24.669 Y19.655 Z9.026
X24.691 Y19.595 Z9
X24.906 Y19.196 F1000
X24.984 Y19.068
X25.1 Y18.972
X25.235 Y18.907
X25.466 Y18.892
X25.69 Y18.953
X25.882 Y19.083
X26.023 Y19.268
X26.096 Y19.488
X26.094 Y19.72
X26.018 Y19.939
X25.81 Y20.32
G3 X25.375 Y20.431 Z9.2 I-0.273 J-0.162 F600
G1 X25.321 Y20.391
X25.276 Y20.34
X25.244 Y20.281
X25.226 Y20.239
X25.082 Y19.897 F1000
X24.986 Y19.668 F600
X24.898 Y19.46 Z9.109
G3 X24.906 Y19.196 Z9 I0.293 J-0.123
G1 X25.11 Y18.818 F1000
X25.187 Y18.689
X25.302 Y18.592
X25.436 Y18.526
X25.669 Y18.507
X25.894 Y18.565
X26.089 Y18.692
X26.232 Y18.877
X26.307 Y19.097
X26.306 Y19.33
X26.23 Y19.55
X26.018 Y19.939
G3 X25.583 Y20.05 Z9.2 I-0.273 J-0.162 F600
G1 X25.529 Y20.01
X25.485 Y19.96
X25.453 Y19.902
X25.434 Y19.858
X25.288 Y19.518 F1000
X25.191 Y19.29 F600
X25.103 Y19.083 Z9.11
G3 X25.11 Y18.818 Z9 I0.292 J-0.125
G1 X25.316 Y18.434 F1000
X25.394 Y18.306
X25.507 Y18.208
X25.642 Y18.141
X25.845 Y18.119
X26.047 Y18.156
X26.229 Y18.249
X26.377 Y18.39
X26.479 Y18.568
X26.525 Y18.768
X26.512 Y18.972
X26.441 Y19.164
X26.23 Y19.55
G3 X25.795 Y19.662 Z9.2 I-0.273 J-0.162 F600
G1 X25.742 Y19.622
X25.698 Y19.573
X25.666 Y19.515
X25.646 Y19.47
X25.498 Y19.133 F1000
X25.399 Y18.905 F600
X25.31 Y18.702 Z9.111
G3 X25.316 Y18.434 Z9 I0.291 J-0.127
G1 X25.353 Y18.366 F1000
X25.389 Y18.293
X25.498 Y18.066
X25.564 Y17.931
X25.672 Y17.827
X25.803 Y17.755
X26.022 Y17.723
X26.241 Y17.762
X26.435 Y17.866
X26.588 Y18.027
X26.682 Y18.228
X26.709 Y18.447
X26.665 Y18.664
X26.606 Y18.818
X26.464 Y19.119
X26.441 Y19.164
G3 X26.006 Y19.276 Z9.2 I-0.273 J-0.162 F600
G1 X25.954 Y19.237
X25.911 Y19.189
X25.878 Y19.133
X25.856 Y19.084
X25.71 Y18.762 F1000
X25.607 Y18.535 F600
X25.505 Y18.31 Z9.101
X25.485 Y18.251 Z9.076
X25.477 Y18.189 Z9.05
X25.482 Y18.126 Z9.025
X25.498 Y18.066 Z9
X25.54 Y17.968 F1000
X25.621 Y17.719
X25.675 Y17.579
X25.771 Y17.464
X25.892 Y17.376
X26.117 Y17.322
X26.346 Y17.344
X26.555 Y17.44
X26.722 Y17.6
X26.827 Y17.805
X26.86 Y18.033
X26.816 Y18.259
X26.665 Y18.664
G3 X26.251 Y18.837 Z9.2 I-0.293 J-0.121 F600
G1 X26.192 Y18.805
X26.141 Y18.761
X26.1 Y18.707
X26.076 Y18.668
X25.906 Y18.386 F1000
X25.778 Y18.174 F600
X25.655 Y17.971 Z9.105
G3 X25.621 Y17.719 Z9 I0.272 J-0.164
G1 X25.753 Y17.313 F1000
X25.807 Y17.173
X25.902 Y17.057
X26.023 Y16.969
X26.221 Y16.914
X26.426 Y16.918
X26.621 Y16.982
X26.79 Y17.099
X26.917 Y17.26
X26.992 Y17.451
X27.01 Y17.655
X26.967 Y17.856
X26.816 Y18.259
G3 X26.402 Y18.431 Z9.2 I-0.293 J-0.121 F600
G1 X26.344 Y18.4
X26.295 Y18.358
X26.254 Y18.307
X26.226 Y18.263
X26.046 Y17.976 F1000
X25.913 Y17.766 F600
X25.79 Y17.57 Z9.107
G3 X25.753 Y17.313 Z9 I0.269 J-0.169
G1 X25.89 Y16.892 F1000
X25.943 Y16.752
X26.039 Y16.637
X26.161 Y16.55
X26.362 Y16.495
X26.57 Y16.5
X26.768 Y16.564
X26.939 Y16.684
X27.068 Y16.847
X27.144 Y17.041
X27.161 Y17.248
X27.117 Y17.452
X26.967 Y17.856
G3 X26.552 Y18.028 Z9.2 I-0.293 J-0.121 F600
G1 X26.495 Y17.997
X26.445 Y17.956
X26.405 Y17.905
X26.377 Y17.86
X26.183 Y17.554 F1000
X26.05 Y17.345 F600
X25.927 Y17.15 Z9.108
X25.9 Y17.097 Z9.084
X25.883 Y17.039 Z9.06
X25.878 Y16.98 Z9.036
X25.881 Y16.936 Z9.018
X25.89 Y16.892 Z9
X26.025 Y16.478 F1000
X26.078 Y16.338
X26.172 Y16.222
X26.294 Y16.133
X26.515 Y16.073
X26.744 Y16.085
X26.958 Y16.169
X27.134 Y16.316
X27.254 Y16.512
X27.307 Y16.735
X27.286 Y16.963
X27.273 Y17.012
X27.225 Y17.163
X27.117 Y17.452
G3 X26.703 Y17.624 Z9.2 I-0.293 J-0.121 F600
G1 X26.647 Y17.594
X26.597 Y17.553
X26.557 Y17.503
X26.527 Y17.456
X26.321 Y17.138 F1000
X26.187 Y16.929 F600
X26.063 Y16.738 Z9.109
G3 X26.025 Y16.478 Z9 I0.267 J-0.172
G1 X26.159 Y16.064 F1000
X26.212 Y15.924
X26.306 Y15.807
X26.426 Y15.717
X26.638 Y15.655
X26.858 Y15.663
X27.065 Y15.739
X27.238 Y15.876
X27.359 Y16.061
X27.416 Y16.274
X27.404 Y16.494
X27.389 Y16.561
X27.286 Y16.963
G3 X26.892 Y17.179 Z9.2 I-0.305 J-0.089 F600
G1 X26.827 Y17.152
X26.77 Y17.111
X26.723 Y17.059
X26.701 Y17.028
X26.474 Y16.711 F1000
X26.33 Y16.509 F600
X26.206 Y16.337 Z9.115
G3 X26.159 Y16.064 Z9 I0.258 J-0.185
G1 X26.193 Y15.959 F1000
X26.229 Y15.809
X26.251 Y15.689
X26.286 Y15.543
X26.37 Y15.419
X26.482 Y15.318
X26.694 Y15.24
X26.92 Y15.235
X27.135 Y15.303
X27.317 Y15.437
X27.446 Y15.623
X27.508 Y15.84
X27.497 Y16.066
X27.404 Y16.494
G3 X27.018 Y16.723 Z9.2 I-0.308 J-0.079 F600
G1 X26.953 Y16.699
X26.895 Y16.661
X26.846 Y16.611
X26.822 Y16.58
X26.616 Y16.317 F1000
X26.463 Y16.121 F600
X26.315 Y15.932 Z9.104
G3 X26.251 Y15.689 Z9 I0.25 J-0.196
G1 X26.291 Y15.475 F1000
X26.31 Y15.358
X26.316 Y15.312
X26.343 Y15.165
X26.416 Y15.033
X26.519 Y14.924
X26.705 Y14.836
X26.909 Y14.807
X27.113 Y14.838
X27.298 Y14.928
X27.45 Y15.068
X27.553 Y15.246
X27.6 Y15.447
X27.587 Y15.653
X27.497 Y16.066
G3 X27.111 Y16.295 Z9.2 I-0.308 J-0.078 F600
G1 X27.051 Y16.273
X26.996 Y16.239
X26.949 Y16.195
X26.913 Y16.154
X26.712 Y15.921 F1000
X26.549 Y15.733 F600
X26.392 Y15.552 Z9.104
G3 X26.316 Y15.312 Z9 I0.24 J-0.208
G1 X26.377 Y14.861 F1000
X26.404 Y14.713
X26.482 Y14.585
X26.59 Y14.481
X26.782 Y14.395
X26.99 Y14.368
X27.198 Y14.403
X27.386 Y14.497
X27.539 Y14.641
X27.644 Y14.823
X27.691 Y15.028
X27.677 Y15.238
X27.587 Y15.653
G3 X27.201 Y15.882 Z9.2 I-0.308 J-0.078 F600
G1 X27.14 Y15.86
X27.085 Y15.826
X27.038 Y15.781
X27.003 Y15.74
X26.771 Y15.471 F1000
X26.609 Y15.282 F600
X26.452 Y15.099 Z9.103
G3 X26.377 Y14.861 Z9 I0.241 J-0.207
G1 X26.432 Y14.455 F1000
X26.459 Y14.307
X26.529 Y14.175
X26.631 Y14.065
X26.753 Y13.978
X26.961 Y13.92
X27.176 Y13.926
X27.379 Y13.996
X27.553 Y14.123
X27.681 Y14.296
X27.751 Y14.499
X27.759 Y14.714
X27.736 Y14.906
X27.716 Y15.057
X27.677 Y15.238
G3 X27.291 Y15.467 Z9.2 I-0.308 J-0.078 F600
G1 X27.234 Y15.447
X27.182 Y15.416
X27.136 Y15.375
X27.092 Y15.327
X26.839 Y15.053 F1000
X26.671 Y14.871 F600
X26.515 Y14.702 Z9.108
G3 X26.432 Y14.455 Z9 I0.233 J-0.215
G1 X26.493 Y14.004 F1000
X26.521 Y13.856
X26.59 Y13.723
X26.691 Y13.612
X26.894 Y13.512
X27.119 Y13.482
X27.341 Y13.525
X27.539 Y13.636
X27.691 Y13.805
X27.782 Y14.012
X27.802 Y14.238
X27.787 Y14.455
X27.772 Y14.605
X27.759 Y14.714
G3 X27.397 Y14.98 Z9.2 I-0.314 J-0.048 F600
G1 X27.333 Y14.963
X27.273 Y14.933
X27.221 Y14.891
X27.187 Y14.858
X26.915 Y14.588 F1000
X26.739 Y14.413 F600
X26.585 Y14.261 Z9.113
G3 X26.493 Y14.004 Z9 I0.224 J-0.225
G1 X26.553 Y13.552 F1000
X26.573 Y13.404
X26.648 Y13.273
X26.816 Y13.147
X27.014 Y13.078
X27.224 Y13.071
X27.427 Y13.127
X27.603 Y13.242
X27.737 Y13.404
X27.816 Y13.599
X27.833 Y13.808
X27.802 Y14.238
G3 X27.453 Y14.52 Z9.2 I-0.316 J-0.034 F600
G1 X27.399 Y14.509
X27.347 Y14.49
X27.3 Y14.461
X27.258 Y14.425
X27.239 Y14.405
X26.982 Y14.139 F1000
X26.809 Y13.96 F600
X26.642 Y13.787 Z9.103
G3 X26.553 Y13.552 Z9 I0.228 J-0.221
G1 X26.565 Y13.402 F1000
X26.564 Y13.206
X26.571 Y13.056
X26.628 Y12.917
X26.719 Y12.798
X26.92 Y12.681
X27.147 Y12.636
X27.377 Y12.669
X27.584 Y12.775
X27.744 Y12.943
X27.841 Y13.154
X27.863 Y13.385
X27.833 Y13.808
G3 X27.484 Y14.09 Z9.2 I-0.316 J-0.034 F600
G1 X27.418 Y14.076
X27.357 Y14.049
X27.303 Y14.009
X27.268 Y13.977
X27.033 Y13.762 F1000
X26.85 Y13.595 F600
X26.667 Y13.428 Z9.101
X26.626 Y13.381 Z9.076
X26.594 Y13.327 Z9.05
X26.573 Y13.268 Z9.025
X26.564 Y13.206 Z9
Y13.101 F1000
X26.562 Y12.951
X26.555 Y12.8
X26.556 Y12.65
X26.609 Y12.51
X26.695 Y12.387
X26.869 Y12.269
X27.069 Y12.207
X27.279 Y12.205
X27.48 Y12.265
X27.655 Y12.381
X27.79 Y12.542
X27.871 Y12.735
X27.893 Y12.944
X27.883 Y13.101
X27.863 Y13.385
G3 X27.514 Y13.667 Z9.2 I-0.316 J-0.034 F600
G1 X27.452 Y13.654
X27.394 Y13.629
X27.341 Y13.593
X27.298 Y13.555
X27.044 Y13.339 F1000
X26.855 Y13.178 F600
X26.666 Y13.016 Z9.1
X26.622 Y12.972 Z9.075
X26.589 Y12.919 Z9.05
X26.566 Y12.861 Z9.025
X26.555 Y12.8 Z9
X26.536 Y12.379 F1000
X26.537 Y12.229
X26.585 Y12.087
X26.669 Y11.963
X26.775 Y11.857
X26.98 Y11.763
X27.203 Y11.735
X27.424 Y11.777
X27.622 Y11.884
X27.779 Y12.046
X27.878 Y12.247
X27.912 Y12.47
Y12.499
X27.893 Y12.944
G3 X27.552 Y13.236 Z9.2 I-0.317 J-0.025 F600
G1 X27.491 Y13.225
X27.433 Y13.203
X27.381 Y13.17
X27.332 Y13.131
X27.039 Y12.902 F1000
X26.843 Y12.749 F600
X26.657 Y12.604 Z9.105
G3 X26.536 Y12.379 Z9 I0.195 J-0.25
G1 X26.516 Y11.928 F1000
X26.517 Y11.778
X26.563 Y11.635
X26.644 Y11.508
X26.818 Y11.376
X27.023 Y11.302
X27.241 Y11.29
X27.453 Y11.342
X27.64 Y11.453
X27.787 Y11.615
X27.88 Y11.812
X27.913 Y12.027
X27.912 Y12.47
G3 X27.583 Y12.775 Z9.2 I-0.317 J-0.012 F600
G1 X27.521 Y12.766
X27.462 Y12.746
X27.408 Y12.714
X27.359 Y12.679
X27.028 Y12.438 F1000
X26.827 Y12.292 F600
X26.646 Y12.159 Z9.11
G3 X26.516 Y11.928 Z9 I0.187 J-0.257
G1 X26.496 Y11.477 F1000
Y11.327
X26.543 Y11.184
X26.625 Y11.058
X26.729 Y10.951
X26.746 Y10.939
X26.953 Y10.838
X27.181 Y10.805
X27.407 Y10.843
X27.611 Y10.949
X27.773 Y11.113
X27.877 Y11.318
X27.913 Y11.545
Y12.027
G3 X27.584 Y12.334 Z9.2 I-0.317 J-0.011 F600
G1 X27.522 Y12.325
X27.463 Y12.305
X27.409 Y12.274
X27.36 Y12.238
X27.009 Y11.985 F1000
X26.808 Y11.839 F600
X26.626 Y11.708 Z9.11
G3 X26.496 Y11.477 Z9 I0.186 J-0.257
G1 X26.48 Y11.145 F1000
X26.472 Y11.025
X26.469 Y10.875
X26.51 Y10.731
X26.585 Y10.601
X26.685 Y10.489
X26.804 Y10.398
X26.82 Y10.389
X27.024 Y10.315
X27.242 Y10.304
X27.454 Y10.356
X27.641 Y10.468
X27.787 Y10.629
X27.88 Y10.826
X27.913 Y11.041
Y11.545
G3 X27.584 Y11.852 Z9.2 I-0.317 J-0.011 F600
G1 X27.526 Y11.844
X27.47 Y11.826
X27.418 Y11.798
X27.359 Y11.758
X26.999 Y11.517 F1000
X26.793 Y11.379 F600
X26.611 Y11.257 Z9.112
G3 X26.472 Y11.025 Z9 I0.177 J-0.264
G1 X26.47 Y10.995 F1000
X26.397 Y10.611
X26.376 Y10.463
X26.402 Y10.315
X26.461 Y10.177
X26.547 Y10.054
X26.652 Y9.947
X26.775 Y9.861
X26.909 Y9.793
X26.94 Y9.783
X27.169 Y9.745
X27.399 Y9.781
X27.606 Y9.886
X27.77 Y10.05
X27.876 Y10.257
X27.913 Y10.486
Y11.041
G3 X27.584 Y11.347 Z9.2 I-0.317 J-0.011 F600
G1 X27.535 Y11.342
X27.487 Y11.329
X27.442 Y11.308
X27.355 Y11.26
X26.972 Y11.05 F1000
X26.755 Y10.93 F600
X26.553 Y10.819 Z9.108
G3 X26.397 Y10.611 Z9 I0.153 J-0.278
G1 X26.384 Y10.543 F1000
X26.291 Y10.139
X26.265 Y9.991
X26.282 Y9.842
X26.33 Y9.7
X26.404 Y9.57
X26.498 Y9.453
X26.61 Y9.353
X26.735 Y9.27
X26.871 Y9.206
X27.014 Y9.161
X27.036 Y9.157
X27.252 Y9.148
X27.461 Y9.203
X27.645 Y9.315
X27.789 Y9.476
X27.881 Y9.671
X27.913 Y9.885
Y10.486
G3 X27.584 Y10.792 Z9.2 I-0.317 J-0.011 F600
G1 X27.527 Y10.785
X27.473 Y10.768
X27.35 Y10.717
X26.897 Y10.527 F1000
X26.668 Y10.431 F600
X26.476 Y10.351 Z9.117
G3 X26.291 Y10.139 Z9 I0.123 J-0.293
G1 X26.178 Y9.641 F1000
X26.152 Y9.493
X26.157 Y9.343
X26.193 Y9.198
X26.254 Y9.06
X26.335 Y8.935
X26.435 Y8.823
X26.549 Y8.725
X26.676 Y8.645
X26.811 Y8.58
X26.954 Y8.533
X27.101 Y8.505
X27.114 Y8.504
X27.317 Y8.516
X27.508 Y8.583
X27.675 Y8.699
X27.803 Y8.856
X27.885 Y9.042
X27.913 Y9.243
Y9.885
G3 X27.584 Y10.191 Z9.2 I-0.317 J-0.011 F600
G1 X27.546 Y10.187
X27.509 Y10.179
X27.344 Y10.133
X26.8 Y9.979 F1000
X26.561 Y9.911 F600
X26.398 Y9.865 Z9.132
G3 X26.178 Y9.641 Z9 I0.086 J-0.305
G1 X26.04 Y9.039 F1000
X26.014 Y8.891
X26.024 Y8.742
X26.062 Y8.597
X26.122 Y8.459
X26.201 Y8.332
X26.296 Y8.216
X26.406 Y8.113
X26.527 Y8.024
X26.657 Y7.95
X26.796 Y7.893
X26.94 Y7.851
X27.088 Y7.827
X27.132 Y7.825
X27.331 Y7.841
X27.519 Y7.91
X27.681 Y8.027
X27.807 Y8.183
X27.886 Y8.366
X27.913 Y8.564
Y9.243
G3 X27.584 Y9.549 Z9.2 I-0.317 J-0.011 F600
G1 X27.527 Y9.542
X27.341 Y9.501
X26.67 Y9.353 F1000
X26.427 Y9.299 F600
X26.279 Y9.267 Z9.139
G3 X26.04 Y9.039 Z9 I0.068 J-0.31
G1 X25.991 Y8.828 F1000
X25.932 Y8.588
X25.914 Y8.542
X25.867 Y8.4
X25.853 Y8.251
X25.868 Y8.101
X25.908 Y7.957
X25.968 Y7.819
X26.046 Y7.691
X26.139 Y7.573
X26.244 Y7.466
X26.361 Y7.372
X26.487 Y7.291
X26.621 Y7.223
X26.761 Y7.171
X26.906 Y7.133
X27.055 Y7.11
X27.205 Y7.104
X27.214 Y7.105
X27.433 Y7.151
X27.628 Y7.26
X27.781 Y7.423
X27.879 Y7.624
X27.913 Y7.844
Y8.564
G3 X27.584 Y8.871 Z9.2 I-0.317 J-0.011 F600
G1 X27.564 Y8.869
X27.337 Y8.847
X26.581 Y8.773 F1000
X26.334 Y8.748 F600
X26.175 Y8.733 Z9.136
G3 X25.914 Y8.542 Z9 I0.031 J-0.316
G1 X25.873 Y8.437 F1000
X25.751 Y8.136
X25.69 Y7.991
X25.638 Y7.851
X25.618 Y7.702
X25.624 Y7.552
X25.653 Y7.405
X25.702 Y7.263
X25.767 Y7.128
X25.847 Y7.001
X25.94 Y6.883
X26.044 Y6.776
X26.158 Y6.678
X26.281 Y6.591
X26.41 Y6.516
X26.547 Y6.454
X26.688 Y6.404
X26.834 Y6.368
X26.983 Y6.347
X27.132 Y6.339
X27.204 Y6.342
X27.425 Y6.386
X27.623 Y6.494
X27.779 Y6.657
X27.878 Y6.859
X27.913 Y7.082
Y7.844
G3 X27.6 Y8.151 Z9.194 I-0.317 J-0.011 F600
G1 X27.584 Z9.2
X27.336 Y8.155
X26.365 Y8.168 F1000
X26.117 Y8.172 F600
X25.982 Y8.174 Z9.146
G3 X25.69 Y7.991 Z9 I-0.005 J-0.317
G1 X25.431 Y7.384 F1000
X25.379 Y7.244
X25.355 Y7.095
X25.356 Y6.945
X25.378 Y6.797
X25.419 Y6.653
X25.475 Y6.514
X25.546 Y6.381
X25.629 Y6.257
X25.724 Y6.14
X25.828 Y6.032
X25.941 Y5.934
X26.065 Y5.842
X26.193 Y5.763
X26.326 Y5.695
X26.474 Y5.634
X26.617 Y5.589
X26.763 Y5.555
X26.912 Y5.535
X27.062 Y5.528
X27.212 Y5.533
X27.269 Y5.541
X27.474 Y5.598
X27.653 Y5.712
X27.793 Y5.872
X27.882 Y6.065
X27.913 Y6.275
Y7.082
G3 X27.625 Y7.387 Z9.184 I-0.317 J-0.011 F600
G1 X27.585 Y7.391 Z9.2
X27.337 Y7.414
X26.104 Y7.532 F1000
X25.857 Y7.555 F600
X25.748 Y7.565 Z9.156
G3 X25.431 Y7.384 Z9 I-0.03 J-0.316
G1 X25.154 Y6.737 F1000
X25.102 Y6.596
X25.074 Y6.449
X25.07 Y6.299
X25.086 Y6.15
X25.119 Y6.004
X25.169 Y5.862
X25.232 Y5.726
X25.307 Y5.596
X25.393 Y5.473
X25.49 Y5.356
X25.602 Y5.241
X25.727 Y5.133
X25.863 Y5.032
X26.01 Y4.941
X26.167 Y4.86
X26.318 Y4.796
X26.477 Y4.745
X26.64 Y4.705
X26.789 Y4.682
X26.938 Y4.672
X27.094 Y4.673
X27.243 Y4.686
X27.302 Y4.697
X27.498 Y4.761
X27.668 Y4.876
X27.8 Y5.034
X27.884 Y5.222
X27.913 Y5.426
Y6.275
G3 X27.644 Y6.577 Z9.176 I-0.317 J-0.011 F600
G1 X27.585 Y6.587 Z9.2
X27.34 Y6.625
X25.824 Y6.863 F1000
X25.579 Y6.902 F600
X25.491 Y6.916 Z9.164
G3 X25.154 Y6.737 Z9 I-0.049 J-0.314
G1 X25.045 Y6.482 F1000
X24.973 Y6.331
X24.938 Y6.267
X24.885 Y6.181
X24.81 Y6.051
X24.762 Y5.909
X24.738 Y5.761
X24.735 Y5.611
X24.75 Y5.462
X24.781 Y5.315
X24.826 Y5.172
X24.884 Y5.033
X24.956 Y4.896
X25.041 Y4.761
X25.14 Y4.629
X25.256 Y4.497
X25.389 Y4.37
X25.534 Y4.25
X25.692 Y4.141
X25.861 Y4.043
X26.041 Y3.957
X26.227 Y3.886
X26.399 Y3.835
X26.587 Y3.796
X26.757 Y3.775
X26.912 Y3.768
X27.082 Y3.774
X27.234 Y3.792
X27.317 Y3.808
X27.508 Y3.875
X27.675 Y3.991
X27.803 Y4.148
X27.885 Y4.334
X27.913 Y4.535
Y5.426
G3 X27.669 Y5.724 Z9.166 I-0.317 J-0.011 F600
G1 X27.586 Y5.743 Z9.2
X27.344 Y5.801
X25.576 Y6.222 F1000
X25.335 Y6.28 F600
X25.219 Y6.307 Z9.152
G3 X24.885 Y6.181 Z9 I-0.074 J-0.309
G1 X24.787 Y6.03 F1000
X24.489 Y5.579
X24.413 Y5.45
X24.362 Y5.309
X24.332 Y5.162
X24.321 Y5.012
X24.328 Y4.862
X24.349 Y4.714
X24.384 Y4.568
X24.43 Y4.425
X24.493 Y4.276
X24.574 Y4.121
X24.669 Y3.969
X24.782 Y3.817
X24.915 Y3.665
X25.065 Y3.519
X25.231 Y3.382
X25.411 Y3.256
X25.604 Y3.143
X25.807 Y3.045
X26.02 Y2.963
X26.236 Y2.899
X26.434 Y2.857
X26.645 Y2.83
X26.824 Y2.821
X26.998 Y2.827
X27.174 Y2.847
X27.324 Y2.876
X27.372 Y2.889
X27.548 Y2.965
X27.699 Y3.083
X27.815 Y3.235
X27.888 Y3.413
X27.913 Y3.603
Y4.535
G3 X27.688 Y4.827 Z9.158 I-0.317 J-0.011 F600
G1 X27.588 Y4.858 Z9.2
X27.35 Y4.931
X25.176 Y5.596 F1000
X24.938 Y5.669 F600
X24.841 Y5.698 Z9.159
G3 X24.489 Y5.579 Z9 I-0.093 J-0.304
G1 X24.061 Y4.931 F1000
X23.985 Y4.802
X23.921 Y4.666
X23.877 Y4.523
X23.851 Y4.375
X23.841 Y4.225
X23.847 Y4.075
X23.866 Y3.927
X23.898 Y3.78
X23.941 Y3.636
X23.994 Y3.496
X24.056 Y3.36
X24.127 Y3.228
X24.207 Y3.1
X24.293 Y2.978
X24.386 Y2.86
X24.486 Y2.748
X24.591 Y2.641
X24.702 Y2.54
X24.817 Y2.444
X24.937 Y2.354
X25.061 Y2.269
X25.189 Y2.191
X25.32 Y2.118
X25.455 Y2.052
X25.592 Y1.992
X25.732 Y1.938
X25.874 Y1.891
X26.019 Y1.85
X26.165 Y1.816
X26.312 Y1.788
X26.461 Y1.768
X26.61 Y1.756
X26.76 Y1.751
X26.91 Y1.755
X27.06 Y1.769
X27.208 Y1.791
X27.355 Y1.823
X27.38 Y1.831
X27.554 Y1.907
X27.703 Y2.025
X27.817 Y2.177
X27.888 Y2.353
X27.913 Y2.542
Y3.603
G3 X27.701 Y3.891 I-0.317 J-0.011 F600
G1 X27.654 Y3.907
X27.588 Y3.931 Z9.008
X27.524 Y3.953 Z9.031
X27.468 Y3.973 Z9.069
X27.42 Y3.99 Z9.12
X27.385 Y4.003 Z9.18
X27.362 Y4.01 Z9.247
X27.355 Y4.013 Z9.318
G0 Z13
X27.337 Y-1.704
Z9.518
G1 Z9.2 F600
X27.573 Y-1.72
X27.584 Y-1.721
G3 X27.913 Y-1.415 Z9 I0.011 J0.317
G1 Y2.542 F1000
G3 X27.615 Y2.848 I-0.317 J-0.011 F600
G1 X27.595 Z9.001
X27.542 Y2.835 Z9.009
X27.491 Y2.822 Z9.027
X27.444 Y2.81 Z9.054
X27.408 Y2.779 Z9.094
X27.379 Y2.753 Z9.142
X27.357 Y2.734 Z9.197
X27.344 Y2.722 Z9.256
X27.339 Y2.719 Z9.317
G0 Z9.518
X24.743 Y4.934
G1 Z9.2 F600
X24.509 Y5.017
X24.426 Y5.046 Z9.165
G3 X24.061 Y4.931 Z9 I-0.106 J-0.299
G1 X23.886 Y4.665 F1000
X23.585 Y4.238
X23.505 Y4.111
X23.44 Y3.976
X23.395 Y3.833
X23.367 Y3.685
X23.355 Y3.536
X23.358 Y3.386
X23.373 Y3.235
X23.402 Y3.074
X23.448 Y2.904
X23.504 Y2.748
X23.523 Y2.583
X23.506 Y2.419
X23.452 Y2.262
X23.365 Y2.121
X23.133 Y1.885
X22.583 Y1.515
X21.96 Y1.289
X21.312 Y1.155
X20.654 Y1.076
X19.993 Y1.03
X19.895 Y1.017
X19.8 Y0.991
X19.709 Y0.954
G3 X19.565 Y0.552 I0.149 J-0.28 F600
G1 X19.598 Y0.509 Z9.005
X19.629 Y0.466 Z9.019
X19.659 Y0.427 Z9.042
X19.704 Y0.406 Z9.078
X19.741 Y0.389 Z9.122
X19.771 Y0.375 Z9.173
X19.791 Y0.366 Z9.229
X19.801 Y0.361 Z9.289
X19.802 Z9.318
G0 Z13
X24.491 Y4.855
Z9.635
G1 Z9.318 F600
X24.483 Y4.852 Z9.247
X24.462 Y4.842 Z9.18
X24.427 Y4.827 Z9.12
X24.381 Y4.807 Z9.069
X24.326 Y4.782 Z9.031
X24.265 Y4.755 Z9.008
X24.201 Y4.726 Z9
G3 X23.585 Y4.238 I0.645 J-1.445
G1 X23.576 Y4.225 F1000
X23.435 Y4.072
X22.143 Y2.721
X22.082 Y2.658
X21.932 Y2.519
X21.815 Y2.42
X20.988 Y1.818
X20.127 Y1.193
X19.929 Y1.066
X19.827 Y1.012
X19.63 Y0.915
X18.173 Y0.214
X17.718 Y0.013
X17.572 Y-0.032
X16.97 Y-0.2
X16.504 Y-0.328
X16.023 Y-0.461 Z9.2 F600
X15.784 Y-0.527
X15.768 Y-0.532 F1000
X15.617 Y-0.572
X15.551 Y-0.589
X15.467 Y-0.61
X15.317 Y-0.632
X15.166 Y-0.649
X13.362 Y-0.811
X13.212 Y-0.824
X13.061 Y-0.835
X12.911 Y-0.831
X12.761 Y-0.822
X11.194 Y-0.681
X10.947 Y-0.659 F600
X10.806 Y-0.646 Z9.143
X10.656 Y-0.629 Z9.083
X10.506 Y-0.602 Z9.021
X10.454 Y-0.589 Z9
X10.355 Y-0.565 F1000
X8.401 Y-0.026
X8.285 Y0.013
X8.251 Y0.025
X8.1 Y0.083
X7.649 Y0.299
X7.499 Y0.372
X7.215 Y0.492
X6.867 Y0.606
X6.376 Y0.725
X5.722 Y0.829
X5.063 Y0.888
X4.401 Y0.922
X3.739 Y0.942
X3.077 Y0.953
X2.753 Y1.023
X2.457 Y1.171
X1.94 Y1.585
X1.583 Y2.144
X1.35 Y2.764
X1.203 Y3.41
X1.111 Y4.066
X1.055 Y4.726
X1.021 Y5.387
X1 Y6.049
X0.996 Y6.253
X0.987 Y6.351
X0.966 Y6.448
X0.932 Y6.54
X0.884 Y6.649
X0.282 Y8.056
X0.249 Y8.136
X0.127 Y8.437
X0.067 Y8.588
X0.029 Y8.738
X-0.143 Y9.49
X-0.32 Y10.264
G3 X-0.678 Y10.496 I-0.307 J-0.081 F600
G1 X-0.728 Y10.474 Z9.005
X-0.776 Y10.453 Z9.019
X-0.822 Y10.433 Z9.042
X-0.852 Y10.395 Z9.078
X-0.877 Y10.362 Z9.122
X-0.897 Y10.336 Z9.173
X-0.911 Y10.319 Z9.229
X-0.918 Y10.31 Z9.289
Y10.309 Z9.318
G0 Z13
X8.257 Y-0.419
Z9.635
G1 Z9.318 F600
X8.253 Y-0.412 Z9.247
X8.24 Y-0.393 Z9.18
X8.219 Y-0.361 Z9.12
X8.191 Y-0.319 Z9.069
X8.158 Y-0.269 Z9.031
X8.121 Y-0.213 Z9.008
X8.082 Y-0.155 Z9
G3 X7.499 Y0.372 I-1.319 J-0.875
G1 X6.446 Y0.879 F1000
X6.374 Y0.915
X5.995 Y1.117
X5.841 Y1.216
X5.634 Y1.367
X5.439 Y1.494
X5.238 Y1.603
X4.98 Y1.717
X4.355 Y1.936
X4.049 Y2.062
X3.487 Y2.413
X3.068 Y2.926
X2.777 Y3.521
X2.679 Y3.841
X2.643 Y3.935
X2.594 Y4.024
X2.534 Y4.105
G3 X2.085 Y4.125 Z9.2 I-0.234 J-0.215 F600
G1 X2.044 Y4.078
X2.012 Y4.025
X1.992 Y3.967
X1.983 Y3.905
G3 X2.09 Y3.653 I0.317 J-0.015 F1000
G1 X5.228 Y0.879
G3 X5.478 Y0.801 I0.21 J0.238
G1 X5.539 Y0.815 F600
X5.595 Y0.84
X5.646 Y0.876
X5.689 Y0.921
G3 X5.634 Y1.367 Z9 I-0.25 J0.195
G1 X4.492 Y2.196 F1000
X4.396 Y2.269
X4.012 Y2.57
X3.891 Y2.686
X2.538 Y4.101
X2.431 Y4.225
X2.214 Y4.526
X2.107 Y4.676
X1.184 Y6.073
X1.116 Y6.181
X1.034 Y6.315
X1.026 Y6.331
X0.932 Y6.54
G3 X0.535 Y6.698 I-0.285 J-0.139 F600
G1 X0.491 Y6.668 Z9.005
X0.447 Y6.637 Z9.019
X0.407 Y6.609 Z9.042
X0.385 Y6.565 Z9.078
X0.366 Y6.528 Z9.122
X0.351 Y6.499 Z9.173
X0.341 Y6.479 Z9.229
X0.336 Y6.47 Z9.289
Y6.468 Z9.318
G0 Z13
X27.258 Y-3.545
Z9.135
G1 Z8.818 F600
X27.262 Y-3.538 Z8.747
X27.274 Y-3.518 Z8.68
X27.294 Y-3.486 Z8.62
X27.319 Y-3.442 Z8.569
X27.35 Y-3.391 Z8.531
X27.384 Y-3.333 Z8.508
X27.42 Y-3.272 Z8.5
G3 X27.913 Y-1.597 I-3.024 J1.798
G1 Y-1.415 F1000
X27.911 Y-1.377
X27.814 Y-1.263
X27.703 Y-1.162
X27.581 Y-1.073
X27.426 Y-0.976
X27.226 Y-0.874
X26.965 Y-0.765
X26.614 Y-0.652
X26.118 Y-0.534
X25.463 Y-0.434
X24.803 Y-0.377
X24.142 Y-0.345
X23.48 Y-0.326
X22.817 Y-0.316
X22.155 Y-0.31
X21.492 Y-0.306
X20.168 Y-0.303
X16.903 Y-0.302
X16.771 Y-0.314
X16.643 Y-0.349
X16.523 Y-0.407
X16.466 Y-0.439
X16.369 Y-0.487
X16.219 Y-0.545
X16.068 Y-0.578
X15.768 Y-0.639
X15.617 Y-0.664
X14.264 Y-0.867
X13.963 Y-0.892
X13.813 Y-0.905
X13.663 Y-0.907
X12.31 Y-0.9
X11.859 Y-0.886
X11.708 Y-0.869
X11.257 Y-0.799
X10.355 Y-0.654
X9.904 Y-0.578
X9.822 Y-0.557
X9.409 Y-0.476
X8.751 Y-0.401
X8.09 Y-0.358
X7.428 Y-0.334
X6.765 Y-0.32
X6.103 Y-0.312
X5.441 Y-0.308
X4.778 Y-0.305
X3.453 Y-0.303
X1.466 Y-0.302
X1.304 Y-0.266
X1.002 Y-0.13
X0.749 Y0.083
X0.332 Y0.597
X0.073 Y1.207
X-0.083 Y1.851
X-0.175 Y2.507
X-0.228 Y3.167
X-0.259 Y3.829
X-0.277 Y4.491
X-0.288 Y5.153
X-0.294 Y5.816
X-0.297 Y6.478
X-0.3 Y7.803
X-0.301 Y10.099
X-0.303 Y10.155
X-0.31 Y10.21
X-0.32 Y10.264
X-0.418 Y10.694
X-0.449 Y10.844
X-0.471 Y10.995
X-0.48 Y11.145
X-0.515 Y11.897
X-0.562 Y12.951
X-0.564 Y13.101
X-0.565 Y13.402
X-0.553 Y13.552
X-0.493 Y14.004
X-0.437 Y14.664
X-0.379 Y15.324
X-0.346 Y15.985
X-0.327 Y16.647
X-0.316 Y17.31
X-0.31 Y17.972
X-0.306 Y18.634
X-0.303 Y19.959
X-0.302 Y23.271
Y26.922
X-0.338 Y27.151
X-0.443 Y27.357
X-0.607 Y27.521
X-0.814 Y27.626
X-1.042 Y27.663
G3 X-1.348 Y27.365 I0.011 J-0.317 F600
G1 X-1.349 Y27.345 Z8.501
X-1.335 Y27.292 Z8.509
X-1.322 Y27.241 Z8.527
X-1.31 Y27.194 Z8.554
X-1.279 Y27.158 Z8.594
X-1.254 Y27.129 Z8.642
X-1.235 Y27.107 Z8.697
X-1.223 Y27.094 Z8.756
X-1.219 Y27.089 Z8.817
G0 Z13
X-1.011 Y13.038
Z9.135
G1 Z8.818 F600
X-1.006 Y13.044 Z8.747
X-0.991 Y13.063 Z8.68
X-0.968 Y13.092 Z8.62
X-0.937 Y13.132 Z8.569
X-0.899 Y13.179 Z8.531
X-0.857 Y13.231 Z8.508
X-0.814 Y13.287 Z8.5
G3 X-0.493 Y14.004 I-1.239 J0.984
G1 X-0.31 Y15.358 F1000
X-0.285 Y15.508
X-0.229 Y15.809
X-0.193 Y15.959
X-0.169 Y16.035
X-0.16 Y16.073
X-0.156 Y16.11
X-0.159 Y16.26
X-0.152 Y16.411
X-0.131 Y16.561
X-0.098 Y16.712
X-0.051 Y16.862
X-0.018 Y16.95
X0.132 Y17.336
X0.419 Y18.066
X0.6 Y18.605
X0.718 Y19.077
X0.826 Y19.731
X0.887 Y20.39
X0.922 Y21.052
X0.942 Y21.714
X0.953 Y22.376
X0.96 Y23.039
X0.963 Y23.701
X0.967 Y25.026
Y25.688
X0.957 Y26.206
X0.926 Y26.515
X0.877 Y26.781
X0.823 Y26.986
X0.747 Y27.199
X0.735 Y27.225
X0.622 Y27.404
X0.462 Y27.544
X0.269 Y27.632
X0.059 Y27.663
G3 X-0.246 Y27.365 I0.011 J-0.317 F600
G1 X-0.247 Y27.345 Z8.501
X-0.233 Y27.292 Z8.509
X-0.22 Y27.241 Z8.527
X-0.208 Y27.194 Z8.554
X-0.177 Y27.158 Z8.594
X-0.152 Y27.129 Z8.642
X-0.133 Y27.107 Z8.697
X-0.121 Y27.094 Z8.756
X-0.117 Y27.089 Z8.817
G0 Z13
X-0.314 Y17.251
Z9.135
G1 Z8.818 F600
X-0.307 Y17.255 Z8.747
X-0.289 Y17.27 Z8.68
X-0.259 Y17.293 Z8.62
X-0.219 Y17.324 Z8.569
X-0.172 Y17.361 Z8.531
X-0.119 Y17.402 Z8.508
X-0.063 Y17.445 Z8.5
G3 X0.419 Y18.066 I-0.97 J1.25
G1 X0.537 Y18.366 F1000
X0.737 Y18.818
X0.822 Y18.968
X1.485 Y20.105
X1.633 Y20.39
X1.747 Y20.661
X1.866 Y21.024
X1.989 Y21.532
X2.093 Y22.186
X2.153 Y22.845
X2.189 Y23.507
X2.209 Y24.169
X2.221 Y24.831
X2.219 Y25.494
X2.185 Y26.048
X2.125 Y26.465
X2.054 Y26.777
X1.979 Y27.016
X1.894 Y27.228
X1.881 Y27.253
X1.765 Y27.422
X1.608 Y27.552
X1.421 Y27.634
X1.218 Y27.663
X0.059
G3 X-0.247 Y27.334 Z8.7 I0.011 J-0.317 F600
G1 X-0.243 Y27.294
X-0.21 Y27.089
X0.903 Y20.224 F1000
X0.907 Y20.204
X0.927 Y20.145 F600
X0.958 Y20.091
X0.998 Y20.044
X1.047 Y20.006
G3 X1.485 Y20.105 Z8.5 I0.169 J0.269
G1 X1.612 Y20.322 F1000
X1.936 Y20.781
X2.087 Y20.968
X2.538 Y21.522
X2.656 Y21.684
X2.766 Y21.862
X2.886 Y22.096
X3.006 Y22.386
X3.132 Y22.779
X3.261 Y23.324
X3.36 Y23.979
X3.416 Y24.639
X3.43 Y25.301
X3.397 Y25.884
X3.332 Y26.361
X3.26 Y26.689
X3.173 Y26.973
X3.09 Y27.183
X3.057 Y27.249
X2.942 Y27.419
X2.784 Y27.551
X2.596 Y27.634
X2.393 Y27.663
X1.218
G3 X0.912 Y27.334 Z8.7 I0.011 J-0.317 F600
G1 X0.917 Y27.286
X0.955 Y27.09
X1.98 Y21.708 F1000
X1.987 Y21.672 F600
X2.007 Y21.604
X2.042 Y21.543
X2.09 Y21.492
G3 X2.538 Y21.522 Z8.5 I0.209 J0.239
G1 X2.989 Y22.076 F1000
X3.139 Y22.237
X3.18 Y22.278
X3.514 Y22.579
X3.674 Y22.738
X3.78 Y22.863
X3.891 Y23.015
X4.011 Y23.213
X4.127 Y23.443
X4.243 Y23.73
X4.351 Y24.072
X4.444 Y24.478
X4.507 Y24.908
X4.537 Y25.381
X4.53 Y25.842
X4.488 Y26.269
X4.43 Y26.599
X4.353 Y26.89
X4.277 Y27.106
X4.226 Y27.222
X4.112 Y27.402
X3.952 Y27.543
X3.759 Y27.632
X3.549 Y27.663
X2.393
G3 X2.087 Y27.334 Z8.7 I0.011 J-0.317 F600
G1 X2.093 Y27.283
X2.131 Y27.09
X2.981 Y22.847 F1000
X2.998 Y22.76 F600
X3.013 Y22.709
X3.036 Y22.661
X3.067 Y22.618
G3 X3.514 Y22.579 Z8.5 I0.243 J0.204
G1 X4.349 Y23.331 F1000
X4.492 Y23.459
X4.642 Y23.587
X4.756 Y23.685
X4.86 Y23.793
X4.959 Y23.913
X5.067 Y24.069
X5.168 Y24.245
X5.268 Y24.456
X5.36 Y24.697
X5.442 Y24.98
X5.504 Y25.279
X5.544 Y25.606
X5.559 Y25.948
X5.546 Y26.283
X5.512 Y26.565
X5.458 Y26.832
X5.4 Y27.036
X5.324 Y27.237
X5.21 Y27.412
X5.051 Y27.547
X4.861 Y27.633
X4.654 Y27.663
X3.549
G3 X3.242 Y27.334 Z8.7 I0.011 J-0.317 F600
G1 X3.252 Y27.265
X3.297 Y27.093
X4.124 Y23.911 F1000
X4.16 Y23.772 F600
X4.177 Y23.723
X4.202 Y23.676
G3 X4.467 Y23.535 Z8.575 I0.264 J0.176
G1 X4.528 Y23.541 Z8.55
X4.588 Y23.558 Z8.525
X4.642 Y23.587 Z8.5
X4.705 Y23.632 F1000
X4.793 Y23.69
X4.868 Y23.737
X4.943 Y23.773
X5.093 Y23.838
X5.244 Y23.891
X5.319 Y23.933
X5.544 Y24.067
X5.669 Y24.15
X5.783 Y24.249
X5.886 Y24.357
X5.989 Y24.484
X6.092 Y24.632
X6.191 Y24.805
X6.285 Y25.005
X6.367 Y25.222
X6.438 Y25.466
X6.492 Y25.731
X6.524 Y26.003
X6.536 Y26.28
X6.526 Y26.523
X6.498 Y26.751
X6.457 Y26.954
X6.407 Y27.126
X6.385 Y27.184
X6.276 Y27.378
X6.113 Y27.531
X5.913 Y27.629
X5.692 Y27.663
X4.654
G3 X4.348 Y27.334 Z8.7 I0.011 J-0.317 F600
G1 X4.356 Y27.27
X4.4 Y27.092
X5.044 Y24.429 F1000
X5.083 Y24.271 F600
X5.095 Y24.23
X5.113 Y24.192
G3 X5.544 Y24.067 Z8.5 I0.278 J0.153
G1 X6.578 Y24.685 F1000
X6.703 Y24.768
X6.815 Y24.869
X6.916 Y24.979
X7.012 Y25.104
X7.101 Y25.242
X7.188 Y25.405
X7.266 Y25.581
X7.331 Y25.772
X7.385 Y25.98
X7.423 Y26.197
X7.441 Y26.398
X7.443 Y26.595
X7.43 Y26.789
X7.405 Y26.951
X7.367 Y27.116
X7.356 Y27.148
X7.252 Y27.355
X7.088 Y27.52
X6.881 Y27.626
X6.651 Y27.663
X5.692
G3 X5.386 Y27.334 Z8.7 I0.011 J-0.317 F600
G1 X5.39 Y27.293
X5.399 Y27.253
X5.447 Y27.095
X6.069 Y25.045 F1000
X6.121 Y24.871 F600
X6.147 Y24.81
G3 X6.578 Y24.685 Z8.5 I0.278 J0.153
G1 X6.897 Y24.876 F1000
X7.101 Y24.986
X7.234 Y25.052
X7.27 Y25.075
X7.348 Y25.142
X7.499 Y25.25
X7.533 Y25.27
X7.658 Y25.353
X7.768 Y25.455
X7.866 Y25.568
X7.954 Y25.69
X8.03 Y25.819
X8.098 Y25.961
X8.157 Y26.113
X8.203 Y26.27
X8.234 Y26.416
X8.255 Y26.579
X8.262 Y26.736
X8.257 Y26.886
X8.239 Y27.035
X8.231 Y27.074
X8.163 Y27.263
X8.046 Y27.428
X7.89 Y27.555
X7.705 Y27.635
X7.505 Y27.663
X6.651
G3 X6.345 Y27.334 Z8.7 I0.011 J-0.317 F600
G1 X6.351 Y27.28
X6.367 Y27.227
X6.419 Y27.099
X7.008 Y25.626 F1000
X7.086 Y25.431 F600
X7.102 Y25.397
G3 X7.533 Y25.27 Z8.5 I0.279 J0.152
G1 X7.649 Y25.339 F1000
X7.799 Y25.407
X7.872 Y25.437
X7.95 Y25.464
X8.146 Y25.528
X8.286 Y25.582
X8.415 Y25.657
X8.532 Y25.751
X8.637 Y25.858
X8.73 Y25.976
X8.81 Y26.103
X8.877 Y26.237
X8.932 Y26.377
X8.973 Y26.521
X9.001 Y26.669
X9.014 Y26.818
X9.013 Y26.968
X9.01 Y26.996
