(bore1)
(T6 D=3.175 CR=0 - ZMIN=0 - flat end mill)
G90 G94
G17
G21
G28 G91 Z0
G90

(Bore1 7)
T6
(18 Flat-45 degree helix)
S18000 M3
G17 G90 G94
G54
G0 X17.75 Y57.977
Z30
G0 Z4.682
G1 Z3 F500
X17.694 Y57.921
X17.701 Y57.893
X17.722 Y57.872
X17.75 Y57.865
X17.791 Y57.873 Z2.993
X17.827 Y57.895 Z2.986
X17.852 Y57.929 Z2.979
X17.862 Y57.97 Z2.971
X17.857 Y58.012 Z2.964
X17.837 Y58.049 Z2.957
X17.804 Y58.076 Z2.95
X17.764 Y58.089 Z2.943
X17.722 Y58.086 Z2.936
X17.684 Y58.068 Z2.929
X17.655 Y58.037 Z2.922
X17.639 Y57.998 Z2.914
X17.64 Y57.956 Z2.907
X17.655 Y57.917 Z2.9
X17.684 Y57.886 Z2.893
X17.722 Y57.868 Z2.886
X17.764 Y57.866 Z2.879
X17.804 Y57.879 Z2.872
X17.837 Y57.906 Z2.865
X17.857 Y57.943 Z2.857
X17.862 Y57.985 Z2.85
X17.852 Y58.025 Z2.843
X17.827 Y58.059 Z2.836
X17.791 Y58.082 Z2.829
X17.75 Y58.09 Z2.822
X17.708 Y58.082 Z2.815
X17.673 Y58.059 Z2.808
X17.648 Y58.025 Z2.8
X17.638 Y57.984 Z2.793
X17.643 Y57.942 Z2.786
X17.664 Y57.905 Z2.779
X17.696 Y57.878 Z2.772
X17.736 Y57.866 Z2.765
X17.778 Y57.868 Z2.758
X17.816 Y57.886 Z2.751
X17.845 Y57.917 Z2.743
X17.861 Y57.957 Z2.736
X17.86 Y57.999 Z2.729
X17.845 Y58.038 Z2.722
X17.816 Y58.069 Z2.715
X17.777 Y58.086 Z2.708
X17.735 Y58.089 Z2.701
X17.695 Y58.076 Z2.694
X17.663 Y58.049 Z2.686
X17.643 Y58.011 Z2.679
X17.638 Y57.97 Z2.672
X17.648 Y57.929 Z2.665
X17.673 Y57.895 Z2.658
X17.709 Y57.872 Z2.651
X17.751 Y57.865 Z2.644
X17.792 Y57.873 Z2.637
X17.827 Y57.896 Z2.629
X17.852 Y57.93 Z2.622
X17.862 Y57.971 Z2.615
X17.857 Y58.013 Z2.608
X17.836 Y58.049 Z2.601
X17.804 Y58.076 Z2.594
X17.763 Y58.089 Z2.587
X17.721 Y58.086 Z2.58
X17.683 Y58.068 Z2.572
X17.655 Y58.037 Z2.565
X17.639 Y57.998 Z2.558
X17.64 Y57.955 Z2.551
X17.655 Y57.916 Z2.544
X17.685 Y57.886 Z2.537
X17.723 Y57.868 Z2.53
X17.765 Y57.866 Z2.523
X17.805 Y57.879 Z2.515
X17.837 Y57.906 Z2.508
X17.857 Y57.943 Z2.501
X17.862 Y57.985 Z2.494
X17.851 Y58.026 Z2.487
X17.826 Y58.06 Z2.48
X17.791 Y58.082 Z2.473
X17.749 Y58.09 Z2.466
X17.708 Y58.081 Z2.458
X17.672 Y58.059 Z2.451
X17.648 Y58.024 Z2.444
X17.638 Y57.983 Z2.437
X17.643 Y57.942 Z2.43
X17.664 Y57.905 Z2.423
X17.697 Y57.878 Z2.416
X17.737 Y57.866 Z2.409
X17.779 Y57.869 Z2.401
X17.817 Y57.887 Z2.394
X17.846 Y57.918 Z2.387
X17.861 Y57.957 Z2.38
X17.86 Y57.999 Z2.373
X17.844 Y58.038 Z2.366
X17.815 Y58.069 Z2.359
X17.777 Y58.086 Z2.352
X17.735 Y58.089 Z2.344
X17.695 Y58.075 Z2.337
X17.663 Y58.048 Z2.33
X17.643 Y58.011 Z2.323
X17.638 Y57.969 Z2.316
X17.649 Y57.928 Z2.309
X17.674 Y57.894 Z2.302
X17.71 Y57.872 Z2.295
X17.751 Y57.865 Z2.287
X17.793 Y57.873 Z2.28
X17.828 Y57.896 Z2.273
X17.852 Y57.93 Z2.266
X17.862 Y57.971 Z2.259
X17.857 Y58.013 Z2.252
X17.836 Y58.05 Z2.245
X17.803 Y58.076 Z2.238
X17.763 Y58.089 Z2.23
X17.721 Y58.086 Z2.223
X17.683 Y58.067 Z2.216
X17.654 Y58.036 Z2.209
X17.639 Y57.997 Z2.202
X17.64 Y57.955 Z2.195
X17.656 Y57.916 Z2.188
X17.685 Y57.885 Z2.181
X17.723 Y57.868 Z2.173
X17.766 Y57.866 Z2.166
X17.805 Y57.879 Z2.159
X17.838 Y57.907 Z2.152
X17.857 Y57.944 Z2.145
X17.862 Y57.986 Z2.138
X17.851 Y58.026 Z2.131
X17.826 Y58.06 Z2.124
X17.79 Y58.082 Z2.116
X17.748 Y58.09 Z2.109
X17.707 Y58.081 Z2.102
X17.672 Y58.058 Z2.095
X17.648 Y58.024 Z2.088
X17.638 Y57.983 Z2.081
X17.644 Y57.941 Z2.074
X17.664 Y57.904 Z2.067
X17.697 Y57.878 Z2.059
X17.738 Y57.865 Z2.052
X17.78 Y57.869 Z2.045
X17.817 Y57.887 Z2.038
X17.846 Y57.918 Z2.031
X17.861 Y57.958 Z2.024
X17.86 Y58 Z2.017
X17.844 Y58.039 Z2.01
X17.815 Y58.069 Z2.002
X17.776 Y58.087 Z1.995
X17.734 Y58.089 Z1.988
X17.694 Y58.075 Z1.981
X17.662 Y58.048 Z1.974
X17.642 Y58.01 Z1.967
X17.638 Y57.968 Z1.96
X17.649 Y57.928 Z1.952
X17.674 Y57.894 Z1.945
X17.71 Y57.872 Z1.938
X17.752 Y57.865 Z1.931
X17.793 Y57.873 Z1.924
X17.828 Y57.897 Z1.917
X17.853 Y57.931 Z1.91
X17.862 Y57.972 Z1.903
X17.856 Y58.014 Z1.895
X17.835 Y58.05 Z1.888
X17.803 Y58.077 Z1.881
X17.762 Y58.089 Z1.874
X17.72 Y58.086 Z1.867
X17.682 Y58.067 Z1.86
X17.654 Y58.036 Z1.853
X17.639 Y57.996 Z1.846
X17.64 Y57.954 Z1.838
X17.656 Y57.915 Z1.831
X17.686 Y57.885 Z1.824
X17.724 Y57.868 Z1.817
X17.766 Y57.866 Z1.81
X17.806 Y57.88 Z1.803
X17.838 Y57.907 Z1.796
X17.858 Y57.944 Z1.789
X17.862 Y57.986 Z1.781
X17.851 Y58.027 Z1.774
X17.825 Y58.061 Z1.767
X17.789 Y58.083 Z1.76
X17.748 Y58.09 Z1.753
X17.707 Y58.081 Z1.746
X17.671 Y58.058 Z1.739
X17.647 Y58.023 Z1.732
X17.638 Y57.982 Z1.724
X17.644 Y57.94 Z1.717
X17.665 Y57.904 Z1.71
X17.698 Y57.878 Z1.703
X17.738 Y57.865 Z1.696
X17.78 Y57.869 Z1.689
X17.818 Y57.888 Z1.682
X17.846 Y57.919 Z1.675
X17.861 Y57.958 Z1.667
X17.86 Y58.001 Z1.66
X17.844 Y58.039 Z1.653
X17.814 Y58.07 Z1.646
X17.776 Y58.087 Z1.639
X17.734 Y58.089 Z1.632
X17.694 Y58.075 Z1.625
X17.662 Y58.047 Z1.618
X17.642 Y58.01 Z1.61
X17.638 Y57.968 Z1.603
X17.649 Y57.927 Z1.596
X17.675 Y57.894 Z1.589
X17.711 Y57.872 Z1.582
X17.752 Y57.865 Z1.575
X17.794 Y57.874 Z1.568
X17.829 Y57.897 Z1.561
X17.853 Y57.932 Z1.553
X17.862 Y57.973 Z1.546
X17.856 Y58.014 Z1.539
X17.835 Y58.051 Z1.532
X17.802 Y58.077 Z1.525
X17.762 Y58.089 Z1.518
X17.72 Y58.086 Z1.511
X17.682 Y58.067 Z1.504
X17.654 Y58.035 Z1.496
X17.639 Y57.996 Z1.489
X17.64 Y57.954 Z1.482
X17.656 Y57.915 Z1.475
X17.686 Y57.885 Z1.468
X17.725 Y57.868 Z1.461
X17.767 Y57.866 Z1.454
X17.807 Y57.88 Z1.447
X17.838 Y57.908 Z1.439
X17.858 Y57.945 Z1.432
X17.862 Y57.987 Z1.425
X17.851 Y58.028 Z1.418
X17.825 Y58.061 Z1.411
X17.789 Y58.083 Z1.404
X17.747 Y58.09 Z1.397
X17.706 Y58.081 Z1.39
X17.671 Y58.057 Z1.382
X17.647 Y58.023 Z1.375
X17.638 Y57.982 Z1.368
X17.644 Y57.94 Z1.361
X17.665 Y57.903 Z1.354
X17.698 Y57.877 Z1.347
X17.739 Y57.865 Z1.34
X17.781 Y57.869 Z1.333
X17.818 Y57.888 Z1.325
X17.847 Y57.919 Z1.318
X17.861 Y57.959 Z1.311
X17.86 Y58.001 Z1.304
X17.843 Y58.04 Z1.297
X17.814 Y58.07 Z1.29
X17.775 Y58.087 Z1.283
X17.733 Y58.088 Z1.276
X17.693 Y58.074 Z1.268
X17.661 Y58.047 Z1.261
X17.642 Y58.009 Z1.254
X17.638 Y57.967 Z1.247
X17.65 Y57.927 Z1.24
X17.675 Y57.893 Z1.233
X17.711 Y57.872 Z1.226
X17.753 Y57.865 Z1.219
X17.794 Y57.874 Z1.211
X17.829 Y57.897 Z1.204
X17.853 Y57.932 Z1.197
X17.862 Y57.973 Z1.19
X17.856 Y58.015 Z1.183
X17.835 Y58.051 Z1.176
X17.801 Y58.077 Z1.169
X17.761 Y58.089 Z1.162
X17.719 Y58.085 Z1.154
X17.681 Y58.066 Z1.147
X17.653 Y58.035 Z1.14
X17.639 Y57.995 Z1.133
X17.64 Y57.953 Z1.126
X17.657 Y57.914 Z1.119
X17.687 Y57.884 Z1.112
X17.725 Y57.868 Z1.105
X17.767 Y57.866 Z1.097
X17.807 Y57.88 Z1.09
X17.839 Y57.908 Z1.083
X17.858 Y57.946 Z1.076
X17.862 Y57.988 Z1.069
X17.85 Y58.028 Z1.062
X17.825 Y58.061 Z1.055
X17.788 Y58.083 Z1.048
X17.747 Y58.09 Z1.04
X17.705 Y58.081 Z1.033
X17.671 Y58.057 Z1.026
X17.647 Y58.022 Z1.019
X17.638 Y57.981 Z1.012
X17.644 Y57.939 Z1.005
X17.666 Y57.903 Z0.998
X17.699 Y57.877 Z0.99
X17.739 Y57.865 Z0.983
X17.781 Y57.869 Z0.976
X17.819 Y57.888 Z0.969
X17.847 Y57.92 Z0.962
X17.861 Y57.96 Z0.955
X17.86 Y58.002 Z0.948
X17.843 Y58.04 Z0.941
X17.813 Y58.07 Z0.933
X17.775 Y58.087 Z0.926
X17.732 Y58.088 Z0.919
X17.693 Y58.074 Z0.912
X17.661 Y58.046 Z0.905
X17.642 Y58.009 Z0.898
X17.638 Y57.967 Z0.891
X17.65 Y57.926 Z0.884
X17.676 Y57.893 Z0.876
X17.712 Y57.871 Z0.869
X17.754 Y57.865 Z0.862
X17.795 Y57.874 Z0.855
X17.83 Y57.898 Z0.848
X17.853 Y57.933 Z0.841
X17.862 Y57.974 Z0.834
X17.856 Y58.016 Z0.827
X17.834 Y58.052 Z0.819
X17.801 Y58.078 Z0.812
X17.76 Y58.089 Z0.805
X17.718 Y58.085 Z0.798
X17.681 Y58.066 Z0.791
X17.653 Y58.034 Z0.784
X17.639 Y57.995 Z0.777
X17.64 Y57.952 Z0.77
X17.657 Y57.914 Z0.762
X17.687 Y57.884 Z0.755
X17.726 Y57.867 Z0.748
X17.768 Y57.866 Z0.741
X17.808 Y57.881 Z0.734
X17.839 Y57.909 Z0.727
X17.858 Y57.946 Z0.72
X17.862 Y57.988 Z0.713
X17.85 Y58.029 Z0.705
X17.824 Y58.062 Z0.698
X17.788 Y58.083 Z0.691
X17.746 Y58.09 Z0.684
X17.705 Y58.08 Z0.677
X17.67 Y58.056 Z0.67
X17.647 Y58.021 Z0.663
X17.638 Y57.98 Z0.656
X17.644 Y57.939 Z0.648
X17.666 Y57.902 Z0.641
X17.699 Y57.877 Z0.634
X17.74 Y57.865 Z0.627
X17.782 Y57.869 Z0.62
X17.819 Y57.889 Z0.613
X17.847 Y57.92 Z0.606
X17.861 Y57.96 Z0.599
X17.86 Y58.002 Z0.591
X17.843 Y58.041 Z0.584
X17.813 Y58.071 Z0.577
X17.774 Y58.087 Z0.57
X17.732 Y58.088 Z0.563
X17.692 Y58.074 Z0.556
X17.661 Y58.046 Z0.549
X17.642 Y58.008 Z0.542
X17.638 Y57.966 Z0.534
X17.65 Y57.926 Z0.527
X17.676 Y57.892 Z0.52
X17.713 Y57.871 Z0.513
X17.754 Y57.865 Z0.506
X17.795 Y57.874 Z0.499
X17.83 Y57.898 Z0.492
X17.854 Y57.933 Z0.485
X17.862 Y57.975 Z0.477
X17.856 Y58.016 Z0.47
X17.834 Y58.052 Z0.463
X17.8 Y58.078 Z0.456
X17.76 Y58.089 Z0.449
X17.718 Y58.085 Z0.442
X17.68 Y58.066 Z0.435
X17.653 Y58.034 Z0.428
X17.639 Y57.994 Z0.42
X17.64 Y57.952 Z0.413
X17.657 Y57.913 Z0.406
X17.688 Y57.884 Z0.399
X17.726 Y57.867 Z0.392
X17.769 Y57.866 Z0.385
X17.808 Y57.881 Z0.378
X17.839 Y57.909 Z0.371
X17.858 Y57.947 Z0.363
X17.862 Y57.989 Z0.356
X17.85 Y58.029 Z0.349
X17.824 Y58.062 Z0.342
X17.787 Y58.083 Z0.335
X17.745 Y58.09 Z0.328
X17.704 Y58.08 Z0.321
X17.67 Y58.056 Z0.314
X17.646 Y58.021 Z0.306
X17.638 Y57.98 Z0.299
X17.645 Y57.938 Z0.292
X17.666 Y57.902 Z0.285
X17.7 Y57.876 Z0.278
X17.741 Y57.865 Z0.271
X17.782 Y57.87 Z0.264
X17.82 Y57.889 Z0.257
X17.847 Y57.921 Z0.249
X17.861 Y57.961 Z0.242
X17.86 Y58.003 Z0.235
X17.842 Y58.041 Z0.228
X17.812 Y58.071 Z0.221
X17.773 Y58.087 Z0.214
X17.731 Y58.088 Z0.207
X17.692 Y58.073 Z0.2
X17.66 Y58.045 Z0.192
X17.642 Y58.007 Z0.185
X17.638 Y57.965 Z0.178
X17.65 Y57.925 Z0.171
X17.677 Y57.892 Z0.164
X17.713 Y57.871 Z0.157
X17.755 Y57.865 Z0.15
X17.796 Y57.875 Z0.143
X17.831 Y57.899 Z0.135
X17.854 Y57.934 Z0.128
X17.862 Y57.975 Z0.121
X17.855 Y58.017 Z0.114
X17.833 Y58.053 Z0.107
X17.8 Y58.078 Z0.1
X17.759 Y58.089 Z0.093
X17.717 Y58.085 Z0.086
X17.68 Y58.065 Z0.078
X17.652 Y58.033 Z0.071
X17.639 Y57.993 Z0.064
X17.641 Y57.951 Z0.057
X17.658 Y57.913 Z0.05
X17.688 Y57.883 Z0.043
X17.727 Y57.867 Z0.036
X17.769 Y57.866 Z0.029
X17.809 Y57.881 Z0.021
X17.84 Y57.91 Z0.014
X17.858 Y57.947 Z0.007
X17.862 Y57.989 Z0
G3 X17.638 Y57.965 I-0.112 J-0.012
X17.862 Y57.989 I0.112 J0.012
G1 X17.851 Y58.017
X17.829 Y58.035
X17.8 Y58.039
X17.75 Y57.977
G0 Z20
X3.5 Y49.75
Z4.682
G1 Z3 F500
X3.444 Y49.694
X3.451 Y49.666
X3.472 Y49.645
X3.5 Y49.638
X3.541 Y49.645 Z2.993
X3.577 Y49.668 Z2.986
X3.602 Y49.702 Z2.979
X3.612 Y49.743 Z2.971
X3.607 Y49.785 Z2.964
X3.587 Y49.822 Z2.957
X3.554 Y49.849 Z2.95
X3.514 Y49.862 Z2.943
X3.472 Y49.859 Z2.936
X3.434 Y49.841 Z2.929
X3.405 Y49.81 Z2.922
X3.389 Y49.771 Z2.914
X3.39 Y49.729 Z2.907
X3.405 Y49.69 Z2.9
X3.434 Y49.659 Z2.893
X3.472 Y49.641 Z2.886
X3.514 Y49.638 Z2.879
X3.554 Y49.652 Z2.872
X3.587 Y49.678 Z2.865
X3.607 Y49.715 Z2.857
X3.612 Y49.757 Z2.85
X3.602 Y49.798 Z2.843
X3.577 Y49.832 Z2.836
X3.541 Y49.855 Z2.829
X3.5 Y49.862 Z2.822
X3.458 Y49.854 Z2.815
X3.423 Y49.832 Z2.808
X3.398 Y49.798 Z2.8
X3.388 Y49.757 Z2.793
X3.393 Y49.715 Z2.786
X3.414 Y49.678 Z2.779
X3.446 Y49.651 Z2.772
X3.486 Y49.638 Z2.765
X3.528 Y49.641 Z2.758
X3.566 Y49.659 Z2.751
X3.595 Y49.69 Z2.743
X3.611 Y49.729 Z2.736
X3.61 Y49.772 Z2.729
X3.595 Y49.811 Z2.722
X3.566 Y49.841 Z2.715
X3.527 Y49.859 Z2.708
X3.485 Y49.862 Z2.701
X3.445 Y49.848 Z2.694
X3.413 Y49.821 Z2.686
X3.393 Y49.784 Z2.679
X3.388 Y49.742 Z2.672
X3.398 Y49.702 Z2.665
X3.423 Y49.668 Z2.658
X3.459 Y49.645 Z2.651
X3.501 Y49.638 Z2.644
X3.542 Y49.646 Z2.637
X3.577 Y49.668 Z2.629
X3.602 Y49.703 Z2.622
X3.612 Y49.744 Z2.615
X3.607 Y49.785 Z2.608
X3.586 Y49.822 Z2.601
X3.554 Y49.849 Z2.594
X3.513 Y49.862 Z2.587
X3.471 Y49.859 Z2.58
X3.433 Y49.841 Z2.572
X3.405 Y49.81 Z2.565
X3.389 Y49.77 Z2.558
X3.39 Y49.728 Z2.551
X3.405 Y49.689 Z2.544
X3.435 Y49.659 Z2.537
X3.473 Y49.641 Z2.53
X3.515 Y49.638 Z2.523
X3.555 Y49.652 Z2.515
X3.587 Y49.679 Z2.508
X3.607 Y49.716 Z2.501
X3.612 Y49.758 Z2.494
X3.601 Y49.799 Z2.487
X3.576 Y49.833 Z2.48
X3.541 Y49.855 Z2.473
X3.499 Y49.862 Z2.466
X3.458 Y49.854 Z2.458
X3.422 Y49.831 Z2.451
X3.398 Y49.797 Z2.444
X3.388 Y49.756 Z2.437
X3.393 Y49.714 Z2.43
X3.414 Y49.678 Z2.423
X3.447 Y49.651 Z2.416
X3.487 Y49.638 Z2.409
X3.529 Y49.641 Z2.401
X3.567 Y49.66 Z2.394
X3.596 Y49.691 Z2.387
X3.611 Y49.73 Z2.38
X3.61 Y49.772 Z2.373
X3.594 Y49.811 Z2.366
X3.565 Y49.842 Z2.359
X3.527 Y49.859 Z2.352
X3.485 Y49.861 Z2.344
X3.445 Y49.848 Z2.337
X3.413 Y49.821 Z2.33
X3.393 Y49.784 Z2.323
X3.388 Y49.742 Z2.316
X3.399 Y49.701 Z2.309
X3.424 Y49.667 Z2.302
X3.46 Y49.645 Z2.295
X3.501 Y49.638 Z2.287
X3.543 Y49.646 Z2.28
X3.578 Y49.669 Z2.273
X3.602 Y49.703 Z2.266
X3.612 Y49.744 Z2.259
X3.607 Y49.786 Z2.252
X3.586 Y49.823 Z2.245
X3.553 Y49.849 Z2.238
X3.513 Y49.862 Z2.23
X3.471 Y49.859 Z2.223
X3.433 Y49.84 Z2.216
X3.404 Y49.809 Z2.209
X3.389 Y49.77 Z2.202
X3.39 Y49.728 Z2.195
X3.406 Y49.689 Z2.188
X3.435 Y49.658 Z2.181
X3.473 Y49.641 Z2.173
X3.516 Y49.639 Z2.166
X3.555 Y49.652 Z2.159
X3.588 Y49.679 Z2.152
X3.607 Y49.717 Z2.145
X3.612 Y49.759 Z2.138
X3.601 Y49.799 Z2.131
X3.576 Y49.833 Z2.124
X3.54 Y49.855 Z2.116
X3.498 Y49.862 Z2.109
X3.457 Y49.854 Z2.102
X3.422 Y49.831 Z2.095
X3.398 Y49.796 Z2.088
X3.388 Y49.755 Z2.081
X3.394 Y49.714 Z2.074
X3.414 Y49.677 Z2.067
X3.447 Y49.651 Z2.059
X3.488 Y49.638 Z2.052
X3.53 Y49.641 Z2.045
X3.567 Y49.66 Z2.038
X3.596 Y49.691 Z2.031
X3.611 Y49.731 Z2.024
X3.61 Y49.773 Z2.017
X3.594 Y49.812 Z2.01
X3.565 Y49.842 Z2.002
X3.526 Y49.859 Z1.995
X3.484 Y49.861 Z1.988
X3.444 Y49.848 Z1.981
X3.412 Y49.82 Z1.974
X3.392 Y49.783 Z1.967
X3.388 Y49.741 Z1.96
X3.399 Y49.7 Z1.952
X3.424 Y49.667 Z1.945
X3.46 Y49.645 Z1.938
X3.502 Y49.638 Z1.931
X3.543 Y49.646 Z1.924
X3.578 Y49.669 Z1.917
X3.603 Y49.704 Z1.91
X3.612 Y49.745 Z1.903
X3.606 Y49.787 Z1.895
X3.585 Y49.823 Z1.888
X3.553 Y49.849 Z1.881
X3.512 Y49.862 Z1.874
X3.47 Y49.858 Z1.867
X3.432 Y49.84 Z1.86
X3.404 Y49.809 Z1.853
X3.389 Y49.769 Z1.846
X3.39 Y49.727 Z1.838
X3.406 Y49.688 Z1.831
X3.436 Y49.658 Z1.824
X3.474 Y49.641 Z1.817
X3.516 Y49.639 Z1.81
X3.556 Y49.652 Z1.803
X3.588 Y49.68 Z1.796
X3.608 Y49.717 Z1.789
X3.612 Y49.759 Z1.781
X3.601 Y49.8 Z1.774
X3.575 Y49.833 Z1.767
X3.539 Y49.855 Z1.76
X3.498 Y49.862 Z1.753
X3.457 Y49.854 Z1.746
X3.421 Y49.831 Z1.739
X3.397 Y49.796 Z1.732
X3.388 Y49.755 Z1.724
X3.394 Y49.713 Z1.717
X3.415 Y49.677 Z1.71
X3.448 Y49.65 Z1.703
X3.488 Y49.638 Z1.696
X3.53 Y49.642 Z1.689
X3.568 Y49.66 Z1.682
X3.596 Y49.692 Z1.675
X3.611 Y49.731 Z1.667
X3.61 Y49.773 Z1.66
X3.594 Y49.812 Z1.653
X3.564 Y49.842 Z1.646
X3.526 Y49.86 Z1.639
X3.484 Y49.861 Z1.632
X3.444 Y49.847 Z1.625
X3.412 Y49.82 Z1.618
X3.392 Y49.782 Z1.61
X3.388 Y49.741 Z1.603
X3.399 Y49.7 Z1.596
X3.425 Y49.666 Z1.589
X3.461 Y49.645 Z1.582
X3.502 Y49.638 Z1.575
X3.544 Y49.646 Z1.568
X3.579 Y49.67 Z1.561
X3.603 Y49.704 Z1.553
X3.612 Y49.745 Z1.546
X3.606 Y49.787 Z1.539
X3.585 Y49.824 Z1.532
X3.552 Y49.85 Z1.525
X3.512 Y49.862 Z1.518
X3.47 Y49.858 Z1.511
X3.432 Y49.839 Z1.504
X3.404 Y49.808 Z1.496
X3.389 Y49.769 Z1.489
X3.39 Y49.726 Z1.482
X3.406 Y49.688 Z1.475
X3.436 Y49.657 Z1.468
X3.475 Y49.64 Z1.461
X3.517 Y49.639 Z1.454
X3.557 Y49.653 Z1.447
X3.588 Y49.68 Z1.439
X3.608 Y49.718 Z1.432
X3.612 Y49.76 Z1.425
X3.601 Y49.8 Z1.418
X3.575 Y49.834 Z1.411
X3.539 Y49.856 Z1.404
X3.497 Y49.862 Z1.397
X3.456 Y49.854 Z1.39
X3.421 Y49.83 Z1.382
X3.397 Y49.795 Z1.375
X3.388 Y49.754 Z1.368
X3.394 Y49.713 Z1.361
X3.415 Y49.676 Z1.354
X3.448 Y49.65 Z1.347
X3.489 Y49.638 Z1.34
X3.531 Y49.642 Z1.333
X3.568 Y49.661 Z1.325
X3.597 Y49.692 Z1.318
X3.611 Y49.732 Z1.311
X3.61 Y49.774 Z1.304
X3.593 Y49.813 Z1.297
X3.564 Y49.843 Z1.29
X3.525 Y49.86 Z1.283
X3.483 Y49.861 Z1.276
X3.443 Y49.847 Z1.268
X3.411 Y49.819 Z1.261
X3.392 Y49.782 Z1.254
X3.388 Y49.74 Z1.247
X3.4 Y49.699 Z1.24
X3.425 Y49.666 Z1.233
X3.461 Y49.644 Z1.226
X3.503 Y49.638 Z1.219
X3.544 Y49.647 Z1.211
X3.579 Y49.67 Z1.204
X3.603 Y49.705 Z1.197
X3.612 Y49.746 Z1.19
X3.606 Y49.788 Z1.183
X3.585 Y49.824 Z1.176
X3.551 Y49.85 Z1.169
X3.511 Y49.862 Z1.162
X3.469 Y49.858 Z1.154
X3.431 Y49.839 Z1.147
X3.403 Y49.808 Z1.14
X3.389 Y49.768 Z1.133
X3.39 Y49.726 Z1.126
X3.407 Y49.687 Z1.119
X3.437 Y49.657 Z1.112
X3.475 Y49.64 Z1.105
X3.517 Y49.639 Z1.097
X3.557 Y49.653 Z1.09
X3.589 Y49.681 Z1.083
X3.608 Y49.718 Z1.076
X3.612 Y49.76 Z1.069
X3.6 Y49.801 Z1.062
X3.575 Y49.834 Z1.055
X3.538 Y49.856 Z1.048
X3.497 Y49.862 Z1.04
X3.455 Y49.853 Z1.033
X3.421 Y49.83 Z1.026
X3.397 Y49.795 Z1.019
X3.388 Y49.754 Z1.012
X3.394 Y49.712 Z1.005
X3.416 Y49.676 Z0.998
X3.449 Y49.65 Z0.99
X3.489 Y49.638 Z0.983
X3.531 Y49.642 Z0.976
X3.569 Y49.661 Z0.969
X3.597 Y49.693 Z0.962
X3.611 Y49.732 Z0.955
X3.61 Y49.775 Z0.948
X3.593 Y49.813 Z0.941
X3.563 Y49.843 Z0.933
X3.525 Y49.86 Z0.926
X3.482 Y49.861 Z0.919
X3.443 Y49.847 Z0.912
X3.411 Y49.819 Z0.905
X3.392 Y49.781 Z0.898
X3.388 Y49.739 Z0.891
X3.4 Y49.699 Z0.884
X3.426 Y49.666 Z0.876
X3.462 Y49.644 Z0.869
X3.504 Y49.638 Z0.862
X3.545 Y49.647 Z0.855
X3.58 Y49.671 Z0.848
X3.603 Y49.705 Z0.841
X3.612 Y49.747 Z0.834
X3.606 Y49.788 Z0.827
X3.584 Y49.825 Z0.819
X3.551 Y49.85 Z0.812
X3.51 Y49.862 Z0.805
X3.468 Y49.858 Z0.798
X3.431 Y49.839 Z0.791
X3.403 Y49.807 Z0.784
X3.389 Y49.767 Z0.777
X3.39 Y49.725 Z0.77
X3.407 Y49.687 Z0.762
X3.437 Y49.657 Z0.755
X3.476 Y49.64 Z0.748
X3.518 Y49.639 Z0.741
X3.558 Y49.653 Z0.734
X3.589 Y49.681 Z0.727
X3.608 Y49.719 Z0.72
X3.612 Y49.761 Z0.713
X3.6 Y49.801 Z0.705
X3.574 Y49.835 Z0.698
X3.538 Y49.856 Z0.691
X3.496 Y49.862 Z0.684
X3.455 Y49.853 Z0.677
X3.42 Y49.829 Z0.67
X3.397 Y49.794 Z0.663
X3.388 Y49.753 Z0.656
X3.394 Y49.711 Z0.648
X3.416 Y49.675 Z0.641
X3.449 Y49.65 Z0.634
X3.49 Y49.638 Z0.627
X3.532 Y49.642 Z0.62
X3.569 Y49.661 Z0.613
X3.597 Y49.693 Z0.606
X3.611 Y49.733 Z0.599
X3.61 Y49.775 Z0.591
X3.593 Y49.814 Z0.584
X3.563 Y49.843 Z0.577
X3.524 Y49.86 Z0.57
X3.482 Y49.861 Z0.563
X3.442 Y49.846 Z0.556
X3.411 Y49.818 Z0.549
X3.392 Y49.781 Z0.542
X3.388 Y49.739 Z0.534
X3.4 Y49.698 Z0.527
X3.426 Y49.665 Z0.52
X3.463 Y49.644 Z0.513
X3.504 Y49.638 Z0.506
X3.545 Y49.647 Z0.499
X3.58 Y49.671 Z0.492
X3.604 Y49.706 Z0.485
X3.612 Y49.747 Z0.477
X3.606 Y49.789 Z0.47
X3.584 Y49.825 Z0.463
X3.55 Y49.851 Z0.456
X3.51 Y49.862 Z0.449
X3.468 Y49.858 Z0.442
X3.43 Y49.838 Z0.435
X3.403 Y49.807 Z0.428
X3.389 Y49.767 Z0.42
X3.39 Y49.725 Z0.413
X3.407 Y49.686 Z0.406
X3.438 Y49.656 Z0.399
X3.476 Y49.64 Z0.392
X3.519 Y49.639 Z0.385
X3.558 Y49.654 Z0.378
X3.589 Y49.682 Z0.371
X3.608 Y49.72 Z0.363
X3.612 Y49.762 Z0.356
X3.6 Y49.802 Z0.349
X3.574 Y49.835 Z0.342
X3.537 Y49.856 Z0.335
X3.495 Y49.862 Z0.328
X3.454 Y49.853 Z0.321
X3.42 Y49.829 Z0.314
X3.396 Y49.794 Z0.306
X3.388 Y49.752 Z0.299
X3.395 Y49.711 Z0.292
X3.416 Y49.675 Z0.285
X3.45 Y49.649 Z0.278
X3.491 Y49.638 Z0.271
X3.532 Y49.642 Z0.264
X3.57 Y49.662 Z0.257
X3.597 Y49.694 Z0.249
X3.611 Y49.734 Z0.242
X3.61 Y49.776 Z0.235
X3.592 Y49.814 Z0.228
X3.562 Y49.844 Z0.221
X3.523 Y49.86 Z0.214
X3.481 Y49.861 Z0.207
X3.442 Y49.846 Z0.2
X3.41 Y49.818 Z0.192
X3.392 Y49.78 Z0.185
X3.388 Y49.738 Z0.178
X3.4 Y49.698 Z0.171
X3.427 Y49.665 Z0.164
X3.463 Y49.644 Z0.157
X3.505 Y49.638 Z0.15
X3.546 Y49.647 Z0.143
X3.581 Y49.671 Z0.135
X3.604 Y49.707 Z0.128
X3.612 Y49.748 Z0.121
X3.605 Y49.789 Z0.114
X3.583 Y49.825 Z0.107
X3.55 Y49.851 Z0.1
X3.509 Y49.862 Z0.093
X3.467 Y49.858 Z0.086
X3.43 Y49.838 Z0.078
X3.402 Y49.806 Z0.071
X3.389 Y49.766 Z0.064
X3.391 Y49.724 Z0.057
X3.408 Y49.686 Z0.05
X3.438 Y49.656 Z0.043
X3.477 Y49.64 Z0.036
X3.519 Y49.639 Z0.029
X3.559 Y49.654 Z0.021
X3.59 Y49.682 Z0.014
X3.608 Y49.72 Z0.007
X3.612 Y49.762 Z0
G3 X3.388 Y49.738 I-0.112 J-0.012
X3.612 Y49.762 I0.112 J0.012
G1 X3.601 Y49.789
X3.579 Y49.808
X3.55 Y49.812
X3.5 Y49.75
G0 Z20
X17.75 Y41.523
Z4.682
G1 Z3 F500
X17.694 Y41.467
X17.701 Y41.438
X17.722 Y41.418
X17.75 Y41.41
X17.791 Y41.418 Z2.993
X17.827 Y41.441 Z2.986
X17.852 Y41.475 Z2.979
X17.862 Y41.516 Z2.971
X17.857 Y41.558 Z2.964
X17.837 Y41.595 Z2.957
X17.804 Y41.621 Z2.95
X17.764 Y41.634 Z2.943
X17.722 Y41.632 Z2.936
X17.684 Y41.614 Z2.929
X17.655 Y41.583 Z2.922
X17.639 Y41.544 Z2.914
X17.64 Y41.502 Z2.907
X17.655 Y41.462 Z2.9
X17.684 Y41.432 Z2.893
X17.722 Y41.414 Z2.886
X17.764 Y41.411 Z2.879
X17.804 Y41.424 Z2.872
X17.837 Y41.451 Z2.865
X17.857 Y41.488 Z2.857
X17.862 Y41.53 Z2.85
X17.852 Y41.571 Z2.843
X17.827 Y41.605 Z2.836
X17.791 Y41.627 Z2.829
X17.75 Y41.635 Z2.822
X17.708 Y41.627 Z2.815
X17.673 Y41.605 Z2.808
X17.648 Y41.57 Z2.8
X17.638 Y41.529 Z2.793
X17.643 Y41.488 Z2.786
X17.664 Y41.451 Z2.779
X17.696 Y41.424 Z2.772
X17.736 Y41.411 Z2.765
X17.778 Y41.414 Z2.758
X17.816 Y41.432 Z2.751
X17.845 Y41.463 Z2.743
X17.861 Y41.502 Z2.736
X17.86 Y41.544 Z2.729
X17.845 Y41.583 Z2.722
X17.816 Y41.614 Z2.715
X17.777 Y41.632 Z2.708
X17.735 Y41.634 Z2.701
X17.695 Y41.621 Z2.694
X17.663 Y41.594 Z2.686
X17.643 Y41.557 Z2.679
X17.638 Y41.515 Z2.672
X17.648 Y41.474 Z2.665
X17.673 Y41.44 Z2.658
X17.709 Y41.418 Z2.651
X17.751 Y41.41 Z2.644
X17.792 Y41.418 Z2.637
X17.827 Y41.441 Z2.629
X17.852 Y41.475 Z2.622
X17.862 Y41.516 Z2.615
X17.857 Y41.558 Z2.608
X17.836 Y41.595 Z2.601
X17.804 Y41.622 Z2.594
X17.763 Y41.634 Z2.587
X17.721 Y41.632 Z2.58
X17.683 Y41.613 Z2.572
X17.655 Y41.582 Z2.565
X17.639 Y41.543 Z2.558
X17.64 Y41.501 Z2.551
X17.655 Y41.462 Z2.544
X17.685 Y41.431 Z2.537
X17.723 Y41.414 Z2.53
X17.765 Y41.411 Z2.523
X17.805 Y41.425 Z2.515
X17.837 Y41.452 Z2.508
X17.857 Y41.489 Z2.501
X17.862 Y41.531 Z2.494
X17.851 Y41.571 Z2.487
X17.826 Y41.605 Z2.48
X17.791 Y41.628 Z2.473
X17.749 Y41.635 Z2.466
X17.708 Y41.627 Z2.458
X17.672 Y41.604 Z2.451
X17.648 Y41.57 Z2.444
X17.638 Y41.529 Z2.437
X17.643 Y41.487 Z2.43
X17.664 Y41.45 Z2.423
X17.697 Y41.424 Z2.416
X17.737 Y41.411 Z2.409
X17.779 Y41.414 Z2.401
X17.817 Y41.432 Z2.394
X17.846 Y41.463 Z2.387
X17.861 Y41.503 Z2.38
X17.86 Y41.545 Z2.373
X17.844 Y41.584 Z2.366
X17.815 Y41.614 Z2.359
X17.777 Y41.632 Z2.352
X17.735 Y41.634 Z2.344
X17.695 Y41.621 Z2.337
X17.663 Y41.594 Z2.33
X17.643 Y41.556 Z2.323
X17.638 Y41.515 Z2.316
X17.649 Y41.474 Z2.309
X17.674 Y41.44 Z2.302
X17.71 Y41.418 Z2.295
X17.751 Y41.41 Z2.287
X17.793 Y41.419 Z2.28
X17.828 Y41.442 Z2.273
X17.852 Y41.476 Z2.266
X17.862 Y41.517 Z2.259
X17.857 Y41.559 Z2.252
X17.836 Y41.595 Z2.245
X17.803 Y41.622 Z2.238
X17.763 Y41.635 Z2.23
X17.721 Y41.631 Z2.223
X17.683 Y41.613 Z2.216
X17.654 Y41.582 Z2.209
X17.639 Y41.542 Z2.202
X17.64 Y41.5 Z2.195
X17.656 Y41.461 Z2.188
X17.685 Y41.431 Z2.181
X17.723 Y41.413 Z2.173
X17.766 Y41.411 Z2.166
X17.805 Y41.425 Z2.159
X17.838 Y41.452 Z2.152
X17.857 Y41.489 Z2.145
X17.862 Y41.531 Z2.138
X17.851 Y41.572 Z2.131
X17.826 Y41.606 Z2.124
X17.79 Y41.628 Z2.116
X17.748 Y41.635 Z2.109
X17.707 Y41.627 Z2.102
X17.672 Y41.604 Z2.095
X17.648 Y41.569 Z2.088
X17.638 Y41.528 Z2.081
X17.644 Y41.486 Z2.074
X17.664 Y41.45 Z2.067
X17.697 Y41.423 Z2.059
X17.738 Y41.411 Z2.052
X17.78 Y41.414 Z2.045
X17.817 Y41.433 Z2.038
X17.846 Y41.464 Z2.031
X17.861 Y41.503 Z2.024
X17.86 Y41.545 Z2.017
X17.844 Y41.584 Z2.01
X17.815 Y41.615 Z2.002
X17.776 Y41.632 Z1.995
X17.734 Y41.634 Z1.988
X17.694 Y41.62 Z1.981
X17.662 Y41.593 Z1.974
X17.642 Y41.556 Z1.967
X17.638 Y41.514 Z1.96
X17.649 Y41.473 Z1.952
X17.674 Y41.44 Z1.945
X17.71 Y41.418 Z1.938
X17.752 Y41.41 Z1.931
X17.793 Y41.419 Z1.924
X17.828 Y41.442 Z1.917
X17.853 Y41.477 Z1.91
X17.862 Y41.518 Z1.903
X17.856 Y41.559 Z1.895
X17.835 Y41.596 Z1.888
X17.803 Y41.622 Z1.881
X17.762 Y41.635 Z1.874
X17.72 Y41.631 Z1.867
X17.682 Y41.613 Z1.86
X17.654 Y41.581 Z1.853
X17.639 Y41.542 Z1.846
X17.64 Y41.5 Z1.838
X17.656 Y41.461 Z1.831
X17.686 Y41.431 Z1.824
X17.724 Y41.413 Z1.817
X17.766 Y41.411 Z1.81
X17.806 Y41.425 Z1.803
X17.838 Y41.453 Z1.796
X17.858 Y41.49 Z1.789
X17.862 Y41.532 Z1.781
X17.851 Y41.573 Z1.774
X17.825 Y41.606 Z1.767
X17.789 Y41.628 Z1.76
X17.748 Y41.635 Z1.753
X17.707 Y41.627 Z1.746
X17.671 Y41.603 Z1.739
X17.647 Y41.569 Z1.732
X17.638 Y41.528 Z1.724
X17.644 Y41.486 Z1.717
X17.665 Y41.449 Z1.71
X17.698 Y41.423 Z1.703
X17.738 Y41.411 Z1.696
X17.78 Y41.414 Z1.689
X17.818 Y41.433 Z1.682
X17.846 Y41.464 Z1.675
X17.861 Y41.504 Z1.667
X17.86 Y41.546 Z1.66
X17.844 Y41.585 Z1.653
X17.814 Y41.615 Z1.646
X17.776 Y41.632 Z1.639
X17.734 Y41.634 Z1.632
X17.694 Y41.62 Z1.625
X17.662 Y41.593 Z1.618
X17.642 Y41.555 Z1.61
X17.638 Y41.513 Z1.603
X17.649 Y41.473 Z1.596
X17.675 Y41.439 Z1.589
X17.711 Y41.417 Z1.582
X17.752 Y41.41 Z1.575
X17.794 Y41.419 Z1.568
X17.829 Y41.442 Z1.561
X17.853 Y41.477 Z1.553
X17.862 Y41.518 Z1.546
X17.856 Y41.56 Z1.539
X17.835 Y41.596 Z1.532
X17.802 Y41.623 Z1.525
X17.762 Y41.635 Z1.518
X17.72 Y41.631 Z1.511
X17.682 Y41.612 Z1.504
X17.654 Y41.581 Z1.496
X17.639 Y41.541 Z1.489
X17.64 Y41.499 Z1.482
X17.656 Y41.46 Z1.475
X17.686 Y41.43 Z1.468
X17.725 Y41.413 Z1.461
X17.767 Y41.412 Z1.454
X17.807 Y41.425 Z1.447
X17.838 Y41.453 Z1.439
X17.858 Y41.491 Z1.432
X17.862 Y41.533 Z1.425
X17.851 Y41.573 Z1.418
X17.825 Y41.607 Z1.411
X17.789 Y41.628 Z1.404
X17.747 Y41.635 Z1.397
X17.706 Y41.626 Z1.39
X17.671 Y41.603 Z1.382
X17.647 Y41.568 Z1.375
X17.638 Y41.527 Z1.368
X17.644 Y41.485 Z1.361
X17.665 Y41.449 Z1.354
X17.698 Y41.423 Z1.347
X17.739 Y41.411 Z1.34
X17.781 Y41.415 Z1.333
X17.818 Y41.433 Z1.325
X17.847 Y41.465 Z1.318
X17.861 Y41.505 Z1.311
X17.86 Y41.547 Z1.304
X17.843 Y41.585 Z1.297
X17.814 Y41.615 Z1.29
X17.775 Y41.632 Z1.283
X17.733 Y41.634 Z1.276
X17.693 Y41.62 Z1.268
X17.661 Y41.592 Z1.261
X17.642 Y41.555 Z1.254
X17.638 Y41.513 Z1.247
X17.65 Y41.472 Z1.24
X17.675 Y41.439 Z1.233
X17.711 Y41.417 Z1.226
X17.753 Y41.41 Z1.219
X17.794 Y41.419 Z1.211
X17.829 Y41.443 Z1.204
X17.853 Y41.478 Z1.197
X17.862 Y41.519 Z1.19
X17.856 Y41.56 Z1.183
X17.835 Y41.597 Z1.176
X17.801 Y41.623 Z1.169
X17.761 Y41.635 Z1.162
X17.719 Y41.631 Z1.154
X17.681 Y41.612 Z1.147
X17.653 Y41.58 Z1.14
X17.639 Y41.541 Z1.133
X17.64 Y41.499 Z1.126
X17.657 Y41.46 Z1.119
X17.687 Y41.43 Z1.112
X17.725 Y41.413 Z1.105
X17.767 Y41.412 Z1.097
X17.807 Y41.426 Z1.09
X17.839 Y41.454 Z1.083
X17.858 Y41.491 Z1.076
X17.862 Y41.533 Z1.069
X17.85 Y41.574 Z1.062
X17.825 Y41.607 Z1.055
X17.788 Y41.629 Z1.048
X17.747 Y41.635 Z1.04
X17.705 Y41.626 Z1.033
X17.671 Y41.602 Z1.026
X17.647 Y41.568 Z1.019
X17.638 Y41.526 Z1.012
X17.644 Y41.485 Z1.005
X17.666 Y41.448 Z0.998
X17.699 Y41.423 Z0.99
X17.739 Y41.411 Z0.983
X17.781 Y41.415 Z0.976
X17.819 Y41.434 Z0.969
X17.847 Y41.465 Z0.962
X17.861 Y41.505 Z0.955
X17.86 Y41.547 Z0.948
X17.843 Y41.586 Z0.941
X17.813 Y41.616 Z0.933
X17.775 Y41.633 Z0.926
X17.732 Y41.634 Z0.919
X17.693 Y41.62 Z0.912
X17.661 Y41.592 Z0.905
X17.642 Y41.554 Z0.898
X17.638 Y41.512 Z0.891
X17.65 Y41.472 Z0.884
X17.676 Y41.438 Z0.876
X17.712 Y41.417 Z0.869
X17.754 Y41.41 Z0.862
X17.795 Y41.42 Z0.855
X17.83 Y41.443 Z0.848
X17.853 Y41.478 Z0.841
X17.862 Y41.519 Z0.834
X17.856 Y41.561 Z0.827
X17.834 Y41.597 Z0.819
X17.801 Y41.623 Z0.812
X17.76 Y41.635 Z0.805
X17.718 Y41.631 Z0.798
X17.681 Y41.611 Z0.791
X17.653 Y41.58 Z0.784
X17.639 Y41.54 Z0.777
X17.64 Y41.498 Z0.77
X17.657 Y41.459 Z0.762
X17.687 Y41.43 Z0.755
X17.726 Y41.413 Z0.748
X17.768 Y41.412 Z0.741
X17.808 Y41.426 Z0.734
X17.839 Y41.454 Z0.727
X17.858 Y41.492 Z0.72
X17.862 Y41.534 Z0.713
X17.85 Y41.574 Z0.705
X17.824 Y41.607 Z0.698
X17.788 Y41.629 Z0.691
X17.746 Y41.635 Z0.684
X17.705 Y41.626 Z0.677
X17.67 Y41.602 Z0.67
X17.647 Y41.567 Z0.663
X17.638 Y41.526 Z0.656
X17.644 Y41.484 Z0.648
X17.666 Y41.448 Z0.641
X17.699 Y41.422 Z0.634
X17.74 Y41.411 Z0.627
X17.782 Y41.415 Z0.62
X17.819 Y41.434 Z0.613
X17.847 Y41.466 Z0.606
X17.861 Y41.506 Z0.599
X17.86 Y41.548 Z0.591
X17.843 Y41.586 Z0.584
X17.813 Y41.616 Z0.577
X17.774 Y41.633 Z0.57
X17.732 Y41.634 Z0.563
X17.692 Y41.619 Z0.556
X17.661 Y41.591 Z0.549
X17.642 Y41.553 Z0.542
X17.638 Y41.511 Z0.534
X17.65 Y41.471 Z0.527
X17.676 Y41.438 Z0.52
X17.713 Y41.417 Z0.513
X17.754 Y41.41 Z0.506
X17.795 Y41.42 Z0.499
X17.83 Y41.444 Z0.492
X17.854 Y41.479 Z0.485
X17.862 Y41.52 Z0.477
X17.856 Y41.562 Z0.47
X17.834 Y41.598 Z0.463
X17.8 Y41.623 Z0.456
X17.76 Y41.635 Z0.449
X17.718 Y41.631 Z0.442
X17.68 Y41.611 Z0.435
X17.653 Y41.579 Z0.428
X17.639 Y41.539 Z0.42
X17.64 Y41.497 Z0.413
X17.657 Y41.459 Z0.406
X17.688 Y41.429 Z0.399
X17.726 Y41.413 Z0.392
X17.769 Y41.412 Z0.385
X17.808 Y41.426 Z0.378
X17.839 Y41.455 Z0.371
X17.858 Y41.492 Z0.363
X17.862 Y41.534 Z0.356
X17.85 Y41.575 Z0.349
X17.824 Y41.608 Z0.342
X17.787 Y41.629 Z0.335
X17.745 Y41.635 Z0.328
X17.704 Y41.626 Z0.321
X17.67 Y41.602 Z0.314
X17.646 Y41.566 Z0.306
X17.638 Y41.525 Z0.299
X17.645 Y41.484 Z0.292
X17.666 Y41.448 Z0.285
X17.7 Y41.422 Z0.278
X17.741 Y41.411 Z0.271
X17.782 Y41.415 Z0.264
X17.82 Y41.435 Z0.257
X17.847 Y41.467 Z0.249
X17.861 Y41.506 Z0.242
X17.86 Y41.548 Z0.235
X17.842 Y41.587 Z0.228
X17.812 Y41.616 Z0.221
X17.773 Y41.633 Z0.214
X17.731 Y41.634 Z0.207
X17.692 Y41.619 Z0.2
X17.66 Y41.591 Z0.192
X17.642 Y41.553 Z0.185
X17.638 Y41.511 Z0.178
X17.65 Y41.471 Z0.171
X17.677 Y41.437 Z0.164
X17.713 Y41.416 Z0.157
X17.755 Y41.41 Z0.15
X17.796 Y41.42 Z0.143
X17.831 Y41.444 Z0.135
X17.854 Y41.479 Z0.128
X17.862 Y41.521 Z0.121
X17.855 Y41.562 Z0.114
X17.833 Y41.598 Z0.107
X17.8 Y41.624 Z0.1
X17.759 Y41.635 Z0.093
X17.717 Y41.63 Z0.086
X17.68 Y41.611 Z0.078
X17.652 Y41.579 Z0.071
X17.639 Y41.539 Z0.064
X17.641 Y41.497 Z0.057
X17.658 Y41.458 Z0.05
X17.688 Y41.429 Z0.043
X17.727 Y41.413 Z0.036
X17.769 Y41.412 Z0.029
X17.809 Y41.427 Z0.021
X17.84 Y41.455 Z0.014
X17.858 Y41.493 Z0.007
X17.862 Y41.535 Z0
G3 X17.638 Y41.511 I-0.112 J-0.012
X17.862 Y41.535 I0.112 J0.012
G1 X17.851 Y41.562
X17.829 Y41.58
X17.8 Y41.585
X17.75 Y41.523
G0 Z20
X17.26 Y20.105
Z7.182
G1 Z5.5 F500
X17.24 Y20.028
X17.26 Y20.008
X17.288 Y20
X17.316 Y20.008
X17.348 Y20.035 Z5.493
X17.368 Y20.073 Z5.486
X17.372 Y20.115 Z5.479
X17.361 Y20.156 Z5.471
X17.335 Y20.189 Z5.464
X17.299 Y20.211 Z5.457
X17.257 Y20.218 Z5.45
X17.216 Y20.209 Z5.443
X17.181 Y20.185 Z5.436
X17.157 Y20.151 Z5.429
X17.148 Y20.109 Z5.422
X17.154 Y20.068 Z5.414
X17.176 Y20.031 Z5.407
X17.209 Y20.005 Z5.4
X17.249 Y19.993 Z5.393
X17.291 Y19.997 Z5.386
X17.329 Y20.016 Z5.379
X17.357 Y20.048 Z5.372
X17.371 Y20.088 Z5.364
X17.37 Y20.13 Z5.357
X17.353 Y20.169 Z5.35
X17.323 Y20.198 Z5.343
X17.285 Y20.215 Z5.336
X17.242 Y20.216 Z5.329
X17.203 Y20.202 Z5.322
X17.171 Y20.174 Z5.315
X17.152 Y20.136 Z5.307
X17.148 Y20.094 Z5.3
X17.16 Y20.054 Z5.293
X17.186 Y20.021 Z5.286
X17.223 Y19.999 Z5.279
X17.264 Y19.993 Z5.272
X17.306 Y20.002 Z5.265
X17.34 Y20.026 Z5.257
X17.364 Y20.061 Z5.25
X17.373 Y20.103 Z5.243
X17.366 Y20.144 Z5.236
X17.344 Y20.18 Z5.229
X17.31 Y20.206 Z5.222
X17.27 Y20.217 Z5.215
X17.228 Y20.213 Z5.208
X17.19 Y20.193 Z5.2
X17.163 Y20.161 Z5.193
X17.149 Y20.122 Z5.186
X17.151 Y20.079 Z5.179
X17.168 Y20.041 Z5.172
X17.198 Y20.011 Z5.165
X17.237 Y19.995 Z5.158
X17.279 Y19.994 Z5.15
X17.319 Y20.009 Z5.143
X17.35 Y20.038 Z5.136
X17.369 Y20.076 Z5.129
X17.372 Y20.118 Z5.122
X17.36 Y20.158 Z5.115
X17.333 Y20.191 Z5.108
X17.296 Y20.212 Z5.101
X17.255 Y20.218 Z5.093
X17.214 Y20.208 Z5.086
X17.179 Y20.183 Z5.079
X17.156 Y20.148 Z5.072
X17.148 Y20.106 Z5.065
X17.155 Y20.065 Z5.058
X17.178 Y20.029 Z5.051
X17.211 Y20.004 Z5.043
X17.252 Y19.993 Z5.036
X17.294 Y19.998 Z5.029
X17.331 Y20.018 Z5.022
X17.358 Y20.05 Z5.015
X17.372 Y20.09 Z5.008
X17.369 Y20.133 Z5.001
X17.352 Y20.171 Z4.994
X17.321 Y20.2 Z4.986
X17.282 Y20.216 Z4.979
X17.24 Z4.972
X17.2 Y20.2 Z4.965
X17.169 Y20.172 Z4.958
X17.151 Y20.134 Z4.951
X17.149 Y20.091 Z4.944
X17.162 Y20.051 Z4.936
X17.188 Y20.019 Z4.929
X17.225 Y19.998 Z4.922
X17.267 Y19.993 Z4.915
X17.308 Y20.004 Z4.908
X17.342 Y20.028 Z4.901
X17.365 Y20.064 Z4.894
X17.373 Y20.106 Z4.887
X17.365 Y20.147 Z4.879
X17.342 Y20.183 Z4.872
X17.308 Y20.207 Z4.865
X17.267 Y20.218 Z4.858
X17.225 Y20.212 Z4.851
X17.188 Y20.192 Z4.844
X17.161 Y20.159 Z4.837
X17.149 Y20.119 Z4.829
X17.151 Y20.077 Z4.822
X17.17 Y20.038 Z4.815
X17.201 Y20.01 Z4.808
X17.24 Y19.995 Z4.801
X17.282 Z4.794
X17.321 Y20.011 Z4.787
X17.352 Y20.04 Z4.78
X17.369 Y20.078 Z4.772
X17.372 Y20.121 Z4.765
X17.358 Y20.161 Z4.758
X17.331 Y20.193 Z4.751
X17.294 Y20.213 Z4.744
X17.252 Y20.217 Z4.737
X17.211 Y20.206 Z4.73
X17.177 Y20.181 Z4.722
X17.155 Y20.145 Z4.715
X17.148 Y20.104 Z4.708
X17.156 Y20.062 Z4.701
X17.18 Y20.027 Z4.694
X17.214 Y20.003 Z4.687
X17.255 Y19.993 Z4.68
X17.297 Y19.999 Z4.673
X17.334 Y20.02 Z4.665
X17.36 Y20.053 Z4.658
X17.372 Y20.093 Z4.651
X17.369 Y20.135 Z4.644
X17.35 Y20.173 Z4.637
X17.318 Y20.202 Z4.63
X17.279 Y20.216 Z4.623
X17.237 Y20.215 Z4.615
X17.198 Y20.199 Z4.608
X17.168 Y20.169 Z4.601
X17.151 Y20.131 Z4.594
X17.149 Y20.088 Z4.587
X17.163 Y20.049 Z4.58
X17.191 Y20.017 Z4.573
X17.228 Y19.997 Z4.565
X17.27 Y19.993 Z4.558
X17.311 Y20.005 Z4.551
X17.344 Y20.031 Z4.544
X17.366 Y20.067 Z4.537
X17.373 Y20.108 Z4.53
X17.364 Y20.15 Z4.523
X17.34 Y20.185 Z4.516
X17.305 Y20.208 Z4.508
X17.264 Y20.218 Z4.501
X17.222 Y20.211 Z4.494
X17.186 Y20.19 Z4.487
X17.16 Y20.156 Z4.48
X17.148 Y20.116 Z4.473
X17.152 Y20.074 Z4.466
X17.171 Y20.036 Z4.458
X17.203 Y20.008 Z4.451
X17.243 Y19.994 Z4.444
X17.285 Y19.996 Z4.437
X17.324 Y20.013 Z4.43
X17.354 Y20.042 Z4.423
X17.37 Y20.081 Z4.416
X17.371 Y20.124 Z4.409
X17.357 Y20.163 Z4.401
X17.329 Y20.195 Z4.394
X17.291 Y20.214 Z4.387
X17.249 Y20.217 Z4.38
X17.208 Y20.205 Z4.373
X17.175 Y20.179 Z4.366
X17.154 Y20.142 Z4.359
X17.148 Y20.101 Z4.351
X17.157 Y20.06 Z4.344
X17.182 Y20.025 Z4.337
X17.217 Y20.002 Z4.33
X17.258 Y19.993 Z4.323
X17.3 Y20 Z4.316
X17.336 Y20.022 Z4.309
X17.361 Y20.056 Z4.302
X17.372 Y20.096 Z4.294
X17.368 Y20.138 Z4.287
X17.348 Y20.176 Z4.28
X17.316 Y20.203 Z4.273
X17.276 Y20.217 Z4.266
X17.234 Y20.215 Z4.259
X17.195 Y20.197 Z4.252
X17.166 Y20.167 Z4.244
X17.15 Y20.128 Z4.237
X17.149 Y20.086 Z4.23
X17.165 Y20.046 Z4.223
X17.193 Y20.015 Z4.216
X17.231 Y19.997 Z4.209
X17.273 Y19.994 Z4.202
X17.313 Y20.006 Z4.195
X17.346 Y20.033 Z4.187
X17.367 Y20.07 Z4.18
X17.373 Y20.111 Z4.173
X17.362 Y20.152 Z4.166
X17.338 Y20.187 Z4.159
X17.302 Y20.21 Z4.152
X17.261 Y20.218 Z4.145
X17.219 Y20.21 Z4.137
X17.184 Y20.188 Z4.13
X17.159 Y20.154 Z4.123
X17.148 Y20.113 Z4.116
X17.153 Y20.071 Z4.109
X17.173 Y20.034 Z4.102
X17.206 Y20.007 Z4.095
X17.246 Y19.994 Z4.088
X17.288 Y19.996 Z4.08
X17.326 Y20.014 Z4.073
X17.355 Y20.045 Z4.066
X17.371 Y20.084 Z4.059
Y20.126 Z4.052
X17.355 Y20.166 Z4.045
X17.326 Y20.196 Z4.038
X17.288 Y20.214 Z4.03
X17.246 Y20.217 Z4.023
X17.206 Y20.204 Z4.016
X17.173 Y20.177 Z4.009
X17.153 Y20.14 Z4.002
X17.148 Y20.098 Z3.995
X17.159 Y20.057 Z3.988
X17.184 Y20.023 Z3.981
X17.219 Y20 Z3.973
X17.261 Y19.993 Z3.966
X17.302 Y20.001 Z3.959
X17.338 Y20.024 Z3.952
X17.362 Y20.058 Z3.945
X17.373 Y20.099 Z3.938
X17.367 Y20.141 Z3.931
X17.346 Y20.178 Z3.923
X17.313 Y20.204 Z3.916
X17.273 Y20.217 Z3.909
X17.231 Y20.214 Z3.902
X17.193 Y20.196 Z3.895
X17.165 Y20.164 Z3.888
X17.149 Y20.125 Z3.881
X17.15 Y20.083 Z3.874
X17.166 Y20.044 Z3.866
X17.195 Y20.013 Z3.859
X17.234 Y19.996 Z3.852
X17.276 Y19.994 Z3.845
X17.316 Y20.008 Z3.838
X17.348 Y20.035 Z3.831
X17.368 Y20.072 Z3.824
X17.372 Y20.114 Z3.816
X17.361 Y20.155 Z3.809
X17.336 Y20.189 Z3.802
X17.3 Y20.211 Z3.795
X17.258 Y20.218 Z3.788
X17.217 Y20.209 Z3.781
X17.182 Y20.186 Z3.774
X17.157 Y20.151 Z3.767
X17.148 Y20.11 Z3.759
X17.154 Y20.068 Z3.752
X17.175 Y20.032 Z3.745
X17.208 Y20.006 Z3.738
X17.249 Y19.993 Z3.731
X17.291 Y19.997 Z3.724
X17.329 Y20.016 Z3.717
X17.357 Y20.047 Z3.709
X17.371 Y20.087 Z3.702
X17.37 Y20.129 Z3.695
X17.354 Y20.168 Z3.688
X17.324 Y20.198 Z3.681
X17.285 Y20.215 Z3.674
X17.243 Y20.216 Z3.667
X17.203 Y20.202 Z3.66
X17.172 Y20.174 Z3.652
X17.152 Y20.137 Z3.645
X17.148 Y20.095 Z3.638
X17.16 Y20.054 Z3.631
X17.186 Y20.021 Z3.624
X17.222 Y19.999 Z3.617
X17.264 Y19.993 Z3.61
X17.305 Y20.002 Z3.602
X17.34 Y20.026 Z3.595
X17.364 Y20.061 Z3.588
X17.373 Y20.102 Z3.581
X17.366 Y20.144 Z3.574
X17.344 Y20.18 Z3.567
X17.311 Y20.206 Z3.56
X17.27 Y20.217 Z3.553
X17.228 Y20.213 Z3.545
X17.191 Y20.194 Z3.538
X17.163 Y20.162 Z3.531
X17.149 Y20.122 Z3.524
X17.151 Y20.08 Z3.517
X17.168 Y20.041 Z3.51
X17.198 Y20.012 Z3.503
X17.237 Y19.995 Z3.495
X17.279 Y19.994 Z3.488
X17.318 Y20.009 Z3.481
X17.35 Y20.037 Z3.474
X17.369 Y20.075 Z3.467
X17.372 Y20.117 Z3.46
X17.36 Y20.158 Z3.453
X17.334 Y20.191 Z3.446
X17.297 Y20.212 Z3.438
X17.255 Y20.218 Z3.431
X17.214 Y20.208 Z3.424
X17.18 Y20.184 Z3.417
X17.156 Y20.148 Z3.41
X17.148 Y20.107 Z3.403
X17.155 Y20.065 Z3.396
X17.177 Y20.03 Z3.388
X17.211 Y20.004 Z3.381
X17.252 Y19.993 Z3.374
X17.294 Y19.998 Z3.367
X17.331 Y20.018 Z3.36
X17.358 Y20.05 Z3.353
X17.372 Y20.09 Z3.346
X17.37 Y20.132 Z3.339
X17.352 Y20.17 Z3.331
X17.321 Y20.2 Z3.324
X17.282 Y20.216 Z3.317
X17.24 Z3.31
X17.201 Y20.201 Z3.303
X17.17 Y20.172 Z3.296
X17.151 Y20.134 Z3.289
X17.149 Y20.092 Z3.281
X17.161 Y20.052 Z3.274
X17.188 Y20.019 Z3.267
X17.225 Y19.998 Z3.26
X17.267 Y19.993 Z3.253
X17.308 Y20.003 Z3.246
X17.342 Y20.028 Z3.239
X17.365 Y20.064 Z3.232
X17.373 Y20.105 Z3.224
X17.365 Y20.146 Z3.217
X17.342 Y20.182 Z3.21
X17.308 Y20.207 Z3.203
X17.267 Y20.218 Z3.196
X17.226 Y20.212 Z3.189
X17.189 Y20.192 Z3.182
X17.162 Y20.159 Z3.174
X17.149 Y20.119 Z3.167
X17.151 Y20.077 Z3.16
X17.169 Y20.039 Z3.153
X17.2 Y20.01 Z3.146
X17.24 Y19.995 Z3.139
X17.282 Z3.132
X17.321 Y20.011 Z3.125
X17.352 Y20.04 Z3.117
X17.369 Y20.078 Z3.11
X17.372 Y20.12 Z3.103
X17.358 Y20.16 Z3.096
X17.331 Y20.192 Z3.089
X17.294 Y20.213 Z3.082
X17.252 Y20.218 Z3.075
X17.211 Y20.207 Z3.067
X17.178 Y20.182 Z3.06
X17.155 Y20.146 Z3.053
X17.148 Y20.104 Z3.046
X17.156 Y20.063 Z3.039
X17.179 Y20.027 Z3.032
X17.214 Y20.003 Z3.025
X17.255 Y19.993 Z3.018
X17.296 Y19.999 Z3.01
X17.333 Y20.02 Z3.003
X17.36 Y20.052 Z2.996
X17.372 Y20.093 Z2.989
X17.369 Y20.135 Z2.982
X17.35 Y20.173 Z2.975
X17.319 Y20.201 Z2.968
X17.28 Y20.216 Z2.96
X17.237 Y20.215 Z2.953
X17.198 Y20.199 Z2.946
X17.168 Y20.17 Z2.939
X17.151 Y20.131 Z2.932
X17.149 Y20.089 Z2.925
X17.163 Y20.049 Z2.918
X17.19 Y20.017 Z2.911
X17.228 Y19.998 Z2.903
X17.27 Y19.993 Z2.896
X17.31 Y20.005 Z2.889
X17.344 Y20.03 Z2.882
X17.366 Y20.066 Z2.875
X17.373 Y20.108 Z2.868
X17.364 Y20.149 Z2.861
X17.34 Y20.184 Z2.853
X17.306 Y20.208 Z2.846
X17.264 Y20.218 Z2.839
X17.223 Y20.211 Z2.832
X17.186 Y20.19 Z2.825
X17.16 Y20.157 Z2.818
X17.148 Y20.116 Z2.811
X17.152 Y20.074 Z2.804
X17.171 Y20.037 Z2.796
X17.203 Y20.009 Z2.789
X17.242 Y19.994 Z2.782
X17.285 Y19.995 Z2.775
X17.323 Y20.012 Z2.768
X17.353 Y20.042 Z2.761
X17.37 Y20.081 Z2.754
X17.371 Y20.123 Z2.746
X17.357 Y20.163 Z2.739
X17.329 Y20.194 Z2.732
X17.291 Y20.213 Z2.725
X17.249 Y20.217 Z2.718
X17.209 Y20.205 Z2.711
X17.176 Y20.179 Z2.704
X17.154 Y20.143 Z2.696
X17.148 Y20.101 Z2.689
X17.157 Y20.06 Z2.682
X17.181 Y20.025 Z2.675
X17.216 Y20.002 Z2.668
X17.257 Y19.993 Z2.661
X17.299 Y20 Z2.654
X17.335 Y20.021 Z2.647
X17.361 Y20.055 Z2.639
X17.372 Y20.096 Z2.632
X17.368 Y20.138 Z2.625
X17.348 Y20.175 Z2.618
X17.317 Y20.203 Z2.611
X17.277 Y20.217 Z2.604
X17.234 Y20.215 Z2.597
X17.196 Y20.198 Z2.589
X17.166 Y20.167 Z2.582
X17.15 Y20.128 Z2.575
X17.149 Y20.086 Z2.568
X17.164 Y20.047 Z2.561
X17.193 Y20.015 Z2.554
X17.23 Y19.997 Z2.547
X17.273 Y19.993 Z2.54
X17.313 Y20.006 Z2.532
X17.346 Y20.032 Z2.525
X17.367 Y20.069 Z2.518
X17.373 Y20.111 Z2.511
X17.363 Y20.152 Z2.504
X17.338 Y20.186 Z2.497
X17.303 Y20.209 Z2.49
X17.262 Y20.218 Z2.482
X17.22 Y20.21 Z2.475
X17.184 Y20.188 Z2.468
X17.159 Y20.154 Z2.461
X17.148 Y20.113 Z2.454
X17.153 Y20.072 Z2.447
X17.173 Y20.034 Z2.44
X17.205 Y20.007 Z2.433
X17.245 Y19.994 Z2.425
X17.287 Y19.996 Z2.418
X17.326 Y20.014 Z2.411
X17.355 Y20.044 Z2.404
X17.371 Y20.084 Z2.397
Y20.126 Z2.39
X17.356 Y20.165 Z2.383
X17.327 Y20.196 Z2.375
X17.289 Y20.214 Z2.368
X17.246 Y20.217 Z2.361
X17.206 Y20.204 Z2.354
X17.174 Y20.177 Z2.347
X17.153 Y20.14 Z2.34
X17.148 Y20.098 Z2.333
X17.158 Y20.057 Z2.326
X17.183 Y20.023 Z2.318
X17.219 Y20.001 Z2.311
X17.26 Y19.993 Z2.304
X17.302 Y20.001 Z2.297
X17.337 Y20.023 Z2.29
X17.362 Y20.058 Z2.283
X17.373 Y20.099 Z2.276
X17.367 Y20.14 Z2.268
X17.347 Y20.177 Z2.261
X17.314 Y20.204 Z2.254
X17.274 Y20.217 Z2.247
X17.232 Y20.214 Z2.24
X17.194 Y20.196 Z2.233
X17.165 Y20.165 Z2.226
X17.15 Y20.126 Z2.219
Y20.083 Z2.211
X17.166 Y20.044 Z2.204
X17.195 Y20.014 Z2.197
X17.233 Y19.996 Z2.19
X17.275 Y19.994 Z2.183
X17.315 Y20.007 Z2.176
X17.348 Y20.035 Z2.169
X17.368 Y20.072 Z2.161
X17.372 Y20.114 Z2.154
X17.361 Y20.154 Z2.147
X17.336 Y20.188 Z2.14
X17.3 Y20.21 Z2.133
X17.259 Y20.218 Z2.126
X17.217 Y20.209 Z2.119
X17.182 Y20.186 Z2.112
X17.158 Y20.152 Z2.104
X17.148 Y20.111 Z2.097
X17.154 Y20.069 Z2.09
X17.175 Y20.032 Z2.083
X17.208 Y20.006 Z2.076
X17.248 Y19.993 Z2.069
X17.29 Y19.997 Z2.062
X17.328 Y20.016 Z2.054
X17.356 Y20.047 Z2.047
X17.371 Y20.086 Z2.04
X17.37 Y20.129 Z2.033
X17.354 Y20.168 Z2.026
X17.324 Y20.198 Z2.019
X17.286 Y20.215 Z2.012
X17.244 Y20.217 Z2.005
X17.204 Y20.203 Z1.997
X17.172 Y20.175 Z1.99
X17.152 Y20.137 Z1.983
X17.148 Y20.095 Z1.976
X17.16 Y20.055 Z1.969
X17.185 Y20.021 Z1.962
X17.222 Y20 Z1.955
X17.263 Y19.993 Z1.947
X17.304 Y20.002 Z1.94
X17.339 Y20.025 Z1.933
X17.363 Y20.06 Z1.926
X17.373 Y20.101 Z1.919
X17.366 Y20.143 Z1.912
X17.345 Y20.18 Z1.905
X17.311 Y20.205 Z1.898
X17.271 Y20.217 Z1.89
X17.229 Y20.213 Z1.883
X17.191 Y20.194 Z1.876
X17.163 Y20.162 Z1.869
X17.149 Y20.123 Z1.862
X17.15 Y20.081 Z1.855
X17.167 Y20.042 Z1.848
X17.197 Y20.012 Z1.84
X17.236 Y19.995 Z1.833
X17.278 Y19.994 Z1.826
X17.318 Y20.009 Z1.819
X17.349 Y20.037 Z1.812
X17.368 Y20.075 Z1.805
X17.372 Y20.117 Z1.798
X17.36 Y20.157 Z1.791
X17.334 Y20.19 Z1.783
X17.298 Y20.211 Z1.776
X17.256 Y20.218 Z1.769
X17.215 Y20.208 Z1.762
X17.18 Y20.184 Z1.755
X17.157 Y20.149 Z1.748
X17.148 Y20.108 Z1.741
X17.155 Y20.066 Z1.733
X17.177 Y20.03 Z1.726
X17.21 Y20.004 Z1.719
X17.251 Y19.993 Z1.712
X17.293 Y19.998 Z1.705
X17.33 Y20.017 Z1.698
X17.358 Y20.049 Z1.691
X17.372 Y20.089 Z1.684
X17.37 Y20.131 Z1.676
X17.352 Y20.17 Z1.669
X17.322 Y20.199 Z1.662
X17.283 Y20.215 Z1.655
X17.241 Y20.216 Z1.648
X17.201 Y20.201 Z1.641
X17.17 Y20.173 Z1.634
X17.152 Y20.135 Z1.626
X17.148 Y20.093 Z1.619
X17.161 Y20.052 Z1.612
X17.188 Y20.019 Z1.605
X17.224 Y19.999 Z1.598
X17.266 Y19.993 Z1.591
X17.307 Y20.003 Z1.584
X17.342 Y20.028 Z1.577
X17.364 Y20.063 Z1.569
X17.373 Y20.104 Z1.562
X17.365 Y20.146 Z1.555
X17.343 Y20.182 Z1.548
X17.309 Y20.207 Z1.541
X17.268 Y20.218 Z1.534
X17.226 Y20.212 Z1.527
X17.189 Y20.192 Z1.519
X17.162 Y20.16 Z1.512
X17.149 Y20.12 Z1.505
X17.151 Y20.078 Z1.498
X17.169 Y20.039 Z1.491
X17.2 Y20.01 Z1.484
X17.239 Y19.995 Z1.477
X17.281 Z1.47
X17.32 Y20.01 Z1.462
X17.351 Y20.039 Z1.455
X17.369 Y20.077 Z1.448
X17.372 Y20.119 Z1.441
X17.359 Y20.16 Z1.434
X17.332 Y20.192 Z1.427
X17.295 Y20.212 Z1.42
X17.253 Y20.218 Z1.412
X17.212 Y20.207 Z1.405
X17.178 Y20.182 Z1.398
X17.155 Y20.146 Z1.391
X17.148 Y20.105 Z1.384
X17.156 Y20.063 Z1.377
X17.179 Y20.028 Z1.37
X17.213 Y20.003 Z1.363
X17.254 Y19.993 Z1.355
X17.296 Y19.999 Z1.348
X17.333 Y20.019 Z1.341
X17.359 Y20.052 Z1.334
X17.372 Y20.092 Z1.327
X17.369 Y20.134 Z1.32
X17.351 Y20.172 Z1.313
X17.32 Y20.201 Z1.305
X17.28 Y20.216 Z1.298
X17.238 Z1.291
X17.199 Y20.2 Z1.284
X17.168 Y20.17 Z1.277
X17.151 Y20.132 Z1.27
X17.149 Y20.09 Z1.263
X17.162 Y20.05 Z1.256
X17.19 Y20.018 Z1.248
X17.227 Y19.998 Z1.241
X17.269 Y19.993 Z1.234
X17.31 Y20.004 Z1.227
X17.344 Y20.03 Z1.22
X17.366 Y20.066 Z1.213
X17.373 Y20.107 Z1.206
X17.364 Y20.149 Z1.198
X17.341 Y20.184 Z1.191
X17.306 Y20.208 Z1.184
X17.265 Y20.218 Z1.177
X17.223 Y20.212 Z1.17
X17.187 Y20.19 Z1.163
X17.161 Y20.157 Z1.156
X17.148 Y20.117 Z1.149
X17.152 Y20.075 Z1.141
X17.171 Y20.037 Z1.134
X17.202 Y20.009 Z1.127
X17.242 Y19.994 Z1.12
X17.284 Y19.995 Z1.113
X17.323 Y20.012 Z1.106
X17.353 Y20.041 Z1.099
X17.37 Y20.08 Z1.091
X17.371 Y20.122 Z1.084
X17.357 Y20.162 Z1.077
X17.33 Y20.194 Z1.07
X17.292 Y20.213 Z1.063
X17.25 Y20.217 Z1.056
X17.209 Y20.206 Z1.049
X17.176 Y20.18 Z1.042
X17.154 Y20.144 Z1.034
X17.148 Y20.102 Z1.027
X17.157 Y20.061 Z1.02
X17.181 Y20.026 Z1.013
X17.216 Y20.002 Z1.006
X17.257 Y19.993 Z0.999
X17.299 Y20 Z0.992
X17.335 Y20.021 Z0.984
X17.361 Y20.054 Z0.977
X17.372 Y20.095 Z0.97
X17.368 Y20.137 Z0.963
X17.349 Y20.175 Z0.956
X17.317 Y20.202 Z0.949
X17.277 Y20.217 Z0.942
X17.235 Y20.215 Z0.935
X17.196 Y20.198 Z0.927
X17.167 Y20.168 Z0.92
X17.15 Y20.129 Z0.913
X17.149 Y20.087 Z0.906
X17.164 Y20.047 Z0.899
X17.192 Y20.016 Z0.892
X17.23 Y19.997 Z0.885
X17.272 Y19.993 Z0.877
X17.312 Y20.006 Z0.87
X17.345 Y20.032 Z0.863
X17.367 Y20.068 Z0.856
X17.373 Y20.11 Z0.849
X17.363 Y20.151 Z0.842
X17.339 Y20.186 Z0.835
X17.304 Y20.209 Z0.827
X17.262 Y20.218 Z0.82
X17.221 Y20.211 Z0.813
X17.185 Y20.189 Z0.806
X17.159 Y20.155 Z0.799
X17.148 Y20.114 Z0.792
X17.153 Y20.072 Z0.785
X17.173 Y20.035 Z0.778
X17.205 Y20.007 Z0.77
X17.245 Y19.994 Z0.763
X17.287 Y19.996 Z0.756
X17.325 Y20.013 Z0.749
X17.355 Y20.044 Z0.742
X17.371 Y20.083 Z0.735
Y20.125 Z0.728
X17.356 Y20.165 Z0.72
X17.327 Y20.196 Z0.713
X17.289 Y20.214 Z0.706
X17.247 Y20.217 Z0.699
X17.207 Y20.204 Z0.692
X17.174 Y20.178 Z0.685
X17.153 Y20.141 Z0.678
X17.148 Y20.099 Z0.671
X17.158 Y20.058 Z0.663
X17.183 Y20.024 Z0.656
X17.218 Y20.001 Z0.649
X17.26 Y19.993 Z0.642
X17.301 Y20.001 Z0.635
X17.337 Y20.023 Z0.628
X17.362 Y20.057 Z0.621
X17.372 Y20.098 Z0.613
X17.367 Y20.14 Z0.606
X17.347 Y20.177 Z0.599
X17.315 Y20.204 Z0.592
X17.274 Y20.217 Z0.585
X17.232 Y20.214 Z0.578
X17.194 Y20.196 Z0.571
X17.165 Y20.165 Z0.564
X17.15 Y20.126 Z0.556
Y20.084 Z0.549
X17.165 Y20.045 Z0.542
X17.194 Y20.014 Z0.535
X17.233 Y19.996 Z0.528
X17.275 Y19.994 Z0.521
X17.315 Y20.007 Z0.514
X17.347 Y20.034 Z0.506
X17.367 Y20.071 Z0.499
X17.372 Y20.113 Z0.492
X17.362 Y20.154 Z0.485
X17.337 Y20.188 Z0.478
X17.301 Y20.21 Z0.471
X17.259 Y20.218 Z0.464
X17.218 Y20.21 Z0.457
X17.182 Y20.187 Z0.449
X17.158 Y20.152 Z0.442
X17.148 Y20.111 Z0.435
X17.154 Y20.069 Z0.428
X17.174 Y20.033 Z0.421
X17.207 Y20.006 Z0.414
X17.248 Y19.994 Z0.407
X17.29 Y19.997 Z0.399
X17.328 Y20.015 Z0.392
X17.356 Y20.046 Z0.385
X17.371 Y20.086 Z0.378
X17.37 Y20.128 Z0.371
X17.354 Y20.167 Z0.364
X17.325 Y20.197 Z0.357
X17.286 Y20.215 Z0.35
X17.244 Y20.217 Z0.342
X17.204 Y20.203 Z0.335
X17.172 Y20.175 Z0.328
X17.153 Y20.138 Z0.321
X17.148 Y20.096 Z0.314
X17.159 Y20.055 Z0.307
X17.185 Y20.022 Z0.3
X17.221 Y20 Z0.292
X17.263 Y19.993 Z0.285
X17.304 Y20.002 Z0.278
X17.339 Y20.025 Z0.271
X17.363 Y20.06 Z0.264
X17.373 Y20.101 Z0.257
X17.366 Y20.143 Z0.25
X17.345 Y20.179 Z0.243
X17.312 Y20.205 Z0.235
X17.271 Y20.217 Z0.228
X17.229 Y20.213 Z0.221
X17.192 Y20.195 Z0.214
X17.164 Y20.163 Z0.207
X17.149 Y20.123 Z0.2
X17.15 Y20.081 Z0.193
X17.167 Y20.042 Z0.185
X17.197 Y20.012 Z0.178
X17.235 Y19.996 Z0.171
X17.278 Y19.994 Z0.164
X17.317 Y20.008 Z0.157
X17.349 Y20.036 Z0.15
X17.368 Y20.074 Z0.143
X17.372 Y20.116 Z0.136
X17.36 Y20.156 Z0.128
X17.334 Y20.19 Z0.121
X17.298 Y20.211 Z0.114
X17.256 Y20.218 Z0.107
X17.215 Y20.208 Z0.1
X17.18 Y20.185 Z0.093
X17.157 Y20.15 Z0.086
X17.148 Y20.108 Z0.078
X17.155 Y20.067 Z0.071
X17.176 Y20.03 Z0.064
X17.21 Y20.005 Z0.057
X17.25 Y19.993 Z0.05
X17.292 Y19.997 Z0.043
X17.33 Y20.017 Z0.036
X17.358 Y20.049 Z0.029
X17.372 Y20.089 Z0.021
X17.37 Y20.131 Z0.014
X17.353 Y20.169 Z0.007
X17.322 Y20.199 Z0
G3 X17.198 Y20.012 I-0.062 J-0.094
X17.322 Y20.199 I0.062 J0.094
G1 X17.295 Y20.208
X17.266 Y20.203
X17.245 Y20.183
X17.26 Y20.105
G0 Z20
X4.5 Y12.762
Z7.182
G1 Z5.5 F500
X4.479 Y12.685
X4.5 Y12.664
X4.528 Y12.657
X4.556 Y12.664
X4.588 Y12.692 Z5.493
X4.608 Y12.729 Z5.486
X4.612 Y12.771 Z5.479
X4.601 Y12.812 Z5.471
X4.575 Y12.846 Z5.464
X4.539 Y12.867 Z5.457
X4.497 Y12.874 Z5.45
X4.456 Y12.865 Z5.443
X4.421 Y12.842 Z5.436
X4.397 Y12.807 Z5.429
X4.388 Y12.766 Z5.422
X4.394 Y12.724 Z5.414
X4.415 Y12.688 Z5.407
X4.449 Y12.662 Z5.4
X4.489 Y12.65 Z5.393
X4.531 Y12.654 Z5.386
X4.569 Y12.673 Z5.379
X4.597 Y12.704 Z5.372
X4.611 Y12.744 Z5.364
X4.61 Y12.786 Z5.357
X4.593 Y12.825 Z5.35
X4.563 Y12.855 Z5.343
X4.524 Y12.872 Z5.336
X4.482 Y12.873 Z5.329
X4.443 Y12.859 Z5.322
X4.411 Y12.831 Z5.315
X4.392 Y12.793 Z5.307
X4.388 Y12.751 Z5.3
X4.4 Y12.71 Z5.293
X4.426 Y12.677 Z5.286
X4.462 Y12.656 Z5.279
X4.504 Y12.649 Z5.272
X4.545 Y12.659 Z5.265
X4.58 Y12.683 Z5.257
X4.604 Y12.718 Z5.25
X4.612 Y12.759 Z5.243
X4.606 Y12.801 Z5.236
X4.584 Y12.837 Z5.229
X4.55 Y12.863 Z5.222
X4.509 Y12.874 Z5.215
X4.467 Y12.87 Z5.208
X4.43 Y12.85 Z5.2
X4.403 Y12.818 Z5.193
X4.389 Y12.778 Z5.186
X4.391 Y12.736 Z5.179
X4.408 Y12.697 Z5.172
X4.438 Y12.668 Z5.165
X4.477 Y12.652 Z5.158
X4.519 Y12.651 Z5.15
X4.559 Y12.666 Z5.143
X4.59 Y12.694 Z5.136
X4.609 Y12.732 Z5.129
X4.612 Y12.774 Z5.122
X4.599 Y12.815 Z5.115
X4.573 Y12.848 Z5.108
X4.536 Y12.868 Z5.101
X4.494 Y12.874 Z5.093
X4.453 Y12.864 Z5.086
X4.419 Y12.84 Z5.079
X4.396 Y12.804 Z5.072
X4.388 Y12.763 Z5.065
X4.395 Y12.721 Z5.058
X4.417 Y12.686 Z5.051
X4.451 Y12.66 Z5.043
X4.492 Y12.65 Z5.036
X4.534 Y12.655 Z5.029
X4.571 Y12.675 Z5.022
X4.598 Y12.707 Z5.015
X4.612 Y12.747 Z5.008
X4.609 Y12.789 Z5.001
X4.591 Y12.827 Z4.994
X4.561 Y12.857 Z4.986
X4.522 Y12.872 Z4.979
X4.479 Z4.972
X4.44 Y12.857 Z4.965
X4.409 Y12.828 Z4.958
X4.391 Y12.79 Z4.951
X4.388 Y12.748 Z4.944
X4.401 Y12.708 Z4.936
X4.428 Y12.675 Z4.929
X4.465 Y12.655 Z4.922
X4.507 Y12.65 Z4.915
X4.548 Y12.66 Z4.908
X4.582 Y12.685 Z4.901
X4.605 Y12.721 Z4.894
X4.613 Y12.762 Z4.887
X4.604 Y12.804 Z4.879
X4.582 Y12.839 Z4.872
X4.547 Y12.864 Z4.865
X4.507 Y12.874 Z4.858
X4.465 Y12.869 Z4.851
X4.428 Y12.848 Z4.844
X4.401 Y12.815 Z4.837
X4.388 Y12.775 Z4.829
X4.391 Y12.733 Z4.822
X4.41 Y12.695 Z4.815
X4.441 Y12.666 Z4.808
X4.48 Y12.651 Z4.801
X4.522 Y12.652 Z4.794
X4.561 Y12.667 Z4.787
X4.592 Y12.697 Z4.78
X4.609 Y12.735 Z4.772
X4.611 Y12.777 Z4.765
X4.598 Y12.817 Z4.758
X4.571 Y12.849 Z4.751
X4.533 Y12.869 Z4.744
X4.491 Y12.874 Z4.737
X4.451 Y12.863 Z4.73
X4.417 Y12.838 Z4.722
X4.395 Y12.802 Z4.715
X4.388 Y12.76 Z4.708
X4.396 Y12.719 Z4.701
X4.419 Y12.683 Z4.694
X4.454 Y12.659 Z4.687
X4.495 Y12.649 Z4.68
X4.537 Y12.655 Z4.673
X4.573 Y12.676 Z4.665
X4.6 Y12.71 Z4.658
X4.612 Y12.75 Z4.651
X4.608 Y12.792 Z4.644
X4.59 Y12.83 Z4.637
X4.558 Y12.858 Z4.63
X4.519 Y12.873 Z4.623
X4.476 Y12.872 Z4.615
X4.438 Y12.855 Z4.608
X4.407 Y12.826 Z4.601
X4.39 Y12.787 Z4.594
X4.389 Y12.745 Z4.587
X4.403 Y12.705 Z4.58
X4.431 Y12.673 Z4.573
X4.468 Y12.654 Z4.565
X4.51 Y12.65 Z4.558
X4.551 Y12.661 Z4.551
X4.584 Y12.687 Z4.544
X4.606 Y12.723 Z4.537
X4.612 Y12.765 Z4.53
X4.603 Y12.806 Z4.523
X4.58 Y12.841 Z4.516
X4.545 Y12.865 Z4.508
X4.504 Y12.874 Z4.501
X4.462 Y12.868 Z4.494
X4.426 Y12.846 Z4.487
X4.4 Y12.813 Z4.48
X4.388 Y12.772 Z4.473
X4.392 Y12.73 Z4.466
X4.411 Y12.693 Z4.458
X4.443 Y12.665 Z4.451
X4.483 Y12.651 Z4.444
X4.525 Y12.652 Z4.437
X4.564 Y12.669 Z4.43
X4.593 Y12.699 Z4.423
X4.61 Y12.738 Z4.416
X4.611 Y12.78 Z4.409
X4.596 Y12.82 Z4.401
X4.568 Y12.851 Z4.394
X4.531 Y12.87 Z4.387
X4.489 Y12.874 Z4.38
X4.448 Y12.862 Z4.373
X4.415 Y12.835 Z4.366
X4.394 Y12.799 Z4.359
X4.388 Y12.757 Z4.351
X4.397 Y12.716 Z4.344
X4.421 Y12.681 Z4.337
X4.457 Y12.658 Z4.33
X4.498 Y12.649 Z4.323
X4.539 Y12.656 Z4.316
X4.575 Y12.678 Z4.309
X4.601 Y12.712 Z4.302
X4.612 Y12.753 Z4.294
X4.608 Y12.795 Z4.287
X4.588 Y12.832 Z4.28
X4.556 Y12.86 Z4.273
X4.516 Y12.873 Z4.266
X4.474 Y12.871 Z4.259
X4.435 Y12.854 Z4.252
X4.406 Y12.823 Z4.244
X4.39 Y12.784 Z4.237
X4.389 Y12.742 Z4.23
X4.404 Y12.703 Z4.223
X4.433 Y12.672 Z4.216
X4.471 Y12.653 Z4.209
X4.513 Y12.65 Z4.202
X4.553 Y12.663 Z4.195
X4.586 Y12.689 Z4.187
X4.607 Y12.726 Z4.18
X4.612 Y12.768 Z4.173
X4.602 Y12.809 Z4.166
X4.578 Y12.843 Z4.159
X4.542 Y12.866 Z4.152
X4.501 Y12.874 Z4.145
X4.459 Y12.867 Z4.137
X4.423 Y12.844 Z4.13
X4.398 Y12.81 Z4.123
X4.388 Y12.769 Z4.116
X4.393 Y12.727 Z4.109
X4.413 Y12.69 Z4.102
X4.446 Y12.663 Z4.095
X4.486 Y12.65 Z4.088
X4.528 Y12.653 Z4.08
X4.566 Y12.671 Z4.073
X4.595 Y12.701 Z4.066
X4.611 Y12.741 Z4.059
Y12.783 Z4.052
X4.595 Y12.822 Z4.045
X4.566 Y12.853 Z4.038
X4.528 Y12.871 Z4.03
X4.486 Y12.873 Z4.023
X4.446 Y12.86 Z4.016
X4.413 Y12.833 Z4.009
X4.393 Y12.796 Z4.002
X4.388 Y12.754 Z3.995
X4.398 Y12.713 Z3.988
X4.423 Y12.679 Z3.981
X4.459 Y12.657 Z3.973
X4.501 Y12.649 Z3.966
X4.542 Y12.658 Z3.959
X4.578 Y12.68 Z3.952
X4.602 Y12.715 Z3.945
X4.612 Y12.756 Z3.938
X4.607 Y12.798 Z3.931
X4.586 Y12.834 Z3.923
X4.553 Y12.861 Z3.916
X4.513 Y12.874 Z3.909
X4.471 Y12.87 Z3.902
X4.433 Y12.852 Z3.895
X4.404 Y12.821 Z3.888
X4.389 Y12.782 Z3.881
X4.39 Y12.739 Z3.874
X4.406 Y12.7 Z3.866
X4.435 Y12.67 Z3.859
X4.474 Y12.652 Z3.852
X4.516 Y12.65 Z3.845
X4.556 Y12.664 Z3.838
X4.588 Y12.692 Z3.831
X4.608 Y12.729 Z3.824
X4.612 Y12.771 Z3.816
X4.601 Y12.812 Z3.809
X4.576 Y12.845 Z3.802
X4.539 Y12.867 Z3.795
X4.498 Y12.874 Z3.788
X4.457 Y12.866 Z3.781
X4.421 Y12.842 Z3.774
X4.397 Y12.808 Z3.767
X4.388 Y12.767 Z3.759
X4.394 Y12.725 Z3.752
X4.415 Y12.688 Z3.745
X4.448 Y12.662 Z3.738
X4.489 Y12.65 Z3.731
X4.531 Y12.654 Z3.724
X4.568 Y12.672 Z3.717
X4.596 Y12.704 Z3.709
X4.611 Y12.744 Z3.702
X4.61 Y12.786 Z3.695
X4.593 Y12.825 Z3.688
X4.564 Y12.855 Z3.681
X4.525 Y12.872 Z3.674
X4.483 Y12.873 Z3.667
X4.443 Y12.859 Z3.66
X4.411 Y12.831 Z3.652
X4.392 Y12.793 Z3.645
X4.388 Y12.751 Z3.638
X4.4 Y12.711 Z3.631
X4.426 Y12.677 Z3.624
X4.462 Y12.656 Z3.617
X4.504 Y12.649 Z3.61
X4.545 Y12.659 Z3.602
X4.58 Y12.682 Z3.595
X4.603 Y12.717 Z3.588
X4.612 Y12.759 Z3.581
X4.606 Y12.8 Z3.574
X4.584 Y12.837 Z3.567
X4.551 Y12.862 Z3.56
X4.51 Y12.874 Z3.553
X4.468 Y12.87 Z3.545
X4.431 Y12.85 Z3.538
X4.403 Y12.818 Z3.531
X4.389 Y12.779 Z3.524
X4.39 Y12.736 Z3.517
X4.407 Y12.698 Z3.51
X4.438 Y12.668 Z3.503
X4.476 Y12.652 Z3.495
X4.519 Y12.651 Z3.488
X4.558 Y12.666 Z3.481
X4.59 Y12.694 Z3.474
X4.608 Y12.732 Z3.467
X4.612 Y12.774 Z3.46
X4.6 Y12.814 Z3.453
X4.573 Y12.847 Z3.446
X4.537 Y12.868 Z3.438
X4.495 Y12.874 Z3.431
X4.454 Y12.864 Z3.424
X4.419 Y12.84 Z3.417
X4.396 Y12.805 Z3.41
X4.388 Y12.764 Z3.403
X4.395 Y12.722 Z3.396
X4.417 Y12.686 Z3.388
X4.451 Y12.661 Z3.381
X4.491 Y12.65 Z3.374
X4.533 Y12.654 Z3.367
X4.571 Y12.674 Z3.36
X4.598 Y12.706 Z3.353
X4.611 Y12.746 Z3.346
X4.609 Y12.789 Z3.339
X4.592 Y12.827 Z3.331
X4.561 Y12.856 Z3.324
X4.522 Y12.872 Z3.317
X4.48 Y12.873 Z3.31
X4.441 Y12.857 Z3.303
X4.41 Y12.829 Z3.296
X4.391 Y12.791 Z3.289
X4.388 Y12.749 Z3.281
X4.401 Y12.708 Z3.274
X4.428 Y12.676 Z3.267
X4.465 Y12.655 Z3.26
X4.507 Y12.65 Z3.253
X4.547 Y12.66 Z3.246
X4.582 Y12.684 Z3.239
X4.604 Y12.72 Z3.232
X4.613 Y12.762 Z3.224
X4.605 Y12.803 Z3.217
X4.582 Y12.839 Z3.21
X4.548 Y12.864 Z3.203
X4.507 Y12.874 Z3.196
X4.465 Y12.869 Z3.189
X4.428 Y12.848 Z3.182
X4.401 Y12.816 Z3.174
X4.388 Y12.776 Z3.167
X4.391 Y12.734 Z3.16
X4.409 Y12.695 Z3.153
X4.44 Y12.667 Z3.146
X4.479 Y12.651 Z3.139
X4.522 Z3.132
X4.561 Y12.667 Z3.125
X4.591 Y12.696 Z3.117
X4.609 Y12.734 Z3.11
X4.612 Y12.777 Z3.103
X4.598 Y12.817 Z3.096
X4.571 Y12.849 Z3.089
X4.534 Y12.869 Z3.082
X4.492 Y12.874 Z3.075
X4.451 Y12.863 Z3.067
X4.417 Y12.838 Z3.06
X4.395 Y12.802 Z3.053
X4.388 Y12.761 Z3.046
X4.396 Y12.719 Z3.039
X4.419 Y12.684 Z3.032
X4.453 Y12.659 Z3.025
X4.494 Y12.649 Z3.018
X4.536 Y12.655 Z3.01
X4.573 Y12.676 Z3.003
X4.599 Y12.709 Z2.996
X4.612 Y12.749 Z2.989
X4.609 Y12.791 Z2.982
X4.59 Y12.829 Z2.975
X4.559 Y12.858 Z2.968
X4.519 Y12.873 Z2.96
X4.477 Y12.872 Z2.953
X4.438 Y12.856 Z2.946
X4.408 Y12.826 Z2.939
X4.391 Y12.788 Z2.932
X4.389 Y12.746 Z2.925
X4.402 Y12.706 Z2.918
X4.43 Y12.674 Z2.911
X4.467 Y12.654 Z2.903
X4.509 Y12.65 Z2.896
X4.55 Y12.661 Z2.889
X4.584 Y12.687 Z2.882
X4.606 Y12.723 Z2.875
X4.612 Y12.764 Z2.868
X4.604 Y12.806 Z2.861
X4.58 Y12.841 Z2.853
X4.545 Y12.865 Z2.846
X4.504 Y12.874 Z2.839
X4.463 Y12.868 Z2.832
X4.426 Y12.847 Z2.825
X4.4 Y12.813 Z2.818
X4.388 Y12.773 Z2.811
X4.392 Y12.731 Z2.804
X4.411 Y12.693 Z2.796
X4.442 Y12.665 Z2.789
X4.482 Y12.651 Z2.782
X4.524 Y12.652 Z2.775
X4.563 Y12.669 Z2.768
X4.593 Y12.699 Z2.761
X4.61 Y12.737 Z2.754
X4.611 Y12.779 Z2.746
X4.597 Y12.819 Z2.739
X4.569 Y12.851 Z2.732
X4.531 Y12.87 Z2.725
X4.489 Y12.874 Z2.718
X4.449 Y12.862 Z2.711
X4.415 Y12.836 Z2.704
X4.394 Y12.8 Z2.696
X4.388 Y12.758 Z2.689
X4.397 Y12.717 Z2.682
X4.421 Y12.682 Z2.675
X4.456 Y12.658 Z2.668
X4.497 Y12.649 Z2.661
X4.539 Y12.656 Z2.654
X4.575 Y12.678 Z2.647
X4.601 Y12.712 Z2.639
X4.612 Y12.752 Z2.632
X4.608 Y12.794 Z2.625
X4.588 Y12.832 Z2.618
X4.556 Y12.859 Z2.611
X4.516 Y12.873 Z2.604
X4.474 Y12.871 Z2.597
X4.436 Y12.854 Z2.589
X4.406 Y12.824 Z2.582
X4.39 Y12.785 Z2.575
X4.389 Y12.743 Z2.568
X4.404 Y12.703 Z2.561
X4.432 Y12.672 Z2.554
X4.47 Y12.653 Z2.547
X4.512 Y12.65 Z2.54
X4.553 Y12.662 Z2.532
X4.586 Y12.689 Z2.525
X4.606 Y12.726 Z2.518
X4.612 Y12.767 Z2.511
X4.602 Y12.808 Z2.504
X4.578 Y12.843 Z2.497
X4.543 Y12.866 Z2.49
X4.501 Y12.874 Z2.482
X4.46 Y12.867 Z2.475
X4.424 Y12.845 Z2.468
X4.399 Y12.811 Z2.461
X4.388 Y12.77 Z2.454
X4.393 Y12.728 Z2.447
X4.413 Y12.691 Z2.44
X4.445 Y12.664 Z2.433
X4.485 Y12.65 Z2.425
X4.527 Y12.653 Z2.418
X4.566 Y12.67 Z2.411
X4.595 Y12.701 Z2.404
X4.61 Y12.74 Z2.397
X4.611 Y12.782 Z2.39
X4.595 Y12.822 Z2.383
X4.567 Y12.853 Z2.375
X4.528 Y12.871 Z2.368
X4.486 Y12.873 Z2.361
X4.446 Y12.861 Z2.354
X4.413 Y12.834 Z2.347
X4.393 Y12.797 Z2.34
X4.388 Y12.755 Z2.333
X4.398 Y12.714 Z2.326
X4.423 Y12.68 Z2.318
X4.459 Y12.657 Z2.311
X4.5 Y12.649 Z2.304
X4.542 Y12.657 Z2.297
X4.577 Y12.68 Z2.29
X4.602 Y12.714 Z2.283
X4.612 Y12.755 Z2.276
X4.607 Y12.797 Z2.268
X4.586 Y12.834 Z2.261
X4.554 Y12.861 Z2.254
X4.514 Y12.874 Z2.247
X4.471 Y12.871 Z2.24
X4.433 Y12.852 Z2.233
X4.405 Y12.821 Z2.226
X4.389 Y12.782 Z2.219
X4.39 Y12.74 Z2.211
X4.406 Y12.701 Z2.204
X4.435 Y12.67 Z2.197
X4.473 Y12.653 Z2.19
X4.515 Y12.65 Z2.183
X4.555 Y12.664 Z2.176
X4.587 Y12.691 Z2.169
X4.607 Y12.728 Z2.161
X4.612 Y12.77 Z2.154
X4.601 Y12.811 Z2.147
X4.576 Y12.845 Z2.14
X4.54 Y12.867 Z2.133
X4.498 Y12.874 Z2.126
X4.457 Y12.866 Z2.119
X4.422 Y12.843 Z2.112
X4.397 Y12.808 Z2.104
X4.388 Y12.767 Z2.097
X4.394 Y12.725 Z2.09
X4.415 Y12.689 Z2.083
X4.448 Y12.662 Z2.076
X4.488 Y12.65 Z2.069
X4.53 Y12.653 Z2.062
X4.568 Y12.672 Z2.054
X4.596 Y12.703 Z2.047
X4.611 Y12.743 Z2.04
X4.61 Y12.785 Z2.033
X4.594 Y12.824 Z2.026
X4.564 Y12.854 Z2.019
X4.526 Y12.871 Z2.012
X4.483 Y12.873 Z2.005
X4.444 Y12.859 Z1.997
X4.412 Y12.831 Z1.99
X4.392 Y12.794 Z1.983
X4.388 Y12.752 Z1.976
X4.399 Y12.711 Z1.969
X4.425 Y12.678 Z1.962
X4.461 Y12.656 Z1.955
X4.503 Y12.649 Z1.947
X4.544 Y12.658 Z1.94
X4.579 Y12.682 Z1.933
X4.603 Y12.717 Z1.926
X4.612 Y12.758 Z1.919
X4.606 Y12.8 Z1.912
X4.585 Y12.836 Z1.905
X4.551 Y12.862 Z1.898
X4.511 Y12.874 Z1.89
X4.469 Y12.87 Z1.883
X4.431 Y12.851 Z1.876
X4.403 Y12.819 Z1.869
X4.389 Y12.779 Z1.862
X4.39 Y12.737 Z1.855
X4.407 Y12.698 Z1.848
X4.437 Y12.669 Z1.84
X4.476 Y12.652 Z1.833
X4.518 Y12.651 Z1.826
X4.558 Y12.665 Z1.819
X4.589 Y12.693 Z1.812
X4.608 Y12.731 Z1.805
X4.612 Y12.773 Z1.798
X4.6 Y12.814 Z1.791
X4.574 Y12.847 Z1.783
X4.537 Y12.868 Z1.776
X4.496 Y12.874 Z1.769
X4.454 Y12.865 Z1.762
X4.42 Y12.841 Z1.755
X4.396 Y12.805 Z1.748
X4.388 Y12.764 Z1.741
X4.395 Y12.723 Z1.733
X4.416 Y12.686 Z1.726
X4.45 Y12.661 Z1.719
X4.491 Y12.65 Z1.712
X4.533 Y12.654 Z1.705
X4.57 Y12.674 Z1.698
X4.598 Y12.706 Z1.691
X4.611 Y12.746 Z1.684
X4.609 Y12.788 Z1.676
X4.592 Y12.826 Z1.669
X4.562 Y12.856 Z1.662
X4.523 Y12.872 Z1.655
X4.481 Y12.873 Z1.648
X4.441 Y12.858 Z1.641
X4.41 Y12.829 Z1.634
X4.391 Y12.791 Z1.626
X4.388 Y12.749 Z1.619
X4.401 Y12.709 Z1.612
X4.427 Y12.676 Z1.605
X4.464 Y12.655 Z1.598
X4.506 Y12.649 Z1.591
X4.547 Y12.66 Z1.584
X4.581 Y12.684 Z1.577
X4.604 Y12.719 Z1.569
X4.613 Y12.761 Z1.562
X4.605 Y12.802 Z1.555
X4.583 Y12.838 Z1.548
X4.549 Y12.863 Z1.541
X4.508 Y12.874 Z1.534
X4.466 Y12.869 Z1.527
X4.429 Y12.849 Z1.519
X4.402 Y12.816 Z1.512
X4.388 Y12.776 Z1.505
X4.391 Y12.734 Z1.498
X4.409 Y12.696 Z1.491
X4.439 Y12.667 Z1.484
X4.479 Y12.651 Z1.477
X4.521 Z1.47
X4.56 Y12.667 Z1.462
X4.591 Y12.696 Z1.455
X4.609 Y12.734 Z1.448
X4.612 Y12.776 Z1.441
X4.599 Y12.816 Z1.434
X4.572 Y12.849 Z1.427
X4.535 Y12.869 Z1.42
X4.493 Y12.874 Z1.412
X4.452 Y12.863 Z1.405
X4.418 Y12.839 Z1.398
X4.395 Y12.803 Z1.391
X4.388 Y12.761 Z1.384
X4.396 Y12.72 Z1.377
X4.418 Y12.684 Z1.37
X4.453 Y12.66 Z1.363
X4.494 Y12.65 Z1.355
X4.536 Y12.655 Z1.348
X4.572 Y12.676 Z1.341
X4.599 Y12.708 Z1.334
X4.612 Y12.749 Z1.327
X4.609 Y12.791 Z1.32
X4.59 Y12.829 Z1.313
X4.559 Y12.857 Z1.305
X4.52 Y12.873 Z1.298
X4.478 Y12.872 Z1.291
X4.439 Y12.856 Z1.284
X4.408 Y12.827 Z1.277
X4.391 Y12.788 Z1.27
X4.389 Y12.746 Z1.263
X4.402 Y12.706 Z1.256
X4.43 Y12.674 Z1.248
X4.467 Y12.654 Z1.241
X4.509 Y12.65 Z1.234
X4.55 Y12.661 Z1.227
X4.583 Y12.686 Z1.22
X4.605 Y12.722 Z1.213
X4.612 Y12.764 Z1.206
X4.604 Y12.805 Z1.198
X4.581 Y12.84 Z1.191
X4.546 Y12.865 Z1.184
X4.505 Y12.874 Z1.177
X4.463 Y12.868 Z1.17
X4.427 Y12.847 Z1.163
X4.4 Y12.814 Z1.156
X4.388 Y12.773 Z1.149
X4.392 Y12.731 Z1.141
X4.411 Y12.694 Z1.134
X4.442 Y12.665 Z1.127
X4.482 Y12.651 Z1.12
X4.524 Y12.652 Z1.113
X4.563 Y12.668 Z1.106
X4.593 Y12.698 Z1.099
X4.61 Y12.737 Z1.091
X4.611 Y12.779 Z1.084
X4.597 Y12.819 Z1.077
X4.569 Y12.85 Z1.07
X4.532 Y12.87 Z1.063
X4.49 Y12.874 Z1.056
X4.449 Y12.862 Z1.049
X4.416 Y12.836 Z1.042
X4.394 Y12.8 Z1.034
X4.388 Y12.758 Z1.027
X4.397 Y12.717 Z1.02
X4.42 Y12.682 Z1.013
X4.455 Y12.659 Z1.006
X4.497 Y12.649 Z0.999
X4.538 Y12.656 Z0.992
X4.575 Y12.678 Z0.984
X4.6 Y12.711 Z0.977
X4.612 Y12.752 Z0.97
X4.608 Y12.794 Z0.963
X4.589 Y12.831 Z0.956
X4.557 Y12.859 Z0.949
X4.517 Y12.873 Z0.942
X4.475 Y12.871 Z0.935
X4.436 Y12.854 Z0.927
X4.407 Y12.824 Z0.92
X4.39 Y12.786 Z0.913
X4.389 Y12.743 Z0.906
X4.404 Y12.704 Z0.899
X4.432 Y12.672 Z0.892
X4.47 Y12.654 Z0.885
X4.512 Y12.65 Z0.877
X4.552 Y12.662 Z0.87
X4.585 Y12.688 Z0.863
X4.606 Y12.725 Z0.856
X4.612 Y12.767 Z0.849
X4.603 Y12.808 Z0.842
X4.579 Y12.842 Z0.835
X4.543 Y12.866 Z0.827
X4.502 Y12.874 Z0.82
X4.46 Y12.867 Z0.813
X4.424 Y12.845 Z0.806
X4.399 Y12.811 Z0.799
X4.388 Y12.771 Z0.792
X4.393 Y12.729 Z0.785
X4.412 Y12.691 Z0.778
X4.444 Y12.664 Z0.77
X4.484 Y12.65 Z0.763
X4.527 Y12.653 Z0.756
X4.565 Y12.67 Z0.749
X4.594 Y12.7 Z0.742
X4.61 Y12.74 Z0.735
X4.611 Y12.782 Z0.728
X4.596 Y12.821 Z0.72
X4.567 Y12.852 Z0.713
X4.529 Y12.871 Z0.706
X4.487 Y12.874 Z0.699
X4.447 Y12.861 Z0.692
X4.414 Y12.834 Z0.685
X4.393 Y12.797 Z0.678
X4.388 Y12.755 Z0.671
X4.398 Y12.715 Z0.663
X4.423 Y12.68 Z0.656
X4.458 Y12.657 Z0.649
X4.5 Y12.649 Z0.642
X4.541 Y12.657 Z0.635
X4.577 Y12.68 Z0.628
X4.602 Y12.714 Z0.621
X4.612 Y12.754 Z0.613
X4.607 Y12.796 Z0.606
X4.587 Y12.833 Z0.599
X4.554 Y12.86 Z0.592
X4.514 Y12.873 Z0.585
X4.472 Y12.871 Z0.578
X4.434 Y12.853 Z0.571
X4.405 Y12.822 Z0.564
X4.389 Y12.783 Z0.556
X4.39 Y12.74 Z0.549
X4.405 Y12.701 Z0.542
X4.434 Y12.671 Z0.535
X4.472 Y12.653 Z0.528
X4.515 Y12.65 Z0.521
X4.555 Y12.664 Z0.514
X4.587 Y12.691 Z0.506
X4.607 Y12.728 Z0.499
X4.612 Y12.77 Z0.492
X4.601 Y12.81 Z0.485
X4.576 Y12.844 Z0.478
X4.541 Y12.867 Z0.471
X4.499 Y12.874 Z0.464
X4.458 Y12.866 Z0.457
X4.422 Y12.843 Z0.449
X4.398 Y12.809 Z0.442
X4.388 Y12.768 Z0.435
X4.393 Y12.726 Z0.428
X4.414 Y12.689 Z0.421
X4.447 Y12.663 Z0.414
X4.487 Y12.65 Z0.407
X4.529 Y12.653 Z0.399
X4.567 Y12.672 Z0.392
X4.596 Y12.703 Z0.385
X4.611 Y12.742 Z0.378
X4.61 Y12.785 Z0.371
X4.594 Y12.824 Z0.364
X4.565 Y12.854 Z0.357
X4.526 Y12.871 Z0.35
X4.484 Y12.873 Z0.342
X4.444 Y12.859 Z0.335
X4.412 Y12.832 Z0.328
X4.392 Y12.795 Z0.321
X4.388 Y12.753 Z0.314
X4.399 Y12.712 Z0.307
X4.425 Y12.678 Z0.3
X4.461 Y12.656 Z0.292
X4.502 Y12.649 Z0.285
X4.544 Y12.658 Z0.278
X4.579 Y12.682 Z0.271
X4.603 Y12.716 Z0.264
X4.612 Y12.757 Z0.257
X4.606 Y12.799 Z0.25
X4.585 Y12.836 Z0.243
X4.552 Y12.862 Z0.235
X4.511 Y12.874 Z0.228
X4.469 Y12.87 Z0.221
X4.431 Y12.851 Z0.214
X4.403 Y12.82 Z0.207
X4.389 Y12.78 Z0.2
X4.39 Y12.738 Z0.193
X4.407 Y12.699 Z0.185
X4.437 Y12.669 Z0.178
X4.475 Y12.652 Z0.171
X4.517 Y12.651 Z0.164
X4.557 Y12.665 Z0.157
X4.589 Y12.693 Z0.15
X4.608 Y12.73 Z0.143
X4.612 Y12.772 Z0.136
X4.6 Y12.813 Z0.128
X4.574 Y12.846 Z0.121
X4.538 Y12.868 Z0.114
X4.496 Y12.874 Z0.107
X4.455 Y12.865 Z0.1
X4.42 Y12.841 Z0.093
X4.397 Y12.806 Z0.086
X4.388 Y12.765 Z0.078
X4.394 Y12.723 Z0.071
X4.416 Y12.687 Z0.064
X4.45 Y12.661 Z0.057
X4.49 Y12.65 Z0.05
X4.532 Y12.654 Z0.043
X4.57 Y12.673 Z0.036
X4.597 Y12.705 Z0.029
X4.611 Y12.745 Z0.021
X4.61 Y12.787 Z0.014
X4.592 Y12.826 Z0.007
X4.562 Y12.856 Z0
G3 X4.438 Y12.668 I-0.062 J-0.094
X4.562 Y12.856 I0.062 J0.094
G1 X4.535 Y12.865
X4.506 Y12.859
X4.484 Y12.84
X4.5 Y12.762
G0 Z20
X17.24 Y5.383
Z7.182
G1 Z5.5 F500
X17.219 Y5.306
X17.24 Y5.285
X17.268 Y5.278
X17.296 Y5.285
X17.328 Y5.313 Z5.493
X17.347 Y5.35 Z5.486
X17.352 Y5.392 Z5.479
X17.34 Y5.433 Z5.471
X17.315 Y5.467 Z5.464
X17.279 Y5.488 Z5.457
X17.237 Y5.495 Z5.45
X17.196 Y5.486 Z5.443
X17.161 Y5.463 Z5.436
X17.137 Y5.428 Z5.429
X17.127 Y5.387 Z5.422
X17.134 Y5.345 Z5.414
X17.155 Y5.309 Z5.407
X17.188 Y5.283 Z5.4
X17.229 Y5.271 Z5.393
X17.271 Y5.275 Z5.386
X17.309 Y5.294 Z5.379
X17.337 Y5.325 Z5.372
X17.351 Y5.365 Z5.364
X17.35 Y5.407 Z5.357
X17.333 Y5.446 Z5.35
X17.303 Y5.476 Z5.343
X17.264 Y5.493 Z5.336
X17.222 Y5.494 Z5.329
X17.182 Y5.48 Z5.322
X17.151 Y5.452 Z5.315
X17.132 Y5.414 Z5.307
X17.128 Y5.372 Z5.3
X17.14 Y5.331 Z5.293
X17.166 Y5.298 Z5.286
X17.202 Y5.277 Z5.279
X17.244 Y5.27 Z5.272
X17.285 Y5.28 Z5.265
X17.32 Y5.304 Z5.257
X17.343 Y5.339 Z5.25
X17.352 Y5.38 Z5.243
X17.345 Y5.422 Z5.236
X17.323 Y5.458 Z5.229
X17.29 Y5.484 Z5.222
X17.249 Y5.495 Z5.215
X17.207 Y5.491 Z5.208
X17.17 Y5.471 Z5.2
X17.142 Y5.439 Z5.193
X17.128 Y5.399 Z5.186
X17.13 Y5.357 Z5.179
X17.148 Y5.318 Z5.172
X17.178 Y5.289 Z5.165
X17.217 Y5.273 Z5.158
X17.259 Y5.272 Z5.15
X17.299 Y5.287 Z5.143
X17.33 Y5.315 Z5.136
X17.348 Y5.353 Z5.129
X17.352 Y5.395 Z5.122
X17.339 Y5.436 Z5.115
X17.313 Y5.469 Z5.108
X17.276 Y5.489 Z5.101
X17.234 Y5.495 Z5.093
X17.193 Y5.485 Z5.086
X17.159 Y5.461 Z5.079
X17.136 Y5.425 Z5.072
X17.127 Y5.384 Z5.065
X17.135 Y5.342 Z5.058
X17.157 Y5.307 Z5.051
X17.191 Y5.282 Z5.043
X17.232 Y5.271 Z5.036
X17.274 Y5.276 Z5.029
X17.311 Y5.296 Z5.022
X17.338 Y5.328 Z5.015
X17.351 Y5.368 Z5.008
X17.349 Y5.41 Z5.001
X17.331 Y5.449 Z4.994
X17.3 Y5.478 Z4.986
X17.261 Y5.493 Z4.979
X17.219 Z4.972
X17.18 Y5.478 Z4.965
X17.149 Y5.449 Z4.958
X17.131 Y5.411 Z4.951
X17.128 Y5.369 Z4.944
X17.141 Y5.329 Z4.936
X17.168 Y5.296 Z4.929
X17.205 Y5.276 Z4.922
X17.247 Y5.271 Z4.915
X17.288 Y5.281 Z4.908
X17.322 Y5.306 Z4.901
X17.344 Y5.342 Z4.894
X17.352 Y5.383 Z4.887
X17.344 Y5.425 Z4.879
X17.321 Y5.46 Z4.872
X17.287 Y5.485 Z4.865
X17.246 Y5.495 Z4.858
X17.204 Y5.49 Z4.851
X17.168 Y5.469 Z4.844
X17.141 Y5.436 Z4.837
X17.128 Y5.396 Z4.829
X17.131 Y5.354 Z4.822
X17.149 Y5.316 Z4.815
X17.18 Y5.287 Z4.808
X17.22 Y5.272 Z4.801
X17.262 Y5.273 Z4.794
X17.301 Y5.288 Z4.787
X17.331 Y5.318 Z4.78
X17.349 Y5.356 Z4.772
X17.351 Y5.398 Z4.765
X17.338 Y5.438 Z4.758
X17.31 Y5.47 Z4.751
X17.273 Y5.49 Z4.744
X17.231 Y5.495 Z4.737
X17.19 Y5.484 Z4.73
X17.157 Y5.459 Z4.722
X17.135 Y5.423 Z4.715
X17.127 Y5.381 Z4.708
X17.136 Y5.34 Z4.701
X17.159 Y5.305 Z4.694
X17.194 Y5.28 Z4.687
X17.235 Y5.27 Z4.68
X17.276 Y5.277 Z4.673
X17.313 Y5.298 Z4.665
X17.339 Y5.331 Z4.658
X17.352 Y5.371 Z4.651
X17.348 Y5.413 Z4.644
X17.329 Y5.451 Z4.637
X17.298 Y5.479 Z4.63
X17.258 Y5.494 Z4.623
X17.216 Y5.493 Z4.615
X17.177 Y5.476 Z4.608
X17.147 Y5.447 Z4.601
X17.13 Y5.408 Z4.594
X17.129 Y5.366 Z4.587
X17.143 Y5.326 Z4.58
X17.17 Y5.294 Z4.573
X17.208 Y5.275 Z4.565
X17.25 Y5.271 Z4.558
X17.29 Y5.282 Z4.551
X17.324 Y5.308 Z4.544
X17.345 Y5.344 Z4.537
X17.352 Y5.386 Z4.53
X17.343 Y5.427 Z4.523
X17.319 Y5.462 Z4.516
X17.285 Y5.486 Z4.508
X17.243 Y5.495 Z4.501
X17.202 Y5.489 Z4.494
X17.165 Y5.467 Z4.487
X17.139 Y5.434 Z4.48
X17.128 Y5.393 Z4.473
X17.132 Y5.351 Z4.466
X17.151 Y5.314 Z4.458
X17.183 Y5.286 Z4.451
X17.223 Y5.272 Z4.444
X17.265 Y5.273 Z4.437
X17.303 Y5.29 Z4.43
X17.333 Y5.32 Z4.423
X17.35 Y5.359 Z4.416
X17.351 Y5.401 Z4.409
X17.336 Y5.441 Z4.401
X17.308 Y5.472 Z4.394
X17.27 Y5.491 Z4.387
X17.228 Y5.495 Z4.38
X17.188 Y5.483 Z4.373
X17.155 Y5.457 Z4.366
X17.134 Y5.42 Z4.359
X17.127 Y5.378 Z4.351
X17.137 Y5.337 Z4.344
X17.161 Y5.302 Z4.337
X17.196 Y5.279 Z4.33
X17.238 Y5.27 Z4.323
X17.279 Y5.278 Z4.316
X17.315 Y5.299 Z4.309
X17.341 Y5.333 Z4.302
X17.352 Y5.374 Z4.294
X17.347 Y5.416 Z4.287
X17.328 Y5.453 Z4.28
X17.296 Y5.481 Z4.273
X17.256 Y5.494 Z4.266
X17.213 Y5.492 Z4.259
X17.175 Y5.475 Z4.252
X17.146 Y5.444 Z4.244
X17.13 Y5.405 Z4.237
X17.129 Y5.363 Z4.23
X17.144 Y5.324 Z4.223
X17.173 Y5.293 Z4.216
X17.211 Y5.274 Z4.209
X17.253 Y5.271 Z4.202
X17.293 Y5.284 Z4.195
X17.326 Y5.31 Z4.187
X17.346 Y5.347 Z4.18
X17.352 Y5.389 Z4.173
X17.342 Y5.43 Z4.166
X17.317 Y5.464 Z4.159
X17.282 Y5.487 Z4.152
X17.24 Y5.495 Z4.145
X17.199 Y5.488 Z4.137
X17.163 Y5.465 Z4.13
X17.138 Y5.431 Z4.123
X17.128 Y5.39 Z4.116
X17.133 Y5.349 Z4.109
X17.153 Y5.311 Z4.102
X17.185 Y5.284 Z4.095
X17.225 Y5.271 Z4.088
X17.268 Y5.274 Z4.08
X17.306 Y5.292 Z4.073
X17.335 Y5.323 Z4.066
X17.35 Y5.362 Z4.059
Y5.404 Z4.052
X17.335 Y5.443 Z4.045
X17.306 Y5.474 Z4.038
X17.268 Y5.492 Z4.03
X17.225 Y5.494 Z4.023
X17.185 Y5.481 Z4.016
X17.153 Y5.454 Z4.009
X17.133 Y5.417 Z4.002
X17.128 Y5.375 Z3.995
X17.138 Y5.334 Z3.988
X17.163 Y5.3 Z3.981
X17.199 Y5.278 Z3.973
X17.24 Y5.27 Z3.966
X17.282 Y5.279 Z3.959
X17.317 Y5.301 Z3.952
X17.342 Y5.336 Z3.945
X17.352 Y5.377 Z3.938
X17.346 Y5.419 Z3.931
X17.326 Y5.455 Z3.923
X17.293 Y5.482 Z3.916
X17.253 Y5.495 Z3.909
X17.211 Y5.492 Z3.902
X17.173 Y5.473 Z3.895
X17.144 Y5.442 Z3.888
X17.129 Y5.403 Z3.881
X17.13 Y5.36 Z3.874
X17.146 Y5.321 Z3.866
X17.175 Y5.291 Z3.859
X17.213 Y5.274 Z3.852
X17.256 Y5.271 Z3.845
X17.295 Y5.285 Z3.838
X17.328 Y5.313 Z3.831
X17.347 Y5.35 Z3.824
X17.352 Y5.392 Z3.816
X17.341 Y5.433 Z3.809
X17.315 Y5.466 Z3.802
X17.279 Y5.488 Z3.795
X17.238 Y5.495 Z3.788
X17.196 Y5.487 Z3.781
X17.161 Y5.463 Z3.774
X17.137 Y5.429 Z3.767
X17.127 Y5.388 Z3.759
X17.134 Y5.346 Z3.752
X17.155 Y5.309 Z3.745
X17.188 Y5.283 Z3.738
X17.228 Y5.271 Z3.731
X17.27 Y5.275 Z3.724
X17.308 Y5.294 Z3.717
X17.336 Y5.325 Z3.709
X17.351 Y5.365 Z3.702
X17.35 Y5.407 Z3.695
X17.333 Y5.446 Z3.688
X17.303 Y5.476 Z3.681
X17.265 Y5.493 Z3.674
X17.223 Y5.494 Z3.667
X17.183 Y5.48 Z3.66
X17.151 Y5.452 Z3.652
X17.132 Y5.414 Z3.645
X17.128 Y5.372 Z3.638
X17.139 Y5.332 Z3.631
X17.165 Y5.299 Z3.624
X17.202 Y5.277 Z3.617
X17.243 Y5.27 Z3.61
X17.285 Y5.28 Z3.602
X17.319 Y5.303 Z3.595
X17.343 Y5.338 Z3.588
X17.352 Y5.38 Z3.581
X17.345 Y5.421 Z3.574
X17.324 Y5.458 Z3.567
X17.29 Y5.483 Z3.56
X17.25 Y5.495 Z3.553
X17.208 Y5.491 Z3.545
X17.17 Y5.471 Z3.538
X17.143 Y5.44 Z3.531
X17.129 Y5.4 Z3.524
X17.13 Y5.358 Z3.517
X17.147 Y5.319 Z3.51
X17.177 Y5.289 Z3.503
X17.216 Y5.273 Z3.495
X17.258 Y5.272 Z3.488
X17.298 Y5.287 Z3.481
X17.329 Y5.315 Z3.474
X17.348 Y5.353 Z3.467
X17.352 Y5.395 Z3.46
X17.339 Y5.435 Z3.453
X17.313 Y5.468 Z3.446
X17.276 Y5.489 Z3.438
X17.235 Y5.495 Z3.431
X17.194 Y5.485 Z3.424
X17.159 Y5.461 Z3.417
X17.136 Y5.426 Z3.41
X17.127 Y5.385 Z3.403
X17.135 Y5.343 Z3.396
X17.157 Y5.307 Z3.388
X17.19 Y5.282 Z3.381
X17.231 Y5.271 Z3.374
X17.273 Y5.275 Z3.367
X17.31 Y5.295 Z3.36
X17.338 Y5.327 Z3.353
X17.351 Y5.367 Z3.346
X17.349 Y5.41 Z3.339
X17.331 Y5.448 Z3.331
X17.301 Y5.477 Z3.324
X17.262 Y5.493 Z3.317
X17.22 Y5.494 Z3.31
X17.18 Y5.478 Z3.303
X17.149 Y5.45 Z3.296
X17.131 Y5.412 Z3.289
X17.128 Y5.37 Z3.281
X17.141 Y5.329 Z3.274
X17.168 Y5.297 Z3.267
X17.204 Y5.276 Z3.26
X17.246 Y5.271 Z3.253
X17.287 Y5.281 Z3.246
X17.321 Y5.306 Z3.239
X17.344 Y5.341 Z3.232
X17.352 Y5.383 Z3.224
X17.344 Y5.424 Z3.217
X17.322 Y5.46 Z3.21
X17.288 Y5.485 Z3.203
X17.247 Y5.495 Z3.196
X17.205 Y5.49 Z3.189
X17.168 Y5.47 Z3.182
X17.141 Y5.437 Z3.174
X17.128 Y5.397 Z3.167
X17.131 Y5.355 Z3.16
X17.149 Y5.317 Z3.153
X17.18 Y5.288 Z3.146
X17.219 Y5.272 Z3.139
X17.261 Z3.132
X17.3 Y5.288 Z3.125
X17.331 Y5.317 Z3.117
X17.349 Y5.355 Z3.11
X17.351 Y5.398 Z3.103
X17.338 Y5.438 Z3.096
X17.311 Y5.47 Z3.089
X17.274 Y5.49 Z3.082
X17.232 Y5.495 Z3.075
X17.191 Y5.484 Z3.067
X17.157 Y5.459 Z3.06
X17.135 Y5.423 Z3.053
X17.127 Y5.382 Z3.046
X17.136 Y5.34 Z3.039
X17.159 Y5.305 Z3.032
X17.193 Y5.281 Z3.025
X17.234 Y5.271 Z3.018
X17.276 Y5.276 Z3.01
X17.313 Y5.297 Z3.003
X17.339 Y5.33 Z2.996
X17.352 Y5.37 Z2.989
X17.348 Y5.412 Z2.982
X17.33 Y5.45 Z2.975
X17.299 Y5.479 Z2.968
X17.259 Y5.494 Z2.96
X17.217 Y5.493 Z2.953
X17.178 Y5.477 Z2.946
X17.148 Y5.447 Z2.939
X17.13 Y5.409 Z2.932
X17.128 Y5.367 Z2.925
X17.142 Y5.327 Z2.918
X17.17 Y5.295 Z2.911
X17.207 Y5.275 Z2.903
X17.249 Y5.271 Z2.896
X17.29 Y5.282 Z2.889
X17.323 Y5.308 Z2.882
X17.345 Y5.344 Z2.875
X17.352 Y5.385 Z2.868
X17.343 Y5.427 Z2.861
X17.32 Y5.462 Z2.853
X17.285 Y5.486 Z2.846
X17.244 Y5.495 Z2.839
X17.202 Y5.489 Z2.832
X17.166 Y5.468 Z2.825
X17.14 Y5.434 Z2.818
X17.128 Y5.394 Z2.811
X17.132 Y5.352 Z2.804
X17.151 Y5.314 Z2.796
X17.182 Y5.286 Z2.789
X17.222 Y5.272 Z2.782
X17.264 Y5.273 Z2.775
X17.303 Y5.29 Z2.768
X17.333 Y5.32 Z2.761
X17.35 Y5.358 Z2.754
X17.351 Y5.401 Z2.746
X17.337 Y5.44 Z2.739
X17.309 Y5.472 Z2.732
X17.271 Y5.491 Z2.725
X17.229 Y5.495 Z2.718
X17.188 Y5.483 Z2.711
X17.155 Y5.457 Z2.704
X17.134 Y5.421 Z2.696
X17.127 Y5.379 Z2.689
X17.137 Y5.338 Z2.682
X17.161 Y5.303 Z2.675
X17.196 Y5.279 Z2.668
X17.237 Y5.27 Z2.661
X17.279 Y5.277 Z2.654
X17.315 Y5.299 Z2.647
X17.34 Y5.333 Z2.639
X17.352 Y5.373 Z2.632
X17.347 Y5.415 Z2.625
X17.328 Y5.453 Z2.618
X17.296 Y5.48 Z2.611
X17.256 Y5.494 Z2.604
X17.214 Y5.492 Z2.597
X17.175 Y5.475 Z2.589
X17.146 Y5.445 Z2.582
X17.13 Y5.406 Z2.575
X17.129 Y5.364 Z2.568
X17.144 Y5.324 Z2.561
X17.172 Y5.293 Z2.554
X17.21 Y5.274 Z2.547
X17.252 Y5.271 Z2.54
X17.292 Y5.283 Z2.532
X17.325 Y5.31 Z2.525
X17.346 Y5.347 Z2.518
X17.352 Y5.388 Z2.511
X17.342 Y5.429 Z2.504
X17.318 Y5.464 Z2.497
X17.282 Y5.487 Z2.49
X17.241 Y5.495 Z2.482
X17.2 Y5.488 Z2.475
X17.164 Y5.466 Z2.468
X17.138 Y5.432 Z2.461
X17.128 Y5.391 Z2.454
X17.132 Y5.349 Z2.447
X17.152 Y5.312 Z2.44
X17.185 Y5.285 Z2.433
X17.225 Y5.271 Z2.425
X17.267 Y5.274 Z2.418
X17.305 Y5.291 Z2.411
X17.334 Y5.322 Z2.404
X17.35 Y5.361 Z2.397
Y5.403 Z2.39
X17.335 Y5.443 Z2.383
X17.306 Y5.474 Z2.375
X17.268 Y5.492 Z2.368
X17.226 Y5.495 Z2.361
X17.186 Y5.482 Z2.354
X17.153 Y5.455 Z2.347
X17.133 Y5.418 Z2.34
X17.127 Y5.376 Z2.333
X17.138 Y5.335 Z2.326
X17.163 Y5.301 Z2.318
X17.198 Y5.278 Z2.311
X17.24 Y5.27 Z2.304
X17.281 Y5.278 Z2.297
X17.317 Y5.301 Z2.29
X17.342 Y5.335 Z2.283
X17.352 Y5.376 Z2.276
X17.347 Y5.418 Z2.268
X17.326 Y5.455 Z2.261
X17.294 Y5.482 Z2.254
X17.253 Y5.495 Z2.247
X17.211 Y5.492 Z2.24
X17.173 Y5.473 Z2.233
X17.144 Y5.443 Z2.226
X17.129 Y5.403 Z2.219
Y5.361 Z2.211
X17.145 Y5.322 Z2.204
X17.174 Y5.291 Z2.197
X17.213 Y5.274 Z2.19
X17.255 Y5.271 Z2.183
X17.295 Y5.285 Z2.176
X17.327 Y5.312 Z2.169
X17.347 Y5.349 Z2.161
X17.352 Y5.391 Z2.154
X17.341 Y5.432 Z2.147
X17.316 Y5.466 Z2.14
X17.28 Y5.488 Z2.133
X17.238 Y5.495 Z2.126
X17.197 Y5.487 Z2.119
X17.162 Y5.464 Z2.112
X17.137 Y5.429 Z2.104
X17.127 Y5.388 Z2.097
X17.133 Y5.346 Z2.09
X17.154 Y5.31 Z2.083
X17.187 Y5.283 Z2.076
X17.228 Y5.271 Z2.069
X17.27 Y5.274 Z2.062
X17.308 Y5.293 Z2.054
X17.336 Y5.324 Z2.047
X17.351 Y5.364 Z2.04
X17.35 Y5.406 Z2.033
X17.333 Y5.445 Z2.026
X17.304 Y5.475 Z2.019
X17.265 Y5.492 Z2.012
X17.223 Y5.494 Z2.005
X17.183 Y5.48 Z1.997
X17.151 Y5.453 Z1.99
X17.132 Y5.415 Z1.983
X17.128 Y5.373 Z1.976
X17.139 Y5.332 Z1.969
X17.165 Y5.299 Z1.962
X17.201 Y5.277 Z1.955
X17.243 Y5.27 Z1.947
X17.284 Y5.279 Z1.94
X17.319 Y5.303 Z1.933
X17.343 Y5.338 Z1.926
X17.352 Y5.379 Z1.919
X17.346 Y5.421 Z1.912
X17.324 Y5.457 Z1.905
X17.291 Y5.483 Z1.898
X17.25 Y5.495 Z1.89
X17.208 Y5.491 Z1.883
X17.171 Y5.472 Z1.876
X17.143 Y5.44 Z1.869
X17.129 Y5.4 Z1.862
X17.13 Y5.358 Z1.855
X17.147 Y5.319 Z1.848
X17.177 Y5.29 Z1.84
X17.216 Y5.273 Z1.833
X17.258 Y5.272 Z1.826
X17.297 Y5.286 Z1.819
X17.329 Y5.314 Z1.812
X17.348 Y5.352 Z1.805
X17.352 Y5.394 Z1.798
X17.34 Y5.435 Z1.791
X17.314 Y5.468 Z1.783
X17.277 Y5.489 Z1.776
X17.235 Y5.495 Z1.769
X17.194 Y5.486 Z1.762
X17.159 Y5.462 Z1.755
X17.136 Y5.427 Z1.748
X17.127 Y5.385 Z1.741
X17.134 Y5.344 Z1.733
X17.156 Y5.308 Z1.726
X17.19 Y5.282 Z1.719
X17.231 Y5.271 Z1.712
X17.273 Y5.275 Z1.705
X17.31 Y5.295 Z1.698
X17.337 Y5.327 Z1.691
X17.351 Y5.367 Z1.684
X17.349 Y5.409 Z1.676
X17.332 Y5.448 Z1.669
X17.301 Y5.477 Z1.662
X17.262 Y5.493 Z1.655
X17.22 Y5.494 Z1.648
X17.181 Y5.479 Z1.641
X17.15 Y5.45 Z1.634
X17.131 Y5.412 Z1.626
X17.128 Y5.37 Z1.619
X17.141 Y5.33 Z1.612
X17.167 Y5.297 Z1.605
X17.204 Y5.276 Z1.598
X17.246 Y5.271 Z1.591
X17.287 Y5.281 Z1.584
X17.321 Y5.305 Z1.577
X17.344 Y5.341 Z1.569
X17.352 Y5.382 Z1.562
X17.345 Y5.423 Z1.555
X17.322 Y5.459 Z1.548
X17.288 Y5.484 Z1.541
X17.248 Y5.495 Z1.534
X17.206 Y5.49 Z1.527
X17.168 Y5.47 Z1.519
X17.141 Y5.438 Z1.512
X17.128 Y5.397 Z1.505
X17.131 Y5.355 Z1.498
X17.149 Y5.317 Z1.491
X17.179 Y5.288 Z1.484
X17.218 Y5.272 Z1.477
X17.261 Z1.47
X17.3 Y5.288 Z1.462
X17.331 Y5.317 Z1.455
X17.349 Y5.355 Z1.448
X17.351 Y5.397 Z1.441
X17.338 Y5.437 Z1.434
X17.311 Y5.47 Z1.427
X17.274 Y5.49 Z1.42
X17.232 Y5.495 Z1.412
X17.192 Y5.485 Z1.405
X17.157 Y5.46 Z1.398
X17.135 Y5.424 Z1.391
X17.127 Y5.382 Z1.384
X17.135 Y5.341 Z1.377
X17.158 Y5.305 Z1.37
X17.192 Y5.281 Z1.363
X17.233 Y5.271 Z1.355
X17.275 Y5.276 Z1.348
X17.312 Y5.297 Z1.341
X17.339 Y5.329 Z1.334
X17.351 Y5.37 Z1.327
X17.348 Y5.412 Z1.32
X17.33 Y5.45 Z1.313
X17.299 Y5.478 Z1.305
X17.26 Y5.494 Z1.298
X17.217 Y5.493 Z1.291
X17.178 Y5.477 Z1.284
X17.148 Y5.448 Z1.277
X17.13 Y5.409 Z1.27
X17.128 Y5.367 Z1.263
X17.142 Y5.327 Z1.256
X17.169 Y5.295 Z1.248
X17.207 Y5.275 Z1.241
X17.249 Y5.271 Z1.234
X17.289 Y5.282 Z1.227
X17.323 Y5.307 Z1.22
X17.345 Y5.343 Z1.213
X17.352 Y5.385 Z1.206
X17.344 Y5.426 Z1.198
X17.32 Y5.461 Z1.191
X17.286 Y5.486 Z1.184
X17.245 Y5.495 Z1.177
X17.203 Y5.489 Z1.17
X17.166 Y5.468 Z1.163
X17.14 Y5.435 Z1.156
X17.128 Y5.395 Z1.149
X17.131 Y5.352 Z1.141
X17.15 Y5.315 Z1.134
X17.182 Y5.287 Z1.127
X17.221 Y5.272 Z1.12
X17.264 Y5.273 Z1.113
X17.302 Y5.289 Z1.106
X17.332 Y5.319 Z1.099
X17.349 Y5.358 Z1.091
X17.351 Y5.4 Z1.084
X17.337 Y5.44 Z1.077
X17.309 Y5.471 Z1.07
X17.272 Y5.491 Z1.063
X17.23 Y5.495 Z1.056
X17.189 Y5.483 Z1.049
X17.156 Y5.457 Z1.042
X17.134 Y5.421 Z1.034
X17.127 Y5.379 Z1.027
X17.136 Y5.338 Z1.02
X17.16 Y5.303 Z1.013
X17.195 Y5.28 Z1.006
X17.236 Y5.27 Z0.999
X17.278 Y5.277 Z0.992
X17.314 Y5.299 Z0.984
X17.34 Y5.332 Z0.977
X17.352 Y5.373 Z0.97
X17.348 Y5.415 Z0.963
X17.328 Y5.452 Z0.956
X17.297 Y5.48 Z0.949
X17.257 Y5.494 Z0.942
X17.215 Y5.493 Z0.935
X17.176 Y5.476 Z0.927
X17.146 Y5.445 Z0.92
X17.13 Y5.407 Z0.913
X17.129 Y5.364 Z0.906
X17.143 Y5.325 Z0.899
X17.172 Y5.293 Z0.892
X17.209 Y5.275 Z0.885
X17.251 Y5.271 Z0.877
X17.292 Y5.283 Z0.87
X17.325 Y5.309 Z0.863
X17.346 Y5.346 Z0.856
X17.352 Y5.388 Z0.849
X17.342 Y5.429 Z0.842
X17.318 Y5.463 Z0.835
X17.283 Y5.487 Z0.827
X17.242 Y5.495 Z0.82
X17.2 Y5.488 Z0.813
X17.164 Y5.466 Z0.806
X17.139 Y5.432 Z0.799
X17.128 Y5.392 Z0.792
X17.132 Y5.35 Z0.785
X17.152 Y5.312 Z0.778
X17.184 Y5.285 Z0.77
X17.224 Y5.271 Z0.763
X17.266 Y5.274 Z0.756
X17.305 Y5.291 Z0.749
X17.334 Y5.321 Z0.742
X17.35 Y5.361 Z0.735
Y5.403 Z0.728
X17.335 Y5.442 Z0.72
X17.307 Y5.473 Z0.713
X17.269 Y5.492 Z0.706
X17.227 Y5.495 Z0.699
X17.186 Y5.482 Z0.692
X17.154 Y5.455 Z0.685
X17.133 Y5.418 Z0.678
X17.127 Y5.377 Z0.671
X17.138 Y5.336 Z0.663
X17.162 Y5.301 Z0.656
X17.198 Y5.278 Z0.649
X17.239 Y5.27 Z0.642
X17.281 Y5.278 Z0.635
X17.316 Y5.301 Z0.628
X17.341 Y5.335 Z0.621
X17.352 Y5.376 Z0.613
X17.347 Y5.417 Z0.606
X17.327 Y5.454 Z0.599
X17.294 Y5.481 Z0.592
X17.254 Y5.494 Z0.585
X17.212 Y5.492 Z0.578
X17.174 Y5.474 Z0.571
X17.145 Y5.443 Z0.564
X17.129 Y5.404 Z0.556
Y5.362 Z0.549
X17.145 Y5.322 Z0.542
X17.174 Y5.292 Z0.535
X17.212 Y5.274 Z0.528
X17.254 Y5.271 Z0.521
X17.294 Y5.285 Z0.514
X17.327 Y5.312 Z0.506
X17.347 Y5.349 Z0.499
X17.352 Y5.391 Z0.492
X17.341 Y5.431 Z0.485
X17.316 Y5.465 Z0.478
X17.28 Y5.488 Z0.471
X17.239 Y5.495 Z0.464
X17.197 Y5.487 Z0.457
X17.162 Y5.464 Z0.449
X17.137 Y5.43 Z0.442
X17.127 Y5.389 Z0.435
X17.133 Y5.347 Z0.428
X17.154 Y5.31 Z0.421
X17.187 Y5.284 Z0.414
X17.227 Y5.271 Z0.407
X17.269 Y5.274 Z0.399
X17.307 Y5.293 Z0.392
X17.336 Y5.324 Z0.385
X17.351 Y5.363 Z0.378
X17.35 Y5.406 Z0.371
X17.334 Y5.445 Z0.364
X17.304 Y5.475 Z0.357
X17.266 Y5.492 Z0.35
X17.224 Y5.494 Z0.342
X17.184 Y5.48 Z0.335
X17.152 Y5.453 Z0.328
X17.132 Y5.416 Z0.321
X17.128 Y5.374 Z0.314
X17.139 Y5.333 Z0.307
X17.164 Y5.299 Z0.3
X17.201 Y5.277 Z0.292
X17.242 Y5.27 Z0.285
X17.283 Y5.279 Z0.278
X17.319 Y5.303 Z0.271
X17.343 Y5.337 Z0.264
X17.352 Y5.378 Z0.257
X17.346 Y5.42 Z0.25
X17.325 Y5.457 Z0.243
X17.291 Y5.483 Z0.235
X17.251 Y5.495 Z0.228
X17.209 Y5.491 Z0.221
X17.171 Y5.472 Z0.214
X17.143 Y5.441 Z0.207
X17.129 Y5.401 Z0.2
X17.13 Y5.359 Z0.193
X17.147 Y5.32 Z0.185
X17.176 Y5.29 Z0.178
X17.215 Y5.273 Z0.171
X17.257 Y5.272 Z0.164
X17.297 Y5.286 Z0.157
X17.329 Y5.314 Z0.15
X17.348 Y5.352 Z0.143
X17.352 Y5.394 Z0.136
X17.34 Y5.434 Z0.128
X17.314 Y5.467 Z0.121
X17.278 Y5.489 Z0.114
X17.236 Y5.495 Z0.107
X17.195 Y5.486 Z0.1
X17.16 Y5.462 Z0.093
X17.136 Y5.427 Z0.086
X17.127 Y5.386 Z0.078
X17.134 Y5.344 Z0.071
X17.156 Y5.308 Z0.064
X17.189 Y5.282 Z0.057
X17.23 Y5.271 Z0.05
X17.272 Y5.275 Z0.043
X17.309 Y5.295 Z0.036
X17.337 Y5.326 Z0.029
X17.351 Y5.366 Z0.021
X17.349 Y5.408 Z0.014
X17.332 Y5.447 Z0.007
X17.302 Y5.477 Z0
G3 X17.178 Y5.289 I-0.062 J-0.094
X17.302 Y5.477 I0.062 J0.094
G1 X17.274 Y5.486
X17.246 Y5.48
X17.224 Y5.461
X17.24 Y5.383
G0 Z30
G28 G91 Z0
G90
G28 G91 X0 Y0
G90
M5
M30
