(chamfer1)
(T2 D=3 CR=0 TAPER=45deg - ZMIN=8 - chamfer mill)
G90 G94
G17
G21
G28 G91 Z0
G90

(2D Chamfer2 7)
T2
S15000 M3
G17 G90 G94
G54
G0 X22.085 Y46.464
Z30
G0 Z15
G1 Z12 F300
Z9
X22.032 Y46.76
G2 X20.968 Y52.74 I-0.532 J2.99 F500
X22.032 Y46.76 I0.532 J-2.99
G1 X22.085 Y46.464 F300
G0 Z20
X11.497 Y40.493
Z15
G1 Z12 F300
Z9
X11.25 Y40.663
G2 X6.25 Y44.114 I-2.5 J1.726 F500
X11.25 Y40.663 I2.5 J-1.726
G1 X11.497 Y40.493 F300
G0 Z20
X6.854 Y54.365
Z15
G1 Z12 F300
Z9
X7.024 Y54.611
G2 X10.476 Y59.611 I1.726 J2.5 F500
X7.024 Y54.611 I-1.726 J-2.5
G1 X6.854 Y54.365 F300
G0 Z30
X17.847 Y11.913
Z15
G1 Z12 F300
Z8
Y11.613
X24.895 F500
Y11.913 F300
G0 Z20
Y13.587
Z15
G1 Z12 F300
Z8
Y13.887
X17.847 F500
Y13.587 F300
G0 Z20
X11.302 Y17.366
Z15
G1 Z12 F300
Z8
X11.562 Y17.516
X8.038 Y23.62 F500
X7.778 Y23.47 F300
G0 Z20
X6.327 Y22.632
Z15
G1 Z12 F300
Z8
X6.068 Y22.482
X9.592 Y16.379 F500
X9.851 Y16.529 F300
G0 Z20
Y8.971
Z15
G1 Z12 F300
Z8
X9.592 Y9.121
X6.068 Y3.018 F500
X6.327 Y2.868 F300
G0 Z20
X7.778 Y2.03
Z15
G1 Z12 F300
Z8
X8.038 Y1.88
X11.562 Y7.984 F500
X11.302 Y8.134 F300
G0 Z30
G28 G91 Z0
G90
G28 G91 X0 Y0
G90
M5
M30
