(contour3)
(T6 D=3.175 CR=0 - ZMIN=1 - flat end mill)
G90 G94
G17
G21
G28 G91 Z0
G90

(2D Contour2 4)
T6
(18 Flat-45 degree helix)
S18000 M3
G17 G90 G94
G54
G0 X-4.049 Y52.093
Z30
G0 Z13
G1 Z7.317 F30
X-4.041 Y52.092 Z7.247 F600
X-4.018 Y52.089 Z7.18
X-3.98 Y52.083 Z7.12
X-3.931 Y52.075 Z7.069
X-3.871 Y52.066 Z7.031
X-3.805 Y52.055 Z7.008
X-3.735 Y52.044 Z7
X-0.787 Y51.584
G3 X-0.425 Y51.848 I0.049 J0.314
G2 X26.425 Y47.652 I13.425 J-2.098 F1000
X-0.425 Y51.848 I-13.425 J2.098
G3 X-0.689 Y52.211 I-0.314 J0.049 F600
G1 X-1.003 Y52.26
X-1.073 Y52.271 Z7.008
X-1.139 Y52.281 Z7.031
X-1.198 Y52.291 Z7.069
X-1.248 Y52.298 Z7.12
X-1.285 Y52.304 Z7.18
X-1.309 Y52.308 Z7.247
X-1.317 Y52.309 Z7.317
X-4.049 Y52.093 F1000
Z4.317 F30
X-4.041 Y52.092 Z4.247 F600
X-4.018 Y52.089 Z4.18
X-3.98 Y52.083 Z4.12
X-3.931 Y52.075 Z4.069
X-3.871 Y52.066 Z4.031
X-3.805 Y52.055 Z4.008
X-3.735 Y52.044 Z4
X-0.787 Y51.584
G3 X-0.425 Y51.848 I0.049 J0.314
G2 X26.425 Y47.652 I13.425 J-2.098 F1000
X-0.425 Y51.848 I-13.425 J2.098
G3 X-0.689 Y52.211 I-0.314 J0.049 F600
G1 X-1.003 Y52.26
X-1.073 Y52.271 Z4.008
X-1.139 Y52.281 Z4.031
X-1.198 Y52.291 Z4.069
X-1.248 Y52.298 Z4.12
X-1.285 Y52.304 Z4.18
X-1.309 Y52.308 Z4.247
X-1.317 Y52.309 Z4.317
X-4.049 Y52.093 F1000
Z1.317 F30
X-4.041 Y52.092 Z1.247 F600
X-4.018 Y52.089 Z1.18
X-3.98 Y52.083 Z1.12
X-3.931 Y52.075 Z1.069
X-3.871 Y52.066 Z1.031
X-3.805 Y52.055 Z1.008
X-3.735 Y52.044 Z1
X-0.787 Y51.584
G3 X-0.425 Y51.848 I0.049 J0.314
G2 X26.425 Y47.652 I13.425 J-2.098 F1000
X-0.425 Y51.848 I-13.425 J2.098
G3 X-0.689 Y52.211 I-0.314 J0.049 F600
G1 X-1.003 Y52.26
X-1.073 Y52.271 Z1.008
X-1.139 Y52.281 Z1.031
X-1.198 Y52.291 Z1.069
X-1.248 Y52.298 Z1.12
X-1.285 Y52.304 Z1.18
X-1.309 Y52.308 Z1.247
X-1.317 Y52.309 Z1.317
Z7.317
X-4.048 Y15.105 F1000
X-4.041 Y15.104 Z7.247 F600
X-4.017 Y15.101 Z7.18
X-3.98 Y15.095 Z7.12
X-3.93 Y15.087 Z7.069
X-3.871 Y15.078 Z7.031
X-3.805 Y15.067 Z7.008
X-3.735 Y15.056 Z7
X-0.786 Y14.593
G3 X-0.423 Y14.858 I0.049 J0.314
G2 X26.423 Y10.642 I13.423 J-2.108 F1000
X-0.423 Y14.858 I-13.423 J2.108
G3 X-0.687 Y15.221 I-0.314 J0.049 F600
G1 X-1.001 Y15.27
X-1.071 Y15.281 Z7.008
X-1.137 Y15.291 Z7.031
X-1.197 Y15.3 Z7.069
X-1.246 Y15.308 Z7.12
X-1.284 Y15.314 Z7.18
X-1.307 Y15.318 Z7.247
X-1.315 Y15.319 Z7.317
X-4.048 Y15.105 F1000
Z4.317 F30
X-4.041 Y15.104 Z4.247 F600
X-4.017 Y15.101 Z4.18
X-3.98 Y15.095 Z4.12
X-3.93 Y15.087 Z4.069
X-3.871 Y15.078 Z4.031
X-3.805 Y15.067 Z4.008
X-3.735 Y15.056 Z4
X-0.786 Y14.593
G3 X-0.423 Y14.858 I0.049 J0.314
G2 X26.423 Y10.642 I13.423 J-2.108 F1000
X-0.423 Y14.858 I-13.423 J2.108
G3 X-0.687 Y15.221 I-0.314 J0.049 F600
G1 X-1.001 Y15.27
X-1.071 Y15.281 Z4.008
X-1.137 Y15.291 Z4.031
X-1.197 Y15.3 Z4.069
X-1.246 Y15.308 Z4.12
X-1.284 Y15.314 Z4.18
X-1.307 Y15.318 Z4.247
X-1.315 Y15.319 Z4.317
X-4.048 Y15.105 F1000
Z1.317 F30
X-4.041 Y15.104 Z1.247 F600
X-4.017 Y15.101 Z1.18
X-3.98 Y15.095 Z1.12
X-3.93 Y15.087 Z1.069
X-3.871 Y15.078 Z1.031
X-3.805 Y15.067 Z1.008
X-3.735 Y15.056 Z1
X-0.786 Y14.593
G3 X-0.423 Y14.858 I0.049 J0.314
G2 X26.423 Y10.642 I13.423 J-2.108 F1000
X-0.423 Y14.858 I-13.423 J2.108
G3 X-0.687 Y15.221 I-0.314 J0.049 F600
G1 X-1.001 Y15.27
X-1.071 Y15.281 Z1.008
X-1.137 Y15.291 Z1.031
X-1.197 Y15.3 Z1.069
X-1.246 Y15.308 Z1.12
X-1.284 Y15.314 Z1.18
X-1.307 Y15.318 Z1.247
X-1.315 Y15.319 Z1.317
G0 Z30
G28 G91 Z0
G90
G28 G91 X0 Y0
G90
M5
M30
