(contour1)
(T6 D=3.175 CR=0 - ZMIN=7 - flat end mill)
G90 G94
G17
G21
G28 G91 Z0
G90

(2D Contour2 2)
T6
(18 Flat-45 degree helix)
S18000 M3
G17 G90 G94
G54
G0 X13 Y12.75
Z30
G0 Z11.5
G1 Z9.5 F1000
X12.986 Y12.756
X12.98 Y12.77
X12.986 Y12.784
X13 Y12.79
X17.847 Y12.75
X25.847
G0 Z20
X13
Z11.5
G1 Z9 F1000
X12.986 Y12.756
X12.98 Y12.77
X12.986 Y12.784
X13 Y12.79
X17.847 Y12.75
X25.847
G0 Z20
X13
Z11.5
G1 Z8.5 F1000
X12.986 Y12.756
X12.98 Y12.77
X12.986 Y12.784
X13 Y12.79
X17.847 Y12.75
X25.847
G0 Z20
X13
Z11.5
G1 Z8 F1000
X12.986 Y12.756
X12.98 Y12.77
X12.986 Y12.784
X13 Y12.79
X17.847 Y12.75
X25.847
G0 Z20
X13
Z11.5
G1 Z7.5 F1000
X12.986 Y12.756
X12.98 Y12.77
X12.986 Y12.784
X13 Y12.79
X17.847 Y12.75
X25.847
G0 Z20
X13
Z11.5
G1 Z7 F1000
X12.986 Y12.756
X12.98 Y12.77
X12.986 Y12.784
X13 Y12.79
X17.847 Y12.75
X25.847
G0 Z20
X13
Z11.5
G1 Z9.5 F1000
X13.012 Y12.759
X13.027 Y12.757
X13.037 Y12.745
X13.035 Y12.73
X10.577 Y8.553
X6.577 Y1.624
G0 Z20
X13 Y12.75
Z11.5
G1 Z9 F1000
X13.012 Y12.759
X13.027 Y12.757
X13.037 Y12.745
X13.035 Y12.73
X10.577 Y8.553
X6.577 Y1.624
G0 Z20
X13 Y12.75
Z11.5
G1 Z8.5 F1000
X13.012 Y12.759
X13.027 Y12.757
X13.037 Y12.745
X13.035 Y12.73
X10.577 Y8.553
X6.577 Y1.624
G0 Z20
X13 Y12.75
Z11.5
G1 Z8 F1000
X13.012 Y12.759
X13.027 Y12.757
X13.037 Y12.745
X13.035 Y12.73
X10.577 Y8.553
X6.577 Y1.624
G0 Z20
X13 Y12.75
Z11.5
G1 Z7.5 F1000
X13.012 Y12.759
X13.027 Y12.757
X13.037 Y12.745
X13.035 Y12.73
X10.577 Y8.553
X6.577 Y1.624
G0 Z20
X13 Y12.75
Z11.5
G1 Z7 F1000
X13.012 Y12.759
X13.027 Y12.757
X13.037 Y12.745
X13.035 Y12.73
X10.577 Y8.553
X6.577 Y1.624
G0 Z20
X13 Y12.75
Z11.5
G1 Z9.5 F1000
X13.002 Y12.735
X12.993 Y12.723
X12.977 Y12.721
X12.965 Y12.73
X10.577 Y16.947
X6.577 Y23.876
Z11.5 F600
X13 Y12.75 F1000
Z9
X13.002 Y12.735
X12.993 Y12.723
X12.977 Y12.721
X12.965 Y12.73
X10.577 Y16.947
X6.577 Y23.876
Z11.5 F600
X13 Y12.75 F1000
Z8.5
X13.002 Y12.735
X12.993 Y12.723
X12.977 Y12.721
X12.965 Y12.73
X10.577 Y16.947
X6.577 Y23.876
Z11.5 F600
X13 Y12.75 F1000
Z8
X13.002 Y12.735
X12.993 Y12.723
X12.977 Y12.721
X12.965 Y12.73
X10.577 Y16.947
X6.577 Y23.876
Z11.5 F600
X13 Y12.75 F1000
Z7.5
X13.002 Y12.735
X12.993 Y12.723
X12.977 Y12.721
X12.965 Y12.73
X10.577 Y16.947
X6.577 Y23.876
Z11.5 F600
X13 Y12.75 F1000
Z7
X13.002 Y12.735
X12.993 Y12.723
X12.977 Y12.721
X12.965 Y12.73
X10.577 Y16.947
X6.577 Y23.876
G0 Z30
G28 G91 Z0
G90
G28 G91 X0 Y0
G90
M5
M30
