(adap1)
(T6 D=3.175 CR=0 - ZMIN=0 - flat end mill)
G90 G94
G17
G21
G28 G91 Z0
G90

(2D Adaptive1)
T6
(18 Flat-45 degree helix)
S18000 M3
G17 G90 G94
G54
G0 X-224.352 Y63.929
Z30.1
G0 Z20.1
Z10.235
G1 Z9.917 F600
X-224.347 Y63.923 Z9.847
X-224.336 Y63.902 Z9.78
X-224.316 Y63.87 Z9.72
X-224.291 Y63.827 Z9.669
X-224.26 Y63.775 Z9.631
X-224.226 Y63.717 Z9.608
X-224.19 Y63.656 Z9.6
G3 X-223.143 Y62.258 I6.975 J4.13
G1 X-223.061 Y62.176 F1300
X-222.9 Y62.079
X-222.693 Y61.975
X-222.422 Y61.866
X-222.056 Y61.752
X-221.532 Y61.634
X-220.897 Y61.543
X-220.257 Y61.491
X-219.615 Y61.46
X-218.973 Y61.443
X-218.331 Y61.432
X-217.689 Y61.426
X-217.047 Y61.423
X-215.762 Y61.419
X-212.551 Y61.418
X-207.493
X-207.348 Y61.432
X-207.21 Y61.474
X-207.082 Y61.542
X-206.808 Y61.724
X-206.662 Y61.809
X-206.619 Y61.83
X-206.516 Y61.875
X-206.443 Y61.9
X-206.37 Y61.924
X-205.932 Y62.017
X-205.495 Y62.104
X-205.349 Y62.118
X-205.057 Y62.134
X-204.911 Y62.138
X-3.371 Y62.137
X-2.933 Y62.135
X-2.495 Y62.067
X-2.203 Y62.01
X-2.029 Y61.976
X-1.911 Y61.949
X-1.765 Y61.912
X-1.619 Y61.858
X-1.454 Y61.8
X-1.143 Y61.719
X-0.872 Y61.547
X-0.419 Y61.092
X-0.384 Y61.022
X-0.361 Y60.98
X-0.335 Y60.94
X-0.306 Y60.901
G3 X0.14 Y60.852 Z9.8 I0.248 J0.199 F800
G1 X0.185 Y60.895
X0.22 Y60.946
X0.244 Y61.003
X0.257 Y61.064
G3 X0.129 Y61.356 I-0.315 J0.036 F1300
G1 X-1.302 Y62.404
G3 X-1.604 Y62.444 I-0.188 J-0.256
G1 X-1.659 Y62.416 F600
X-1.708 Y62.378
X-1.749 Y62.331
X-1.78 Y62.277
G3 X-1.619 Y61.858 Z9.6 I0.29 J-0.129
G1 X-1.55 Y61.83 F1300
X-1.473 Y61.784
X-1.181 Y61.601
X-1.084 Y61.538
X-0.744 Y61.31
X-0.652 Y61.246
X-0.598 Y61.201
X-0.481 Y61.101
X-0.349 Y60.955
X-0.306 Y60.901
X-0.241 Y60.809
X-0.014 Y60.469
X0.146 Y60.226
X0.238 Y60.08
X0.278 Y60
X0.305 Y59.934
X0.361 Y59.788
X0.399 Y59.642
X0.424 Y59.529
X0.488 Y59.205
X0.515 Y59.059
X0.57 Y58.742
X0.582 Y58.622
X0.587 Y58.184
Y2.916
X0.582 Y2.478
X0.57 Y2.358
X0.566 Y2.333
X0.489 Y1.695
X0.453 Y1.376
X0.352 Y1.071
X0.163 Y0.812
X0.087 Y0.743
X0.044 Y0.701
X0.005 Y0.655
X-0.03 Y0.606
G3 X0.072 Y0.169 Z9.8 I0.27 J-0.167 F800
G1 X0.128 Y0.142
X0.188 Y0.126
X0.25 Y0.122
X0.311 Y0.13
G3 X0.54 Y0.335 I-0.071 J0.309 F1300
G1 X1.176 Y2.164
G3 X1.141 Y2.443 I-0.3 J0.104
G1 X1.102 Y2.491 F600
X1.054 Y2.531
X1 Y2.56
X0.941 Y2.579
G3 X0.566 Y2.333 Z9.6 I-0.064 J-0.311
G1 X0.515 Y2.041 F1300
X0.488 Y1.895
X0.424 Y1.571
X0.399 Y1.458
X0.361 Y1.312
X0.305 Y1.166
X0.278 Y1.1
X0.238 Y1.02
X0.132 Y0.853
X-0.046 Y0.583
X-0.241 Y0.291
X-0.306 Y0.199
X-0.349 Y0.145
X-0.481 Y-0.001
X-0.598 Y-0.101
X-0.652 Y-0.146
X-0.744 Y-0.21
X-1.084 Y-0.438
X-1.181 Y-0.501
X-1.473 Y-0.684
X-1.55 Y-0.73
X-1.619 Y-0.758
X-1.765 Y-0.812
X-1.911 Y-0.849
X-2.029 Y-0.876
X-2.349 Y-0.939
X-2.495 Y-0.967
X-2.933 Y-1.035
X-3.516 Y-1.038
X-204.911
X-205.057 Y-1.034
X-205.349 Y-1.018
X-205.495 Y-1.004
X-205.932 Y-0.917
X-206.37 Y-0.824
X-206.443 Y-0.8
X-206.516 Y-0.775
X-206.76 Y-0.692
X-207.219 Y-0.575
X-207.852 Y-0.467
X-208.491 Y-0.405
X-209.132 Y-0.368
X-209.774 Y-0.347
X-210.416 Y-0.335
X-211.058 Y-0.328
X-211.7 Y-0.324
X-212.343 Y-0.321
X-213.627 Y-0.319
X-218.122 Y-0.318
X-220.53
X-220.688 Y-0.288
X-220.984 Y-0.164
X-221.235 Y0.037
X-221.651 Y0.526
X-221.914 Y1.112
X-222.077 Y1.733
X-222.175 Y2.368
X-222.233 Y3.008
X-222.268 Y3.649
X-222.288 Y4.291
X-222.3 Y4.933
X-222.307 Y5.575
X-222.312 Y6.217
X-222.314 Y6.859
X-222.316 Y8.144
X-222.317 Y12.639
Y14.9
X-222.322 Y14.978
X-222.334 Y15.055
X-222.354 Y15.13
X-222.366 Y15.165
X-222.432 Y15.457
X-222.464 Y15.603
X-222.551 Y16.04
X-222.572 Y16.186
X-222.584 Y16.332
X-222.587 Y16.478
Y44.622
X-222.584 Y44.768
X-222.572 Y44.914
X-222.551 Y45.06
X-222.522 Y45.206
X-222.429 Y45.841
X-222.383 Y46.481
X-222.356 Y47.123
X-222.34 Y47.765
X-222.331 Y48.407
X-222.325 Y49.049
X-222.322 Y49.691
X-222.319 Y50.976
X-222.318 Y54.187
Y58.682
X-222.283 Y58.839
X-222.215 Y58.984
X-222.021 Y59.24
X-221.509 Y59.627
X-220.909 Y59.857
X-220.28 Y59.988
X-219.642 Y60.062
X-219.001 Y60.102
X-218.359 Y60.124
X-217.717 Y60.135
X-217.075 Y60.141
X-216.433 Y60.144
X-215.149 Y60.147
X-208.955 Y60.148
X-208.763 Y60.173
X-208.584 Y60.247
X-208.431 Y60.365
X-207.83 Y60.966
X-207.693 Y61.101
X-207.538 Y61.234
X-207.392 Y61.335
X-207.082 Y61.542
G3 X-207.253 Y62.117 I-0.185 J0.258 F800
G1 X-207.323 Y62.12 Z9.608
X-207.39 Y62.123 Z9.631
X-207.45 Y62.126 Z9.669
X-207.501 Y62.128 Z9.72
X-207.538 Y62.13 Z9.78
X-207.562 Y62.131 Z9.847
X-207.57 Z9.917
G0 Z20.1
X-223.099 Y44.273
Z10.235
G1 Z9.917 F600
X-223.093 Y44.279 Z9.847
X-223.078 Y44.297 Z9.78
X-223.052 Y44.325 Z9.72
X-223.019 Y44.362 Z9.669
X-222.978 Y44.407 Z9.631
X-222.934 Y44.457 Z9.608
X-222.886 Y44.51 Z9.6
G3 X-222.522 Y45.206 I-1.177 J1.058
G1 X-222.464 Y45.497 F1300
X-222.399 Y45.789
X-222.366 Y45.935
X-222.318 Y46.08
X-222.277 Y46.172
X-222.25 Y46.226
X-222.165 Y46.372
X-222.068 Y46.518
X-221.873 Y46.81
X-221.718 Y47.069
X-221.611 Y47.284
X-221.499 Y47.566
X-221.382 Y47.946
X-221.262 Y48.491
X-221.174 Y49.127
X-221.122 Y49.767
X-221.092 Y50.408
X-221.074 Y51.05
X-221.063 Y51.692
X-221.057 Y52.335
X-221.053 Y52.977
X-221.049 Y54.261
X-221.048 Y56.83
X-220.998 Y57.147
X-220.86 Y57.437
X-220.463 Y57.942
X-219.922 Y58.288
X-219.32 Y58.513
X-218.694 Y58.655
X-218.058 Y58.743
X-217.418 Y58.797
X-216.777 Y58.829
X-216.135 Y58.849
X-215.493 Y58.86
X-214.851 Y58.867
X-214.208 Y58.872
X-213.566 Y58.874
X-212.282 Y58.876
X-210.355 Y58.877
X-210.22 Y58.878
X-210.03 Y58.904
X-209.853 Y58.978
X-209.7 Y59.095
X-208.431 Y60.365
G3 X-208.711 Y60.895 I-0.232 J0.217 F800
G1 X-208.781 Y60.884 Z9.608
X-208.847 Y60.874 Z9.631
X-208.907 Y60.865 Z9.669
X-208.957 Y60.857 Z9.72
X-208.994 Y60.851 Z9.78
X-209.017 Y60.848 Z9.847
X-209.025 Y60.847 Z9.917
G0 Z20.1
X-222.763 Y46.17
Z10.235
G1 Z9.917 F600
X-222.755 Y46.173 Z9.847
X-222.734 Y46.183 Z9.78
X-222.7 Y46.199 Z9.72
X-222.655 Y46.221 Z9.669
X-222.6 Y46.247 Z9.631
X-222.54 Y46.276 Z9.608
X-222.476 Y46.306 Z9.6
G3 X-221.873 Y46.81 I-0.681 J1.429
G1 X-221.776 Y46.955 F1300
X-221.67 Y47.101
X-221.544 Y47.247
X-221.402 Y47.393
X-220.884 Y47.911
X-220.783 Y48.022
X-220.677 Y48.161
X-220.561 Y48.341
X-220.442 Y48.562
X-220.319 Y48.845
X-220.192 Y49.214
X-220.061 Y49.721
X-219.952 Y50.353
X-219.885 Y50.992
X-219.844 Y51.633
X-219.818 Y52.275
X-219.802 Y52.917
X-219.793 Y53.559
X-219.787 Y54.201
X-219.783 Y54.843
X-219.781 Y55.485
X-219.699 Y55.796
X-219.55 Y56.08
X-219.151 Y56.583
X-218.617 Y56.939
X-218.021 Y57.179
X-217.398 Y57.336
X-216.764 Y57.437
X-216.125 Y57.501
X-215.484 Y57.541
X-214.843 Y57.567
X-214.201 Y57.582
X-213.559 Y57.592
X-212.916 Y57.598
X-212.274 Y57.602
X-211.492 Y57.605
X-211.302 Y57.631
X-211.125 Y57.705
X-210.973 Y57.822
X-209.7 Y59.095
X-209.617 Y59.351 Z9.708 F800
X-209.726 Y59.553 Z9.8
X-209.727
X-209.961 Y59.634
X-213.521 Y60.863 F1300
X-216.586 Y60.782
X-218.775 Y60.397
X-220.088 Y59.893
X-221.256 Y59.089
X-222.277 Y57.931
G3 X-222.569 Y57.455 I1.973 J-1.535
G1 X-223.011 Y56.143
X-223.544 Y49.143
G3 X-221.528 Y47.547 I1.581 J-0.075
G1 X-221.41 Y47.585 F600
X-221.296 Y47.633
G3 X-220.884 Y47.911 Z9.6 I-0.668 J1.435
G1 X-219.652 Y49.143 F1300
X-219.551 Y49.254
X-219.438 Y49.405
X-219.313 Y49.601
X-219.19 Y49.833
X-219.059 Y50.14
X-218.927 Y50.53
X-218.791 Y51.072
X-218.686 Y51.706
X-218.62 Y52.344
X-218.578 Y52.985
X-218.552 Y53.627
X-218.536 Y54.269
X-218.42 Y54.568
X-218.079 Y55.112
X-217.58 Y55.517
X-217.003 Y55.798
X-216.389 Y55.988
X-215.759 Y56.113
X-215.122 Y56.194
X-214.482 Y56.247
X-213.841 Y56.28
X-213.199 Y56.301
X-212.777 Y56.31
X-212.59 Y56.338
X-212.417 Y56.412
X-212.268 Y56.527
X-210.973 Y57.822
X-210.937 Y57.869 Z9.624 F800
X-210.91 Y57.922 Z9.648
X-210.894 Y57.979 Z9.672
X-210.888 Y58.038 Z9.696
X-211.015 Y58.265 Z9.8
X-211.04 Y58.31
X-211.228 Y58.37
X-214.293 Y59.351 F1300
G3 X-215.418 Y59.497 I-0.876 J-2.342
G1 X-217.316 Y59.128
X-218.483 Y58.742
X-218.73 Y58.622
G3 X-219.04 Y58.477 I0.899 J-2.333
G1 X-220.088 Y57.738
X-220.964 Y56.713
X-221.11 Y56.487
G3 X-221.401 Y55.997 I1.99 J-1.514
G1 X-221.667 Y54.83
X-222.285 Y50.601
G3 X-220.296 Y48.779 I1.554 J-0.301
G1 X-220.178 Y48.817 F600
X-220.064 Y48.865
G3 X-219.797 Y49.023 Z9.675 I-0.668 J1.435
G1 X-219.652 Y49.143 Z9.6
X-218.486 Y50.309 F1300
X-218.306 Y50.508
X-218.194 Y50.654
X-218.071 Y50.844
X-217.944 Y51.08
X-217.813 Y51.378
X-217.678 Y51.765
X-217.541 Y52.297
X-217.43 Y52.929
X-217.31 Y53.227
X-216.97 Y53.772
X-216.479 Y54.186
X-215.908 Y54.48
X-215.298 Y54.681
X-214.67 Y54.815
X-214.114 Y54.893
X-213.959 Y54.932
X-213.817 Y55.003
X-213.692 Y55.103
G3 X-213.39 Y55.498 Z9.8 I-1.881 J1.754 F800
G1 X-213.327 Y55.605
X-213.269 Y55.715
G3 X-217.454 Y58.611 I-2.304 J1.142 F1300
X-219.139 Y50.469 I5.851 J-5.456
G1 X-219.119 Y50.423
X-219.087 Y50.37 F600
X-219.048 Y50.323
X-219.001 Y50.282
X-218.949 Y50.248
G3 X-218.486 Y50.309 Z9.6 I0.189 J0.355
G1 X-212.268 Y56.527 F1300
G3 X-212.549 Y57.057 I-0.232 J0.217 F800
G1 X-212.618 Y57.047 Z9.608
X-212.685 Y57.036 Z9.631
X-212.744 Y57.027 Z9.669
X-212.794 Y57.02 Z9.72
X-212.831 Y57.014 Z9.78
X-212.855 Y57.01 Z9.847
X-212.862 Y57.009 Z9.917
G0 Z20.1
X-205.735 Y-1.543
Z10.235
G1 Z9.917 F600
X-205.739 Y-1.537 Z9.847
X-205.753 Y-1.518 Z9.78
X-205.775 Y-1.487 Z9.72
X-205.804 Y-1.446 Z9.669
X-205.838 Y-1.397 Z9.631
X-205.877 Y-1.342 Z9.608
X-205.918 Y-1.284 Z9.6
G3 X-206.516 Y-0.775 I-1.292 J-0.913
G1 X-206.618 Y-0.73 F1300
X-206.662 Y-0.709
X-206.808 Y-0.624
X-207.392 Y-0.235
X-207.538 Y-0.134
X-207.684 Y-0.009
X-207.812 Y0.091
X-207.971 Y0.196
X-208.172 Y0.306
X-208.432 Y0.422
X-208.769 Y0.542
X-209.235 Y0.666
X-209.867 Y0.78
X-210.505 Y0.849
X-211.146 Y0.89
X-211.788 Y0.915
X-212.43 Y0.93
X-213.072 Y0.939
X-213.714 Y0.944
X-214.356 Y0.947
X-215.64 Y0.951
X-218.851 Y0.952
X-219.169 Y0.999
X-219.465 Y1.124
X-219.99 Y1.493
X-220.362 Y2.017
X-220.612 Y2.608
X-220.774 Y3.23
X-220.877 Y3.864
X-220.942 Y4.503
X-220.982 Y5.143
X-221.007 Y5.785
X-221.023 Y6.427
X-221.033 Y7.069
X-221.038 Y7.711
X-221.042 Y8.354
X-221.045 Y9.638
X-221.047 Y12.207
Y13.046
X-221.073 Y13.237
X-221.147 Y13.416
X-221.264 Y13.569
X-221.402 Y13.707
X-221.548 Y13.857
X-221.67 Y13.999
X-221.776 Y14.145
X-222.132 Y14.677
X-222.165 Y14.728
X-222.25 Y14.874
X-222.277 Y14.928
X-222.318 Y15.02
X-222.354 Y15.13
G3 X-222.954 Y15.12 I-0.298 J-0.109 F800
G1 X-222.976 Y15.053 Z9.608
X-222.997 Y14.989 Z9.631
X-223.016 Y14.932 Z9.669
X-223.031 Y14.884 Z9.72
X-223.043 Y14.848 Z9.78
X-223.05 Y14.826 Z9.847
X-223.053 Y14.818 Z9.917
G0 Z20.1
X-207.157 Y-0.969
Z10.235
G1 Z9.917 F600
X-207.159 Y-0.962 Z9.847
X-207.167 Y-0.94 Z9.78
X-207.179 Y-0.904 Z9.72
X-207.195 Y-0.856 Z9.669
X-207.214 Y-0.799 Z9.631
X-207.235 Y-0.735 Z9.608
X-207.258 Y-0.668 Z9.6
G3 X-207.684 Y-0.009 I-1.501 J-0.502
G1 X-207.693 Y-0.001 F1300
X-207.84 Y0.145
X-208.715 Y1.02
X-208.898 Y1.185
X-209.045 Y1.298
X-209.231 Y1.418
X-209.454 Y1.539
X-209.748 Y1.668
X-210.12 Y1.797
X-210.633 Y1.93
X-211.265 Y2.04
X-211.904 Y2.109
X-212.544 Y2.152
X-213.186 Y2.178
X-213.828 Y2.195
X-214.47 Y2.205
X-215.112 Y2.212
X-215.755 Y2.216
X-217.039 Y2.22
X-217.681 Y2.221
X-217.986 Y2.322
X-218.541 Y2.644
X-218.954 Y3.136
X-219.24 Y3.711
X-219.431 Y4.324
X-219.556 Y4.954
X-219.637 Y5.591
X-219.689 Y6.231
X-219.722 Y6.873
X-219.742 Y7.515
X-219.756 Y8.157
X-219.764 Y8.799
X-219.769 Y9.441
X-219.772 Y10.083
X-219.775 Y11.368
X-219.776 Y11.775
X-219.801 Y11.966
X-219.875 Y12.145
X-219.993 Y12.298
X-221.264 Y13.569
X-221.548 Y13.648 Z9.718 F800
X-221.695 Y13.506 Z9.8
X-221.789 Y13.415
X-221.814 Y13.3
X-223.046 Y7.728 F1300
X-222.802 Y4.228
X-222.243 Y2.333
X-221.468 Y1.02
X-220.661 Y0.145
X-219.545 Y-0.584
X-218.337 Y-0.999
X-210.019 Y-1.635
G3 X-208.351 Y0.376 I0.146 J1.576
G1 X-208.39 Y0.494 F600
X-208.438 Y0.609
G3 X-208.705 Y1.009 Z9.606 I-1.435 J-0.668
G1 X-208.715 Y1.02 Z9.6
X-210.019 Y2.323 F1300
X-210.134 Y2.428
X-210.281 Y2.541
X-210.473 Y2.665
X-210.705 Y2.79
X-211.004 Y2.922
X-211.388 Y3.055
X-211.916 Y3.191
X-212.549 Y3.302
X-213.187 Y3.372
X-213.828 Y3.416
X-214.469 Y3.444
X-215.111 Y3.462
X-215.753 Y3.473
X-216.395 Y3.48
X-216.698 Y3.587
X-217.25 Y3.916
X-217.661 Y4.409
X-217.948 Y4.984
X-218.142 Y5.596
X-218.271 Y6.225
X-218.355 Y6.861
X-218.41 Y7.501
X-218.445 Y8.142
X-218.468 Y8.784
X-218.482 Y9.426
X-218.492 Y10.068
X-218.496 Y10.5
X-218.522 Y10.69
X-218.596 Y10.866
X-218.712 Y11.018
X-219.993 Y12.298
X-220.234 Y12.382 Z9.703 F800
X-220.445 Y12.262 Z9.8
X-220.469 Y12.249
X-220.544 Y12.041
X-221.724 Y8.749 F1300
X-221.645 Y6.416
X-221.256 Y4.501
X-220.672 Y3.027
X-219.942 Y2.015
X-219.651 Y1.695
G3 X-219.372 Y1.42 I1.892 J1.634
G1 X-218.191 Y0.647
X-217.024 Y0.263
X-211.332 Y-0.331
G3 X-209.655 Y1.679 I0.156 J1.575
G1 X-209.693 Y1.797 F600
X-209.741 Y1.912
G3 X-209.905 Y2.187 Z9.671 I-1.435 J-0.668
G1 X-210.019 Y2.323 Z9.6
X-211.27 Y3.575 F1300
X-211.394 Y3.687
X-211.542 Y3.801
X-211.735 Y3.926
X-211.969 Y4.052
X-212.271 Y4.185
X-212.659 Y4.319
X-213.193 Y4.457
X-213.825 Y4.568
X-214.463 Y4.638
X-215.104 Y4.683
X-215.404 Y4.796
X-215.952 Y5.131
X-216.365 Y5.623
X-216.656 Y6.195
X-216.855 Y6.806
X-216.988 Y7.434
X-217.075 Y8.071
X-217.133 Y8.71
X-217.161 Y9.201
X-217.193 Y9.377
X-217.266 Y9.541
X-217.377 Y9.682
G3 X-217.825 Y9.666 Z9.8 I-0.217 J-0.232 F800
G1 X-217.862 Y9.619
X-217.889 Y9.566
X-217.905 Y9.509
X-217.911 Y9.45
X-217.915 Y9.441
X-219.359 Y6.42 F1300
G3 X-219.193 Y4.52 I1.8 J-0.8
G1 X-218.51 Y3.499
G3 X-217.462 Y2.664 I1.679 J1.031
G1 X-213 Y1.02
G3 X-210.894 Y2.886 I0.572 J1.475
G1 X-210.912 Y2.92
X-211.031 Y3.137 F600
X-211.27 Y3.575 Z9.6
X-212.5 Y4.804 F1300
X-212.663 Y4.952
X-212.811 Y5.066
X-213.004 Y5.191
X-213.24 Y5.318
X-213.828 Y5.576
X-214.399 Y5.87
X-214.863 Y6.313
X-215.21 Y6.854
X-215.456 Y7.447
X-215.522 Y7.69
X-215.566 Y7.81
X-215.631 Y7.92
X-215.713 Y8.018
G3 X-216.161 Y8.002 Z9.8 I-0.217 J-0.232 F800
G1 X-216.199 Y7.953
X-216.226 Y7.897
X-216.243 Y7.838
X-216.247 Y7.776
X-216.239 Y7.716 F1300
X-216.221 Y7.66
X-216.192 Y7.607
X-216.154 Y7.561
X-212.956 Y4.363
X-212.91 Y4.325
X-212.858 Y4.297
X-212.801 Y4.278
X-212.742 Y4.271
X-212.68 Y4.275 F600
X-212.62 Y4.291
X-212.564 Y4.318
X-212.515 Y4.356
G3 X-212.5 Y4.804 Z9.6 I-0.217 J0.232
G1 X-218.712 Y11.018 F1300
G3 X-219.139 Y11.023 I-0.217 J-0.232 F800
G1 X-219.17 Y10.978 Z9.605
X-219.199 Y10.935 Z9.619
X-219.227 Y10.894 Z9.642
X-219.235 Y10.852 Z9.672
X-219.241 Y10.816 Z9.708
X-219.247 Y10.785 Z9.749
X-219.244 Y10.759 Z9.802
X-219.243 Y10.743 Z9.859
Y10.737 Z9.917
G0 Z20.1
X-224.352 Y63.929
Z9.735
G1 Z9.417 F600
X-224.347 Y63.923 Z9.347
X-224.336 Y63.902 Z9.28
X-224.316 Y63.87 Z9.22
X-224.291 Y63.827 Z9.169
X-224.26 Y63.775 Z9.131
X-224.226 Y63.717 Z9.108
X-224.19 Y63.656 Z9.1
G3 X-223.143 Y62.258 I6.975 J4.13
G1 X-223.061 Y62.176 F1300
X-222.9 Y62.079
X-222.693 Y61.975
X-222.422 Y61.866
X-222.056 Y61.752
X-221.532 Y61.634
X-220.897 Y61.543
X-220.257 Y61.491
X-219.615 Y61.46
X-218.973 Y61.443
X-218.331 Y61.432
X-217.689 Y61.426
X-217.047 Y61.423
X-215.762 Y61.419
X-212.551 Y61.418
X-207.493
X-207.348 Y61.432
X-207.21 Y61.474
X-207.082 Y61.542
X-206.808 Y61.724
X-206.662 Y61.809
X-206.619 Y61.83
X-206.516 Y61.875
X-206.443 Y61.9
X-206.37 Y61.924
X-205.932 Y62.017
X-205.495 Y62.104
X-205.349 Y62.118
X-205.057 Y62.134
X-204.911 Y62.138
X-3.371 Y62.137
X-2.933 Y62.135
X-2.495 Y62.067
X-2.203 Y62.01
X-2.029 Y61.976
X-1.911 Y61.949
X-1.765 Y61.912
X-1.619 Y61.858
X-1.454 Y61.8
X-1.143 Y61.719
X-0.872 Y61.547
X-0.419 Y61.092
X-0.384 Y61.022
X-0.361 Y60.98
X-0.335 Y60.94
X-0.306 Y60.901
G3 X0.14 Y60.852 Z9.3 I0.248 J0.199 F800
G1 X0.185 Y60.895
X0.22 Y60.946
X0.244 Y61.003
X0.257 Y61.064
G3 X0.129 Y61.356 I-0.315 J0.036 F1300
G1 X-1.302 Y62.404
G3 X-1.604 Y62.444 I-0.188 J-0.256
G1 X-1.659 Y62.416 F600
X-1.708 Y62.378
X-1.749 Y62.331
X-1.78 Y62.277
G3 X-1.619 Y61.858 Z9.1 I0.29 J-0.129
G1 X-1.55 Y61.83 F1300
X-1.473 Y61.784
X-1.181 Y61.601
X-1.084 Y61.538
X-0.744 Y61.31
X-0.652 Y61.246
X-0.598 Y61.201
X-0.481 Y61.101
X-0.349 Y60.955
X-0.306 Y60.901
X-0.241 Y60.809
X-0.014 Y60.469
X0.146 Y60.226
X0.238 Y60.08
X0.278 Y60
X0.305 Y59.934
X0.361 Y59.788
X0.399 Y59.642
X0.424 Y59.529
X0.488 Y59.205
X0.515 Y59.059
X0.57 Y58.742
X0.582 Y58.622
X0.587 Y58.184
Y2.916
X0.582 Y2.478
X0.57 Y2.358
X0.566 Y2.333
X0.489 Y1.695
X0.453 Y1.376
X0.352 Y1.071
X0.163 Y0.812
X0.087 Y0.743
X0.044 Y0.701
X0.005 Y0.655
X-0.03 Y0.606
G3 X0.072 Y0.169 Z9.3 I0.27 J-0.167 F800
G1 X0.128 Y0.142
X0.188 Y0.126
X0.25 Y0.122
X0.311 Y0.13
G3 X0.54 Y0.335 I-0.071 J0.309 F1300
G1 X1.176 Y2.164
G3 X1.141 Y2.443 I-0.3 J0.104
G1 X1.102 Y2.491 F600
X1.054 Y2.531
X1 Y2.56
X0.941 Y2.579
G3 X0.566 Y2.333 Z9.1 I-0.064 J-0.311
G1 X0.515 Y2.041 F1300
X0.488 Y1.895
X0.424 Y1.571
X0.399 Y1.458
X0.361 Y1.312
X0.305 Y1.166
X0.278 Y1.1
X0.238 Y1.02
X0.132 Y0.853
X-0.046 Y0.583
X-0.241 Y0.291
X-0.306 Y0.199
X-0.349 Y0.145
X-0.481 Y-0.001
X-0.598 Y-0.101
X-0.652 Y-0.146
X-0.744 Y-0.21
X-1.084 Y-0.438
X-1.181 Y-0.501
X-1.473 Y-0.684
X-1.55 Y-0.73
X-1.619 Y-0.758
X-1.765 Y-0.812
X-1.911 Y-0.849
X-2.029 Y-0.876
X-2.349 Y-0.939
X-2.495 Y-0.967
X-2.933 Y-1.035
X-3.516 Y-1.038
X-204.911
X-205.057 Y-1.034
X-205.349 Y-1.018
X-205.495 Y-1.004
X-205.932 Y-0.917
X-206.37 Y-0.824
X-206.443 Y-0.8
X-206.516 Y-0.775
X-206.76 Y-0.692
X-207.219 Y-0.575
X-207.852 Y-0.467
X-208.491 Y-0.405
X-209.132 Y-0.368
X-209.774 Y-0.347
X-210.416 Y-0.335
X-211.058 Y-0.328
X-211.7 Y-0.324
X-212.343 Y-0.321
X-213.627 Y-0.319
X-218.122 Y-0.318
X-220.53
X-220.688 Y-0.288
X-220.984 Y-0.164
X-221.235 Y0.037
X-221.651 Y0.526
X-221.914 Y1.112
X-222.077 Y1.733
X-222.175 Y2.368
X-222.233 Y3.008
X-222.268 Y3.649
X-222.288 Y4.291
X-222.3 Y4.933
X-222.307 Y5.575
X-222.312 Y6.217
X-222.314 Y6.859
X-222.316 Y8.144
X-222.317 Y12.639
Y14.9
X-222.322 Y14.978
X-222.334 Y15.055
X-222.354 Y15.13
X-222.366 Y15.165
X-222.432 Y15.457
X-222.464 Y15.603
X-222.551 Y16.04
X-222.572 Y16.186
X-222.584 Y16.332
X-222.587 Y16.478
Y44.622
X-222.584 Y44.768
X-222.572 Y44.914
X-222.551 Y45.06
X-222.522 Y45.206
X-222.429 Y45.841
X-222.383 Y46.481
X-222.356 Y47.123
X-222.34 Y47.765
X-222.331 Y48.407
X-222.325 Y49.049
X-222.322 Y49.691
X-222.319 Y50.976
X-222.318 Y54.187
Y58.682
X-222.283 Y58.839
X-222.215 Y58.984
X-222.021 Y59.24
X-221.509 Y59.627
X-220.909 Y59.857
X-220.28 Y59.988
X-219.642 Y60.062
X-219.001 Y60.102
X-218.359 Y60.124
X-217.717 Y60.135
X-217.075 Y60.141
X-216.433 Y60.144
X-215.149 Y60.147
X-208.955 Y60.148
X-208.763 Y60.173
X-208.584 Y60.247
X-208.431 Y60.365
X-207.83 Y60.966
X-207.693 Y61.101
X-207.538 Y61.234
X-207.392 Y61.335
X-207.082 Y61.542
G3 X-207.253 Y62.117 I-0.185 J0.258 F800
G1 X-207.323 Y62.12 Z9.108
X-207.39 Y62.123 Z9.131
X-207.45 Y62.126 Z9.169
X-207.501 Y62.128 Z9.22
X-207.538 Y62.13 Z9.28
X-207.562 Y62.131 Z9.347
X-207.57 Z9.417
G0 Z20.1
X-223.099 Y44.273
Z9.735
G1 Z9.417 F600
X-223.093 Y44.279 Z9.347
X-223.078 Y44.297 Z9.28
X-223.052 Y44.325 Z9.22
X-223.019 Y44.362 Z9.169
X-222.978 Y44.407 Z9.131
X-222.934 Y44.457 Z9.108
X-222.886 Y44.51 Z9.1
G3 X-222.522 Y45.206 I-1.177 J1.058
G1 X-222.464 Y45.497 F1300
X-222.399 Y45.789
X-222.366 Y45.935
X-222.318 Y46.08
X-222.277 Y46.172
X-222.25 Y46.226
X-222.165 Y46.372
X-222.068 Y46.518
X-221.873 Y46.81
X-221.718 Y47.069
X-221.611 Y47.284
X-221.499 Y47.566
X-221.382 Y47.946
X-221.262 Y48.491
X-221.174 Y49.127
X-221.122 Y49.767
X-221.092 Y50.408
X-221.074 Y51.05
X-221.063 Y51.692
X-221.057 Y52.335
X-221.053 Y52.977
X-221.049 Y54.261
X-221.048 Y56.83
X-220.998 Y57.147
X-220.86 Y57.437
X-220.463 Y57.942
X-219.922 Y58.288
X-219.32 Y58.513
X-218.694 Y58.655
X-218.058 Y58.743
X-217.418 Y58.797
X-216.777 Y58.829
X-216.135 Y58.849
X-215.493 Y58.86
X-214.851 Y58.867
X-214.208 Y58.872
X-213.566 Y58.874
X-212.282 Y58.876
X-210.355 Y58.877
X-210.22 Y58.878
X-210.03 Y58.904
X-209.853 Y58.978
X-209.7 Y59.095
X-208.431 Y60.365
G3 X-208.711 Y60.895 I-0.232 J0.217 F800
G1 X-208.781 Y60.884 Z9.108
X-208.847 Y60.874 Z9.131
X-208.907 Y60.865 Z9.169
X-208.957 Y60.857 Z9.22
X-208.994 Y60.851 Z9.28
X-209.017 Y60.848 Z9.347
X-209.025 Y60.847 Z9.417
G0 Z20.1
X-222.763 Y46.17
Z9.735
G1 Z9.417 F600
X-222.755 Y46.173 Z9.347
X-222.734 Y46.183 Z9.28
X-222.7 Y46.199 Z9.22
X-222.655 Y46.221 Z9.169
X-222.6 Y46.247 Z9.131
X-222.54 Y46.276 Z9.108
X-222.476 Y46.306 Z9.1
G3 X-221.873 Y46.81 I-0.681 J1.429
G1 X-221.776 Y46.955 F1300
X-221.67 Y47.101
X-221.544 Y47.247
X-221.402 Y47.393
X-220.884 Y47.911
X-220.783 Y48.022
X-220.677 Y48.161
X-220.561 Y48.341
X-220.442 Y48.562
X-220.319 Y48.845
X-220.192 Y49.214
X-220.061 Y49.721
X-219.952 Y50.353
X-219.885 Y50.992
X-219.844 Y51.633
X-219.818 Y52.275
X-219.802 Y52.917
X-219.793 Y53.559
X-219.787 Y54.201
X-219.783 Y54.843
X-219.781 Y55.485
X-219.699 Y55.796
X-219.55 Y56.08
X-219.151 Y56.583
X-218.617 Y56.939
X-218.021 Y57.179
X-217.398 Y57.336
X-216.764 Y57.437
X-216.125 Y57.501
X-215.484 Y57.541
X-214.843 Y57.567
X-214.201 Y57.582
X-213.559 Y57.592
X-212.916 Y57.598
X-212.274 Y57.602
X-211.492 Y57.605
X-211.302 Y57.631
X-211.125 Y57.705
X-210.973 Y57.822
X-209.7 Y59.095
X-209.617 Y59.351 Z9.208 F800
X-209.726 Y59.553 Z9.3
X-209.727
X-209.961 Y59.634
X-213.521 Y60.863 F1300
X-216.586 Y60.782
X-218.775 Y60.397
X-220.088 Y59.893
X-221.256 Y59.089
X-222.277 Y57.931
G3 X-222.569 Y57.455 I1.973 J-1.535
G1 X-223.011 Y56.143
X-223.544 Y49.143
G3 X-221.528 Y47.547 I1.581 J-0.075
G1 X-221.41 Y47.585 F600
X-221.296 Y47.633
G3 X-220.884 Y47.911 Z9.1 I-0.668 J1.435
G1 X-219.652 Y49.143 F1300
X-219.551 Y49.254
X-219.438 Y49.405
X-219.313 Y49.601
X-219.19 Y49.833
X-219.059 Y50.14
X-218.927 Y50.53
X-218.791 Y51.072
X-218.686 Y51.706
X-218.62 Y52.344
X-218.578 Y52.985
X-218.552 Y53.627
X-218.536 Y54.269
X-218.42 Y54.568
X-218.079 Y55.112
X-217.58 Y55.517
X-217.003 Y55.798
X-216.389 Y55.988
X-215.759 Y56.113
X-215.122 Y56.194
X-214.482 Y56.247
X-213.841 Y56.28
X-213.199 Y56.301
X-212.777 Y56.31
X-212.59 Y56.338
X-212.417 Y56.412
X-212.268 Y56.527
X-210.973 Y57.822
X-210.937 Y57.869 Z9.124 F800
X-210.91 Y57.922 Z9.148
X-210.894 Y57.979 Z9.172
X-210.888 Y58.038 Z9.196
X-211.015 Y58.265 Z9.3
X-211.04 Y58.31
X-211.228 Y58.37
X-214.293 Y59.351 F1300
G3 X-215.418 Y59.497 I-0.876 J-2.342
G1 X-217.316 Y59.128
X-218.483 Y58.742
X-218.73 Y58.622
G3 X-219.04 Y58.477 I0.899 J-2.333
G1 X-220.088 Y57.738
X-220.964 Y56.713
X-221.11 Y56.487
G3 X-221.401 Y55.997 I1.99 J-1.514
G1 X-221.667 Y54.83
X-222.285 Y50.601
G3 X-220.296 Y48.779 I1.554 J-0.301
G1 X-220.178 Y48.817 F600
X-220.064 Y48.865
G3 X-219.797 Y49.023 Z9.175 I-0.668 J1.435
G1 X-219.652 Y49.143 Z9.1
X-218.486 Y50.309 F1300
X-218.306 Y50.508
X-218.194 Y50.654
X-218.071 Y50.844
X-217.944 Y51.08
X-217.813 Y51.378
X-217.678 Y51.765
X-217.541 Y52.297
X-217.43 Y52.929
X-217.31 Y53.227
X-216.97 Y53.772
X-216.479 Y54.186
X-215.908 Y54.48
X-215.298 Y54.681
X-214.67 Y54.815
X-214.114 Y54.893
X-213.959 Y54.932
X-213.817 Y55.003
X-213.692 Y55.103
G3 X-213.39 Y55.498 Z9.3 I-1.881 J1.754 F800
G1 X-213.327 Y55.605
X-213.269 Y55.715
G3 X-217.454 Y58.611 I-2.304 J1.142 F1300
X-219.139 Y50.469 I5.851 J-5.456
G1 X-219.119 Y50.423
X-219.087 Y50.37 F600
X-219.048 Y50.323
X-219.001 Y50.282
X-218.949 Y50.248
G3 X-218.486 Y50.309 Z9.1 I0.189 J0.355
G1 X-212.268 Y56.527 F1300
G3 X-212.549 Y57.057 I-0.232 J0.217 F800
G1 X-212.618 Y57.047 Z9.108
X-212.685 Y57.036 Z9.131
X-212.744 Y57.027 Z9.169
X-212.794 Y57.02 Z9.22
X-212.831 Y57.014 Z9.28
X-212.855 Y57.01 Z9.347
X-212.862 Y57.009 Z9.417
G0 Z20.1
X-205.735 Y-1.543
Z9.735
G1 Z9.417 F600
X-205.739 Y-1.537 Z9.347
X-205.753 Y-1.518 Z9.28
X-205.775 Y-1.487 Z9.22
X-205.804 Y-1.446 Z9.169
X-205.838 Y-1.397 Z9.131
X-205.877 Y-1.342 Z9.108
X-205.918 Y-1.284 Z9.1
G3 X-206.516 Y-0.775 I-1.292 J-0.913
G1 X-206.618 Y-0.73 F1300
X-206.662 Y-0.709
X-206.808 Y-0.624
X-207.392 Y-0.235
X-207.538 Y-0.134
X-207.684 Y-0.009
X-207.812 Y0.091
X-207.971 Y0.196
X-208.172 Y0.306
X-208.432 Y0.422
X-208.769 Y0.542
X-209.235 Y0.666
X-209.867 Y0.78
X-210.505 Y0.849
X-211.146 Y0.89
X-211.788 Y0.915
X-212.43 Y0.93
X-213.072 Y0.939
X-213.714 Y0.944
X-214.356 Y0.947
X-215.64 Y0.951
X-218.851 Y0.952
X-219.169 Y0.999
X-219.465 Y1.124
X-219.99 Y1.493
X-220.362 Y2.017
X-220.612 Y2.608
X-220.774 Y3.23
X-220.877 Y3.864
X-220.942 Y4.503
X-220.982 Y5.143
X-221.007 Y5.785
X-221.023 Y6.427
X-221.033 Y7.069
X-221.038 Y7.711
X-221.042 Y8.354
X-221.045 Y9.638
X-221.047 Y12.207
Y13.046
X-221.073 Y13.237
X-221.147 Y13.416
X-221.264 Y13.569
X-221.402 Y13.707
X-221.548 Y13.857
X-221.67 Y13.999
X-221.776 Y14.145
X-222.132 Y14.677
X-222.165 Y14.728
X-222.25 Y14.874
X-222.277 Y14.928
X-222.318 Y15.02
X-222.354 Y15.13
G3 X-222.954 Y15.12 I-0.298 J-0.109 F800
G1 X-222.976 Y15.053 Z9.108
X-222.997 Y14.989 Z9.131
X-223.016 Y14.932 Z9.169
X-223.031 Y14.884 Z9.22
X-223.043 Y14.848 Z9.28
X-223.05 Y14.826 Z9.347
X-223.053 Y14.818 Z9.417
G0 Z20.1
X-207.157 Y-0.969
Z9.735
G1 Z9.417 F600
X-207.159 Y-0.962 Z9.347
X-207.167 Y-0.94 Z9.28
X-207.179 Y-0.904 Z9.22
X-207.195 Y-0.856 Z9.169
X-207.214 Y-0.799 Z9.131
X-207.235 Y-0.735 Z9.108
X-207.258 Y-0.668 Z9.1
G3 X-207.684 Y-0.009 I-1.501 J-0.502
G1 X-207.693 Y-0.001 F1300
X-207.84 Y0.145
X-208.715 Y1.02
X-208.898 Y1.185
X-209.045 Y1.298
X-209.231 Y1.418
X-209.454 Y1.539
X-209.748 Y1.668
X-210.12 Y1.797
X-210.633 Y1.93
X-211.265 Y2.04
X-211.904 Y2.109
X-212.544 Y2.152
X-213.186 Y2.178
X-213.828 Y2.195
X-214.47 Y2.205
X-215.112 Y2.212
X-215.755 Y2.216
X-217.039 Y2.22
X-217.681 Y2.221
X-217.986 Y2.322
X-218.541 Y2.644
X-218.954 Y3.136
X-219.24 Y3.711
X-219.431 Y4.324
X-219.556 Y4.954
X-219.637 Y5.591
X-219.689 Y6.231
X-219.722 Y6.873
X-219.742 Y7.515
X-219.756 Y8.157
X-219.764 Y8.799
X-219.769 Y9.441
X-219.772 Y10.083
X-219.775 Y11.368
X-219.776 Y11.775
X-219.801 Y11.966
X-219.875 Y12.145
X-219.993 Y12.298
X-221.264 Y13.569
X-221.548 Y13.648 Z9.218 F800
X-221.695 Y13.506 Z9.3
X-221.789 Y13.415
X-221.814 Y13.3
X-223.046 Y7.728 F1300
X-222.802 Y4.228
X-222.243 Y2.333
X-221.468 Y1.02
X-220.661 Y0.145
X-219.545 Y-0.584
X-218.337 Y-0.999
X-210.019 Y-1.635
G3 X-208.351 Y0.376 I0.146 J1.576
G1 X-208.39 Y0.494 F600
X-208.438 Y0.609
G3 X-208.705 Y1.009 Z9.106 I-1.435 J-0.668
G1 X-208.715 Y1.02 Z9.1
X-210.019 Y2.323 F1300
X-210.134 Y2.428
X-210.281 Y2.541
X-210.473 Y2.665
X-210.705 Y2.79
X-211.004 Y2.922
X-211.388 Y3.055
X-211.916 Y3.191
X-212.549 Y3.302
X-213.187 Y3.372
X-213.828 Y3.416
X-214.469 Y3.444
X-215.111 Y3.462
X-215.753 Y3.473
X-216.395 Y3.48
X-216.698 Y3.587
X-217.25 Y3.916
X-217.661 Y4.409
X-217.948 Y4.984
X-218.142 Y5.596
X-218.271 Y6.225
X-218.355 Y6.861
X-218.41 Y7.501
X-218.445 Y8.142
X-218.468 Y8.784
X-218.482 Y9.426
X-218.492 Y10.068
X-218.496 Y10.5
X-218.522 Y10.69
X-218.596 Y10.866
X-218.712 Y11.018
X-219.993 Y12.298
X-220.234 Y12.382 Z9.203 F800
X-220.445 Y12.262 Z9.3
X-220.469 Y12.249
X-220.544 Y12.041
X-221.724 Y8.749 F1300
X-221.645 Y6.416
X-221.256 Y4.501
X-220.672 Y3.027
X-219.942 Y2.015
X-219.651 Y1.695
G3 X-219.372 Y1.42 I1.892 J1.634
G1 X-218.191 Y0.647
X-217.024 Y0.263
X-211.332 Y-0.331
G3 X-209.655 Y1.679 I0.156 J1.575
G1 X-209.693 Y1.797 F600
X-209.741 Y1.912
G3 X-209.905 Y2.187 Z9.171 I-1.435 J-0.668
G1 X-210.019 Y2.323 Z9.1
X-211.27 Y3.575 F1300
X-211.394 Y3.687
X-211.542 Y3.801
X-211.735 Y3.926
X-211.969 Y4.052
X-212.271 Y4.185
X-212.659 Y4.319
X-213.193 Y4.457
X-213.825 Y4.568
X-214.463 Y4.638
X-215.104 Y4.683
X-215.404 Y4.796
X-215.952 Y5.131
X-216.365 Y5.623
X-216.656 Y6.195
X-216.855 Y6.806
X-216.988 Y7.434
X-217.075 Y8.071
X-217.133 Y8.71
X-217.161 Y9.201
X-217.193 Y9.377
X-217.266 Y9.541
X-217.377 Y9.682
G3 X-217.825 Y9.666 Z9.3 I-0.217 J-0.232 F800
G1 X-217.862 Y9.619
X-217.889 Y9.566
X-217.905 Y9.509
X-217.911 Y9.45
X-217.915 Y9.441
X-219.359 Y6.42 F1300
G3 X-219.193 Y4.52 I1.8 J-0.8
G1 X-218.51 Y3.499
G3 X-217.462 Y2.664 I1.679 J1.031
G1 X-213 Y1.02
G3 X-210.894 Y2.886 I0.572 J1.475
G1 X-210.912 Y2.92
X-211.031 Y3.137 F600
X-211.27 Y3.575 Z9.1
X-212.5 Y4.804 F1300
X-212.663 Y4.952
X-212.811 Y5.066
X-213.004 Y5.191
X-213.24 Y5.318
X-213.828 Y5.576
X-214.399 Y5.87
X-214.863 Y6.313
X-215.21 Y6.854
X-215.456 Y7.447
X-215.522 Y7.69
X-215.566 Y7.81
X-215.631 Y7.92
X-215.713 Y8.018
G3 X-216.161 Y8.002 Z9.3 I-0.217 J-0.232 F800
G1 X-216.199 Y7.953
X-216.226 Y7.897
X-216.243 Y7.838
X-216.247 Y7.776
X-216.239 Y7.716 F1300
X-216.221 Y7.66
X-216.192 Y7.607
X-216.154 Y7.561
X-212.956 Y4.363
X-212.91 Y4.325
X-212.858 Y4.297
X-212.801 Y4.278
X-212.742 Y4.271
X-212.68 Y4.275 F600
X-212.62 Y4.291
X-212.564 Y4.318
X-212.515 Y4.356
G3 X-212.5 Y4.804 Z9.1 I-0.217 J0.232
G1 X-218.712 Y11.018 F1300
G3 X-219.139 Y11.023 I-0.217 J-0.232 F800
G1 X-219.17 Y10.978 Z9.105
X-219.199 Y10.935 Z9.119
X-219.227 Y10.894 Z9.142
X-219.235 Y10.852 Z9.172
X-219.241 Y10.816 Z9.208
X-219.247 Y10.785 Z9.249
X-219.244 Y10.759 Z9.302
X-219.243 Y10.743 Z9.359
Y10.737 Z9.417
G0 Z20.1
X-224.352 Y63.929
Z9.235
G1 Z8.917 F600
X-224.347 Y63.923 Z8.847
X-224.336 Y63.902 Z8.78
X-224.316 Y63.87 Z8.72
X-224.291 Y63.827 Z8.669
X-224.26 Y63.775 Z8.631
X-224.226 Y63.717 Z8.608
X-224.19 Y63.656 Z8.6
G3 X-223.143 Y62.258 I6.975 J4.13
G1 X-223.061 Y62.176 F1300
X-222.9 Y62.079
X-222.693 Y61.975
X-222.422 Y61.866
X-222.056 Y61.752
X-221.532 Y61.634
X-220.897 Y61.543
X-220.257 Y61.491
X-219.615 Y61.46
X-218.973 Y61.443
X-218.331 Y61.432
X-217.689 Y61.426
X-217.047 Y61.423
X-215.762 Y61.419
X-212.551 Y61.418
X-207.493
X-207.348 Y61.432
X-207.21 Y61.474
X-207.082 Y61.542
X-206.808 Y61.724
X-206.662 Y61.809
X-206.619 Y61.83
X-206.516 Y61.875
X-206.443 Y61.9
X-206.37 Y61.924
X-205.932 Y62.017
X-205.495 Y62.104
X-205.349 Y62.118
X-205.057 Y62.134
X-204.911 Y62.138
X-3.371 Y62.137
X-2.933 Y62.135
X-2.495 Y62.067
X-2.203 Y62.01
X-2.029 Y61.976
X-1.911 Y61.949
X-1.765 Y61.912
X-1.619 Y61.858
X-1.454 Y61.8
X-1.143 Y61.719
X-0.872 Y61.547
X-0.419 Y61.092
X-0.384 Y61.022
X-0.361 Y60.98
X-0.335 Y60.94
X-0.306 Y60.901
G3 X0.14 Y60.852 Z8.8 I0.248 J0.199 F800
G1 X0.185 Y60.895
X0.22 Y60.946
X0.244 Y61.003
X0.257 Y61.064
G3 X0.129 Y61.356 I-0.315 J0.036 F1300
G1 X-1.302 Y62.404
G3 X-1.604 Y62.444 I-0.188 J-0.256
G1 X-1.659 Y62.416 F600
X-1.708 Y62.378
X-1.749 Y62.331
X-1.78 Y62.277
G3 X-1.619 Y61.858 Z8.6 I0.29 J-0.129
G1 X-1.55 Y61.83 F1300
X-1.473 Y61.784
X-1.181 Y61.601
X-1.084 Y61.538
X-0.744 Y61.31
X-0.652 Y61.246
X-0.598 Y61.201
X-0.481 Y61.101
X-0.349 Y60.955
X-0.306 Y60.901
X-0.241 Y60.809
X-0.014 Y60.469
X0.146 Y60.226
X0.238 Y60.08
X0.278 Y60
X0.305 Y59.934
X0.361 Y59.788
X0.399 Y59.642
X0.424 Y59.529
X0.488 Y59.205
X0.515 Y59.059
X0.57 Y58.742
X0.582 Y58.622
X0.587 Y58.184
Y2.916
X0.582 Y2.478
X0.57 Y2.358
X0.566 Y2.333
X0.489 Y1.695
X0.453 Y1.376
X0.352 Y1.071
X0.163 Y0.812
X0.087 Y0.743
X0.044 Y0.701
X0.005 Y0.655
X-0.03 Y0.606
G3 X0.072 Y0.169 Z8.8 I0.27 J-0.167 F800
G1 X0.128 Y0.142
X0.188 Y0.126
X0.25 Y0.122
X0.311 Y0.13
G3 X0.54 Y0.335 I-0.071 J0.309 F1300
G1 X1.176 Y2.164
G3 X1.141 Y2.443 I-0.3 J0.104
G1 X1.102 Y2.491 F600
X1.054 Y2.531
X1 Y2.56
X0.941 Y2.579
G3 X0.566 Y2.333 Z8.6 I-0.064 J-0.311
G1 X0.515 Y2.041 F1300
X0.488 Y1.895
X0.424 Y1.571
X0.399 Y1.458
X0.361 Y1.312
X0.305 Y1.166
X0.278 Y1.1
X0.238 Y1.02
X0.132 Y0.853
X-0.046 Y0.583
X-0.241 Y0.291
X-0.306 Y0.199
X-0.349 Y0.145
X-0.481 Y-0.001
X-0.598 Y-0.101
X-0.652 Y-0.146
X-0.744 Y-0.21
X-1.084 Y-0.438
X-1.181 Y-0.501
X-1.473 Y-0.684
X-1.55 Y-0.73
X-1.619 Y-0.758
X-1.765 Y-0.812
X-1.911 Y-0.849
X-2.029 Y-0.876
X-2.349 Y-0.939
X-2.495 Y-0.967
X-2.933 Y-1.035
X-3.516 Y-1.038
X-204.911
X-205.057 Y-1.034
X-205.349 Y-1.018
X-205.495 Y-1.004
X-205.932 Y-0.917
X-206.37 Y-0.824
X-206.443 Y-0.8
X-206.516 Y-0.775
X-206.76 Y-0.692
X-207.219 Y-0.575
X-207.852 Y-0.467
X-208.491 Y-0.405
X-209.132 Y-0.368
X-209.774 Y-0.347
X-210.416 Y-0.335
X-211.058 Y-0.328
X-211.7 Y-0.324
X-212.343 Y-0.321
X-213.627 Y-0.319
X-218.122 Y-0.318
X-220.53
X-220.688 Y-0.288
X-220.984 Y-0.164
X-221.235 Y0.037
X-221.651 Y0.526
X-221.914 Y1.112
X-222.077 Y1.733
X-222.175 Y2.368
X-222.233 Y3.008
X-222.268 Y3.649
X-222.288 Y4.291
X-222.3 Y4.933
X-222.307 Y5.575
X-222.312 Y6.217
X-222.314 Y6.859
X-222.316 Y8.144
X-222.317 Y12.639
Y14.9
X-222.322 Y14.978
X-222.334 Y15.055
X-222.354 Y15.13
X-222.366 Y15.165
X-222.432 Y15.457
X-222.464 Y15.603
X-222.551 Y16.04
X-222.572 Y16.186
X-222.584 Y16.332
X-222.587 Y16.478
Y44.622
X-222.584 Y44.768
X-222.572 Y44.914
X-222.551 Y45.06
X-222.522 Y45.206
X-222.429 Y45.841
X-222.383 Y46.481
X-222.356 Y47.123
X-222.34 Y47.765
X-222.331 Y48.407
X-222.325 Y49.049
X-222.322 Y49.691
X-222.319 Y50.976
X-222.318 Y54.187
Y58.682
X-222.283 Y58.839
X-222.215 Y58.984
X-222.021 Y59.24
X-221.509 Y59.627
X-220.909 Y59.857
X-220.28 Y59.988
X-219.642 Y60.062
X-219.001 Y60.102
X-218.359 Y60.124
X-217.717 Y60.135
X-217.075 Y60.141
X-216.433 Y60.144
X-215.149 Y60.147
X-208.955 Y60.148
X-208.763 Y60.173
X-208.584 Y60.247
X-208.431 Y60.365
X-207.83 Y60.966
X-207.693 Y61.101
X-207.538 Y61.234
X-207.392 Y61.335
X-207.082 Y61.542
G3 X-207.253 Y62.117 I-0.185 J0.258 F800
G1 X-207.323 Y62.12 Z8.608
X-207.39 Y62.123 Z8.631
X-207.45 Y62.126 Z8.669
X-207.501 Y62.128 Z8.72
X-207.538 Y62.13 Z8.78
X-207.562 Y62.131 Z8.847
X-207.57 Z8.917
G0 Z20.1
X-223.099 Y44.273
Z9.235
G1 Z8.917 F600
X-223.093 Y44.279 Z8.847
X-223.078 Y44.297 Z8.78
X-223.052 Y44.325 Z8.72
X-223.019 Y44.362 Z8.669
X-222.978 Y44.407 Z8.631
X-222.934 Y44.457 Z8.608
X-222.886 Y44.51 Z8.6
G3 X-222.522 Y45.206 I-1.177 J1.058
G1 X-222.464 Y45.497 F1300
X-222.399 Y45.789
X-222.366 Y45.935
X-222.318 Y46.08
X-222.277 Y46.172
X-222.25 Y46.226
X-222.165 Y46.372
X-222.068 Y46.518
X-221.873 Y46.81
X-221.718 Y47.069
X-221.611 Y47.284
X-221.499 Y47.566
X-221.382 Y47.946
X-221.262 Y48.491
X-221.174 Y49.127
X-221.122 Y49.767
X-221.092 Y50.408
X-221.074 Y51.05
X-221.063 Y51.692
X-221.057 Y52.335
X-221.053 Y52.977
X-221.049 Y54.261
X-221.048 Y56.83
X-220.998 Y57.147
X-220.86 Y57.437
X-220.463 Y57.942
X-219.922 Y58.288
X-219.32 Y58.513
X-218.694 Y58.655
X-218.058 Y58.743
X-217.418 Y58.797
X-216.777 Y58.829
X-216.135 Y58.849
X-215.493 Y58.86
X-214.851 Y58.867
X-214.208 Y58.872
X-213.566 Y58.874
X-212.282 Y58.876
X-210.355 Y58.877
X-210.22 Y58.878
X-210.03 Y58.904
X-209.853 Y58.978
X-209.7 Y59.095
X-208.431 Y60.365
G3 X-208.711 Y60.895 I-0.232 J0.217 F800
G1 X-208.781 Y60.884 Z8.608
X-208.847 Y60.874 Z8.631
X-208.907 Y60.865 Z8.669
X-208.957 Y60.857 Z8.72
X-208.994 Y60.851 Z8.78
X-209.017 Y60.848 Z8.847
X-209.025 Y60.847 Z8.917
G0 Z20.1
X-222.763 Y46.17
Z9.235
G1 Z8.917 F600
X-222.755 Y46.173 Z8.847
X-222.734 Y46.183 Z8.78
X-222.7 Y46.199 Z8.72
X-222.655 Y46.221 Z8.669
X-222.6 Y46.247 Z8.631
X-222.54 Y46.276 Z8.608
X-222.476 Y46.306 Z8.6
G3 X-221.873 Y46.81 I-0.681 J1.429
G1 X-221.776 Y46.955 F1300
X-221.67 Y47.101
X-221.544 Y47.247
X-221.402 Y47.393
X-220.884 Y47.911
X-220.783 Y48.022
X-220.677 Y48.161
X-220.561 Y48.341
X-220.442 Y48.562
X-220.319 Y48.845
X-220.192 Y49.214
X-220.061 Y49.721
X-219.952 Y50.353
X-219.885 Y50.992
X-219.844 Y51.633
X-219.818 Y52.275
X-219.802 Y52.917
X-219.793 Y53.559
X-219.787 Y54.201
X-219.783 Y54.843
X-219.781 Y55.485
X-219.699 Y55.796
X-219.55 Y56.08
X-219.151 Y56.583
X-218.617 Y56.939
X-218.021 Y57.179
X-217.398 Y57.336
X-216.764 Y57.437
X-216.125 Y57.501
X-215.484 Y57.541
X-214.843 Y57.567
X-214.201 Y57.582
X-213.559 Y57.592
X-212.916 Y57.598
X-212.274 Y57.602
X-211.492 Y57.605
X-211.302 Y57.631
X-211.125 Y57.705
X-210.973 Y57.822
X-209.7 Y59.095
X-209.617 Y59.351 Z8.708 F800
X-209.726 Y59.553 Z8.8
X-209.727
X-209.961 Y59.634
X-213.521 Y60.863 F1300
X-216.586 Y60.782
X-218.775 Y60.397
X-220.088 Y59.893
X-221.256 Y59.089
X-222.277 Y57.931
G3 X-222.569 Y57.455 I1.973 J-1.535
G1 X-223.011 Y56.143
X-223.544 Y49.143
G3 X-221.528 Y47.547 I1.581 J-0.075
G1 X-221.41 Y47.585 F600
X-221.296 Y47.633
G3 X-220.884 Y47.911 Z8.6 I-0.668 J1.435
G1 X-219.652 Y49.143 F1300
X-219.551 Y49.254
X-219.438 Y49.405
X-219.313 Y49.601
X-219.19 Y49.833
X-219.059 Y50.14
X-218.927 Y50.53
X-218.791 Y51.072
X-218.686 Y51.706
X-218.62 Y52.344
X-218.578 Y52.985
X-218.552 Y53.627
X-218.536 Y54.269
X-218.42 Y54.568
X-218.079 Y55.112
X-217.58 Y55.517
X-217.003 Y55.798
X-216.389 Y55.988
X-215.759 Y56.113
X-215.122 Y56.194
X-214.482 Y56.247
X-213.841 Y56.28
X-213.199 Y56.301
X-212.777 Y56.31
X-212.59 Y56.338
X-212.417 Y56.412
X-212.268 Y56.527
X-210.973 Y57.822
X-210.937 Y57.869 Z8.624 F800
X-210.91 Y57.922 Z8.648
X-210.894 Y57.979 Z8.672
X-210.888 Y58.038 Z8.696
X-211.015 Y58.265 Z8.8
X-211.04 Y58.31
X-211.228 Y58.37
X-214.293 Y59.351 F1300
G3 X-215.418 Y59.497 I-0.876 J-2.342
G1 X-217.316 Y59.128
X-218.483 Y58.742
X-218.73 Y58.622
G3 X-219.04 Y58.477 I0.899 J-2.333
G1 X-220.088 Y57.738
X-220.964 Y56.713
X-221.11 Y56.487
G3 X-221.401 Y55.997 I1.99 J-1.514
G1 X-221.667 Y54.83
X-222.285 Y50.601
G3 X-220.296 Y48.779 I1.554 J-0.301
G1 X-220.178 Y48.817 F600
X-220.064 Y48.865
G3 X-219.797 Y49.023 Z8.675 I-0.668 J1.435
G1 X-219.652 Y49.143 Z8.6
X-218.486 Y50.309 F1300
X-218.306 Y50.508
X-218.194 Y50.654
X-218.071 Y50.844
X-217.944 Y51.08
X-217.813 Y51.378
X-217.678 Y51.765
X-217.541 Y52.297
X-217.43 Y52.929
X-217.31 Y53.227
X-216.97 Y53.772
X-216.479 Y54.186
X-215.908 Y54.48
X-215.298 Y54.681
X-214.67 Y54.815
X-214.114 Y54.893
X-213.959 Y54.932
X-213.817 Y55.003
X-213.692 Y55.103
G3 X-213.39 Y55.498 Z8.8 I-1.881 J1.754 F800
G1 X-213.327 Y55.605
X-213.269 Y55.715
G3 X-217.454 Y58.611 I-2.304 J1.142 F1300
X-219.139 Y50.469 I5.851 J-5.456
G1 X-219.119 Y50.423
X-219.087 Y50.37 F600
X-219.048 Y50.323
X-219.001 Y50.282
X-218.949 Y50.248
G3 X-218.486 Y50.309 Z8.6 I0.189 J0.355
G1 X-212.268 Y56.527 F1300
G3 X-212.549 Y57.057 I-0.232 J0.217 F800
G1 X-212.618 Y57.047 Z8.608
X-212.685 Y57.036 Z8.631
X-212.744 Y57.027 Z8.669
X-212.794 Y57.02 Z8.72
X-212.831 Y57.014 Z8.78
X-212.855 Y57.01 Z8.847
X-212.862 Y57.009 Z8.917
G0 Z20.1
X-205.735 Y-1.543
Z9.235
G1 Z8.917 F600
X-205.739 Y-1.537 Z8.847
X-205.753 Y-1.518 Z8.78
X-205.775 Y-1.487 Z8.72
X-205.804 Y-1.446 Z8.669
X-205.838 Y-1.397 Z8.631
X-205.877 Y-1.342 Z8.608
X-205.918 Y-1.284 Z8.6
G3 X-206.516 Y-0.775 I-1.292 J-0.913
G1 X-206.618 Y-0.73 F1300
X-206.662 Y-0.709
X-206.808 Y-0.624
X-207.392 Y-0.235
X-207.538 Y-0.134
X-207.684 Y-0.009
X-207.812 Y0.091
X-207.971 Y0.196
X-208.172 Y0.306
X-208.432 Y0.422
X-208.769 Y0.542
X-209.235 Y0.666
X-209.867 Y0.78
X-210.505 Y0.849
X-211.146 Y0.89
X-211.788 Y0.915
X-212.43 Y0.93
X-213.072 Y0.939
X-213.714 Y0.944
X-214.356 Y0.947
X-215.64 Y0.951
X-218.851 Y0.952
X-219.169 Y0.999
X-219.465 Y1.124
X-219.99 Y1.493
X-220.362 Y2.017
X-220.612 Y2.608
X-220.774 Y3.23
X-220.877 Y3.864
X-220.942 Y4.503
X-220.982 Y5.143
X-221.007 Y5.785
X-221.023 Y6.427
X-221.033 Y7.069
X-221.038 Y7.711
X-221.042 Y8.354
X-221.045 Y9.638
X-221.047 Y12.207
Y13.046
X-221.073 Y13.237
X-221.147 Y13.416
X-221.264 Y13.569
X-221.402 Y13.707
X-221.548 Y13.857
X-221.67 Y13.999
X-221.776 Y14.145
X-222.132 Y14.677
X-222.165 Y14.728
X-222.25 Y14.874
X-222.277 Y14.928
X-222.318 Y15.02
X-222.354 Y15.13
G3 X-222.954 Y15.12 I-0.298 J-0.109 F800
G1 X-222.976 Y15.053 Z8.608
X-222.997 Y14.989 Z8.631
X-223.016 Y14.932 Z8.669
X-223.031 Y14.884 Z8.72
X-223.043 Y14.848 Z8.78
X-223.05 Y14.826 Z8.847
X-223.053 Y14.818 Z8.917
G0 Z20.1
X-207.157 Y-0.969
Z9.235
G1 Z8.917 F600
X-207.159 Y-0.962 Z8.847
X-207.167 Y-0.94 Z8.78
X-207.179 Y-0.904 Z8.72
X-207.195 Y-0.856 Z8.669
X-207.214 Y-0.799 Z8.631
X-207.235 Y-0.735 Z8.608
X-207.258 Y-0.668 Z8.6
G3 X-207.684 Y-0.009 I-1.501 J-0.502
G1 X-207.693 Y-0.001 F1300
X-207.84 Y0.145
X-208.715 Y1.02
X-208.898 Y1.185
X-209.045 Y1.298
X-209.231 Y1.418
X-209.454 Y1.539
X-209.748 Y1.668
X-210.12 Y1.797
X-210.633 Y1.93
X-211.265 Y2.04
X-211.904 Y2.109
X-212.544 Y2.152
X-213.186 Y2.178
X-213.828 Y2.195
X-214.47 Y2.205
X-215.112 Y2.212
X-215.755 Y2.216
X-217.039 Y2.22
X-217.681 Y2.221
X-217.986 Y2.322
X-218.541 Y2.644
X-218.954 Y3.136
X-219.24 Y3.711
X-219.431 Y4.324
X-219.556 Y4.954
X-219.637 Y5.591
X-219.689 Y6.231
X-219.722 Y6.873
X-219.742 Y7.515
X-219.756 Y8.157
X-219.764 Y8.799
X-219.769 Y9.441
X-219.772 Y10.083
X-219.775 Y11.368
X-219.776 Y11.775
X-219.801 Y11.966
X-219.875 Y12.145
X-219.993 Y12.298
X-221.264 Y13.569
X-221.548 Y13.648 Z8.718 F800
X-221.695 Y13.506 Z8.8
X-221.789 Y13.415
X-221.814 Y13.3
X-223.046 Y7.728 F1300
X-222.802 Y4.228
X-222.243 Y2.333
X-221.468 Y1.02
X-220.661 Y0.145
X-219.545 Y-0.584
X-218.337 Y-0.999
X-210.019 Y-1.635
G3 X-208.351 Y0.376 I0.146 J1.576
G1 X-208.39 Y0.494 F600
X-208.438 Y0.609
G3 X-208.705 Y1.009 Z8.606 I-1.435 J-0.668
G1 X-208.715 Y1.02 Z8.6
X-210.019 Y2.323 F1300
X-210.134 Y2.428
X-210.281 Y2.541
X-210.473 Y2.665
X-210.705 Y2.79
X-211.004 Y2.922
X-211.388 Y3.055
X-211.916 Y3.191
X-212.549 Y3.302
X-213.187 Y3.372
X-213.828 Y3.416
X-214.469 Y3.444
X-215.111 Y3.462
X-215.753 Y3.473
X-216.395 Y3.48
X-216.698 Y3.587
X-217.25 Y3.916
X-217.661 Y4.409
X-217.948 Y4.984
X-218.142 Y5.596
X-218.271 Y6.225
X-218.355 Y6.861
X-218.41 Y7.501
X-218.445 Y8.142
X-218.468 Y8.784
X-218.482 Y9.426
X-218.492 Y10.068
X-218.496 Y10.5
X-218.522 Y10.69
X-218.596 Y10.866
X-218.712 Y11.018
X-219.993 Y12.298
X-220.234 Y12.382 Z8.703 F800
X-220.445 Y12.262 Z8.8
X-220.469 Y12.249
X-220.544 Y12.041
X-221.724 Y8.749 F1300
X-221.645 Y6.416
X-221.256 Y4.501
X-220.672 Y3.027
X-219.942 Y2.015
X-219.651 Y1.695
G3 X-219.372 Y1.42 I1.892 J1.634
G1 X-218.191 Y0.647
X-217.024 Y0.263
X-211.332 Y-0.331
G3 X-209.655 Y1.679 I0.156 J1.575
G1 X-209.693 Y1.797 F600
X-209.741 Y1.912
G3 X-209.905 Y2.187 Z8.671 I-1.435 J-0.668
G1 X-210.019 Y2.323 Z8.6
X-211.27 Y3.575 F1300
X-211.394 Y3.687
X-211.542 Y3.801
X-211.735 Y3.926
X-211.969 Y4.052
X-212.271 Y4.185
X-212.659 Y4.319
X-213.193 Y4.457
X-213.825 Y4.568
X-214.463 Y4.638
X-215.104 Y4.683
X-215.404 Y4.796
X-215.952 Y5.131
X-216.365 Y5.623
X-216.656 Y6.195
X-216.855 Y6.806
X-216.988 Y7.434
X-217.075 Y8.071
X-217.133 Y8.71
X-217.161 Y9.201
X-217.193 Y9.377
X-217.266 Y9.541
X-217.377 Y9.682
G3 X-217.825 Y9.666 Z8.8 I-0.217 J-0.232 F800
G1 X-217.862 Y9.619
X-217.889 Y9.566
X-217.905 Y9.509
X-217.911 Y9.45
X-217.915 Y9.441
X-219.359 Y6.42 F1300
G3 X-219.193 Y4.52 I1.8 J-0.8
G1 X-218.51 Y3.499
G3 X-217.462 Y2.664 I1.679 J1.031
G1 X-213 Y1.02
G3 X-210.894 Y2.886 I0.572 J1.475
G1 X-210.912 Y2.92
X-211.031 Y3.137 F600
X-211.27 Y3.575 Z8.6
X-212.5 Y4.804 F1300
X-212.663 Y4.952
X-212.811 Y5.066
X-213.004 Y5.191
X-213.24 Y5.318
X-213.828 Y5.576
X-214.399 Y5.87
X-214.863 Y6.313
X-215.21 Y6.854
X-215.456 Y7.447
X-215.522 Y7.69
X-215.566 Y7.81
X-215.631 Y7.92
X-215.713 Y8.018
G3 X-216.161 Y8.002 Z8.8 I-0.217 J-0.232 F800
G1 X-216.199 Y7.953
X-216.226 Y7.897
X-216.243 Y7.838
X-216.247 Y7.776
X-216.239 Y7.716 F1300
X-216.221 Y7.66
X-216.192 Y7.607
X-216.154 Y7.561
X-212.956 Y4.363
X-212.91 Y4.325
X-212.858 Y4.297
X-212.801 Y4.278
X-212.742 Y4.271
X-212.68 Y4.275 F600
X-212.62 Y4.291
X-212.564 Y4.318
X-212.515 Y4.356
G3 X-212.5 Y4.804 Z8.6 I-0.217 J0.232
G1 X-218.712 Y11.018 F1300
G3 X-219.139 Y11.023 I-0.217 J-0.232 F800
G1 X-219.17 Y10.978 Z8.605
X-219.199 Y10.935 Z8.619
X-219.227 Y10.894 Z8.642
X-219.235 Y10.852 Z8.672
X-219.241 Y10.816 Z8.708
X-219.247 Y10.785 Z8.749
X-219.244 Y10.759 Z8.802
X-219.243 Y10.743 Z8.859
Y10.737 Z8.917
G0 Z20.1
X-224.352 Y63.929
Z8.735
G1 Z8.417 F600
X-224.347 Y63.923 Z8.347
X-224.336 Y63.902 Z8.28
X-224.316 Y63.87 Z8.22
X-224.291 Y63.827 Z8.169
X-224.26 Y63.775 Z8.131
X-224.226 Y63.717 Z8.108
X-224.19 Y63.656 Z8.1
G3 X-223.143 Y62.258 I6.975 J4.13
G1 X-223.061 Y62.176 F1300
X-222.9 Y62.079
X-222.693 Y61.975
X-222.422 Y61.866
X-222.056 Y61.752
X-221.532 Y61.634
X-220.897 Y61.543
X-220.257 Y61.491
X-219.615 Y61.46
X-218.973 Y61.443
X-218.331 Y61.432
X-217.689 Y61.426
X-217.047 Y61.423
X-215.762 Y61.419
X-212.551 Y61.418
X-207.493
X-207.348 Y61.432
X-207.21 Y61.474
X-207.082 Y61.542
X-206.808 Y61.724
X-206.662 Y61.809
X-206.619 Y61.83
X-206.516 Y61.875
X-206.443 Y61.9
X-206.37 Y61.924
X-205.932 Y62.017
X-205.495 Y62.104
X-205.349 Y62.118
X-205.057 Y62.134
X-204.911 Y62.138
X-3.371 Y62.137
X-2.933 Y62.135
X-2.495 Y62.067
X-2.203 Y62.01
X-2.029 Y61.976
X-1.911 Y61.949
X-1.765 Y61.912
X-1.619 Y61.858
X-1.454 Y61.8
X-1.143 Y61.719
X-0.872 Y61.547
X-0.419 Y61.092
X-0.384 Y61.022
X-0.361 Y60.98
X-0.335 Y60.94
X-0.306 Y60.901
G3 X0.14 Y60.852 Z8.3 I0.248 J0.199 F800
G1 X0.185 Y60.895
X0.22 Y60.946
X0.244 Y61.003
X0.257 Y61.064
G3 X0.129 Y61.356 I-0.315 J0.036 F1300
G1 X-1.302 Y62.404
G3 X-1.604 Y62.444 I-0.188 J-0.256
G1 X-1.659 Y62.416 F600
X-1.708 Y62.378
X-1.749 Y62.331
X-1.78 Y62.277
G3 X-1.619 Y61.858 Z8.1 I0.29 J-0.129
G1 X-1.55 Y61.83 F1300
X-1.473 Y61.784
X-1.181 Y61.601
X-1.084 Y61.538
X-0.744 Y61.31
X-0.652 Y61.246
X-0.598 Y61.201
X-0.481 Y61.101
X-0.349 Y60.955
X-0.306 Y60.901
X-0.241 Y60.809
X-0.014 Y60.469
X0.146 Y60.226
X0.238 Y60.08
X0.278 Y60
X0.305 Y59.934
X0.361 Y59.788
X0.399 Y59.642
X0.424 Y59.529
X0.488 Y59.205
X0.515 Y59.059
X0.57 Y58.742
X0.582 Y58.622
X0.587 Y58.184
Y2.916
X0.582 Y2.478
X0.57 Y2.358
X0.566 Y2.333
X0.489 Y1.695
X0.453 Y1.376
X0.352 Y1.071
X0.163 Y0.812
X0.087 Y0.743
X0.044 Y0.701
X0.005 Y0.655
X-0.03 Y0.606
G3 X0.072 Y0.169 Z8.3 I0.27 J-0.167 F800
G1 X0.128 Y0.142
X0.188 Y0.126
X0.25 Y0.122
X0.311 Y0.13
G3 X0.54 Y0.335 I-0.071 J0.309 F1300
G1 X1.176 Y2.164
G3 X1.141 Y2.443 I-0.3 J0.104
G1 X1.102 Y2.491 F600
X1.054 Y2.531
X1 Y2.56
X0.941 Y2.579
G3 X0.566 Y2.333 Z8.1 I-0.064 J-0.311
G1 X0.515 Y2.041 F1300
X0.488 Y1.895
X0.424 Y1.571
X0.399 Y1.458
X0.361 Y1.312
X0.305 Y1.166
X0.278 Y1.1
X0.238 Y1.02
X0.132 Y0.853
X-0.046 Y0.583
X-0.241 Y0.291
X-0.306 Y0.199
X-0.349 Y0.145
X-0.481 Y-0.001
X-0.598 Y-0.101
X-0.652 Y-0.146
X-0.744 Y-0.21
X-1.084 Y-0.438
X-1.181 Y-0.501
X-1.473 Y-0.684
X-1.55 Y-0.73
X-1.619 Y-0.758
X-1.765 Y-0.812
X-1.911 Y-0.849
X-2.029 Y-0.876
X-2.349 Y-0.939
X-2.495 Y-0.967
X-2.933 Y-1.035
X-3.516 Y-1.038
X-204.911
X-205.057 Y-1.034
X-205.349 Y-1.018
X-205.495 Y-1.004
X-205.932 Y-0.917
X-206.37 Y-0.824
X-206.443 Y-0.8
X-206.516 Y-0.775
X-206.76 Y-0.692
X-207.219 Y-0.575
X-207.852 Y-0.467
X-208.491 Y-0.405
X-209.132 Y-0.368
X-209.774 Y-0.347
X-210.416 Y-0.335
X-211.058 Y-0.328
X-211.7 Y-0.324
X-212.343 Y-0.321
X-213.627 Y-0.319
X-218.122 Y-0.318
X-220.53
X-220.688 Y-0.288
X-220.984 Y-0.164
X-221.235 Y0.037
X-221.651 Y0.526
X-221.914 Y1.112
X-222.077 Y1.733
X-222.175 Y2.368
X-222.233 Y3.008
X-222.268 Y3.649
X-222.288 Y4.291
X-222.3 Y4.933
X-222.307 Y5.575
X-222.312 Y6.217
X-222.314 Y6.859
X-222.316 Y8.144
X-222.317 Y12.639
Y14.9
X-222.322 Y14.978
X-222.334 Y15.055
X-222.354 Y15.13
X-222.366 Y15.165
X-222.432 Y15.457
X-222.464 Y15.603
X-222.551 Y16.04
X-222.572 Y16.186
X-222.584 Y16.332
X-222.587 Y16.478
Y44.622
X-222.584 Y44.768
X-222.572 Y44.914
X-222.551 Y45.06
X-222.522 Y45.206
X-222.429 Y45.841
X-222.383 Y46.481
X-222.356 Y47.123
X-222.34 Y47.765
X-222.331 Y48.407
X-222.325 Y49.049
X-222.322 Y49.691
X-222.319 Y50.976
X-222.318 Y54.187
Y58.682
X-222.283 Y58.839
X-222.215 Y58.984
X-222.021 Y59.24
X-221.509 Y59.627
X-220.909 Y59.857
X-220.28 Y59.988
X-219.642 Y60.062
X-219.001 Y60.102
X-218.359 Y60.124
X-217.717 Y60.135
X-217.075 Y60.141
X-216.433 Y60.144
X-215.149 Y60.147
X-208.955 Y60.148
X-208.763 Y60.173
X-208.584 Y60.247
X-208.431 Y60.365
X-207.83 Y60.966
X-207.693 Y61.101
X-207.538 Y61.234
X-207.392 Y61.335
X-207.082 Y61.542
G3 X-207.253 Y62.117 I-0.185 J0.258 F800
G1 X-207.323 Y62.12 Z8.108
X-207.39 Y62.123 Z8.131
X-207.45 Y62.126 Z8.169
X-207.501 Y62.128 Z8.22
X-207.538 Y62.13 Z8.28
X-207.562 Y62.131 Z8.347
X-207.57 Z8.417
G0 Z20.1
X-223.099 Y44.273
Z8.735
G1 Z8.417 F600
X-223.093 Y44.279 Z8.347
X-223.078 Y44.297 Z8.28
X-223.052 Y44.325 Z8.22
X-223.019 Y44.362 Z8.169
X-222.978 Y44.407 Z8.131
X-222.934 Y44.457 Z8.108
X-222.886 Y44.51 Z8.1
G3 X-222.522 Y45.206 I-1.177 J1.058
G1 X-222.464 Y45.497 F1300
X-222.399 Y45.789
X-222.366 Y45.935
X-222.318 Y46.08
X-222.277 Y46.172
X-222.25 Y46.226
X-222.165 Y46.372
X-222.068 Y46.518
X-221.873 Y46.81
X-221.718 Y47.069
X-221.611 Y47.284
X-221.499 Y47.566
X-221.382 Y47.946
X-221.262 Y48.491
X-221.174 Y49.127
X-221.122 Y49.767
X-221.092 Y50.408
X-221.074 Y51.05
X-221.063 Y51.692
X-221.057 Y52.335
X-221.053 Y52.977
X-221.049 Y54.261
X-221.048 Y56.83
X-220.998 Y57.147
X-220.86 Y57.437
X-220.463 Y57.942
X-219.922 Y58.288
X-219.32 Y58.513
X-218.694 Y58.655
X-218.058 Y58.743
X-217.418 Y58.797
X-216.777 Y58.829
X-216.135 Y58.849
X-215.493 Y58.86
X-214.851 Y58.867
X-214.208 Y58.872
X-213.566 Y58.874
X-212.282 Y58.876
X-210.355 Y58.877
X-210.22 Y58.878
X-210.03 Y58.904
X-209.853 Y58.978
X-209.7 Y59.095
X-208.431 Y60.365
G3 X-208.711 Y60.895 I-0.232 J0.217 F800
G1 X-208.781 Y60.884 Z8.108
X-208.847 Y60.874 Z8.131
X-208.907 Y60.865 Z8.169
X-208.957 Y60.857 Z8.22
X-208.994 Y60.851 Z8.28
X-209.017 Y60.848 Z8.347
X-209.025 Y60.847 Z8.417
G0 Z20.1
X-222.763 Y46.17
Z8.735
G1 Z8.417 F600
X-222.755 Y46.173 Z8.347
X-222.734 Y46.183 Z8.28
X-222.7 Y46.199 Z8.22
X-222.655 Y46.221 Z8.169
X-222.6 Y46.247 Z8.131
X-222.54 Y46.276 Z8.108
X-222.476 Y46.306 Z8.1
G3 X-221.873 Y46.81 I-0.681 J1.429
G1 X-221.776 Y46.955 F1300
X-221.67 Y47.101
X-221.544 Y47.247
X-221.402 Y47.393
X-220.884 Y47.911
X-220.783 Y48.022
X-220.677 Y48.161
X-220.561 Y48.341
X-220.442 Y48.562
X-220.319 Y48.845
X-220.192 Y49.214
X-220.061 Y49.721
X-219.952 Y50.353
X-219.885 Y50.992
X-219.844 Y51.633
X-219.818 Y52.275
X-219.802 Y52.917
X-219.793 Y53.559
X-219.787 Y54.201
X-219.783 Y54.843
X-219.781 Y55.485
X-219.699 Y55.796
X-219.55 Y56.08
X-219.151 Y56.583
X-218.617 Y56.939
X-218.021 Y57.179
X-217.398 Y57.336
X-216.764 Y57.437
X-216.125 Y57.501
X-215.484 Y57.541
X-214.843 Y57.567
X-214.201 Y57.582
X-213.559 Y57.592
X-212.916 Y57.598
X-212.274 Y57.602
X-211.492 Y57.605
X-211.302 Y57.631
X-211.125 Y57.705
X-210.973 Y57.822
X-209.7 Y59.095
X-209.617 Y59.351 Z8.208 F800
X-209.726 Y59.553 Z8.3
X-209.727
X-209.961 Y59.634
X-213.521 Y60.863 F1300
X-216.586 Y60.782
X-218.775 Y60.397
X-220.088 Y59.893
X-221.256 Y59.089
X-222.277 Y57.931
G3 X-222.569 Y57.455 I1.973 J-1.535
G1 X-223.011 Y56.143
X-223.544 Y49.143
G3 X-221.528 Y47.547 I1.581 J-0.075
G1 X-221.41 Y47.585 F600
X-221.296 Y47.633
G3 X-220.884 Y47.911 Z8.1 I-0.668 J1.435
G1 X-219.652 Y49.143 F1300
X-219.551 Y49.254
X-219.438 Y49.405
X-219.313 Y49.601
X-219.19 Y49.833
X-219.059 Y50.14
X-218.927 Y50.53
X-218.791 Y51.072
X-218.686 Y51.706
X-218.62 Y52.344
X-218.578 Y52.985
X-218.552 Y53.627
X-218.536 Y54.269
X-218.42 Y54.568
X-218.079 Y55.112
X-217.58 Y55.517
X-217.003 Y55.798
X-216.389 Y55.988
X-215.759 Y56.113
X-215.122 Y56.194
X-214.482 Y56.247
X-213.841 Y56.28
X-213.199 Y56.301
X-212.777 Y56.31
X-212.59 Y56.338
X-212.417 Y56.412
X-212.268 Y56.527
X-210.973 Y57.822
X-210.937 Y57.869 Z8.124 F800
X-210.91 Y57.922 Z8.148
X-210.894 Y57.979 Z8.172
X-210.888 Y58.038 Z8.196
X-211.015 Y58.265 Z8.3
X-211.04 Y58.31
X-211.228 Y58.37
X-214.293 Y59.351 F1300
G3 X-215.418 Y59.497 I-0.876 J-2.342
G1 X-217.316 Y59.128
X-218.483 Y58.742
X-218.73 Y58.622
G3 X-219.04 Y58.477 I0.899 J-2.333
G1 X-220.088 Y57.738
X-220.964 Y56.713
X-221.11 Y56.487
G3 X-221.401 Y55.997 I1.99 J-1.514
G1 X-221.667 Y54.83
X-222.285 Y50.601
G3 X-220.296 Y48.779 I1.554 J-0.301
G1 X-220.178 Y48.817 F600
X-220.064 Y48.865
G3 X-219.797 Y49.023 Z8.175 I-0.668 J1.435
G1 X-219.652 Y49.143 Z8.1
X-218.486 Y50.309 F1300
X-218.306 Y50.508
X-218.194 Y50.654
X-218.071 Y50.844
X-217.944 Y51.08
X-217.813 Y51.378
X-217.678 Y51.765
X-217.541 Y52.297
X-217.43 Y52.929
X-217.31 Y53.227
X-216.97 Y53.772
X-216.479 Y54.186
X-215.908 Y54.48
X-215.298 Y54.681
X-214.67 Y54.815
X-214.114 Y54.893
X-213.959 Y54.932
X-213.817 Y55.003
X-213.692 Y55.103
G3 X-213.39 Y55.498 Z8.3 I-1.881 J1.754 F800
G1 X-213.327 Y55.605
X-213.269 Y55.715
G3 X-217.454 Y58.611 I-2.304 J1.142 F1300
X-219.139 Y50.469 I5.851 J-5.456
G1 X-219.119 Y50.423
X-219.087 Y50.37 F600
X-219.048 Y50.323
X-219.001 Y50.282
X-218.949 Y50.248
G3 X-218.486 Y50.309 Z8.1 I0.189 J0.355
G1 X-212.268 Y56.527 F1300
G3 X-212.549 Y57.057 I-0.232 J0.217 F800
G1 X-212.618 Y57.047 Z8.108
X-212.685 Y57.036 Z8.131
X-212.744 Y57.027 Z8.169
X-212.794 Y57.02 Z8.22
X-212.831 Y57.014 Z8.28
X-212.855 Y57.01 Z8.347
X-212.862 Y57.009 Z8.417
G0 Z20.1
X-205.735 Y-1.543
Z8.735
G1 Z8.417 F600
X-205.739 Y-1.537 Z8.347
X-205.753 Y-1.518 Z8.28
X-205.775 Y-1.487 Z8.22
X-205.804 Y-1.446 Z8.169
X-205.838 Y-1.397 Z8.131
X-205.877 Y-1.342 Z8.108
X-205.918 Y-1.284 Z8.1
G3 X-206.516 Y-0.775 I-1.292 J-0.913
G1 X-206.618 Y-0.73 F1300
X-206.662 Y-0.709
X-206.808 Y-0.624
X-207.392 Y-0.235
X-207.538 Y-0.134
X-207.684 Y-0.009
X-207.812 Y0.091
X-207.971 Y0.196
X-208.172 Y0.306
X-208.432 Y0.422
X-208.769 Y0.542
X-209.235 Y0.666
X-209.867 Y0.78
X-210.505 Y0.849
X-211.146 Y0.89
X-211.788 Y0.915
X-212.43 Y0.93
X-213.072 Y0.939
X-213.714 Y0.944
X-214.356 Y0.947
X-215.64 Y0.951
X-218.851 Y0.952
X-219.169 Y0.999
X-219.465 Y1.124
X-219.99 Y1.493
X-220.362 Y2.017
X-220.612 Y2.608
X-220.774 Y3.23
X-220.877 Y3.864
X-220.942 Y4.503
X-220.982 Y5.143
X-221.007 Y5.785
X-221.023 Y6.427
X-221.033 Y7.069
X-221.038 Y7.711
X-221.042 Y8.354
X-221.045 Y9.638
X-221.047 Y12.207
Y13.046
X-221.073 Y13.237
X-221.147 Y13.416
X-221.264 Y13.569
X-221.402 Y13.707
X-221.548 Y13.857
X-221.67 Y13.999
X-221.776 Y14.145
X-222.132 Y14.677
X-222.165 Y14.728
X-222.25 Y14.874
X-222.277 Y14.928
X-222.318 Y15.02
X-222.354 Y15.13
G3 X-222.954 Y15.12 I-0.298 J-0.109 F800
G1 X-222.976 Y15.053 Z8.108
X-222.997 Y14.989 Z8.131
X-223.016 Y14.932 Z8.169
X-223.031 Y14.884 Z8.22
X-223.043 Y14.848 Z8.28
X-223.05 Y14.826 Z8.347
X-223.053 Y14.818 Z8.417
G0 Z20.1
X-207.157 Y-0.969
Z8.735
G1 Z8.417 F600
X-207.159 Y-0.962 Z8.347
X-207.167 Y-0.94 Z8.28
X-207.179 Y-0.904 Z8.22
X-207.195 Y-0.856 Z8.169
X-207.214 Y-0.799 Z8.131
X-207.235 Y-0.735 Z8.108
X-207.258 Y-0.668 Z8.1
G3 X-207.684 Y-0.009 I-1.501 J-0.502
G1 X-207.693 Y-0.001 F1300
X-207.84 Y0.145
X-208.715 Y1.02
X-208.898 Y1.185
X-209.045 Y1.298
X-209.231 Y1.418
X-209.454 Y1.539
X-209.748 Y1.668
X-210.12 Y1.797
X-210.633 Y1.93
X-211.265 Y2.04
X-211.904 Y2.109
X-212.544 Y2.152
X-213.186 Y2.178
X-213.828 Y2.195
X-214.47 Y2.205
X-215.112 Y2.212
X-215.755 Y2.216
X-217.039 Y2.22
X-217.681 Y2.221
X-217.986 Y2.322
X-218.541 Y2.644
X-218.954 Y3.136
X-219.24 Y3.711
X-219.431 Y4.324
X-219.556 Y4.954
X-219.637 Y5.591
X-219.689 Y6.231
X-219.722 Y6.873
X-219.742 Y7.515
X-219.756 Y8.157
X-219.764 Y8.799
X-219.769 Y9.441
X-219.772 Y10.083
X-219.775 Y11.368
X-219.776 Y11.775
X-219.801 Y11.966
X-219.875 Y12.145
X-219.993 Y12.298
X-221.264 Y13.569
X-221.548 Y13.648 Z8.218 F800
X-221.695 Y13.506 Z8.3
X-221.789 Y13.415
X-221.814 Y13.3
X-223.046 Y7.728 F1300
X-222.802 Y4.228
X-222.243 Y2.333
X-221.468 Y1.02
X-220.661 Y0.145
X-219.545 Y-0.584
X-218.337 Y-0.999
X-210.019 Y-1.635
G3 X-208.351 Y0.376 I0.146 J1.576
G1 X-208.39 Y0.494 F600
X-208.438 Y0.609
G3 X-208.705 Y1.009 Z8.106 I-1.435 J-0.668
G1 X-208.715 Y1.02 Z8.1
X-210.019 Y2.323 F1300
X-210.134 Y2.428
X-210.281 Y2.541
X-210.473 Y2.665
X-210.705 Y2.79
X-211.004 Y2.922
X-211.388 Y3.055
X-211.916 Y3.191
X-212.549 Y3.302
X-213.187 Y3.372
X-213.828 Y3.416
X-214.469 Y3.444
X-215.111 Y3.462
X-215.753 Y3.473
X-216.395 Y3.48
X-216.698 Y3.587
X-217.25 Y3.916
X-217.661 Y4.409
X-217.948 Y4.984
X-218.142 Y5.596
X-218.271 Y6.225
X-218.355 Y6.861
X-218.41 Y7.501
X-218.445 Y8.142
X-218.468 Y8.784
X-218.482 Y9.426
X-218.492 Y10.068
X-218.496 Y10.5
X-218.522 Y10.69
X-218.596 Y10.866
X-218.712 Y11.018
X-219.993 Y12.298
X-220.234 Y12.382 Z8.203 F800
X-220.445 Y12.262 Z8.3
X-220.469 Y12.249
X-220.544 Y12.041
X-221.724 Y8.749 F1300
X-221.645 Y6.416
X-221.256 Y4.501
X-220.672 Y3.027
X-219.942 Y2.015
X-219.651 Y1.695
G3 X-219.372 Y1.42 I1.892 J1.634
G1 X-218.191 Y0.647
X-217.024 Y0.263
X-211.332 Y-0.331
G3 X-209.655 Y1.679 I0.156 J1.575
G1 X-209.693 Y1.797 F600
X-209.741 Y1.912
G3 X-209.905 Y2.187 Z8.171 I-1.435 J-0.668
G1 X-210.019 Y2.323 Z8.1
X-211.27 Y3.575 F1300
X-211.394 Y3.687
X-211.542 Y3.801
X-211.735 Y3.926
X-211.969 Y4.052
X-212.271 Y4.185
X-212.659 Y4.319
X-213.193 Y4.457
X-213.825 Y4.568
X-214.463 Y4.638
X-215.104 Y4.683
X-215.404 Y4.796
X-215.952 Y5.131
X-216.365 Y5.623
X-216.656 Y6.195
X-216.855 Y6.806
X-216.988 Y7.434
X-217.075 Y8.071
X-217.133 Y8.71
X-217.161 Y9.201
X-217.193 Y9.377
X-217.266 Y9.541
X-217.377 Y9.682
G3 X-217.825 Y9.666 Z8.3 I-0.217 J-0.232 F800
G1 X-217.862 Y9.619
X-217.889 Y9.566
X-217.905 Y9.509
X-217.911 Y9.45
X-217.915 Y9.441
X-219.359 Y6.42 F1300
G3 X-219.193 Y4.52 I1.8 J-0.8
G1 X-218.51 Y3.499
G3 X-217.462 Y2.664 I1.679 J1.031
G1 X-213 Y1.02
G3 X-210.894 Y2.886 I0.572 J1.475
G1 X-210.912 Y2.92
X-211.031 Y3.137 F600
X-211.27 Y3.575 Z8.1
X-212.5 Y4.804 F1300
X-212.663 Y4.952
X-212.811 Y5.066
X-213.004 Y5.191
X-213.24 Y5.318
X-213.828 Y5.576
X-214.399 Y5.87
X-214.863 Y6.313
X-215.21 Y6.854
X-215.456 Y7.447
X-215.522 Y7.69
X-215.566 Y7.81
X-215.631 Y7.92
X-215.713 Y8.018
G3 X-216.161 Y8.002 Z8.3 I-0.217 J-0.232 F800
G1 X-216.199 Y7.953
X-216.226 Y7.897
X-216.243 Y7.838
X-216.247 Y7.776
X-216.239 Y7.716 F1300
X-216.221 Y7.66
X-216.192 Y7.607
X-216.154 Y7.561
X-212.956 Y4.363
X-212.91 Y4.325
X-212.858 Y4.297
X-212.801 Y4.278
X-212.742 Y4.271
X-212.68 Y4.275 F600
X-212.62 Y4.291
X-212.564 Y4.318
X-212.515 Y4.356
G3 X-212.5 Y4.804 Z8.1 I-0.217 J0.232
G1 X-218.712 Y11.018 F1300
G3 X-219.139 Y11.023 I-0.217 J-0.232 F800
G1 X-219.17 Y10.978 Z8.105
X-219.199 Y10.935 Z8.119
X-219.227 Y10.894 Z8.142
X-219.235 Y10.852 Z8.172
X-219.241 Y10.816 Z8.208
X-219.247 Y10.785 Z8.249
X-219.244 Y10.759 Z8.302
X-219.243 Y10.743 Z8.359
Y10.737 Z8.417
G0 Z20.1
X-224.352 Y63.929
Z8.235
G1 Z7.918 F600
X-224.347 Y63.923 Z7.847
X-224.336 Y63.902 Z7.78
X-224.316 Y63.87 Z7.72
X-224.291 Y63.827 Z7.669
X-224.26 Y63.775 Z7.631
X-224.226 Y63.717 Z7.608
X-224.19 Y63.656 Z7.6
G3 X-223.143 Y62.258 I6.975 J4.13
G1 X-223.061 Y62.176 F1300
X-222.9 Y62.079
X-222.693 Y61.975
X-222.422 Y61.866
X-222.056 Y61.752
X-221.532 Y61.634
X-220.897 Y61.543
X-220.257 Y61.491
X-219.615 Y61.46
X-218.973 Y61.443
X-218.331 Y61.432
X-217.689 Y61.426
X-217.047 Y61.423
X-215.762 Y61.419
X-212.551 Y61.418
X-207.493
X-207.348 Y61.432
X-207.21 Y61.474
X-207.082 Y61.542
X-206.808 Y61.724
X-206.662 Y61.809
X-206.619 Y61.83
X-206.516 Y61.875
X-206.443 Y61.9
X-206.37 Y61.924
X-205.932 Y62.017
X-205.495 Y62.104
X-205.349 Y62.118
X-205.057 Y62.134
X-204.911 Y62.138
X-3.371 Y62.137
X-2.933 Y62.135
X-2.495 Y62.067
X-2.203 Y62.01
X-2.029 Y61.976
X-1.911 Y61.949
X-1.765 Y61.912
X-1.619 Y61.858
X-1.454 Y61.8
X-1.143 Y61.719
X-0.872 Y61.547
X-0.419 Y61.092
X-0.384 Y61.022
X-0.361 Y60.98
X-0.335 Y60.94
X-0.306 Y60.901
G3 X0.14 Y60.852 Z7.8 I0.248 J0.199 F800
G1 X0.185 Y60.895
X0.22 Y60.946
X0.244 Y61.003
X0.257 Y61.064
G3 X0.129 Y61.356 I-0.315 J0.036 F1300
G1 X-1.302 Y62.404
G3 X-1.604 Y62.444 I-0.188 J-0.256
G1 X-1.659 Y62.416 F600
X-1.708 Y62.378
X-1.749 Y62.331
X-1.78 Y62.277
G3 X-1.619 Y61.858 Z7.6 I0.29 J-0.129
G1 X-1.55 Y61.83 F1300
X-1.473 Y61.784
X-1.181 Y61.601
X-1.084 Y61.538
X-0.744 Y61.31
X-0.652 Y61.246
X-0.598 Y61.201
X-0.481 Y61.101
X-0.349 Y60.955
X-0.306 Y60.901
X-0.241 Y60.809
X-0.014 Y60.469
X0.146 Y60.226
X0.238 Y60.08
X0.278 Y60
X0.305 Y59.934
X0.361 Y59.788
X0.399 Y59.642
X0.424 Y59.529
X0.488 Y59.205
X0.515 Y59.059
X0.57 Y58.742
X0.582 Y58.622
X0.587 Y58.184
Y2.916
X0.582 Y2.478
X0.57 Y2.358
X0.566 Y2.333
X0.489 Y1.695
X0.453 Y1.376
X0.352 Y1.071
X0.163 Y0.812
X0.087 Y0.743
X0.044 Y0.701
X0.005 Y0.655
X-0.03 Y0.606
G3 X0.072 Y0.169 Z7.8 I0.27 J-0.167 F800
G1 X0.128 Y0.142
X0.188 Y0.126
X0.25 Y0.122
X0.311 Y0.13
G3 X0.54 Y0.335 I-0.071 J0.309 F1300
G1 X1.176 Y2.164
G3 X1.141 Y2.443 I-0.3 J0.104
G1 X1.102 Y2.491 F600
X1.054 Y2.531
X1 Y2.56
X0.941 Y2.579
G3 X0.566 Y2.333 Z7.6 I-0.064 J-0.311
G1 X0.515 Y2.041 F1300
X0.488 Y1.895
X0.424 Y1.571
X0.399 Y1.458
X0.361 Y1.312
X0.305 Y1.166
X0.278 Y1.1
X0.238 Y1.02
X0.132 Y0.853
X-0.046 Y0.583
X-0.241 Y0.291
X-0.306 Y0.199
X-0.349 Y0.145
X-0.481 Y-0.001
X-0.598 Y-0.101
X-0.652 Y-0.146
X-0.744 Y-0.21
X-1.084 Y-0.438
X-1.181 Y-0.501
X-1.473 Y-0.684
X-1.55 Y-0.73
X-1.619 Y-0.758
X-1.765 Y-0.812
X-1.911 Y-0.849
X-2.029 Y-0.876
X-2.349 Y-0.939
X-2.495 Y-0.967
X-2.933 Y-1.035
X-3.516 Y-1.038
X-204.911
X-205.057 Y-1.034
X-205.349 Y-1.018
X-205.495 Y-1.004
X-205.932 Y-0.917
X-206.37 Y-0.824
X-206.443 Y-0.8
X-206.516 Y-0.775
X-206.76 Y-0.692
X-207.219 Y-0.575
X-207.852 Y-0.467
X-208.491 Y-0.405
X-209.132 Y-0.368
X-209.774 Y-0.347
X-210.416 Y-0.335
X-211.058 Y-0.328
X-211.7 Y-0.324
X-212.343 Y-0.321
X-213.627 Y-0.319
X-218.122 Y-0.318
X-220.53
X-220.688 Y-0.288
X-220.984 Y-0.164
X-221.235 Y0.037
X-221.651 Y0.526
X-221.914 Y1.112
X-222.077 Y1.733
X-222.175 Y2.368
X-222.233 Y3.008
X-222.268 Y3.649
X-222.288 Y4.291
X-222.3 Y4.933
X-222.307 Y5.575
X-222.312 Y6.217
X-222.314 Y6.859
X-222.316 Y8.144
X-222.317 Y12.639
Y14.9
X-222.322 Y14.978
X-222.334 Y15.055
X-222.354 Y15.13
X-222.366 Y15.165
X-222.432 Y15.457
X-222.464 Y15.603
X-222.551 Y16.04
X-222.572 Y16.186
X-222.584 Y16.332
X-222.587 Y16.478
Y44.622
X-222.584 Y44.768
X-222.572 Y44.914
X-222.551 Y45.06
X-222.522 Y45.206
X-222.429 Y45.841
X-222.383 Y46.481
X-222.356 Y47.123
X-222.34 Y47.765
X-222.331 Y48.407
X-222.325 Y49.049
X-222.322 Y49.691
X-222.319 Y50.976
X-222.318 Y54.187
Y58.682
X-222.283 Y58.839
X-222.215 Y58.984
X-222.021 Y59.24
X-221.509 Y59.627
X-220.909 Y59.857
X-220.28 Y59.988
X-219.642 Y60.062
X-219.001 Y60.102
X-218.359 Y60.124
X-217.717 Y60.135
X-217.075 Y60.141
X-216.433 Y60.144
X-215.149 Y60.147
X-208.955 Y60.148
X-208.763 Y60.173
X-208.584 Y60.247
X-208.431 Y60.365
X-207.83 Y60.966
X-207.693 Y61.101
X-207.538 Y61.234
X-207.392 Y61.335
X-207.082 Y61.542
G3 X-207.253 Y62.117 I-0.185 J0.258 F800
G1 X-207.323 Y62.12 Z7.608
X-207.39 Y62.123 Z7.631
X-207.45 Y62.126 Z7.669
X-207.501 Y62.128 Z7.72
X-207.538 Y62.13 Z7.78
X-207.562 Y62.131 Z7.847
X-207.57 Z7.918
G0 Z20.1
X-223.099 Y44.273
Z8.235
G1 Z7.918 F600
X-223.093 Y44.279 Z7.847
X-223.078 Y44.297 Z7.78
X-223.052 Y44.325 Z7.72
X-223.019 Y44.362 Z7.669
X-222.978 Y44.407 Z7.631
X-222.934 Y44.457 Z7.608
X-222.886 Y44.51 Z7.6
G3 X-222.522 Y45.206 I-1.177 J1.058
G1 X-222.464 Y45.497 F1300
X-222.399 Y45.789
X-222.366 Y45.935
X-222.318 Y46.08
X-222.277 Y46.172
X-222.25 Y46.226
X-222.165 Y46.372
X-222.068 Y46.518
X-221.873 Y46.81
X-221.718 Y47.069
X-221.611 Y47.284
X-221.499 Y47.566
X-221.382 Y47.946
X-221.262 Y48.491
X-221.174 Y49.127
X-221.122 Y49.767
X-221.092 Y50.408
X-221.074 Y51.05
X-221.063 Y51.692
X-221.057 Y52.335
X-221.053 Y52.977
X-221.049 Y54.261
X-221.048 Y56.83
X-220.998 Y57.147
X-220.86 Y57.437
X-220.463 Y57.942
X-219.922 Y58.288
X-219.32 Y58.513
X-218.694 Y58.655
X-218.058 Y58.743
X-217.418 Y58.797
X-216.777 Y58.829
X-216.135 Y58.849
X-215.493 Y58.86
X-214.851 Y58.867
X-214.208 Y58.872
X-213.566 Y58.874
X-212.282 Y58.876
X-210.355 Y58.877
X-210.22 Y58.878
X-210.03 Y58.904
X-209.853 Y58.978
X-209.7 Y59.095
X-208.431 Y60.365
G3 X-208.711 Y60.895 I-0.232 J0.217 F800
G1 X-208.781 Y60.884 Z7.608
X-208.847 Y60.874 Z7.631
X-208.907 Y60.865 Z7.669
X-208.957 Y60.857 Z7.72
X-208.994 Y60.851 Z7.78
X-209.017 Y60.848 Z7.847
X-209.025 Y60.847 Z7.918
G0 Z20.1
X-222.763 Y46.17
Z8.235
G1 Z7.918 F600
X-222.755 Y46.173 Z7.847
X-222.734 Y46.183 Z7.78
X-222.7 Y46.199 Z7.72
X-222.655 Y46.221 Z7.669
X-222.6 Y46.247 Z7.631
X-222.54 Y46.276 Z7.608
X-222.476 Y46.306 Z7.6
G3 X-221.873 Y46.81 I-0.681 J1.429
G1 X-221.776 Y46.955 F1300
X-221.67 Y47.101
X-221.544 Y47.247
X-221.402 Y47.393
X-220.884 Y47.911
X-220.783 Y48.022
X-220.677 Y48.161
X-220.561 Y48.341
X-220.442 Y48.562
X-220.319 Y48.845
X-220.192 Y49.214
X-220.061 Y49.721
X-219.952 Y50.353
X-219.885 Y50.992
X-219.844 Y51.633
X-219.818 Y52.275
X-219.802 Y52.917
X-219.793 Y53.559
X-219.787 Y54.201
X-219.783 Y54.843
X-219.781 Y55.485
X-219.699 Y55.796
X-219.55 Y56.08
X-219.151 Y56.583
X-218.617 Y56.939
X-218.021 Y57.179
X-217.398 Y57.336
X-216.764 Y57.437
X-216.125 Y57.501
X-215.484 Y57.541
X-214.843 Y57.567
X-214.201 Y57.582
X-213.559 Y57.592
X-212.916 Y57.598
X-212.274 Y57.602
X-211.492 Y57.605
X-211.302 Y57.631
X-211.125 Y57.705
X-210.973 Y57.822
X-209.7 Y59.095
X-209.617 Y59.351 Z7.708 F800
X-209.726 Y59.553 Z7.8
X-209.727
X-209.961 Y59.634
X-213.521 Y60.863 F1300
X-216.586 Y60.782
X-218.775 Y60.397
X-220.088 Y59.893
X-221.256 Y59.089
X-222.277 Y57.931
G3 X-222.569 Y57.455 I1.973 J-1.535
G1 X-223.011 Y56.143
X-223.544 Y49.143
G3 X-221.528 Y47.547 I1.581 J-0.075
G1 X-221.41 Y47.585 F600
X-221.296 Y47.633
G3 X-220.884 Y47.911 Z7.6 I-0.668 J1.435
G1 X-219.652 Y49.143 F1300
X-219.551 Y49.254
X-219.438 Y49.405
X-219.313 Y49.601
X-219.19 Y49.833
X-219.059 Y50.14
X-218.927 Y50.53
X-218.791 Y51.072
X-218.686 Y51.706
X-218.62 Y52.344
X-218.578 Y52.985
X-218.552 Y53.627
X-218.536 Y54.269
X-218.42 Y54.568
X-218.079 Y55.112
X-217.58 Y55.517
X-217.003 Y55.798
X-216.389 Y55.988
X-215.759 Y56.113
X-215.122 Y56.194
X-214.482 Y56.247
X-213.841 Y56.28
X-213.199 Y56.301
X-212.777 Y56.31
X-212.59 Y56.338
X-212.417 Y56.412
X-212.268 Y56.527
X-210.973 Y57.822
X-210.937 Y57.869 Z7.624 F800
X-210.91 Y57.922 Z7.648
X-210.894 Y57.979 Z7.672
X-210.888 Y58.038 Z7.696
X-211.015 Y58.265 Z7.8
X-211.04 Y58.31
X-211.228 Y58.37
X-214.293 Y59.351 F1300
G3 X-215.418 Y59.497 I-0.876 J-2.342
G1 X-217.316 Y59.128
X-218.483 Y58.742
X-218.73 Y58.622
G3 X-219.04 Y58.477 I0.899 J-2.333
G1 X-220.088 Y57.738
X-220.964 Y56.713
X-221.11 Y56.487
G3 X-221.401 Y55.997 I1.99 J-1.514
G1 X-221.667 Y54.83
X-222.285 Y50.601
G3 X-220.296 Y48.779 I1.554 J-0.301
G1 X-220.178 Y48.817 F600
X-220.064 Y48.865
G3 X-219.797 Y49.023 Z7.675 I-0.668 J1.435
G1 X-219.652 Y49.143 Z7.6
X-218.486 Y50.309 F1300
X-218.306 Y50.508
X-218.194 Y50.654
X-218.071 Y50.844
X-217.944 Y51.08
X-217.813 Y51.378
X-217.678 Y51.765
X-217.541 Y52.297
X-217.43 Y52.929
X-217.31 Y53.227
X-216.97 Y53.772
X-216.479 Y54.186
X-215.908 Y54.48
X-215.298 Y54.681
X-214.67 Y54.815
X-214.114 Y54.893
X-213.959 Y54.932
X-213.817 Y55.003
X-213.692 Y55.103
G3 X-213.39 Y55.498 Z7.8 I-1.881 J1.754 F800
G1 X-213.327 Y55.605
X-213.269 Y55.715
G3 X-217.454 Y58.611 I-2.304 J1.142 F1300
X-219.139 Y50.469 I5.851 J-5.456
G1 X-219.119 Y50.423
X-219.087 Y50.37 F600
X-219.048 Y50.323
X-219.001 Y50.282
X-218.949 Y50.248
G3 X-218.486 Y50.309 Z7.6 I0.189 J0.355
G1 X-212.268 Y56.527 F1300
G3 X-212.549 Y57.057 I-0.232 J0.217 F800
G1 X-212.618 Y57.047 Z7.608
X-212.685 Y57.036 Z7.631
X-212.744 Y57.027 Z7.669
X-212.794 Y57.02 Z7.72
X-212.831 Y57.014 Z7.78
X-212.855 Y57.01 Z7.847
X-212.862 Y57.009 Z7.918
G0 Z20.1
X-205.735 Y-1.543
Z8.235
G1 Z7.918 F600
X-205.739 Y-1.537 Z7.847
X-205.753 Y-1.518 Z7.78
X-205.775 Y-1.487 Z7.72
X-205.804 Y-1.446 Z7.669
X-205.838 Y-1.397 Z7.631
X-205.877 Y-1.342 Z7.608
X-205.918 Y-1.284 Z7.6
G3 X-206.516 Y-0.775 I-1.292 J-0.913
G1 X-206.618 Y-0.73 F1300
X-206.662 Y-0.709
X-206.808 Y-0.624
X-207.392 Y-0.235
X-207.538 Y-0.134
X-207.684 Y-0.009
X-207.812 Y0.091
X-207.971 Y0.196
X-208.172 Y0.306
X-208.432 Y0.422
X-208.769 Y0.542
X-209.235 Y0.666
X-209.867 Y0.78
X-210.505 Y0.849
X-211.146 Y0.89
X-211.788 Y0.915
X-212.43 Y0.93
X-213.072 Y0.939
X-213.714 Y0.944
X-214.356 Y0.947
X-215.64 Y0.951
X-218.851 Y0.952
X-219.169 Y0.999
X-219.465 Y1.124
X-219.99 Y1.493
X-220.362 Y2.017
X-220.612 Y2.608
X-220.774 Y3.23
X-220.877 Y3.864
X-220.942 Y4.503
X-220.982 Y5.143
X-221.007 Y5.785
X-221.023 Y6.427
X-221.033 Y7.069
X-221.038 Y7.711
X-221.042 Y8.354
X-221.045 Y9.638
X-221.047 Y12.207
Y13.046
X-221.073 Y13.237
X-221.147 Y13.416
X-221.264 Y13.569
X-221.402 Y13.707
X-221.548 Y13.857
X-221.67 Y13.999
X-221.776 Y14.145
X-222.132 Y14.677
X-222.165 Y14.728
X-222.25 Y14.874
X-222.277 Y14.928
X-222.318 Y15.02
X-222.354 Y15.13
G3 X-222.954 Y15.12 I-0.298 J-0.109 F800
G1 X-222.976 Y15.053 Z7.608
X-222.997 Y14.989 Z7.631
X-223.016 Y14.932 Z7.669
X-223.031 Y14.884 Z7.72
X-223.043 Y14.848 Z7.78
X-223.05 Y14.826 Z7.847
X-223.053 Y14.818 Z7.918
G0 Z20.1
X-207.157 Y-0.969
Z8.235
G1 Z7.918 F600
X-207.159 Y-0.962 Z7.847
X-207.167 Y-0.94 Z7.78
X-207.179 Y-0.904 Z7.72
X-207.195 Y-0.856 Z7.669
X-207.214 Y-0.799 Z7.631
X-207.235 Y-0.735 Z7.608
X-207.258 Y-0.668 Z7.6
G3 X-207.684 Y-0.009 I-1.501 J-0.502
G1 X-207.693 Y-0.001 F1300
X-207.84 Y0.145
X-208.715 Y1.02
X-208.898 Y1.185
X-209.045 Y1.298
X-209.231 Y1.418
X-209.454 Y1.539
X-209.748 Y1.668
X-210.12 Y1.797
X-210.633 Y1.93
X-211.265 Y2.04
X-211.904 Y2.109
X-212.544 Y2.152
X-213.186 Y2.178
X-213.828 Y2.195
X-214.47 Y2.205
X-215.112 Y2.212
X-215.755 Y2.216
X-217.039 Y2.22
X-217.681 Y2.221
X-217.986 Y2.322
X-218.541 Y2.644
X-218.954 Y3.136
X-219.24 Y3.711
X-219.431 Y4.324
X-219.556 Y4.954
X-219.637 Y5.591
X-219.689 Y6.231
X-219.722 Y6.873
X-219.742 Y7.515
X-219.756 Y8.157
X-219.764 Y8.799
X-219.769 Y9.441
X-219.772 Y10.083
X-219.775 Y11.368
X-219.776 Y11.775
X-219.801 Y11.966
X-219.875 Y12.145
X-219.993 Y12.298
X-221.264 Y13.569
X-221.548 Y13.648 Z7.718 F800
X-221.695 Y13.506 Z7.8
X-221.789 Y13.415
X-221.814 Y13.3
X-223.046 Y7.728 F1300
X-222.802 Y4.228
X-222.243 Y2.333
X-221.468 Y1.02
X-220.661 Y0.145
X-219.545 Y-0.584
X-218.337 Y-0.999
X-210.019 Y-1.635
G3 X-208.351 Y0.376 I0.146 J1.576
G1 X-208.39 Y0.494 F600
X-208.438 Y0.609
G3 X-208.705 Y1.009 Z7.606 I-1.435 J-0.668
G1 X-208.715 Y1.02 Z7.6
X-210.019 Y2.323 F1300
X-210.134 Y2.428
X-210.281 Y2.541
X-210.473 Y2.665
X-210.705 Y2.79
X-211.004 Y2.922
X-211.388 Y3.055
X-211.916 Y3.191
X-212.549 Y3.302
X-213.187 Y3.372
X-213.828 Y3.416
X-214.469 Y3.444
X-215.111 Y3.462
X-215.753 Y3.473
X-216.395 Y3.48
X-216.698 Y3.587
X-217.25 Y3.916
X-217.661 Y4.409
X-217.948 Y4.984
X-218.142 Y5.596
X-218.271 Y6.225
X-218.355 Y6.861
X-218.41 Y7.501
X-218.445 Y8.142
X-218.468 Y8.784
X-218.482 Y9.426
X-218.492 Y10.068
X-218.496 Y10.5
X-218.522 Y10.69
X-218.596 Y10.866
X-218.712 Y11.018
X-219.993 Y12.298
X-220.234 Y12.382 Z7.703 F800
X-220.445 Y12.262 Z7.8
X-220.469 Y12.249
X-220.544 Y12.041
X-221.724 Y8.749 F1300
X-221.645 Y6.416
X-221.256 Y4.501
X-220.672 Y3.027
X-219.942 Y2.015
X-219.651 Y1.695
G3 X-219.372 Y1.42 I1.892 J1.634
G1 X-218.191 Y0.647
X-217.024 Y0.263
X-211.332 Y-0.331
G3 X-209.655 Y1.679 I0.156 J1.575
G1 X-209.693 Y1.797 F600
X-209.741 Y1.912
G3 X-209.905 Y2.187 Z7.671 I-1.435 J-0.668
G1 X-210.019 Y2.323 Z7.6
X-211.27 Y3.575 F1300
X-211.394 Y3.687
X-211.542 Y3.801
X-211.735 Y3.926
X-211.969 Y4.052
X-212.271 Y4.185
X-212.659 Y4.319
X-213.193 Y4.457
X-213.825 Y4.568
X-214.463 Y4.638
X-215.104 Y4.683
X-215.404 Y4.796
X-215.952 Y5.131
X-216.365 Y5.623
X-216.656 Y6.195
X-216.855 Y6.806
X-216.988 Y7.434
X-217.075 Y8.071
X-217.133 Y8.71
X-217.161 Y9.201
X-217.193 Y9.377
X-217.266 Y9.541
X-217.377 Y9.682
G3 X-217.825 Y9.666 Z7.8 I-0.217 J-0.232 F800
G1 X-217.862 Y9.619
X-217.889 Y9.566
X-217.905 Y9.509
X-217.911 Y9.45
X-217.915 Y9.441
X-219.359 Y6.42 F1300
G3 X-219.193 Y4.52 I1.8 J-0.8
G1 X-218.51 Y3.499
G3 X-217.462 Y2.664 I1.679 J1.031
G1 X-213 Y1.02
G3 X-210.894 Y2.886 I0.572 J1.475
G1 X-210.912 Y2.92
X-211.031 Y3.137 F600
X-211.27 Y3.575 Z7.6
X-212.5 Y4.804 F1300
X-212.663 Y4.952
X-212.811 Y5.066
X-213.004 Y5.191
X-213.24 Y5.318
X-213.828 Y5.576
X-214.399 Y5.87
X-214.863 Y6.313
X-215.21 Y6.854
X-215.456 Y7.447
X-215.522 Y7.69
X-215.566 Y7.81
X-215.631 Y7.92
X-215.713 Y8.018
G3 X-216.161 Y8.002 Z7.8 I-0.217 J-0.232 F800
G1 X-216.199 Y7.953
X-216.226 Y7.897
X-216.243 Y7.838
X-216.247 Y7.776
X-216.239 Y7.716 F1300
X-216.221 Y7.66
X-216.192 Y7.607
X-216.154 Y7.561
X-212.956 Y4.363
X-212.91 Y4.325
X-212.858 Y4.297
X-212.801 Y4.278
X-212.742 Y4.271
X-212.68 Y4.275 F600
X-212.62 Y4.291
X-212.564 Y4.318
X-212.515 Y4.356
G3 X-212.5 Y4.804 Z7.6 I-0.217 J0.232
G1 X-218.712 Y11.018 F1300
G3 X-219.139 Y11.023 I-0.217 J-0.232 F800
G1 X-219.17 Y10.978 Z7.605
X-219.199 Y10.935 Z7.619
X-219.227 Y10.894 Z7.642
X-219.235 Y10.852 Z7.672
X-219.241 Y10.816 Z7.708
X-219.247 Y10.785 Z7.749
X-219.244 Y10.759 Z7.802
X-219.243 Y10.743 Z7.859
Y10.737 Z7.917
G0 Z20.1
X-224.352 Y63.929
Z7.735
G1 Z7.418 F600
X-224.347 Y63.923 Z7.347
X-224.336 Y63.902 Z7.28
X-224.316 Y63.87 Z7.22
X-224.291 Y63.827 Z7.169
X-224.26 Y63.775 Z7.131
X-224.226 Y63.717 Z7.108
X-224.19 Y63.656 Z7.1
G3 X-223.143 Y62.258 I6.975 J4.13
G1 X-223.061 Y62.176 F1300
X-222.9 Y62.079
X-222.693 Y61.975
X-222.422 Y61.866
X-222.056 Y61.752
X-221.532 Y61.634
X-220.897 Y61.543
X-220.257 Y61.491
X-219.615 Y61.46
X-218.973 Y61.443
X-218.331 Y61.432
X-217.689 Y61.426
X-217.047 Y61.423
X-215.762 Y61.419
X-212.551 Y61.418
X-207.493
X-207.348 Y61.432
X-207.21 Y61.474
X-207.082 Y61.542
X-206.808 Y61.724
X-206.662 Y61.809
X-206.619 Y61.83
X-206.516 Y61.875
X-206.443 Y61.9
X-206.37 Y61.924
X-205.932 Y62.017
X-205.495 Y62.104
X-205.349 Y62.118
X-205.057 Y62.134
X-204.911 Y62.138
X-3.371 Y62.137
X-2.933 Y62.135
X-2.495 Y62.067
X-2.203 Y62.01
X-2.029 Y61.976
X-1.911 Y61.949
X-1.765 Y61.912
X-1.619 Y61.858
X-1.454 Y61.8
X-1.143 Y61.719
X-0.872 Y61.547
X-0.419 Y61.092
X-0.384 Y61.022
X-0.361 Y60.98
X-0.335 Y60.94
X-0.306 Y60.901
G3 X0.14 Y60.852 Z7.3 I0.248 J0.199 F800
G1 X0.185 Y60.895
X0.22 Y60.946
X0.244 Y61.003
X0.257 Y61.064
G3 X0.129 Y61.356 I-0.315 J0.036 F1300
G1 X-1.302 Y62.404
G3 X-1.604 Y62.444 I-0.188 J-0.256
G1 X-1.659 Y62.416 F600
X-1.708 Y62.378
X-1.749 Y62.331
X-1.78 Y62.277
G3 X-1.619 Y61.858 Z7.1 I0.29 J-0.129
G1 X-1.55 Y61.83 F1300
X-1.473 Y61.784
X-1.181 Y61.601
X-1.084 Y61.538
X-0.744 Y61.31
X-0.652 Y61.246
X-0.598 Y61.201
X-0.481 Y61.101
X-0.349 Y60.955
X-0.306 Y60.901
X-0.241 Y60.809
X-0.014 Y60.469
X0.146 Y60.226
X0.238 Y60.08
X0.278 Y60
X0.305 Y59.934
X0.361 Y59.788
X0.399 Y59.642
X0.424 Y59.529
X0.488 Y59.205
X0.515 Y59.059
X0.57 Y58.742
X0.582 Y58.622
X0.587 Y58.184
Y2.916
X0.582 Y2.478
X0.57 Y2.358
X0.566 Y2.333
X0.489 Y1.695
X0.453 Y1.376
X0.352 Y1.071
X0.163 Y0.812
X0.087 Y0.743
X0.044 Y0.701
X0.005 Y0.655
X-0.03 Y0.606
G3 X0.072 Y0.169 Z7.3 I0.27 J-0.167 F800
G1 X0.128 Y0.142
X0.188 Y0.126
X0.25 Y0.122
X0.311 Y0.13
G3 X0.54 Y0.335 I-0.071 J0.309 F1300
G1 X1.176 Y2.164
G3 X1.141 Y2.443 I-0.3 J0.104
G1 X1.102 Y2.491 F600
X1.054 Y2.531
X1 Y2.56
X0.941 Y2.579
G3 X0.566 Y2.333 Z7.1 I-0.064 J-0.311
G1 X0.515 Y2.041 F1300
X0.488 Y1.895
X0.424 Y1.571
X0.399 Y1.458
X0.361 Y1.312
X0.305 Y1.166
X0.278 Y1.1
X0.238 Y1.02
X0.132 Y0.853
X-0.046 Y0.583
X-0.241 Y0.291
X-0.306 Y0.199
X-0.349 Y0.145
X-0.481 Y-0.001
X-0.598 Y-0.101
X-0.652 Y-0.146
X-0.744 Y-0.21
X-1.084 Y-0.438
X-1.181 Y-0.501
X-1.473 Y-0.684
X-1.55 Y-0.73
X-1.619 Y-0.758
X-1.765 Y-0.812
X-1.911 Y-0.849
X-2.029 Y-0.876
X-2.349 Y-0.939
X-2.495 Y-0.967
X-2.933 Y-1.035
X-3.516 Y-1.038
X-204.911
X-205.057 Y-1.034
X-205.349 Y-1.018
X-205.495 Y-1.004
X-205.932 Y-0.917
X-206.37 Y-0.824
X-206.443 Y-0.8
X-206.516 Y-0.775
X-206.76 Y-0.692
X-207.219 Y-0.575
X-207.852 Y-0.467
X-208.491 Y-0.405
X-209.132 Y-0.368
X-209.774 Y-0.347
X-210.416 Y-0.335
X-211.058 Y-0.328
X-211.7 Y-0.324
X-212.343 Y-0.321
X-213.627 Y-0.319
X-218.122 Y-0.318
X-220.53
X-220.688 Y-0.288
X-220.984 Y-0.164
X-221.235 Y0.037
X-221.651 Y0.526
X-221.914 Y1.112
X-222.077 Y1.733
X-222.175 Y2.368
X-222.233 Y3.008
X-222.268 Y3.649
X-222.288 Y4.291
X-222.3 Y4.933
X-222.307 Y5.575
X-222.312 Y6.217
X-222.314 Y6.859
X-222.316 Y8.144
X-222.317 Y12.639
Y14.9
X-222.322 Y14.978
X-222.334 Y15.055
X-222.354 Y15.13
X-222.366 Y15.165
X-222.432 Y15.457
X-222.464 Y15.603
X-222.551 Y16.04
X-222.572 Y16.186
X-222.584 Y16.332
X-222.587 Y16.478
Y44.622
X-222.584 Y44.768
X-222.572 Y44.914
X-222.551 Y45.06
X-222.522 Y45.206
X-222.429 Y45.841
X-222.383 Y46.481
X-222.356 Y47.123
X-222.34 Y47.765
X-222.331 Y48.407
X-222.325 Y49.049
X-222.322 Y49.691
X-222.319 Y50.976
X-222.318 Y54.187
Y58.682
X-222.283 Y58.839
X-222.215 Y58.984
X-222.021 Y59.24
X-221.509 Y59.627
X-220.909 Y59.857
X-220.28 Y59.988
X-219.642 Y60.062
X-219.001 Y60.102
X-218.359 Y60.124
X-217.717 Y60.135
X-217.075 Y60.141
X-216.433 Y60.144
X-215.149 Y60.147
X-208.955 Y60.148
X-208.763 Y60.173
X-208.584 Y60.247
X-208.431 Y60.365
X-207.83 Y60.966
X-207.693 Y61.101
X-207.538 Y61.234
X-207.392 Y61.335
X-207.082 Y61.542
G3 X-207.253 Y62.117 I-0.185 J0.258 F800
G1 X-207.323 Y62.12 Z7.108
X-207.39 Y62.123 Z7.131
X-207.45 Y62.126 Z7.169
X-207.501 Y62.128 Z7.22
X-207.538 Y62.13 Z7.28
X-207.562 Y62.131 Z7.347
X-207.57 Z7.418
G0 Z20.1
X-223.099 Y44.273
Z7.735
G1 Z7.418 F600
X-223.093 Y44.279 Z7.347
X-223.078 Y44.297 Z7.28
X-223.052 Y44.325 Z7.22
X-223.019 Y44.362 Z7.169
X-222.978 Y44.407 Z7.131
X-222.934 Y44.457 Z7.108
X-222.886 Y44.51 Z7.1
G3 X-222.522 Y45.206 I-1.177 J1.058
G1 X-222.464 Y45.497 F1300
X-222.399 Y45.789
X-222.366 Y45.935
X-222.318 Y46.08
X-222.277 Y46.172
X-222.25 Y46.226
X-222.165 Y46.372
X-222.068 Y46.518
X-221.873 Y46.81
X-221.718 Y47.069
X-221.611 Y47.284
X-221.499 Y47.566
X-221.382 Y47.946
X-221.262 Y48.491
X-221.174 Y49.127
X-221.122 Y49.767
X-221.092 Y50.408
X-221.074 Y51.05
X-221.063 Y51.692
X-221.057 Y52.335
X-221.053 Y52.977
X-221.049 Y54.261
X-221.048 Y56.83
X-220.998 Y57.147
X-220.86 Y57.437
X-220.463 Y57.942
X-219.922 Y58.288
X-219.32 Y58.513
X-218.694 Y58.655
X-218.058 Y58.743
X-217.418 Y58.797
X-216.777 Y58.829
X-216.135 Y58.849
X-215.493 Y58.86
X-214.851 Y58.867
X-214.208 Y58.872
X-213.566 Y58.874
X-212.282 Y58.876
X-210.355 Y58.877
X-210.22 Y58.878
X-210.03 Y58.904
X-209.853 Y58.978
X-209.7 Y59.095
X-208.431 Y60.365
G3 X-208.711 Y60.895 I-0.232 J0.217 F800
G1 X-208.781 Y60.884 Z7.108
X-208.847 Y60.874 Z7.131
X-208.907 Y60.865 Z7.169
X-208.957 Y60.857 Z7.22
X-208.994 Y60.851 Z7.28
X-209.017 Y60.848 Z7.347
X-209.025 Y60.847 Z7.418
G0 Z20.1
X-222.763 Y46.17
Z7.735
G1 Z7.418 F600
X-222.755 Y46.173 Z7.347
X-222.734 Y46.183 Z7.28
X-222.7 Y46.199 Z7.22
X-222.655 Y46.221 Z7.169
X-222.6 Y46.247 Z7.131
X-222.54 Y46.276 Z7.108
X-222.476 Y46.306 Z7.1
G3 X-221.873 Y46.81 I-0.681 J1.429
G1 X-221.776 Y46.955 F1300
X-221.67 Y47.101
X-221.544 Y47.247
X-221.402 Y47.393
X-220.884 Y47.911
X-220.783 Y48.022
X-220.677 Y48.161
X-220.561 Y48.341
X-220.442 Y48.562
X-220.319 Y48.845
X-220.192 Y49.214
X-220.061 Y49.721
X-219.952 Y50.353
X-219.885 Y50.992
X-219.844 Y51.633
X-219.818 Y52.275
X-219.802 Y52.917
X-219.793 Y53.559
X-219.787 Y54.201
X-219.783 Y54.843
X-219.781 Y55.485
X-219.699 Y55.796
X-219.55 Y56.08
X-219.151 Y56.583
X-218.617 Y56.939
X-218.021 Y57.179
X-217.398 Y57.336
X-216.764 Y57.437
X-216.125 Y57.501
X-215.484 Y57.541
X-214.843 Y57.567
X-214.201 Y57.582
X-213.559 Y57.592
X-212.916 Y57.598
X-212.274 Y57.602
X-211.492 Y57.605
X-211.302 Y57.631
X-211.125 Y57.705
X-210.973 Y57.822
X-209.7 Y59.095
X-209.617 Y59.351 Z7.208 F800
X-209.726 Y59.553 Z7.3
X-209.727
X-209.961 Y59.634
X-213.521 Y60.863 F1300
X-216.586 Y60.782
X-218.775 Y60.397
X-220.088 Y59.893
X-221.256 Y59.089
X-222.277 Y57.931
G3 X-222.569 Y57.455 I1.973 J-1.535
G1 X-223.011 Y56.143
X-223.544 Y49.143
G3 X-221.528 Y47.547 I1.581 J-0.075
G1 X-221.41 Y47.585 F600
X-221.296 Y47.633
G3 X-220.884 Y47.911 Z7.1 I-0.668 J1.435
G1 X-219.652 Y49.143 F1300
X-219.551 Y49.254
X-219.438 Y49.405
X-219.313 Y49.601
X-219.19 Y49.833
X-219.059 Y50.14
X-218.927 Y50.53
X-218.791 Y51.072
X-218.686 Y51.706
X-218.62 Y52.344
X-218.578 Y52.985
X-218.552 Y53.627
X-218.536 Y54.269
X-218.42 Y54.568
X-218.079 Y55.112
X-217.58 Y55.517
X-217.003 Y55.798
X-216.389 Y55.988
X-215.759 Y56.113
X-215.122 Y56.194
X-214.482 Y56.247
X-213.841 Y56.28
X-213.199 Y56.301
X-212.777 Y56.31
X-212.59 Y56.338
X-212.417 Y56.412
X-212.268 Y56.527
X-210.973 Y57.822
X-210.937 Y57.869 Z7.124 F800
X-210.91 Y57.922 Z7.148
X-210.894 Y57.979 Z7.172
X-210.888 Y58.038 Z7.196
X-211.015 Y58.265 Z7.3
X-211.04 Y58.31
X-211.228 Y58.37
X-214.293 Y59.351 F1300
G3 X-215.418 Y59.497 I-0.876 J-2.342
G1 X-217.316 Y59.128
X-218.483 Y58.742
X-218.73 Y58.622
G3 X-219.04 Y58.477 I0.899 J-2.333
G1 X-220.088 Y57.738
X-220.964 Y56.713
X-221.11 Y56.487
G3 X-221.401 Y55.997 I1.99 J-1.514
G1 X-221.667 Y54.83
X-222.285 Y50.601
G3 X-220.296 Y48.779 I1.554 J-0.301
G1 X-220.178 Y48.817 F600
X-220.064 Y48.865
G3 X-219.797 Y49.023 Z7.175 I-0.668 J1.435
G1 X-219.652 Y49.143 Z7.1
X-218.486 Y50.309 F1300
X-218.306 Y50.508
X-218.194 Y50.654
X-218.071 Y50.844
X-217.944 Y51.08
X-217.813 Y51.378
X-217.678 Y51.765
X-217.541 Y52.297
X-217.43 Y52.929
X-217.31 Y53.227
X-216.97 Y53.772
X-216.479 Y54.186
X-215.908 Y54.48
X-215.298 Y54.681
X-214.67 Y54.815
X-214.114 Y54.893
X-213.959 Y54.932
X-213.817 Y55.003
X-213.692 Y55.103
G3 X-213.39 Y55.498 Z7.3 I-1.881 J1.754 F800
G1 X-213.327 Y55.605
X-213.269 Y55.715
G3 X-217.454 Y58.611 I-2.304 J1.142 F1300
X-219.139 Y50.469 I5.851 J-5.456
G1 X-219.119 Y50.423
X-219.087 Y50.37 F600
X-219.048 Y50.323
X-219.001 Y50.282
X-218.949 Y50.248
G3 X-218.486 Y50.309 Z7.1 I0.189 J0.355
G1 X-212.268 Y56.527 F1300
G3 X-212.549 Y57.057 I-0.232 J0.217 F800
G1 X-212.618 Y57.047 Z7.108
X-212.685 Y57.036 Z7.131
X-212.744 Y57.027 Z7.169
X-212.794 Y57.02 Z7.22
X-212.831 Y57.014 Z7.28
X-212.855 Y57.01 Z7.347
X-212.862 Y57.009 Z7.418
G0 Z20.1
X-205.735 Y-1.543
Z7.735
G1 Z7.418 F600
X-205.739 Y-1.537 Z7.347
X-205.753 Y-1.518 Z7.28
X-205.775 Y-1.487 Z7.22
X-205.804 Y-1.446 Z7.169
X-205.838 Y-1.397 Z7.131
X-205.877 Y-1.342 Z7.108
X-205.918 Y-1.284 Z7.1
G3 X-206.516 Y-0.775 I-1.292 J-0.913
G1 X-206.618 Y-0.73 F1300
X-206.662 Y-0.709
X-206.808 Y-0.624
X-207.392 Y-0.235
X-207.538 Y-0.134
X-207.684 Y-0.009
X-207.812 Y0.091
X-207.971 Y0.196
X-208.172 Y0.306
X-208.432 Y0.422
X-208.769 Y0.542
X-209.235 Y0.666
X-209.867 Y0.78
X-210.505 Y0.849
X-211.146 Y0.89
X-211.788 Y0.915
X-212.43 Y0.93
X-213.072 Y0.939
X-213.714 Y0.944
X-214.356 Y0.947
X-215.64 Y0.951
X-218.851 Y0.952
X-219.169 Y0.999
X-219.465 Y1.124
X-219.99 Y1.493
X-220.362 Y2.017
X-220.612 Y2.608
X-220.774 Y3.23
X-220.877 Y3.864
X-220.942 Y4.503
X-220.982 Y5.143
X-221.007 Y5.785
X-221.023 Y6.427
X-221.033 Y7.069
X-221.038 Y7.711
X-221.042 Y8.354
X-221.045 Y9.638
X-221.047 Y12.207
Y13.046
X-221.073 Y13.237
X-221.147 Y13.416
X-221.264 Y13.569
X-221.402 Y13.707
X-221.548 Y13.857
X-221.67 Y13.999
X-221.776 Y14.145
X-222.132 Y14.677
X-222.165 Y14.728
X-222.25 Y14.874
X-222.277 Y14.928
X-222.318 Y15.02
X-222.354 Y15.13
G3 X-222.954 Y15.12 I-0.298 J-0.109 F800
G1 X-222.976 Y15.053 Z7.108
X-222.997 Y14.989 Z7.131
X-223.016 Y14.932 Z7.169
X-223.031 Y14.884 Z7.22
X-223.043 Y14.848 Z7.28
X-223.05 Y14.826 Z7.347
X-223.053 Y14.818 Z7.418
G0 Z20.1
X-207.157 Y-0.969
Z7.735
G1 Z7.418 F600
X-207.159 Y-0.962 Z7.347
X-207.167 Y-0.94 Z7.28
X-207.179 Y-0.904 Z7.22
X-207.195 Y-0.856 Z7.169
X-207.214 Y-0.799 Z7.131
X-207.235 Y-0.735 Z7.108
X-207.258 Y-0.668 Z7.1
G3 X-207.684 Y-0.009 I-1.501 J-0.502
G1 X-207.693 Y-0.001 F1300
X-207.84 Y0.145
X-208.715 Y1.02
X-208.898 Y1.185
X-209.045 Y1.298
X-209.231 Y1.418
X-209.454 Y1.539
X-209.748 Y1.668
X-210.12 Y1.797
X-210.633 Y1.93
X-211.265 Y2.04
X-211.904 Y2.109
X-212.544 Y2.152
X-213.186 Y2.178
X-213.828 Y2.195
X-214.47 Y2.205
X-215.112 Y2.212
X-215.755 Y2.216
X-217.039 Y2.22
X-217.681 Y2.221
X-217.986 Y2.322
X-218.541 Y2.644
X-218.954 Y3.136
X-219.24 Y3.711
X-219.431 Y4.324
X-219.556 Y4.954
X-219.637 Y5.591
X-219.689 Y6.231
X-219.722 Y6.873
X-219.742 Y7.515
X-219.756 Y8.157
X-219.764 Y8.799
X-219.769 Y9.441
X-219.772 Y10.083
X-219.775 Y11.368
X-219.776 Y11.775
X-219.801 Y11.966
X-219.875 Y12.145
X-219.993 Y12.298
X-221.264 Y13.569
X-221.548 Y13.648 Z7.218 F800
X-221.695 Y13.506 Z7.3
X-221.789 Y13.415
X-221.814 Y13.3
X-223.046 Y7.728 F1300
X-222.802 Y4.228
X-222.243 Y2.333
X-221.468 Y1.02
X-220.661 Y0.145
X-219.545 Y-0.584
X-218.337 Y-0.999
X-210.019 Y-1.635
G3 X-208.351 Y0.376 I0.146 J1.576
G1 X-208.39 Y0.494 F600
X-208.438 Y0.609
G3 X-208.705 Y1.009 Z7.106 I-1.435 J-0.668
G1 X-208.715 Y1.02 Z7.1
X-210.019 Y2.323 F1300
X-210.134 Y2.428
X-210.281 Y2.541
X-210.473 Y2.665
X-210.705 Y2.79
X-211.004 Y2.922
X-211.388 Y3.055
X-211.916 Y3.191
X-212.549 Y3.302
X-213.187 Y3.372
X-213.828 Y3.416
X-214.469 Y3.444
X-215.111 Y3.462
X-215.753 Y3.473
X-216.395 Y3.48
X-216.698 Y3.587
X-217.25 Y3.916
X-217.661 Y4.409
X-217.948 Y4.984
X-218.142 Y5.596
X-218.271 Y6.225
X-218.355 Y6.861
X-218.41 Y7.501
X-218.445 Y8.142
X-218.468 Y8.784
X-218.482 Y9.426
X-218.492 Y10.068
X-218.496 Y10.5
X-218.522 Y10.69
X-218.596 Y10.866
X-218.712 Y11.018
X-219.993 Y12.298
X-220.234 Y12.382 Z7.203 F800
X-220.445 Y12.262 Z7.3
X-220.469 Y12.249
X-220.544 Y12.041
X-221.724 Y8.749 F1300
X-221.645 Y6.416
X-221.256 Y4.501
X-220.672 Y3.027
X-219.942 Y2.015
X-219.651 Y1.695
G3 X-219.372 Y1.42 I1.892 J1.634
G1 X-218.191 Y0.647
X-217.024 Y0.263
X-211.332 Y-0.331
G3 X-209.655 Y1.679 I0.156 J1.575
G1 X-209.693 Y1.797 F600
X-209.741 Y1.912
G3 X-209.905 Y2.187 Z7.171 I-1.435 J-0.668
G1 X-210.019 Y2.323 Z7.1
X-211.27 Y3.575 F1300
X-211.394 Y3.687
X-211.542 Y3.801
X-211.735 Y3.926
X-211.969 Y4.052
X-212.271 Y4.185
X-212.659 Y4.319
X-213.193 Y4.457
X-213.825 Y4.568
X-214.463 Y4.638
X-215.104 Y4.683
X-215.404 Y4.796
X-215.952 Y5.131
X-216.365 Y5.623
X-216.656 Y6.195
X-216.855 Y6.806
X-216.988 Y7.434
X-217.075 Y8.071
X-217.133 Y8.71
X-217.161 Y9.201
X-217.193 Y9.377
X-217.266 Y9.541
X-217.377 Y9.682
G3 X-217.825 Y9.666 Z7.3 I-0.217 J-0.232 F800
G1 X-217.862 Y9.619
X-217.889 Y9.566
X-217.905 Y9.509
X-217.911 Y9.45
X-217.915 Y9.441
X-219.359 Y6.42 F1300
G3 X-219.193 Y4.52 I1.8 J-0.8
G1 X-218.51 Y3.499
G3 X-217.462 Y2.664 I1.679 J1.031
G1 X-213 Y1.02
G3 X-210.894 Y2.886 I0.572 J1.475
G1 X-210.912 Y2.92
X-211.031 Y3.137 F600
X-211.27 Y3.575 Z7.1
X-212.5 Y4.804 F1300
X-212.663 Y4.952
X-212.811 Y5.066
X-213.004 Y5.191
X-213.24 Y5.318
X-213.828 Y5.576
X-214.399 Y5.87
X-214.863 Y6.313
X-215.21 Y6.854
X-215.456 Y7.447
X-215.522 Y7.69
X-215.566 Y7.81
X-215.631 Y7.92
X-215.713 Y8.018
G3 X-216.161 Y8.002 Z7.3 I-0.217 J-0.232 F800
G1 X-216.199 Y7.953
X-216.226 Y7.897
X-216.243 Y7.838
X-216.247 Y7.776
X-216.239 Y7.716 F1300
X-216.221 Y7.66
X-216.192 Y7.607
X-216.154 Y7.561
X-212.956 Y4.363
X-212.91 Y4.325
X-212.858 Y4.297
X-212.801 Y4.278
X-212.742 Y4.271
X-212.68 Y4.275 F600
X-212.62 Y4.291
X-212.564 Y4.318
X-212.515 Y4.356
G3 X-212.5 Y4.804 Z7.1 I-0.217 J0.232
G1 X-218.712 Y11.018 F1300
G3 X-219.139 Y11.023 I-0.217 J-0.232 F800
G1 X-219.17 Y10.978 Z7.105
X-219.199 Y10.935 Z7.119
X-219.227 Y10.894 Z7.142
X-219.235 Y10.852 Z7.172
X-219.241 Y10.816 Z7.208
X-219.247 Y10.785 Z7.249
X-219.244 Y10.759 Z7.302
X-219.243 Y10.743 Z7.359
Y10.737 Z7.417
G0 Z20.1
X-224.352 Y63.929
Z7.235
G1 Z6.918 F600
X-224.347 Y63.923 Z6.847
X-224.336 Y63.902 Z6.78
X-224.316 Y63.87 Z6.72
X-224.291 Y63.827 Z6.669
X-224.26 Y63.775 Z6.631
X-224.226 Y63.717 Z6.608
X-224.19 Y63.656 Z6.6
G3 X-223.143 Y62.258 I6.975 J4.13
G1 X-223.061 Y62.176 F1300
X-222.9 Y62.079
X-222.693 Y61.975
X-222.422 Y61.866
X-222.056 Y61.752
X-221.532 Y61.634
X-220.897 Y61.543
X-220.257 Y61.491
X-219.615 Y61.46
X-218.973 Y61.443
X-218.331 Y61.432
X-217.689 Y61.426
X-217.047 Y61.423
X-215.762 Y61.419
X-212.551 Y61.418
X-207.493
X-207.348 Y61.432
X-207.21 Y61.474
X-207.082 Y61.542
X-206.808 Y61.724
X-206.662 Y61.809
X-206.619 Y61.83
X-206.516 Y61.875
X-206.443 Y61.9
X-206.37 Y61.924
X-205.932 Y62.017
X-205.495 Y62.104
X-205.349 Y62.118
X-205.057 Y62.134
X-204.911 Y62.138
X-3.371 Y62.137
X-2.933 Y62.135
X-2.495 Y62.067
X-2.203 Y62.01
X-2.029 Y61.976
X-1.911 Y61.949
X-1.765 Y61.912
X-1.619 Y61.858
X-1.454 Y61.8
X-1.143 Y61.719
X-0.872 Y61.547
X-0.419 Y61.092
X-0.384 Y61.022
X-0.361 Y60.98
X-0.335 Y60.94
X-0.306 Y60.901
G3 X0.14 Y60.852 Z6.8 I0.248 J0.199 F800
G1 X0.185 Y60.895
X0.22 Y60.946
X0.244 Y61.003
X0.257 Y61.064
G3 X0.129 Y61.356 I-0.315 J0.036 F1300
G1 X-1.302 Y62.404
G3 X-1.604 Y62.444 I-0.188 J-0.256
G1 X-1.659 Y62.416 F600
X-1.708 Y62.378
X-1.749 Y62.331
X-1.78 Y62.277
G3 X-1.619 Y61.858 Z6.6 I0.29 J-0.129
G1 X-1.55 Y61.83 F1300
X-1.473 Y61.784
X-1.181 Y61.601
X-1.084 Y61.538
X-0.744 Y61.31
X-0.652 Y61.246
X-0.598 Y61.201
X-0.481 Y61.101
X-0.349 Y60.955
X-0.306 Y60.901
X-0.241 Y60.809
X-0.014 Y60.469
X0.146 Y60.226
X0.238 Y60.08
X0.278 Y60
X0.305 Y59.934
X0.361 Y59.788
X0.399 Y59.642
X0.424 Y59.529
X0.488 Y59.205
X0.515 Y59.059
X0.57 Y58.742
X0.582 Y58.622
X0.587 Y58.184
Y2.916
X0.582 Y2.478
X0.57 Y2.358
X0.566 Y2.333
X0.489 Y1.695
X0.453 Y1.376
X0.352 Y1.071
X0.163 Y0.812
X0.087 Y0.743
X0.044 Y0.701
X0.005 Y0.655
X-0.03 Y0.606
G3 X0.072 Y0.169 Z6.8 I0.27 J-0.167 F800
G1 X0.128 Y0.142
X0.188 Y0.126
X0.25 Y0.122
X0.311 Y0.13
G3 X0.54 Y0.335 I-0.071 J0.309 F1300
G1 X1.176 Y2.164
G3 X1.141 Y2.443 I-0.3 J0.104
G1 X1.102 Y2.491 F600
X1.054 Y2.531
X1 Y2.56
X0.941 Y2.579
G3 X0.566 Y2.333 Z6.6 I-0.064 J-0.311
G1 X0.515 Y2.041 F1300
X0.488 Y1.895
X0.424 Y1.571
X0.399 Y1.458
X0.361 Y1.312
X0.305 Y1.166
X0.278 Y1.1
X0.238 Y1.02
X0.132 Y0.853
X-0.046 Y0.583
X-0.241 Y0.291
X-0.306 Y0.199
X-0.349 Y0.145
X-0.481 Y-0.001
X-0.598 Y-0.101
X-0.652 Y-0.146
X-0.744 Y-0.21
X-1.084 Y-0.438
X-1.181 Y-0.501
X-1.473 Y-0.684
X-1.55 Y-0.73
X-1.619 Y-0.758
X-1.765 Y-0.812
X-1.911 Y-0.849
X-2.029 Y-0.876
X-2.349 Y-0.939
X-2.495 Y-0.967
X-2.933 Y-1.035
X-3.516 Y-1.038
X-204.911
X-205.057 Y-1.034
X-205.349 Y-1.018
X-205.495 Y-1.004
X-205.932 Y-0.917
X-206.37 Y-0.824
X-206.443 Y-0.8
X-206.516 Y-0.775
X-206.76 Y-0.692
X-207.219 Y-0.575
X-207.852 Y-0.467
X-208.491 Y-0.405
X-209.132 Y-0.368
X-209.774 Y-0.347
X-210.416 Y-0.335
X-211.058 Y-0.328
X-211.7 Y-0.324
X-212.343 Y-0.321
X-213.627 Y-0.319
X-218.122 Y-0.318
X-220.53
X-220.688 Y-0.288
X-220.984 Y-0.164
X-221.235 Y0.037
X-221.651 Y0.526
X-221.914 Y1.112
X-222.077 Y1.733
X-222.175 Y2.368
X-222.233 Y3.008
X-222.268 Y3.649
X-222.288 Y4.291
X-222.3 Y4.933
X-222.307 Y5.575
X-222.312 Y6.217
X-222.314 Y6.859
X-222.316 Y8.144
X-222.317 Y12.639
Y14.9
X-222.322 Y14.978
X-222.334 Y15.055
X-222.354 Y15.13
X-222.366 Y15.165
X-222.432 Y15.457
X-222.464 Y15.603
X-222.551 Y16.04
X-222.572 Y16.186
X-222.584 Y16.332
X-222.587 Y16.478
Y44.622
X-222.584 Y44.768
X-222.572 Y44.914
X-222.551 Y45.06
X-222.522 Y45.206
X-222.429 Y45.841
X-222.383 Y46.481
X-222.356 Y47.123
X-222.34 Y47.765
X-222.331 Y48.407
X-222.325 Y49.049
X-222.322 Y49.691
X-222.319 Y50.976
X-222.318 Y54.187
Y58.682
X-222.283 Y58.839
X-222.215 Y58.984
X-222.021 Y59.24
X-221.509 Y59.627
X-220.909 Y59.857
X-220.28 Y59.988
X-219.642 Y60.062
X-219.001 Y60.102
X-218.359 Y60.124
X-217.717 Y60.135
X-217.075 Y60.141
X-216.433 Y60.144
X-215.149 Y60.147
X-208.955 Y60.148
X-208.763 Y60.173
X-208.584 Y60.247
X-208.431 Y60.365
X-207.83 Y60.966
X-207.693 Y61.101
X-207.538 Y61.234
X-207.392 Y61.335
X-207.082 Y61.542
G3 X-207.253 Y62.117 I-0.185 J0.258 F800
G1 X-207.323 Y62.12 Z6.608
X-207.39 Y62.123 Z6.631
X-207.45 Y62.126 Z6.669
X-207.501 Y62.128 Z6.72
X-207.538 Y62.13 Z6.78
X-207.562 Y62.131 Z6.847
X-207.57 Z6.918
G0 Z20.1
X-223.099 Y44.273
Z7.235
G1 Z6.918 F600
X-223.093 Y44.279 Z6.847
X-223.078 Y44.297 Z6.78
X-223.052 Y44.325 Z6.72
X-223.019 Y44.362 Z6.669
X-222.978 Y44.407 Z6.631
X-222.934 Y44.457 Z6.608
X-222.886 Y44.51 Z6.6
G3 X-222.522 Y45.206 I-1.177 J1.058
G1 X-222.464 Y45.497 F1300
X-222.399 Y45.789
X-222.366 Y45.935
X-222.318 Y46.08
X-222.277 Y46.172
X-222.25 Y46.226
X-222.165 Y46.372
X-222.068 Y46.518
X-221.873 Y46.81
X-221.718 Y47.069
X-221.611 Y47.284
X-221.499 Y47.566
X-221.382 Y47.946
X-221.262 Y48.491
X-221.174 Y49.127
X-221.122 Y49.767
X-221.092 Y50.408
X-221.074 Y51.05
X-221.063 Y51.692
X-221.057 Y52.335
X-221.053 Y52.977
X-221.049 Y54.261
X-221.048 Y56.83
X-220.998 Y57.147
X-220.86 Y57.437
X-220.463 Y57.942
X-219.922 Y58.288
X-219.32 Y58.513
X-218.694 Y58.655
X-218.058 Y58.743
X-217.418 Y58.797
X-216.777 Y58.829
X-216.135 Y58.849
X-215.493 Y58.86
X-214.851 Y58.867
X-214.208 Y58.872
X-213.566 Y58.874
X-212.282 Y58.876
X-210.355 Y58.877
X-210.22 Y58.878
X-210.03 Y58.904
X-209.853 Y58.978
X-209.7 Y59.095
X-208.431 Y60.365
G3 X-208.711 Y60.895 I-0.232 J0.217 F800
G1 X-208.781 Y60.884 Z6.608
X-208.847 Y60.874 Z6.631
X-208.907 Y60.865 Z6.669
X-208.957 Y60.857 Z6.72
X-208.994 Y60.851 Z6.78
X-209.017 Y60.848 Z6.847
X-209.025 Y60.847 Z6.918
G0 Z20.1
X-222.763 Y46.17
Z7.235
G1 Z6.918 F600
X-222.755 Y46.173 Z6.847
X-222.734 Y46.183 Z6.78
X-222.7 Y46.199 Z6.72
X-222.655 Y46.221 Z6.669
X-222.6 Y46.247 Z6.631
X-222.54 Y46.276 Z6.608
X-222.476 Y46.306 Z6.6
G3 X-221.873 Y46.81 I-0.681 J1.429
G1 X-221.776 Y46.955 F1300
X-221.67 Y47.101
X-221.544 Y47.247
X-221.402 Y47.393
X-220.884 Y47.911
X-220.783 Y48.022
X-220.677 Y48.161
X-220.561 Y48.341
X-220.442 Y48.562
X-220.319 Y48.845
X-220.192 Y49.214
X-220.061 Y49.721
X-219.952 Y50.353
X-219.885 Y50.992
X-219.844 Y51.633
X-219.818 Y52.275
X-219.802 Y52.917
X-219.793 Y53.559
X-219.787 Y54.201
X-219.783 Y54.843
X-219.781 Y55.485
X-219.699 Y55.796
X-219.55 Y56.08
X-219.151 Y56.583
X-218.617 Y56.939
X-218.021 Y57.179
X-217.398 Y57.336
X-216.764 Y57.437
X-216.125 Y57.501
X-215.484 Y57.541
X-214.843 Y57.567
X-214.201 Y57.582
X-213.559 Y57.592
X-212.916 Y57.598
X-212.274 Y57.602
X-211.492 Y57.605
X-211.302 Y57.631
X-211.125 Y57.705
X-210.973 Y57.822
X-209.7 Y59.095
X-209.617 Y59.351 Z6.708 F800
X-209.726 Y59.553 Z6.8
X-209.727
X-209.961 Y59.634
X-213.521 Y60.863 F1300
X-216.586 Y60.782
X-218.775 Y60.397
X-220.088 Y59.893
X-221.256 Y59.089
X-222.277 Y57.931
G3 X-222.569 Y57.455 I1.973 J-1.535
G1 X-223.011 Y56.143
X-223.544 Y49.143
G3 X-221.528 Y47.547 I1.581 J-0.075
G1 X-221.41 Y47.585 F600
X-221.296 Y47.633
G3 X-220.884 Y47.911 Z6.6 I-0.668 J1.435
G1 X-219.652 Y49.143 F1300
X-219.551 Y49.254
X-219.438 Y49.405
X-219.313 Y49.601
X-219.19 Y49.833
X-219.059 Y50.14
X-218.927 Y50.53
X-218.791 Y51.072
X-218.686 Y51.706
X-218.62 Y52.344
X-218.578 Y52.985
X-218.552 Y53.627
X-218.536 Y54.269
X-218.42 Y54.568
X-218.079 Y55.112
X-217.58 Y55.517
X-217.003 Y55.798
X-216.389 Y55.988
X-215.759 Y56.113
X-215.122 Y56.194
X-214.482 Y56.247
X-213.841 Y56.28
X-213.199 Y56.301
X-212.777 Y56.31
X-212.59 Y56.338
X-212.417 Y56.412
X-212.268 Y56.527
X-210.973 Y57.822
X-210.937 Y57.869 Z6.624 F800
X-210.91 Y57.922 Z6.648
X-210.894 Y57.979 Z6.672
X-210.888 Y58.038 Z6.696
X-211.015 Y58.265 Z6.8
X-211.04 Y58.31
X-211.228 Y58.37
X-214.293 Y59.351 F1300
G3 X-215.418 Y59.497 I-0.876 J-2.342
G1 X-217.316 Y59.128
X-218.483 Y58.742
X-218.73 Y58.622
G3 X-219.04 Y58.477 I0.899 J-2.333
G1 X-220.088 Y57.738
X-220.964 Y56.713
X-221.11 Y56.487
G3 X-221.401 Y55.997 I1.99 J-1.514
G1 X-221.667 Y54.83
X-222.285 Y50.601
G3 X-220.296 Y48.779 I1.554 J-0.301
G1 X-220.178 Y48.817 F600
X-220.064 Y48.865
G3 X-219.797 Y49.023 Z6.675 I-0.668 J1.435
G1 X-219.652 Y49.143 Z6.6
X-218.486 Y50.309 F1300
X-218.306 Y50.508
X-218.194 Y50.654
X-218.071 Y50.844
X-217.944 Y51.08
X-217.813 Y51.378
X-217.678 Y51.765
X-217.541 Y52.297
X-217.43 Y52.929
X-217.31 Y53.227
X-216.97 Y53.772
X-216.479 Y54.186
X-215.908 Y54.48
X-215.298 Y54.681
X-214.67 Y54.815
X-214.114 Y54.893
X-213.959 Y54.932
X-213.817 Y55.003
X-213.692 Y55.103
G3 X-213.39 Y55.498 Z6.8 I-1.881 J1.754 F800
G1 X-213.327 Y55.605
X-213.269 Y55.715
G3 X-217.454 Y58.611 I-2.304 J1.142 F1300
X-219.139 Y50.469 I5.851 J-5.456
G1 X-219.119 Y50.423
X-219.087 Y50.37 F600
X-219.048 Y50.323
X-219.001 Y50.282
X-218.949 Y50.248
G3 X-218.486 Y50.309 Z6.6 I0.189 J0.355
G1 X-212.268 Y56.527 F1300
G3 X-212.549 Y57.057 I-0.232 J0.217 F800
G1 X-212.618 Y57.047 Z6.608
X-212.685 Y57.036 Z6.631
X-212.744 Y57.027 Z6.669
X-212.794 Y57.02 Z6.72
X-212.831 Y57.014 Z6.78
X-212.855 Y57.01 Z6.847
X-212.862 Y57.009 Z6.918
G0 Z20.1
X-205.735 Y-1.543
Z7.235
G1 Z6.918 F600
X-205.739 Y-1.537 Z6.847
X-205.753 Y-1.518 Z6.78
X-205.775 Y-1.487 Z6.72
X-205.804 Y-1.446 Z6.669
X-205.838 Y-1.397 Z6.631
X-205.877 Y-1.342 Z6.608
X-205.918 Y-1.284 Z6.6
G3 X-206.516 Y-0.775 I-1.292 J-0.913
G1 X-206.618 Y-0.73 F1300
X-206.662 Y-0.709
X-206.808 Y-0.624
X-207.392 Y-0.235
X-207.538 Y-0.134
X-207.684 Y-0.009
X-207.812 Y0.091
X-207.971 Y0.196
X-208.172 Y0.306
X-208.432 Y0.422
X-208.769 Y0.542
X-209.235 Y0.666
X-209.867 Y0.78
X-210.505 Y0.849
X-211.146 Y0.89
X-211.788 Y0.915
X-212.43 Y0.93
X-213.072 Y0.939
X-213.714 Y0.944
X-214.356 Y0.947
X-215.64 Y0.951
X-218.851 Y0.952
X-219.169 Y0.999
X-219.465 Y1.124
X-219.99 Y1.493
X-220.362 Y2.017
X-220.612 Y2.608
X-220.774 Y3.23
X-220.877 Y3.864
X-220.942 Y4.503
X-220.982 Y5.143
X-221.007 Y5.785
X-221.023 Y6.427
X-221.033 Y7.069
X-221.038 Y7.711
X-221.042 Y8.354
X-221.045 Y9.638
X-221.047 Y12.207
Y13.046
X-221.073 Y13.237
X-221.147 Y13.416
X-221.264 Y13.569
X-221.402 Y13.707
X-221.548 Y13.857
X-221.67 Y13.999
X-221.776 Y14.145
X-222.132 Y14.677
X-222.165 Y14.728
X-222.25 Y14.874
X-222.277 Y14.928
X-222.318 Y15.02
X-222.354 Y15.13
G3 X-222.954 Y15.12 I-0.298 J-0.109 F800
G1 X-222.976 Y15.053 Z6.608
X-222.997 Y14.989 Z6.631
X-223.016 Y14.932 Z6.669
X-223.031 Y14.884 Z6.72
X-223.043 Y14.848 Z6.78
X-223.05 Y14.826 Z6.847
X-223.053 Y14.818 Z6.918
G0 Z20.1
X-207.157 Y-0.969
Z7.235
G1 Z6.918 F600
X-207.159 Y-0.962 Z6.847
X-207.167 Y-0.94 Z6.78
X-207.179 Y-0.904 Z6.72
X-207.195 Y-0.856 Z6.669
X-207.214 Y-0.799 Z6.631
X-207.235 Y-0.735 Z6.608
X-207.258 Y-0.668 Z6.6
G3 X-207.684 Y-0.009 I-1.501 J-0.502
G1 X-207.693 Y-0.001 F1300
X-207.84 Y0.145
X-208.715 Y1.02
X-208.898 Y1.185
X-209.045 Y1.298
X-209.231 Y1.418
X-209.454 Y1.539
X-209.748 Y1.668
X-210.12 Y1.797
X-210.633 Y1.93
X-211.265 Y2.04
X-211.904 Y2.109
X-212.544 Y2.152
X-213.186 Y2.178
X-213.828 Y2.195
X-214.47 Y2.205
X-215.112 Y2.212
X-215.755 Y2.216
X-217.039 Y2.22
X-217.681 Y2.221
X-217.986 Y2.322
X-218.541 Y2.644
X-218.954 Y3.136
X-219.24 Y3.711
X-219.431 Y4.324
X-219.556 Y4.954
X-219.637 Y5.591
X-219.689 Y6.231
X-219.722 Y6.873
X-219.742 Y7.515
X-219.756 Y8.157
X-219.764 Y8.799
X-219.769 Y9.441
X-219.772 Y10.083
X-219.775 Y11.368
X-219.776 Y11.775
X-219.801 Y11.966
X-219.875 Y12.145
X-219.993 Y12.298
X-221.264 Y13.569
X-221.548 Y13.648 Z6.718 F800
X-221.695 Y13.506 Z6.8
X-221.789 Y13.415
X-221.814 Y13.3
X-223.046 Y7.728 F1300
X-222.802 Y4.228
X-222.243 Y2.333
X-221.468 Y1.02
X-220.661 Y0.145
X-219.545 Y-0.584
X-218.337 Y-0.999
X-210.019 Y-1.635
G3 X-208.351 Y0.376 I0.146 J1.576
G1 X-208.39 Y0.494 F600
X-208.438 Y0.609
G3 X-208.705 Y1.009 Z6.606 I-1.435 J-0.668
G1 X-208.715 Y1.02 Z6.6
X-210.019 Y2.323 F1300
X-210.134 Y2.428
X-210.281 Y2.541
X-210.473 Y2.665
X-210.705 Y2.79
X-211.004 Y2.922
X-211.388 Y3.055
X-211.916 Y3.191
X-212.549 Y3.302
X-213.187 Y3.372
X-213.828 Y3.416
X-214.469 Y3.444
X-215.111 Y3.462
X-215.753 Y3.473
X-216.395 Y3.48
X-216.698 Y3.587
X-217.25 Y3.916
X-217.661 Y4.409
X-217.948 Y4.984
X-218.142 Y5.596
X-218.271 Y6.225
X-218.355 Y6.861
X-218.41 Y7.501
X-218.445 Y8.142
X-218.468 Y8.784
X-218.482 Y9.426
X-218.492 Y10.068
X-218.496 Y10.5
X-218.522 Y10.69
X-218.596 Y10.866
X-218.712 Y11.018
X-219.993 Y12.298
X-220.234 Y12.382 Z6.703 F800
X-220.445 Y12.262 Z6.8
X-220.469 Y12.249
X-220.544 Y12.041
X-221.724 Y8.749 F1300
X-221.645 Y6.416
X-221.256 Y4.501
X-220.672 Y3.027
X-219.942 Y2.015
X-219.651 Y1.695
G3 X-219.372 Y1.42 I1.892 J1.634
G1 X-218.191 Y0.647
X-217.024 Y0.263
X-211.332 Y-0.331
G3 X-209.655 Y1.679 I0.156 J1.575
G1 X-209.693 Y1.797 F600
X-209.741 Y1.912
G3 X-209.905 Y2.187 Z6.671 I-1.435 J-0.668
G1 X-210.019 Y2.323 Z6.6
X-211.27 Y3.575 F1300
X-211.394 Y3.687
X-211.542 Y3.801
X-211.735 Y3.926
X-211.969 Y4.052
X-212.271 Y4.185
X-212.659 Y4.319
X-213.193 Y4.457
X-213.825 Y4.568
X-214.463 Y4.638
X-215.104 Y4.683
X-215.404 Y4.796
X-215.952 Y5.131
X-216.365 Y5.623
X-216.656 Y6.195
X-216.855 Y6.806
X-216.988 Y7.434
X-217.075 Y8.071
X-217.133 Y8.71
X-217.161 Y9.201
X-217.193 Y9.377
X-217.266 Y9.541
X-217.377 Y9.682
G3 X-217.825 Y9.666 Z6.8 I-0.217 J-0.232 F800
G1 X-217.862 Y9.619
X-217.889 Y9.566
X-217.905 Y9.509
X-217.911 Y9.45
X-217.915 Y9.441
X-219.359 Y6.42 F1300
G3 X-219.193 Y4.52 I1.8 J-0.8
G1 X-218.51 Y3.499
G3 X-217.462 Y2.664 I1.679 J1.031
G1 X-213 Y1.02
G3 X-210.894 Y2.886 I0.572 J1.475
G1 X-210.912 Y2.92
X-211.031 Y3.137 F600
X-211.27 Y3.575 Z6.6
X-212.5 Y4.804 F1300
X-212.663 Y4.952
X-212.811 Y5.066
X-213.004 Y5.191
X-213.24 Y5.318
X-213.828 Y5.576
X-214.399 Y5.87
X-214.863 Y6.313
X-215.21 Y6.854
X-215.456 Y7.447
X-215.522 Y7.69
X-215.566 Y7.81
X-215.631 Y7.92
X-215.713 Y8.018
G3 X-216.161 Y8.002 Z6.8 I-0.217 J-0.232 F800
G1 X-216.199 Y7.953
X-216.226 Y7.897
X-216.243 Y7.838
X-216.247 Y7.776
X-216.239 Y7.716 F1300
X-216.221 Y7.66
X-216.192 Y7.607
X-216.154 Y7.561
X-212.956 Y4.363
X-212.91 Y4.325
X-212.858 Y4.297
X-212.801 Y4.278
X-212.742 Y4.271
X-212.68 Y4.275 F600
X-212.62 Y4.291
X-212.564 Y4.318
X-212.515 Y4.356
G3 X-212.5 Y4.804 Z6.6 I-0.217 J0.232
G1 X-218.712 Y11.018 F1300
G3 X-219.139 Y11.023 I-0.217 J-0.232 F800
G1 X-219.17 Y10.978 Z6.605
X-219.199 Y10.935 Z6.619
X-219.227 Y10.894 Z6.642
X-219.235 Y10.852 Z6.672
X-219.241 Y10.816 Z6.708
X-219.247 Y10.785 Z6.749
X-219.244 Y10.759 Z6.802
X-219.243 Y10.743 Z6.859
Y10.737 Z6.917
G0 Z20.1
X-224.352 Y63.929
Z6.735
G1 Z6.418 F600
X-224.347 Y63.923 Z6.347
X-224.336 Y63.902 Z6.28
X-224.316 Y63.87 Z6.22
X-224.291 Y63.827 Z6.169
X-224.26 Y63.775 Z6.131
X-224.226 Y63.717 Z6.108
X-224.19 Y63.656 Z6.1
G3 X-223.143 Y62.258 I6.975 J4.13
G1 X-223.061 Y62.176 F1300
X-222.9 Y62.079
X-222.693 Y61.975
X-222.422 Y61.866
X-222.056 Y61.752
X-221.532 Y61.634
X-220.897 Y61.543
X-220.257 Y61.491
X-219.615 Y61.46
X-218.973 Y61.443
X-218.331 Y61.432
X-217.689 Y61.426
X-217.047 Y61.423
X-215.762 Y61.419
X-212.551 Y61.418
X-207.493
X-207.348 Y61.432
X-207.21 Y61.474
X-207.082 Y61.542
X-206.808 Y61.724
X-206.662 Y61.809
X-206.619 Y61.83
X-206.516 Y61.875
X-206.443 Y61.9
X-206.37 Y61.924
