(adap2)
(T6 D=3.175 CR=0 - ZMIN=4 - flat end mill)
G90 G94
G17
G21
G28 G91 Z0
G90

(Adaptive1)
T6
(18 Flat-45 degree helix)
S18000 M3
G17 G90 G94
G54
G0 X-160.762 Y54.367
Z30.1
G0 Z20.1
Z10.3
G3 X-158.732 Y53.918 Z10.22 I1.254 J0.853 F600
X-158.163 Y55.915 Z10.14 I-0.776 J1.301
X-160.121 Y56.602 Z10.06 I-1.344 J-0.696
X-160.923 Y54.69 Z9.98 I0.614 J-1.382
X-159.064 Y53.776 Z9.9 I1.415 J0.53
X-158.042 Y55.576 Z9.82 I-0.444 J1.442
X-159.775 Y56.703 Z9.74 I-1.465 J-0.357
X-161.002 Y55.041 Z9.66 I0.268 J-1.482
X-159.418 Y53.718 Z9.58 I1.494 J0.179
X-158.005 Y55.219 Z9.5 I-0.09 J1.501
X-161.012 Y55.219 I-1.504 J0
X-158.005 Y55.219 I1.504 J0
G1 X-157.988 Y55.861 F1300
X-157.959 Y55.936
X-157.925 Y56.082
X-157.922 Y56.232
X-157.944 Y56.38
X-157.959 Y56.433
X-158.062 Y56.646
X-158.226 Y56.816
X-158.436 Y56.925
X-158.669 Y56.963
X-160.318
X-160.468 Y56.955
X-160.615 Y56.926
X-160.758 Y56.88
X-160.895 Y56.819
X-161.024 Y56.743
X-161.146 Y56.656
X-161.259 Y56.558
X-161.364 Y56.45
X-161.458 Y56.333
X-161.544 Y56.208
X-161.621 Y56.073
X-161.689 Y55.929
X-161.746 Y55.777
X-161.792 Y55.617
X-161.825 Y55.452
X-161.845 Y55.282
X-161.852 Y55.108
X-161.845 Y54.932
X-161.823 Y54.755
X-161.787 Y54.579
X-161.736 Y54.405
X-161.671 Y54.234
X-161.592 Y54.068
X-161.499 Y53.907
X-161.389 Y53.749
X-161.228 Y53.603
X-161.031 Y53.509
X-160.816 Y53.477
X-158.925
X-158.779 Y53.481
X-158.633 Y53.506
X-158.56 Y53.519
X-158.524 Y53.53
X-158.487 Y53.546
X-158.423 Y53.586
X-158.392 Y53.612
X-158.36 Y53.647
X-158.238 Y53.792
X-158.195 Y53.86
X-157.353 Y55.319
X-157.285 Y55.453
X-157.228 Y55.592
X-157.185 Y55.735
X-157.155 Y55.882
X-157.138 Y56.031
X-157.133 Y56.181
X-157.144 Y56.331
X-157.146 Y56.342
X-157.208 Y56.54
X-157.323 Y56.714
X-157.481 Y56.848
X-157.671 Y56.933
X-157.877 Y56.963
G3 X-158.183 Y56.634 Z9.7 I0.011 J-0.317 F800
G1 X-158.176 Y56.58
X-158.137 Y56.391
X-157.933 Y55.422 F1300
X-157.931 Y55.415
X-157.911 Y55.356 F600
X-157.88 Y55.303
X-157.839 Y55.256
X-157.79 Y55.218
G3 X-157.353 Y55.319 Z9.5 I0.168 J0.269
G1 X-156.882 Y56.135 F1300
X-156.846 Y56.202
X-156.822 Y56.27
X-156.808 Y56.314
X-156.769 Y56.459
X-156.79 Y56.618
X-156.865 Y56.761
X-156.984 Y56.869
X-157.133 Y56.93
G3 X-157.457 Y56.879 Z9.634 I-0.088 J-0.496 F800
G1 X-157.526 Y56.835 Z9.667
X-157.586 Y56.778 Z9.7
X-157.635 Y56.712
X-157.672 Y56.638
X-157.694 Y56.558
G3 X-157.42 Y56.046 I0.453 J-0.087 F1300
G1 X-157.341 Y56.021 F600
X-157.259 Y56.011
X-157.176 Y56.015
X-157.115 Y56.028 Z9.675
X-157.057 Y56.049 Z9.65
G3 X-156.808 Y56.314 Z9.5 I-0.184 J0.423
G1 X-156.775 Y56.415 F1300
X-156.755 Y56.488
X-156.751 Y56.525
X-156.75 Y56.561
X-156.753 Y56.598
X-156.76 Y56.634
X-156.77 Y56.67
X-156.785 Y56.707
X-156.802 Y56.738
X-156.822 Y56.77
X-156.848 Y56.801
X-156.882 Y56.832
X-156.908 Y56.853
X-156.938 Y56.872
X-156.968 Y56.887
X-156.998 Y56.899
X-157.028 Y56.908
X-157.247 Y56.954
X-157.32 Y56.962
X-158.669 Y56.963
G3 X-158.902 Y56.861 Z9.605 I0 J-0.318 F800
G1 X-158.95 Y56.819 Z9.63
X-159.004 Y56.787 Z9.656
X-159.064 Y56.767 Z9.681
X-159.11 Y56.756 Z9.7
X-159.33 Y56.705
X-159.352 Y56.701
X-159.407 Y56.697 F1300
X-159.462 Y56.702
X-159.515 Y56.717
X-159.564 Y56.741
X-159.605 Y56.765
X-159.716 Y56.82 F600
X-159.831 Y56.868
G3 X-160.318 Y56.963 Z9.5 I-0.542 J-1.487
G1 X-161.193 F1300
X-161.343 Y56.955
X-161.491 Y56.927
X-161.633 Y56.879
X-161.768 Y56.815
X-161.895 Y56.736
X-162.014 Y56.644
X-162.124 Y56.542
X-162.227 Y56.429
X-162.323 Y56.304
X-162.414 Y56.166
X-162.498 Y56.01
X-162.573 Y55.841
X-162.636 Y55.661
X-162.686 Y55.471
X-162.722 Y55.268
X-162.742 Y55.056
X-162.745 Y54.835
X-162.73 Y54.609
X-162.697 Y54.381
X-162.65 Y54.178
X-162.59 Y53.99
X-162.571 Y53.943
X-162.464 Y53.759
X-162.308 Y53.614
X-162.118 Y53.519
X-161.909 Y53.482
X-161.843 Y53.479
X-161.697 Y53.477
X-160.816
G3 X-160.509 Y53.805 Z9.7 I-0.011 J0.317 F800
G1 X-160.512 Y53.836
X-160.541 Y54.052
X-160.85 Y56.389 F1300
X-160.883 Y56.635 F600
X-160.89 Y56.687 Z9.679
G3 X-161.193 Y56.963 Z9.5 I-0.315 J-0.042
G1 X-162.069 F1300
X-162.219 Y56.955
X-162.365 Y56.923
X-162.506 Y56.871
X-162.64 Y56.803
X-162.766 Y56.722
X-162.884 Y56.63
X-162.994 Y56.527
X-163.103 Y56.408
X-163.21 Y56.269
X-163.309 Y56.117
X-163.402 Y55.946
X-163.488 Y55.754
X-163.56 Y55.548
X-163.618 Y55.329
X-163.631 Y55.253
X-163.637 Y55.029
X-163.576 Y54.815
X-163.454 Y54.628
G3 X-163.005 Y54.619 Z9.7 I0.229 J0.22 F800
G1 X-162.979 Y54.646
X-162.957 Y54.677
X-162.864 Y54.823
X-161.854 Y56.408 F1300
X-161.812 Y56.475 F600
X-161.786 Y56.525
X-161.769 Y56.578
X-161.762 Y56.634
G3 X-162.069 Y56.963 Z9.5 I-0.317 J0.011
G1 X-162.944 F1300
X-163.094 Y56.955
X-163.24 Y56.921
X-163.381 Y56.87
X-163.515 Y56.802
X-163.642 Y56.722
X-163.761 Y56.631
X-163.882 Y56.522
X-163.992 Y56.406
X-164.086 Y56.289
X-164.131 Y56.222
X-164.219 Y56.045
X-164.258 Y55.85
X-164.243 Y55.653
X-164.177 Y55.467
X-164.064 Y55.305
G3 X-163.615 Y55.301 Z9.7 I0.226 J0.223 F800
G1 X-163.588 Y55.331
X-163.459 Y55.494
X-162.735 Y56.412 F1300
X-162.706 Y56.448 F600
X-162.67 Y56.505
X-162.647 Y56.568
X-162.638 Y56.634
G3 X-162.944 Y56.963 Z9.5 I-0.317 J0.011
G1 X-163.819 F1300
X-163.969 Y56.955
X-164.116 Y56.922
X-164.256 Y56.868
X-164.262 Y56.864
X-164.44 Y56.727
X-164.568 Y56.542
X-164.635 Y56.328
X-164.634 Y56.103
X-164.566 Y55.889
X-164.438 Y55.705
G3 X-163.989 Y55.711 Z9.7 I0.222 J0.227 F800
G1 X-163.96 Y55.744
X-163.937 Y55.781
X-163.86 Y55.922
X-163.6 Y56.405 F1300
X-163.551 Y56.494 F600
X-163.531 Y56.539
X-163.519 Y56.586
X-163.513 Y56.634
G3 X-163.819 Y56.963 Z9.5 I-0.317 J0.011
G1 X-164.469 F1300
X-164.509 Y56.96
X-164.542 Y56.958
X-164.687 Y56.922
X-164.827 Y56.816
X-164.922 Y56.669
X-164.963 Y56.499
X-164.944 Y56.325
X-164.868 Y56.167
G3 X-164.435 Y56.004 Z9.695 I0.348 J0.268 F800
G1 X-164.424 Y56.007 Z9.7
X-164.345 Y56.032
X-164.272 Y56.069
X-164.206 Y56.119
G3 X-164.047 Y56.5 I-0.322 J0.357 F1300
G1 X-164.058 Y56.582 F600
X-164.083 Y56.66
X-164.121 Y56.734
G3 X-164.542 Y56.958 Z9.5 I-0.407 J-0.257
G1 X-164.76 Y56.915 F1300
X-164.794 Y56.906
X-164.828 Y56.892
X-164.862 Y56.874
X-164.895 Y56.853
X-164.906 Y56.844
X-164.944 Y56.81
X-164.974 Y56.775
X-164.997 Y56.741
X-165.015 Y56.707
X-165.03 Y56.67
X-165.04 Y56.634
X-165.05 Y56.561
X-165.049 Y56.525
X-165.044 Y56.488
X-165.037 Y56.452
X-165.025 Y56.415
X-165.007 Y56.379
X-164.987 Y56.343
X-164.906 Y56.221
X-164.837 Y56.124
X-164.699 Y55.978
X-164.281 Y55.541
X-164.013 Y55.25
X-163.881 Y55.104
X-163.447 Y54.62
X-163.301 Y54.451
X-163.114 Y54.23
X-162.864 Y53.932
X-162.718 Y53.76
X-162.603 Y53.647
X-162.536 Y53.586
X-162.499 Y53.559
X-162.463 Y53.539
X-162.426 Y53.523
X-162.379 Y53.509
X-162.332 Y53.501
X-162.28 Y53.494
X-161.909 Y53.482
G3 X-161.594 Y53.769 I-0.001 J0.317 F800
G1 X-161.592 Y53.799 Z9.501
X-161.606 Y53.853 Z9.512
X-161.619 Y53.904 Z9.532
X-161.631 Y53.951 Z9.562
X-161.659 Y53.984 Z9.601
X-161.683 Y54.012 Z9.648
X-161.7 Y54.032 Z9.701
X-161.71 Y54.045 Z9.758
X-161.714 Y54.049 Z9.817
G0 X-160.762 Y54.367
Z9.8
G3 X-158.732 Y53.918 Z9.72 I1.254 J0.853 F600
X-158.163 Y55.915 Z9.64 I-0.776 J1.301
X-160.121 Y56.602 Z9.56 I-1.344 J-0.696
X-160.923 Y54.69 Z9.48 I0.614 J-1.382
X-159.064 Y53.776 Z9.4 I1.415 J0.53
X-158.042 Y55.576 Z9.32 I-0.444 J1.442
X-159.775 Y56.703 Z9.24 I-1.465 J-0.357
X-161.002 Y55.041 Z9.16 I0.269 J-1.482
X-159.418 Y53.718 Z9.08 I1.494 J0.179
X-158.005 Y55.219 Z9 I-0.09 J1.501
X-161.012 Y55.219 I-1.504 J0
X-158.005 Y55.219 I1.504 J0
G1 X-157.988 Y55.861 F1300
X-157.959 Y55.936
X-157.925 Y56.082
X-157.922 Y56.232
X-157.944 Y56.38
X-157.959 Y56.433
X-158.062 Y56.646
X-158.226 Y56.816
X-158.436 Y56.925
X-158.669 Y56.963
X-160.318
X-160.468 Y56.955
X-160.615 Y56.926
X-160.758 Y56.88
X-160.895 Y56.819
X-161.024 Y56.743
X-161.146 Y56.656
X-161.259 Y56.558
X-161.364 Y56.45
X-161.458 Y56.333
X-161.544 Y56.208
X-161.621 Y56.073
X-161.689 Y55.929
X-161.746 Y55.777
X-161.792 Y55.617
X-161.825 Y55.452
X-161.845 Y55.282
X-161.852 Y55.108
X-161.845 Y54.932
X-161.823 Y54.755
X-161.787 Y54.579
X-161.736 Y54.405
X-161.671 Y54.234
X-161.592 Y54.068
X-161.499 Y53.907
X-161.389 Y53.749
X-161.228 Y53.603
X-161.031 Y53.509
X-160.816 Y53.477
X-158.925
X-158.779 Y53.481
X-158.633 Y53.506
X-158.56 Y53.519
X-158.524 Y53.53
X-158.487 Y53.546
X-158.423 Y53.586
X-158.392 Y53.612
X-158.36 Y53.647
X-158.238 Y53.792
X-158.195 Y53.86
X-157.353 Y55.319
X-157.285 Y55.453
X-157.228 Y55.592
X-157.185 Y55.735
X-157.155 Y55.882
X-157.138 Y56.031
X-157.133 Y56.181
X-157.144 Y56.331
X-157.146 Y56.342
X-157.208 Y56.54
X-157.323 Y56.714
X-157.481 Y56.848
X-157.671 Y56.933
X-157.877 Y56.963
G3 X-158.183 Y56.634 Z9.2 I0.011 J-0.317 F800
G1 X-158.176 Y56.58
X-158.137 Y56.391
X-157.933 Y55.422 F1300
X-157.931 Y55.415
X-157.911 Y55.356 F600
X-157.88 Y55.303
X-157.839 Y55.256
X-157.79 Y55.218
G3 X-157.353 Y55.319 Z9 I0.168 J0.269
G1 X-156.882 Y56.135 F1300
X-156.846 Y56.202
X-156.822 Y56.27
X-156.808 Y56.314
X-156.769 Y56.459
X-156.79 Y56.618
X-156.865 Y56.761
X-156.984 Y56.869
X-157.133 Y56.93
G3 X-157.457 Y56.879 Z9.134 I-0.088 J-0.496 F800
G1 X-157.526 Y56.835 Z9.167
X-157.586 Y56.778 Z9.2
X-157.635 Y56.712
X-157.672 Y56.638
X-157.694 Y56.558
G3 X-157.42 Y56.046 I0.453 J-0.087 F1300
G1 X-157.341 Y56.021 F600
X-157.259 Y56.011
X-157.176 Y56.015
X-157.115 Y56.028 Z9.175
X-157.057 Y56.049 Z9.15
G3 X-156.808 Y56.314 Z9 I-0.184 J0.423
G1 X-156.775 Y56.415 F1300
X-156.755 Y56.488
X-156.751 Y56.525
X-156.75 Y56.561
X-156.753 Y56.598
X-156.76 Y56.634
X-156.77 Y56.67
X-156.785 Y56.707
X-156.802 Y56.738
X-156.822 Y56.77
X-156.848 Y56.801
X-156.882 Y56.832
X-156.908 Y56.853
X-156.938 Y56.872
X-156.968 Y56.887
X-156.998 Y56.899
X-157.028 Y56.908
X-157.247 Y56.954
X-157.32 Y56.962
X-158.669 Y56.963
G3 X-158.902 Y56.861 Z9.105 I0 J-0.318 F800
G1 X-158.95 Y56.819 Z9.13
X-159.004 Y56.787 Z9.156
X-159.064 Y56.767 Z9.181
X-159.11 Y56.756 Z9.2
X-159.33 Y56.705
X-159.352 Y56.701
X-159.407 Y56.697 F1300
X-159.462 Y56.702
X-159.515 Y56.717
X-159.564 Y56.741
X-159.605 Y56.765
X-159.716 Y56.82 F600
X-159.831 Y56.868
G3 X-160.318 Y56.963 Z9 I-0.542 J-1.487
G1 X-161.193 F1300
X-161.343 Y56.955
X-161.491 Y56.927
X-161.633 Y56.879
X-161.768 Y56.815
X-161.895 Y56.736
X-162.014 Y56.644
X-162.124 Y56.542
X-162.227 Y56.429
X-162.323 Y56.304
X-162.414 Y56.166
X-162.498 Y56.01
X-162.573 Y55.841
X-162.636 Y55.661
X-162.686 Y55.471
X-162.722 Y55.268
X-162.742 Y55.056
X-162.745 Y54.835
X-162.73 Y54.609
X-162.697 Y54.381
X-162.65 Y54.178
X-162.59 Y53.99
X-162.571 Y53.943
X-162.464 Y53.759
X-162.308 Y53.614
X-162.118 Y53.519
X-161.909 Y53.482
X-161.843 Y53.479
X-161.697 Y53.477
X-160.816
G3 X-160.509 Y53.805 Z9.2 I-0.011 J0.317 F800
G1 X-160.512 Y53.836
X-160.541 Y54.052
X-160.85 Y56.389 F1300
X-160.883 Y56.635 F600
X-160.89 Y56.687 Z9.179
G3 X-161.193 Y56.963 Z9 I-0.315 J-0.042
G1 X-162.069 F1300
X-162.219 Y56.955
X-162.365 Y56.923
X-162.506 Y56.871
X-162.64 Y56.803
X-162.766 Y56.722
X-162.884 Y56.63
X-162.994 Y56.527
X-163.103 Y56.408
X-163.21 Y56.269
X-163.309 Y56.117
X-163.402 Y55.946
X-163.488 Y55.754
X-163.56 Y55.548
X-163.618 Y55.329
X-163.631 Y55.253
X-163.637 Y55.029
X-163.576 Y54.815
X-163.454 Y54.628
G3 X-163.005 Y54.619 Z9.2 I0.229 J0.22 F800
G1 X-162.979 Y54.646
X-162.957 Y54.677
X-162.864 Y54.823
X-161.854 Y56.408 F1300
X-161.812 Y56.475 F600
X-161.786 Y56.525
X-161.769 Y56.578
X-161.762 Y56.634
G3 X-162.069 Y56.963 Z9 I-0.317 J0.011
G1 X-162.944 F1300
X-163.094 Y56.955
X-163.24 Y56.921
X-163.381 Y56.87
X-163.515 Y56.802
X-163.642 Y56.722
X-163.761 Y56.631
X-163.882 Y56.522
X-163.992 Y56.406
X-164.086 Y56.289
X-164.131 Y56.222
X-164.219 Y56.045
X-164.258 Y55.85
X-164.243 Y55.653
X-164.177 Y55.467
X-164.064 Y55.305
G3 X-163.615 Y55.301 Z9.2 I0.226 J0.223 F800
G1 X-163.588 Y55.331
X-163.459 Y55.494
X-162.735 Y56.412 F1300
X-162.706 Y56.448 F600
X-162.67 Y56.505
X-162.647 Y56.568
X-162.638 Y56.634
G3 X-162.944 Y56.963 Z9 I-0.317 J0.011
G1 X-163.819 F1300
X-163.969 Y56.955
X-164.116 Y56.922
X-164.256 Y56.868
X-164.262 Y56.864
X-164.44 Y56.727
X-164.568 Y56.542
X-164.635 Y56.328
X-164.634 Y56.103
X-164.566 Y55.889
X-164.438 Y55.705
G3 X-163.989 Y55.711 Z9.2 I0.222 J0.227 F800
G1 X-163.96 Y55.744
X-163.937 Y55.781
X-163.86 Y55.922
X-163.6 Y56.405 F1300
X-163.551 Y56.494 F600
X-163.531 Y56.539
X-163.519 Y56.586
X-163.513 Y56.634
G3 X-163.819 Y56.963 Z9 I-0.317 J0.011
G1 X-164.469 F1300
X-164.509 Y56.96
X-164.542 Y56.958
X-164.687 Y56.922
X-164.827 Y56.816
X-164.922 Y56.669
X-164.963 Y56.499
X-164.944 Y56.325
X-164.868 Y56.167
G3 X-164.435 Y56.004 Z9.195 I0.348 J0.268 F800
G1 X-164.424 Y56.007 Z9.2
X-164.345 Y56.032
X-164.272 Y56.069
X-164.206 Y56.119
G3 X-164.047 Y56.5 I-0.322 J0.357 F1300
G1 X-164.058 Y56.582 F600
X-164.083 Y56.66
X-164.121 Y56.734
G3 X-164.542 Y56.958 Z9 I-0.407 J-0.257
G1 X-164.76 Y56.915 F1300
X-164.794 Y56.906
X-164.828 Y56.892
X-164.862 Y56.874
X-164.895 Y56.853
X-164.906 Y56.844
X-164.944 Y56.81
X-164.974 Y56.775
X-164.997 Y56.741
X-165.015 Y56.707
X-165.03 Y56.67
X-165.04 Y56.634
X-165.05 Y56.561
X-165.049 Y56.525
X-165.044 Y56.488
X-165.037 Y56.452
X-165.025 Y56.415
X-165.007 Y56.379
X-164.987 Y56.343
X-164.906 Y56.221
X-164.837 Y56.124
X-164.699 Y55.978
X-164.281 Y55.541
X-164.013 Y55.25
X-163.881 Y55.104
X-163.447 Y54.62
X-163.301 Y54.451
X-163.114 Y54.23
X-162.864 Y53.932
X-162.718 Y53.76
X-162.603 Y53.647
X-162.536 Y53.586
X-162.499 Y53.559
X-162.463 Y53.539
X-162.426 Y53.523
X-162.379 Y53.509
X-162.332 Y53.501
X-162.28 Y53.494
X-161.909 Y53.482
G3 X-161.594 Y53.769 I-0.001 J0.317 F800
G1 X-161.592 Y53.799 Z9.001
X-161.606 Y53.853 Z9.012
X-161.619 Y53.904 Z9.032
X-161.631 Y53.951 Z9.062
X-161.659 Y53.984 Z9.101
X-161.683 Y54.012 Z9.148
X-161.7 Y54.032 Z9.201
X-161.71 Y54.045 Z9.258
X-161.714 Y54.049 Z9.317
G0 Z20.1
X-146.699 Y49.137
Z10.3
G3 X-144.65 Y48.777 Z10.22 I1.217 J0.912 F600
X-144.159 Y50.796 Z10.14 I-0.831 J1.272
X-146.141 Y51.416 Z10.06 I-1.321 J-0.747
X-146.886 Y49.479 Z9.98 I0.66 J-1.365
X-145.003 Y48.612 Z9.9 I1.404 J0.571
X-144.018 Y50.434 Z9.82 I-0.479 J1.436
X-145.77 Y51.533 Z9.74 I-1.463 J-0.385
X-146.979 Y49.856 Z9.66 I0.29 J-1.483
X-145.385 Y48.544 Z9.58 I1.497 J0.194
X-143.974 Y50.049 Z9.5 I-0.097 J1.505
X-146.99 Y50.049 I-1.508 J0
X-143.974 Y50.049 I1.508 J0
G1 X-143.957 Y50.691 F1300
X-143.928 Y50.766
X-143.894 Y50.912
X-143.89 Y51.062
X-143.912 Y51.21
X-143.954 Y51.354
X-144.014 Y51.491
X-144.09 Y51.621
X-144.18 Y51.741
X-144.281 Y51.852
X-144.392 Y51.953
X-144.511 Y52.043
X-144.638 Y52.123
X-144.772 Y52.192
X-144.913 Y52.251
X-145.062 Y52.3
X-145.219 Y52.338
X-145.381 Y52.363
X-145.548 Y52.376
X-145.718 Y52.375
X-145.89 Y52.36
X-146.063 Y52.331
X-146.235 Y52.288
X-146.405 Y52.23
X-146.571 Y52.158
X-146.732 Y52.073
X-146.887 Y51.974
X-147.034 Y51.862
X-147.173 Y51.739
X-147.302 Y51.603
X-147.421 Y51.457
X-147.527 Y51.302
X-147.622 Y51.138
X-147.703 Y50.966
X-147.77 Y50.788
X-147.822 Y50.604
X-147.86 Y50.417
X-147.883 Y50.227
X-147.891 Y50.035
X-147.883 Y49.843
X-147.859 Y49.652
X-147.821 Y49.463
X-147.767 Y49.278
X-147.698 Y49.098
X-147.616 Y48.923
X-147.519 Y48.756
X-147.409 Y48.597
X-147.287 Y48.447
X-147.153 Y48.308
X-147.008 Y48.179
X-146.854 Y48.063
X-146.69 Y47.959
X-146.519 Y47.869
X-146.341 Y47.792
X-146.157 Y47.731
X-145.969 Y47.684
X-145.778 Y47.652
X-145.585 Y47.636
X-145.391
X-145.198 Y47.651
X-145.006 Y47.681
X-144.818 Y47.727
X-144.634 Y47.788
X-144.455 Y47.863
X-144.283 Y47.952
X-144.119 Y48.055
X-143.963 Y48.171
X-143.817 Y48.299
X-143.682 Y48.438
X-143.559 Y48.588
X-143.448 Y48.747
X-143.343 Y48.926
X-143.204 Y49.215
X-143.05 Y49.615
X-142.962 Y49.911
X-142.907 Y50.173
X-142.875 Y50.417
X-142.865 Y50.645
X-142.872 Y50.862
X-142.896 Y51.072
X-142.936 Y51.277
X-142.993 Y51.478
X-143.065 Y51.674
X-143.153 Y51.863
X-143.256 Y52.044
X-143.374 Y52.218
X-143.506 Y52.383
X-143.654 Y52.54
X-143.815 Y52.685
X-143.99 Y52.819
X-144.177 Y52.94
X-144.377 Y53.048
X-144.588 Y53.14
X-144.809 Y53.216
X-145.038 Y53.275
X-145.274 Y53.316
X-145.516 Y53.338
X-145.761 Y53.341
X-146.009 Y53.324
X-146.257 Y53.286
X-146.503 Y53.229
X-146.745 Y53.151
X-146.983 Y53.053
X-147.213 Y52.936
X-147.434 Y52.8
X-147.645 Y52.645
X-147.845 Y52.474
X-148.03 Y52.285
X-148.201 Y52.082
X-148.355 Y51.865
X-148.492 Y51.635
X-148.61 Y51.394
X-148.71 Y51.144
X-148.788 Y50.886
X-148.846 Y50.621
X-148.883 Y50.353
X-148.898 Y50.081
X-148.891 Y49.809
X-148.863 Y49.538
X-148.812 Y49.27
X-148.74 Y49.007
X-148.647 Y48.75
X-148.534 Y48.501
X-148.401 Y48.261
X-148.249 Y48.033
X-148.08 Y47.818
X-147.893 Y47.617
X-147.691 Y47.431
X-147.474 Y47.262
X-147.245 Y47.111
X-147.004 Y46.979
X-146.753 Y46.867
X-146.494 Y46.775
X-146.228 Y46.705
X-145.958 Y46.655
X-145.684 Y46.628
X-145.409 Y46.623
X-145.134 Y46.64
X-144.862 Y46.678
X-144.594 Y46.739
X-144.331 Y46.821
X-144.076 Y46.923
X-143.829 Y47.046
X-143.594 Y47.188
X-143.37 Y47.349
X-143.158 Y47.529
X-142.944 Y47.743
X-142.726 Y47.999
X-142.523 Y48.28
X-142.338 Y48.585
X-142.178 Y48.903
X-142.047 Y49.227
X-141.945 Y49.549
X-141.872 Y49.869
X-141.827 Y50.186
X-141.807 Y50.499
X-141.812 Y50.809
X-141.842 Y51.115
X-141.895 Y51.414
X-141.972 Y51.705
X-142.072 Y51.989
X-142.194 Y52.263
X-142.337 Y52.526
X-142.502 Y52.778
X-142.687 Y53.016
X-142.891 Y53.24
X-143.114 Y53.448
X-143.356 Y53.64
X-143.613 Y53.812
X-143.886 Y53.965
X-144.173 Y54.096
X-144.473 Y54.205
X-144.782 Y54.29
X-145.1 Y54.351
X-145.425 Y54.386
X-145.753 Y54.395
X-146.084 Y54.377
X-146.415 Y54.333
X-146.743 Y54.262
X-147.066 Y54.164
X-147.382 Y54.04
X-147.69 Y53.89
X-147.985 Y53.714
X-148.267 Y53.515
X-148.534 Y53.293
X-148.782 Y53.049
X-149.012 Y52.784
X-149.22 Y52.501
X-149.405 Y52.202
X-149.566 Y51.887
X-149.702 Y51.56
X-149.811 Y51.222
X-149.893 Y50.875
X-149.947 Y50.523
X-149.973 Y50.166
X-149.97 Y49.808
X-149.938 Y49.451
X-149.878 Y49.097
X-149.789 Y48.749
X-149.672 Y48.409
X-149.529 Y48.079
X-149.359 Y47.761
X-149.164 Y47.458
X-148.946 Y47.171
X-148.705 Y46.903
X-148.443 Y46.655
X-148.162 Y46.428
X-147.863 Y46.225
X-147.549 Y46.046
X-147.222 Y45.893
X-146.883 Y45.767
X-146.535 Y45.668
X-146.181 Y45.597
X-145.822 Y45.555
X-145.46 Y45.542
X-145.099 Y45.559
X-144.74 Y45.604
X-144.385 Y45.677
X-144.038 Y45.779
X-143.7 Y45.909
X-143.373 Y46.065
X-143.054 Y46.251
X-142.74 Y46.469
X-142.435 Y46.719
X-142.143 Y47.002
X-141.867 Y47.314
X-141.615 Y47.652
X-141.389 Y48.01
X-141.194 Y48.383
X-141.03 Y48.769
X-140.9 Y49.162
X-140.802 Y49.562
X-140.737 Y49.964
X-140.704 Y50.366
Y50.767
X-140.736 Y51.163
X-140.8 Y51.553
X-140.894 Y51.935
X-141.018 Y52.308
X-141.171 Y52.668
X-141.353 Y53.015
X-141.562 Y53.347
X-141.798 Y53.661
X-142.059 Y53.957
X-142.344 Y54.231
X-142.652 Y54.484
X-142.98 Y54.711
X-143.328 Y54.913
X-143.693 Y55.088
X-144.074 Y55.233
X-144.467 Y55.348
X-144.87 Y55.432
X-145.282 Y55.484
X-145.698 Y55.502
X-146.118 Y55.487
X-146.536 Y55.437
X-146.952 Y55.354
X-147.362 Y55.238
X-147.763 Y55.088
X-148.153 Y54.905
X-148.529 Y54.691
X-148.887 Y54.446
X-149.226 Y54.173
X-149.543 Y53.871
X-149.836 Y53.545
X-150.103 Y53.195
X-150.341 Y52.823
X-150.549 Y52.433
X-150.726 Y52.026
X-150.87 Y51.605
X-150.979 Y51.173
X-151.054 Y50.733
X-151.093 Y50.288
X-151.097 Y49.841
X-151.065 Y49.394
X-150.996 Y48.95
X-150.892 Y48.513
X-150.754 Y48.085
X-150.581 Y47.67
X-150.376 Y47.269
X-150.138 Y46.886
X-149.871 Y46.523
X-149.575 Y46.183
X-149.253 Y45.867
X-148.906 Y45.578
X-148.537 Y45.318
X-148.148 Y45.088
X-147.742 Y44.89
X-147.322 Y44.725
X-146.889 Y44.594
X-146.447 Y44.499
X-145.999 Y44.439
X-145.547 Y44.415
X-145.095 Y44.428
X-144.646 Y44.477
X-144.201 Y44.562
X-143.764 Y44.683
X-143.334 Y44.839
X-142.914 Y45.032
X-142.506 Y45.26
X-142.11 Y45.526
X-141.729 Y45.828
X-141.368 Y46.166
X-141.03 Y46.536
X-140.721 Y46.935
X-140.444 Y47.359
X-140.202 Y47.804
X-139.997 Y48.266
X-139.83 Y48.741
X-139.703 Y49.226
X-139.615 Y49.717
X-139.568 Y50.21
X-139.56 Y50.703
X-139.591 Y51.192
X-139.662 Y51.675
X-139.77 Y52.15
X-139.916 Y52.613
X-140.099 Y53.063
X-140.316 Y53.496
X-140.568 Y53.91
X-140.853 Y54.304
X-141.17 Y54.674
X-141.516 Y55.019
X-141.889 Y55.335
X-142.289 Y55.622
X-142.712 Y55.878
X-143.157 Y56.099
X-143.62 Y56.285
X-144.098 Y56.433
X-144.59 Y56.544
X-145.091 Y56.615
X-145.598 Y56.645
X-146.109 Y56.635
X-146.62 Y56.584
X-147.127 Y56.491
X-147.627 Y56.358
X-148.117 Y56.184
X-148.593 Y55.97
X-149.052 Y55.718
X-149.491 Y55.429
X-149.907 Y55.104
X-150.296 Y54.746
X-150.657 Y54.357
X-150.986 Y53.939
X-151.281 Y53.495
X-151.541 Y53.028
X-151.762 Y52.54
X-151.944 Y52.035
X-152.085 Y51.517
X-152.184 Y50.987
X-152.24 Y50.451
X-152.253 Y49.911
X-152.223 Y49.372
X-152.149 Y48.836
X-152.033 Y48.307
X-151.874 Y47.788
X-151.674 Y47.284
X-151.434 Y46.797
X-151.156 Y46.331
X-150.841 Y45.888
X-150.491 Y45.472
X-150.109 Y45.085
X-149.697 Y44.729
X-149.258 Y44.408
X-148.794 Y44.123
X-148.308 Y43.877
X-147.804 Y43.67
X-147.286 Y43.504
X-146.755 Y43.38
X-146.216 Y43.299
X-145.672 Y43.262
X-145.127 Y43.268
X-144.584 Y43.318
X-144.045 Y43.412
X-143.513 Y43.549
X-142.991 Y43.73
X-142.479 Y43.955
X-141.982 Y44.222
X-141.502 Y44.533
X-141.042 Y44.886
X-140.608 Y45.278
X-140.203 Y45.708
X-139.832 Y46.171
X-139.499 Y46.664
X-139.205 Y47.182
X-138.955 Y47.723
X-138.749 Y48.281
X-138.588 Y48.852
X-138.475 Y49.432
X-138.409 Y50.017
X-138.39 Y50.603
X-138.418 Y51.188
X-138.492 Y51.766
X-138.546 Y52.02
X-138.58 Y52.159
X-138.593 Y52.209
X-138.612 Y52.272
X-138.638 Y52.334
X-138.668 Y52.393
X-140.065 Y54.812
X-140.352 Y55.257
X-140.591 Y55.569
X-140.861 Y55.868
X-141.189 Y56.177
X-141.571 Y56.483
X-141.998 Y56.773
X-142.466 Y57.038
X-142.501 Y57.054
X-142.602 Y57.092
X-142.706 Y57.115
X-142.813 Y57.123
G3 X-143.12 Y56.795 Z9.7 I0.011 J-0.317 F800
G1 X-143.111 Y56.733
X-143.091 Y56.674
X-143.06 Y56.621
X-143.02 Y56.574
X-143.011 Y56.566 F1300
X-140.554 Y54.424
X-140.499 Y54.386
X-140.437 Y54.359
X-140.376 Y54.347 F600
X-140.314
X-140.254 Y54.36
X-140.196 Y54.383
G3 X-140.065 Y54.812 Z9.5 I-0.149 J0.28
G1 X-141.159 Y56.707 F1300
X-141.202 Y56.78
X-141.258 Y56.853
X-141.385 Y56.998
X-141.418 Y57.023
X-141.454 Y57.046
X-141.491 Y57.064
X-141.527 Y57.076
X-141.564 Y57.085
X-141.71 Y57.111
X-141.783 Y57.121
X-141.856 Y57.123
X-147.691
X-148.035 Y57.106
X-148.324 Y57.068
X-148.62 Y57.004
X-148.965 Y56.901
X-149.337 Y56.756
X-149.715 Y56.573
X-149.802 Y56.521
X-149.906 Y56.448
X-149.995 Y56.357
X-150.068 Y56.253
G3 X-149.937 Y55.824 Z9.7 I0.28 J-0.149 F800
G1 X-149.88 Y55.8
X-149.819 Y55.788
X-149.757
X-149.696 Y55.8
X-149.686 Y55.803 F1300
X-147.601 Y56.505
X-147.539 Y56.533
X-147.485 Y56.574
X-147.444 Y56.621 F600
X-147.413 Y56.674
X-147.393 Y56.733
X-147.385 Y56.795
G3 X-147.691 Y57.123 Z9.5 I-0.317 J0.011
G1 X-149.15 F1300
X-149.223 Y57.117
X-149.296 Y57.104
X-149.442 Y57.075
X-149.476 Y57.062
X-149.51 Y57.046
X-149.545 Y57.024
X-149.579 Y56.998
X-149.588 Y56.99
X-149.707 Y56.853
X-149.734 Y56.821
X-149.806 Y56.707
X-152.797 Y51.526
X-152.951 Y51.225
X-153.046 Y50.998
X-153.14 Y50.708
X-153.212 Y50.4
X-153.271 Y50.02
X-153.294 Y49.69
X-153.29 Y49.544
X-153.258 Y49.401
X-153.197 Y49.267
G3 X-152.76 Y49.166 Z9.7 I0.269 J0.168 F800
G1 X-152.711 Y49.203
X-152.67 Y49.25
X-152.639 Y49.304
X-152.619 Y49.362
X-152.617 Y49.37 F1300
X-152.217 Y51.293
X-152.211 Y51.362
X-152.219 Y51.43
X-152.239 Y51.489 F600
X-152.27 Y51.542
X-152.311 Y51.589
X-152.36 Y51.627
G3 X-152.797 Y51.526 Z9.5 I-0.168 J-0.269
G1 X-153.424 Y50.441 F1300
X-153.463 Y50.368
X-153.49 Y50.295
X-153.527 Y50.195
X-153.542 Y50.149
X-153.55 Y50.113
X-153.554 Y50.077
X-153.555 Y50.04
X-153.553 Y50.004
X-153.544 Y49.954
X-153.527 Y49.905
X-153.51 Y49.858
X-153.454 Y49.712
X-153.258 Y49.372
X-150.342 Y44.321
X-150.23 Y44.148
X-150.082 Y43.955
X-149.879 Y43.73
X-149.653 Y43.516
X-149.358 Y43.28
X-149.099 Y43.105
X-148.97 Y43.035
X-148.83 Y42.992
X-148.683 Y42.977
G3 X-148.377 Y43.305 Z9.7 I-0.011 J0.317 F800
G1 X-148.385 Y43.367
X-148.405 Y43.426
X-148.436 Y43.479
X-148.477 Y43.526
X-148.488 Y43.535 F1300
X-149.854 Y44.71
X-149.909 Y44.748
X-149.97 Y44.774
X-150.03 Y44.786 F600
X-150.092
X-150.153 Y44.774
X-150.21 Y44.75
G3 X-150.342 Y44.321 Z9.5 I0.149 J-0.28
G1 X-149.837 Y43.446 F1300
X-149.75 Y43.301
X-149.734 Y43.28
X-149.629 Y43.155
X-149.588 Y43.109
X-149.551 Y43.08
X-149.515 Y43.057
X-149.478 Y43.039
X-149.442 Y43.025
X-149.37 Y43.009
X-149.223 Y42.983
X-149.187 Y42.979
X-149.15 Y42.977
X-143.023
X-142.718 Y42.992
X-142.476 Y43.024
X-142.175 Y43.089
X-141.873 Y43.179
X-141.509 Y43.321
X-141.285 Y43.429
X-141.16 Y43.506
X-141.053 Y43.606
X-140.967 Y43.725
G3 X-141.098 Y44.155 Z9.7 I-0.28 J0.149 F800
G1 X-141.155 Y44.178
X-141.216 Y44.191
X-141.278
X-141.339 Y44.179
X-141.346 Y44.176 F1300
X-143.111 Y43.596
X-143.174 Y43.568
X-143.229 Y43.526
X-143.27 Y43.479 F600
X-143.301 Y43.426
X-143.321 Y43.367
X-143.329 Y43.305
G3 X-143.023 Y42.977 Z9.5 I0.317 J-0.011
G1 X-141.856 F1300
X-141.783 Y42.978
X-141.71 Y42.989
X-141.564 Y43.015
X-141.527 Y43.023
X-141.491 Y43.036
X-141.454 Y43.054
X-141.418 Y43.077
X-141.377 Y43.109
X-141.335 Y43.155
X-141.214 Y43.301
X-141.126 Y43.45
X-137.847 Y49.129
X-137.696 Y49.424
X-137.602 Y49.652
X-137.509 Y49.938
X-137.502 Y49.969
X-137.482 Y50.154
X-137.509 Y50.338
X-137.581 Y50.51
G3 X-138.018 Y50.611 Z9.7 I-0.269 J-0.168 F800
G1 X-138.066 Y50.574
X-138.107 Y50.529
X-138.137 Y50.477
X-138.158 Y50.42
X-138.159 Y50.414
X-138.424 Y49.376 F1300
X-138.433 Y49.326
Y49.275
X-138.425 Y49.225
X-138.405 Y49.166 F600
X-138.374 Y49.113
X-138.334 Y49.066
X-138.284 Y49.028
G3 X-137.847 Y49.129 Z9.5 I0.168 J0.269
G1 X-137.595 Y49.567 F1300
X-137.511 Y49.712
X-137.479 Y49.792
X-137.429 Y49.931
X-137.418 Y49.967
X-137.412 Y50.004
X-137.41 Y50.04
X-137.411 Y50.077
X-137.415 Y50.113
X-137.423 Y50.149
X-137.479 Y50.308
X-137.505 Y50.374
X-137.541 Y50.441
X-138.668 Y52.393
G3 X-139.079 Y52.509 I-0.269 J-0.168 F800
G1 X-139.12 Y52.473 Z9.505
X-139.16 Y52.439 Z9.519
X-139.197 Y52.407 Z9.542
X-139.215 Y52.361 Z9.578
X-139.229 Y52.322 Z9.622
X-139.241 Y52.291 Z9.673
X-139.249 Y52.271 Z9.729
X-139.253 Y52.26 Z9.789
Y52.259 Z9.818
G0 X-146.699 Y49.138
Z9.8
G3 X-144.65 Y48.778 Z9.72 I1.217 J0.912 F600
X-144.159 Y50.797 Z9.64 I-0.831 J1.272
X-146.141 Y51.417 Z9.56 I-1.321 J-0.747
X-146.886 Y49.48 Z9.48 I0.66 J-1.365
X-145.003 Y48.613 Z9.4 I1.404 J0.571
X-144.018 Y50.435 Z9.32 I-0.479 J1.436
X-145.771 Y51.534 Z9.24 I-1.463 J-0.385
X-146.979 Y49.857 Z9.16 I0.29 J-1.483
X-145.385 Y48.545 Z9.08 I1.497 J0.194
X-143.974 Y50.05 Z9 I-0.097 J1.505
X-146.99 Y50.05 I-1.508 J0
X-143.974 Y50.05 I1.508 J0
G1 X-143.957 Y50.692 F1300
X-143.929 Y50.766
X-143.894 Y50.912
X-143.891 Y51.062
X-143.912 Y51.211
X-143.954 Y51.355
X-144.015 Y51.492
X-144.091 Y51.621
X-144.18 Y51.742
X-144.281 Y51.853
X-144.392 Y51.954
X-144.512 Y52.044
X-144.639 Y52.124
X-144.772 Y52.193
X-144.913 Y52.252
X-145.063 Y52.301
X-145.219 Y52.338
X-145.382 Y52.364
X-145.549 Y52.376
X-145.719 Y52.375
X-145.891 Y52.361
X-146.064 Y52.332
X-146.235 Y52.288
X-146.405 Y52.231
X-146.571 Y52.159
X-146.732 Y52.074
X-146.887 Y51.975
X-147.035 Y51.863
X-147.174 Y51.739
X-147.303 Y51.604
X-147.421 Y51.458
X-147.528 Y51.303
X-147.622 Y51.138
X-147.703 Y50.967
X-147.77 Y50.789
X-147.823 Y50.605
X-147.861 Y50.418
X-147.884 Y50.227
X-147.891 Y50.036
X-147.883 Y49.844
X-147.86 Y49.653
X-147.821 Y49.464
X-147.767 Y49.279
X-147.699 Y49.099
X-147.616 Y48.924
X-147.519 Y48.757
X-147.41 Y48.598
X-147.287 Y48.448
X-147.154 Y48.308
X-147.009 Y48.18
X-146.854 Y48.064
X-146.691 Y47.96
X-146.519 Y47.87
X-146.341 Y47.793
X-146.158 Y47.732
X-145.97 Y47.685
X-145.778 Y47.653
X-145.585 Y47.637
X-145.391
X-145.198 Y47.652
X-145.007 Y47.682
X-144.818 Y47.728
X-144.634 Y47.789
X-144.455 Y47.864
X-144.283 Y47.953
X-144.119 Y48.056
X-143.963 Y48.172
X-143.818 Y48.3
X-143.683 Y48.439
X-143.559 Y48.589
X-143.448 Y48.748
X-143.343 Y48.927
X-143.204 Y49.216
X-143.05 Y49.615
X-142.962 Y49.912
X-142.907 Y50.174
X-142.876 Y50.418
X-142.865 Y50.646
X-142.872 Y50.863
X-142.896 Y51.072
X-142.937 Y51.278
X-142.993 Y51.479
X-143.065 Y51.675
X-143.153 Y51.863
X-143.256 Y52.045
X-143.374 Y52.219
X-143.507 Y52.384
X-143.654 Y52.54
X-143.815 Y52.686
X-143.99 Y52.82
X-144.178 Y52.941
X-144.378 Y53.048
X-144.588 Y53.141
X-144.809 Y53.217
X-145.038 Y53.276
X-145.275 Y53.317
X-145.516 Y53.339
X-145.762 Y53.342
X-146.009 Y53.325
X-146.257 Y53.287
X-146.503 Y53.23
X-146.746 Y53.152
X-146.983 Y53.054
X-147.213 Y52.937
X-147.435 Y52.801
X-147.646 Y52.646
X-147.845 Y52.474
X-148.031 Y52.286
X-148.201 Y52.083
X-148.355 Y51.866
X-148.492 Y51.636
X-148.611 Y51.395
X-148.71 Y51.145
X-148.789 Y50.886
X-148.847 Y50.622
X-148.883 Y50.354
X-148.898 Y50.082
X-148.892 Y49.81
X-148.863 Y49.539
X-148.813 Y49.271
X-148.741 Y49.008
X-148.648 Y48.75
X-148.535 Y48.501
X-148.402 Y48.262
X-148.25 Y48.034
X-148.08 Y47.819
X-147.893 Y47.618
X-147.691 Y47.432
X-147.475 Y47.263
X-147.245 Y47.112
X-147.004 Y46.98
X-146.753 Y46.868
X-146.494 Y46.776
X-146.229 Y46.705
X-145.958 Y46.656
X-145.684 Y46.629
X-145.409 Y46.624
X-145.135 Y46.64
X-144.862 Y46.679
X-144.594 Y46.74
X-144.331 Y46.822
X-144.076 Y46.924
X-143.83 Y47.047
X-143.594 Y47.189
X-143.371 Y47.35
X-143.159 Y47.53
X-142.945 Y47.744
X-142.726 Y48
X-142.523 Y48.28
X-142.338 Y48.586
X-142.178 Y48.904
X-142.047 Y49.228
X-141.946 Y49.55
X-141.873 Y49.87
X-141.827 Y50.186
X-141.807 Y50.5
X-141.812 Y50.81
X-141.842 Y51.115
X-141.896 Y51.414
X-141.972 Y51.706
X-142.072 Y51.99
X-142.194 Y52.264
X-142.338 Y52.527
X-142.502 Y52.778
X-142.687 Y53.017
X-142.892 Y53.241
X-143.115 Y53.449
X-143.356 Y53.64
X-143.614 Y53.813
X-143.887 Y53.966
X-144.174 Y54.097
X-144.473 Y54.206
X-144.783 Y54.291
X-145.101 Y54.351
X-145.425 Y54.387
X-145.754 Y54.396
X-146.085 Y54.378
X-146.415 Y54.334
X-146.743 Y54.263
X-147.066 Y54.165
X-147.383 Y54.041
X-147.69 Y53.89
X-147.986 Y53.715
X-148.268 Y53.516
X-148.534 Y53.294
X-148.783 Y53.049
X-149.012 Y52.785
X-149.22 Y52.502
X-149.405 Y52.203
X-149.567 Y51.888
X-149.702 Y51.561
X-149.812 Y51.223
X-149.894 Y50.876
X-149.948 Y50.523
X-149.973 Y50.167
X-149.97 Y49.809
X-149.938 Y49.452
X-149.878 Y49.098
X-149.789 Y48.75
X-149.673 Y48.41
X-149.529 Y48.08
X-149.359 Y47.762
X-149.165 Y47.459
X-148.946 Y47.172
X-148.705 Y46.904
X-148.443 Y46.656
X-148.162 Y46.429
X-147.864 Y46.226
X-147.55 Y46.047
X-147.222 Y45.894
X-146.884 Y45.767
X-146.536 Y45.669
X-146.181 Y45.598
X-145.822 Y45.556
X-145.46 Y45.543
X-145.099 Y45.559
X-144.74 Y45.605
X-144.386 Y45.678
X-144.039 Y45.78
X-143.701 Y45.91
X-143.374 Y46.066
X-143.055 Y46.252
X-142.741 Y46.47
X-142.436 Y46.72
X-142.143 Y47.003
X-141.868 Y47.315
X-141.615 Y47.653
X-141.39 Y48.011
X-141.194 Y48.384
X-141.031 Y48.769
X-140.9 Y49.163
X-140.802 Y49.562
X-140.737 Y49.965
X-140.705 Y50.367
Y50.767
X-140.737 Y51.164
X-140.8 Y51.554
X-140.894 Y51.936
X-141.018 Y52.308
X-141.172 Y52.669
X-141.353 Y53.016
X-141.563 Y53.348
X-141.798 Y53.662
X-142.059 Y53.958
X-142.344 Y54.232
X-142.652 Y54.484
X-142.981 Y54.712
X-143.329 Y54.914
X-143.694 Y55.089
X-144.074 Y55.234
X-144.467 Y55.349
X-144.871 Y55.433
X-145.282 Y55.484
X-145.699 Y55.503
X-146.118 Y55.487
X-146.537 Y55.438
X-146.953 Y55.355
X-147.363 Y55.239
X-147.764 Y55.089
X-148.154 Y54.906
X-148.529 Y54.692
X-148.887 Y54.447
X-149.227 Y54.173
X-149.544 Y53.872
X-149.837 Y53.546
X-150.103 Y53.195
X-150.341 Y52.824
X-150.55 Y52.433
X-150.726 Y52.027
X-150.87 Y51.606
X-150.98 Y51.174
X-151.055 Y50.734
X-151.094 Y50.289
X-151.097 Y49.841
X-151.065 Y49.394
X-150.997 Y48.951
X-150.893 Y48.514
X-150.754 Y48.086
X-150.582 Y47.671
X-150.376 Y47.27
X-150.139 Y46.887
X-149.871 Y46.524
X-149.576 Y46.184
X-149.253 Y45.868
X-148.906 Y45.579
X-148.538 Y45.318
X-148.149 Y45.088
X-147.743 Y44.89
X-147.322 Y44.725
X-146.889 Y44.595
X-146.447 Y44.499
X-145.999 Y44.44
X-145.548 Y44.416
X-145.096 Y44.429
X-144.646 Y44.478
X-144.202 Y44.563
X-143.764 Y44.683
X-143.335 Y44.84
X-142.915 Y45.033
X-142.506 Y45.261
X-142.111 Y45.527
X-141.73 Y45.829
X-141.368 Y46.166
X-141.031 Y46.537
X-140.722 Y46.936
X-140.445 Y47.36
X-140.203 Y47.805
X-139.998 Y48.267
X-139.831 Y48.742
X-139.703 Y49.227
X-139.616 Y49.718
X-139.568 Y50.211
X-139.56 Y50.704
X-139.592 Y51.193
X-139.662 Y51.676
X-139.771 Y52.151
X-139.917 Y52.614
X-140.099 Y53.063
X-140.317 Y53.497
X-140.569 Y53.911
X-140.854 Y54.305
X-141.17 Y54.675
X-141.516 Y55.019
X-141.89 Y55.336
X-142.29 Y55.623
X-142.713 Y55.878
X-143.157 Y56.1
X-143.62 Y56.286
X-144.099 Y56.434
X-144.59 Y56.545
X-145.091 Y56.616
X-145.599 Y56.646
X-146.109 Y56.636
X-146.62 Y56.585
X-147.127 Y56.492
X-147.627 Y56.359
X-148.117 Y56.185
X-148.593 Y55.971
X-149.052 Y55.719
X-149.492 Y55.43
X-149.907 Y55.105
X-150.297 Y54.747
X-150.657 Y54.358
X-150.987 Y53.94
X-151.282 Y53.496
X-151.541 Y53.029
X-151.762 Y52.541
X-151.944 Y52.036
X-152.085 Y51.517
X-152.184 Y50.988
X-152.241 Y50.452
X-152.254 Y49.912
X-152.223 Y49.372
X-152.15 Y48.836
X-152.033 Y48.307
X-151.875 Y47.789
X-151.675 Y47.285
X-151.435 Y46.798
X-151.157 Y46.332
X-150.841 Y45.889
X-150.492 Y45.473
X-150.11 Y45.086
X-149.697 Y44.73
X-149.258 Y44.409
X-148.794 Y44.124
X-148.309 Y43.878
X-147.805 Y43.671
X-147.286 Y43.505
X-146.755 Y43.381
X-146.217 Y43.3
X-145.673 Y43.263
X-145.128 Y43.269
X-144.585 Y43.319
X-144.046 Y43.413
X-143.514 Y43.55
X-142.991 Y43.731
X-142.48 Y43.956
X-141.982 Y44.223
X-141.502 Y44.534
X-141.042 Y44.887
X-140.608 Y45.279
X-140.204 Y45.708
X-139.833 Y46.172
X-139.499 Y46.665
X-139.206 Y47.183
X-138.955 Y47.724
X-138.749 Y48.282
X-138.589 Y48.853
X-138.475 Y49.433
X-138.409 Y50.018
X-138.39 Y50.604
X-138.418 Y51.189
X-138.492 Y51.767
X-138.546 Y52.021
X-138.58 Y52.16
X-138.593 Y52.21
X-138.613 Y52.273
X-138.638 Y52.334
X-138.668 Y52.393
X-140.065 Y54.812
X-140.353 Y55.258
X-140.592 Y55.57
X-140.862 Y55.869
X-141.19 Y56.178
X-141.571 Y56.484
X-141.999 Y56.774
X-142.467 Y57.039
X-142.5 Y57.054
X-142.6 Y57.092
X-142.705 Y57.115
X-142.812 Y57.123
G3 X-143.118 Y56.795 Z9.2 I0.011 J-0.317 F800
G1 X-143.11 Y56.733
X-143.09 Y56.674
X-143.059 Y56.621
X-143.018 Y56.574
X-143.009 Y56.566 F1300
X-140.554 Y54.424
X-140.499 Y54.386
X-140.437 Y54.359
X-140.376 Y54.347 F600
X-140.314
X-140.254 Y54.36
X-140.196 Y54.383
G3 X-140.065 Y54.812 Z9 I-0.149 J0.28
G1 X-141.159 Y56.707 F1300
X-141.202 Y56.78
X-141.258 Y56.853
X-141.385 Y56.998
X-141.418 Y57.023
X-141.454 Y57.046
X-141.491 Y57.064
X-141.527 Y57.076
X-141.564 Y57.085
X-141.71 Y57.111
X-141.783 Y57.121
X-141.856 Y57.123
X-147.691
X-148.037 Y57.105
X-148.326 Y57.068
X-148.622 Y57.004
X-148.966 Y56.901
X-149.338 Y56.756
X-149.716 Y56.573
X-149.801 Y56.523
X-149.905 Y56.449
X-149.994 Y56.359
X-150.067 Y56.255
G3 X-149.936 Y55.825 Z9.2 I0.28 J-0.149 F800
G1 X-149.879 Y55.802
X-149.818 Y55.79
X-149.756 Y55.789
X-149.695 Y55.801
X-149.686 Y55.805 F1300
X-147.601 Y56.504
X-147.539 Y56.533
X-147.485 Y56.574
X-147.444 Y56.621 F600
X-147.413 Y56.674
X-147.393 Y56.733
X-147.385 Y56.795
G3 X-147.691 Y57.123 Z9 I-0.317 J0.011
G1 X-149.15 F1300
X-149.223 Y57.117
X-149.296 Y57.104
X-149.442 Y57.075
X-149.476 Y57.062
X-149.51 Y57.046
X-149.545 Y57.024
X-149.579 Y56.998
X-149.588 Y56.99
X-149.707 Y56.853
X-149.734 Y56.821
X-149.806 Y56.707
X-152.797 Y51.526
X-152.952 Y51.224
X-153.046 Y50.997
X-153.14 Y50.707
X-153.213 Y50.4
X-153.271 Y50.02
X-153.295 Y49.691
X-153.291 Y49.544
X-153.258 Y49.401
X-153.197 Y49.267
G3 X-152.76 Y49.166 Z9.2 I0.269 J0.168 F800
G1 X-152.711 Y49.204
X-152.67 Y49.25
X-152.639 Y49.304
X-152.619 Y49.363
X-152.617 Y49.371 F1300
X-152.217 Y51.293
X-152.211 Y51.361
X-152.219 Y51.43
X-152.239 Y51.489 F600
X-152.27 Y51.542
X-152.311 Y51.589
X-152.36 Y51.627
G3 X-152.797 Y51.526 Z9 I-0.168 J-0.269
G1 X-153.424 Y50.441 F1300
X-153.463 Y50.368
X-153.49 Y50.295
X-153.527 Y50.195
X-153.542 Y50.149
X-153.55 Y50.113
X-153.554 Y50.077
X-153.555 Y50.04
X-153.553 Y50.004
X-153.544 Y49.954
X-153.527 Y49.905
X-153.51 Y49.858
X-153.454 Y49.712
X-153.258 Y49.372
X-150.342 Y44.321
X-150.23 Y44.149
X-150.083 Y43.956
X-149.879 Y43.731
X-149.653 Y43.517
X-149.359 Y43.281
X-149.098 Y43.105
X-148.969 Y43.035
X-148.829 Y42.992
X-148.683 Y42.977
G3 X-148.376 Y43.305 Z9.2 I-0.011 J0.317 F800
G1 X-148.385 Y43.367
X-148.405 Y43.426
X-148.435 Y43.479
X-148.476 Y43.526
X-148.487 Y43.535 F1300
X-149.854 Y44.71
X-149.909 Y44.748
X-149.97 Y44.774
X-150.03 Y44.786 F600
X-150.092
X-150.153 Y44.774
X-150.21 Y44.75
G3 X-150.342 Y44.321 Z9 I0.149 J-0.28
G1 X-149.837 Y43.446 F1300
X-149.75 Y43.301
X-149.734 Y43.28
X-149.629 Y43.155
X-149.588 Y43.109
X-149.551 Y43.08
X-149.515 Y43.057
X-149.478 Y43.039
X-149.442 Y43.025
X-149.37 Y43.009
X-149.223 Y42.983
X-149.187 Y42.979
X-149.15 Y42.977
X-143.023
X-142.72 Y42.992
X-142.478 Y43.024
X-142.177 Y43.089
X-141.875 Y43.179
X-141.51 Y43.321
X-141.285 Y43.43
X-141.16 Y43.507
X-141.052 Y43.607
X-140.966 Y43.726
G3 X-141.097 Y44.156 Z9.2 I-0.28 J0.149 F800
G1 X-141.155 Y44.179
X-141.216 Y44.192
X-141.278
X-141.338 Y44.18
X-141.346 Y44.177 F1300
X-143.111 Y43.596
X-143.174 Y43.567
X-143.229 Y43.526
X-143.27 Y43.479 F600
X-143.301 Y43.426
X-143.321 Y43.367
X-143.329 Y43.305
G3 X-143.023 Y42.977 Z9 I0.317 J-0.011
G1 X-141.856 F1300
X-141.783 Y42.978
X-141.71 Y42.989
X-141.564 Y43.015
X-141.527 Y43.023
X-141.491 Y43.036
X-141.454 Y43.054
X-141.418 Y43.077
X-141.377 Y43.109
X-141.335 Y43.155
X-141.214 Y43.301
X-141.126 Y43.45
X-137.847 Y49.129
X-137.696 Y49.424
X-137.602 Y49.651
X-137.509 Y49.938
X-137.502 Y49.969
X-137.482 Y50.154
X-137.509 Y50.338
X-137.581 Y50.51
G3 X-138.018 Y50.611 Z9.2 I-0.269 J-0.168 F800
G1 X-138.067 Y50.574
X-138.107 Y50.529
X-138.138 Y50.477
X-138.158 Y50.42
X-138.16 Y50.414
X-138.424 Y49.376 F1300
X-138.433 Y49.326
Y49.275
X-138.425 Y49.225
X-138.405 Y49.166 F600
X-138.374 Y49.113
X-138.334 Y49.066
X-138.284 Y49.028
G3 X-137.847 Y49.129 Z9 I0.168 J0.269
G1 X-137.595 Y49.567 F1300
X-137.511 Y49.712
X-137.479 Y49.792
X-137.429 Y49.931
X-137.418 Y49.967
X-137.412 Y50.004
X-137.41 Y50.04
X-137.411 Y50.077
X-137.415 Y50.113
X-137.423 Y50.149
X-137.479 Y50.308
X-137.505 Y50.374
X-137.541 Y50.441
X-138.668 Y52.393
G3 X-139.079 Y52.509 I-0.269 J-0.168 F800
G1 X-139.12 Y52.474 Z9.005
X-139.16 Y52.439 Z9.019
X-139.198 Y52.407 Z9.042
X-139.215 Y52.361 Z9.078
X-139.23 Y52.322 Z9.122
X-139.241 Y52.292 Z9.173
X-139.249 Y52.271 Z9.229
X-139.253 Y52.261 Z9.289
Y52.26 Z9.318
G0 X-146.699 Y49.138
Z9.3
G3 X-144.65 Y48.778 Z9.22 I1.217 J0.912 F600
X-144.159 Y50.797 Z9.14 I-0.831 J1.272
X-146.141 Y51.417 Z9.06 I-1.321 J-0.747
X-146.886 Y49.48 Z8.98 I0.66 J-1.365
X-145.003 Y48.613 Z8.9 I1.404 J0.571
X-144.018 Y50.435 Z8.82 I-0.479 J1.436
X-145.771 Y51.534 Z8.74 I-1.463 J-0.385
X-146.979 Y49.857 Z8.66 I0.29 J-1.483
X-145.385 Y48.545 Z8.58 I1.497 J0.194
X-143.974 Y50.05 Z8.5 I-0.097 J1.505
X-146.99 Y50.05 I-1.508 J0
X-143.974 Y50.05 I1.508 J0
G1 X-143.957 Y50.692 F1300
X-143.929 Y50.766
X-143.894 Y50.912
X-143.891 Y51.062
X-143.912 Y51.211
X-143.954 Y51.355
X-144.015 Y51.492
X-144.091 Y51.621
X-144.18 Y51.742
X-144.281 Y51.853
X-144.392 Y51.954
X-144.512 Y52.044
X-144.639 Y52.124
X-144.772 Y52.193
X-144.913 Y52.252
X-145.063 Y52.301
X-145.219 Y52.338
X-145.382 Y52.364
X-145.549 Y52.376
X-145.719 Y52.375
X-145.891 Y52.361
X-146.064 Y52.332
X-146.235 Y52.288
X-146.405 Y52.231
X-146.571 Y52.159
X-146.732 Y52.074
X-146.887 Y51.975
X-147.035 Y51.863
X-147.174 Y51.739
X-147.303 Y51.604
X-147.421 Y51.458
X-147.528 Y51.303
X-147.622 Y51.138
X-147.703 Y50.967
X-147.77 Y50.789
X-147.823 Y50.605
X-147.861 Y50.418
X-147.884 Y50.227
X-147.891 Y50.036
X-147.883 Y49.844
X-147.86 Y49.653
X-147.821 Y49.464
X-147.767 Y49.279
X-147.699 Y49.099
X-147.616 Y48.924
X-147.519 Y48.757
X-147.41 Y48.598
X-147.287 Y48.448
X-147.154 Y48.308
X-147.009 Y48.18
X-146.854 Y48.064
X-146.691 Y47.96
X-146.519 Y47.87
X-146.341 Y47.793
X-146.158 Y47.732
X-145.97 Y47.685
X-145.778 Y47.653
X-145.585 Y47.637
X-145.391
X-145.198 Y47.652
X-145.007 Y47.682
X-144.818 Y47.728
X-144.634 Y47.789
X-144.455 Y47.864
X-144.283 Y47.953
X-144.119 Y48.056
X-143.963 Y48.172
X-143.818 Y48.3
X-143.683 Y48.439
X-143.559 Y48.589
X-143.448 Y48.748
X-143.343 Y48.927
X-143.204 Y49.216
X-143.05 Y49.615
X-142.962 Y49.912
X-142.907 Y50.174
X-142.876 Y50.418
X-142.865 Y50.646
X-142.872 Y50.863
X-142.896 Y51.072
X-142.937 Y51.278
X-142.993 Y51.479
X-143.065 Y51.675
X-143.153 Y51.863
X-143.256 Y52.045
X-143.374 Y52.219
X-143.507 Y52.384
X-143.654 Y52.54
X-143.815 Y52.686
X-143.99 Y52.82
X-144.178 Y52.941
X-144.378 Y53.048
X-144.588 Y53.141
X-144.809 Y53.217
X-145.038 Y53.276
X-145.275 Y53.317
X-145.516 Y53.339
X-145.762 Y53.342
X-146.009 Y53.325
X-146.257 Y53.287
X-146.503 Y53.23
X-146.746 Y53.152
X-146.983 Y53.054
X-147.213 Y52.937
X-147.435 Y52.801
X-147.646 Y52.646
X-147.845 Y52.474
X-148.031 Y52.286
X-148.201 Y52.083
X-148.355 Y51.866
X-148.492 Y51.636
X-148.611 Y51.395
X-148.71 Y51.145
X-148.789 Y50.886
X-148.847 Y50.622
X-148.883 Y50.354
X-148.898 Y50.082
X-148.892 Y49.81
X-148.863 Y49.539
X-148.813 Y49.271
X-148.741 Y49.008
X-148.648 Y48.75
X-148.535 Y48.501
X-148.402 Y48.262
X-148.25 Y48.034
X-148.08 Y47.819
X-147.893 Y47.618
X-147.691 Y47.432
X-147.475 Y47.263
X-147.245 Y47.112
X-147.004 Y46.98
X-146.753 Y46.868
X-146.494 Y46.776
X-146.229 Y46.705
X-145.958 Y46.656
X-145.684 Y46.629
X-145.409 Y46.624
X-145.135 Y46.64
X-144.862 Y46.679
X-144.594 Y46.74
X-144.331 Y46.822
X-144.076 Y46.924
X-143.83 Y47.047
X-143.594 Y47.189
X-143.371 Y47.35
X-143.159 Y47.53
X-142.945 Y47.744
X-142.726 Y48
X-142.523 Y48.28
X-142.338 Y48.586
X-142.178 Y48.904
X-142.047 Y49.228
X-141.946 Y49.55
X-141.873 Y49.87
X-141.827 Y50.186
X-141.807 Y50.5
X-141.812 Y50.81
X-141.842 Y51.115
X-141.896 Y51.414
X-141.972 Y51.706
X-142.072 Y51.99
X-142.194 Y52.264
X-142.338 Y52.527
X-142.502 Y52.778
X-142.687 Y53.017
X-142.892 Y53.241
X-143.115 Y53.449
X-143.356 Y53.64
X-143.614 Y53.813
X-143.887 Y53.966
X-144.174 Y54.097
X-144.473 Y54.206
X-144.783 Y54.291
X-145.101 Y54.351
X-145.425 Y54.387
X-145.754 Y54.396
X-146.085 Y54.378
X-146.415 Y54.334
X-146.743 Y54.263
X-147.066 Y54.165
X-147.383 Y54.041
X-147.69 Y53.89
X-147.986 Y53.715
X-148.268 Y53.516
X-148.534 Y53.294
X-148.783 Y53.049
X-149.012 Y52.785
X-149.22 Y52.502
X-149.405 Y52.203
X-149.567 Y51.888
X-149.702 Y51.561
X-149.812 Y51.223
X-149.894 Y50.876
X-149.948 Y50.523
X-149.973 Y50.167
X-149.97 Y49.809
X-149.938 Y49.452
X-149.878 Y49.098
X-149.789 Y48.75
X-149.673 Y48.41
X-149.529 Y48.08
X-149.359 Y47.762
X-149.165 Y47.459
X-148.946 Y47.172
X-148.705 Y46.904
X-148.443 Y46.656
X-148.162 Y46.429
X-147.864 Y46.226
X-147.55 Y46.047
X-147.222 Y45.894
X-146.884 Y45.767
X-146.536 Y45.669
X-146.181 Y45.598
X-145.822 Y45.556
X-145.46 Y45.543
X-145.099 Y45.559
X-144.74 Y45.605
X-144.386 Y45.678
X-144.039 Y45.78
X-143.701 Y45.91
X-143.374 Y46.066
X-143.055 Y46.252
X-142.741 Y46.47
X-142.436 Y46.72
X-142.143 Y47.003
X-141.868 Y47.315
X-141.615 Y47.653
X-141.39 Y48.011
X-141.194 Y48.384
X-141.031 Y48.769
X-140.9 Y49.163
X-140.802 Y49.562
X-140.737 Y49.965
X-140.705 Y50.367
Y50.767
X-140.737 Y51.164
X-140.8 Y51.554
X-140.894 Y51.936
X-141.018 Y52.308
X-141.172 Y52.669
X-141.353 Y53.016
X-141.563 Y53.348
X-141.798 Y53.662
X-142.059 Y53.958
X-142.344 Y54.232
X-142.652 Y54.484
X-142.981 Y54.712
X-143.329 Y54.914
X-143.694 Y55.089
X-144.074 Y55.234
X-144.467 Y55.349
X-144.871 Y55.433
X-145.282 Y55.484
X-145.699 Y55.503
X-146.118 Y55.487
X-146.537 Y55.438
X-146.953 Y55.355
X-147.363 Y55.239
X-147.764 Y55.089
X-148.154 Y54.906
X-148.529 Y54.692
X-148.887 Y54.447
X-149.227 Y54.173
X-149.544 Y53.872
X-149.837 Y53.546
X-150.103 Y53.195
X-150.341 Y52.824
X-150.55 Y52.433
X-150.726 Y52.027
X-150.87 Y51.606
X-150.98 Y51.174
X-151.055 Y50.734
X-151.094 Y50.289
X-151.097 Y49.841
X-151.065 Y49.394
X-150.997 Y48.951
X-150.893 Y48.514
X-150.754 Y48.086
X-150.582 Y47.671
X-150.376 Y47.27
X-150.139 Y46.887
X-149.871 Y46.524
X-149.576 Y46.184
X-149.253 Y45.868
X-148.906 Y45.579
X-148.538 Y45.318
X-148.149 Y45.088
X-147.743 Y44.89
X-147.322 Y44.725
X-146.889 Y44.595
X-146.447 Y44.499
X-145.999 Y44.44
X-145.548 Y44.416
X-145.096 Y44.429
X-144.646 Y44.478
X-144.202 Y44.563
X-143.764 Y44.683
X-143.335 Y44.84
X-142.915 Y45.033
X-142.506 Y45.261
X-142.111 Y45.527
X-141.73 Y45.829
X-141.368 Y46.166
X-141.031 Y46.537
X-140.722 Y46.936
X-140.445 Y47.36
X-140.203 Y47.805
X-139.998 Y48.267
X-139.831 Y48.742
X-139.703 Y49.227
X-139.616 Y49.718
X-139.568 Y50.211
X-139.56 Y50.704
X-139.592 Y51.193
X-139.662 Y51.676
X-139.771 Y52.151
X-139.917 Y52.614
X-140.099 Y53.063
X-140.317 Y53.497
X-140.569 Y53.911
X-140.854 Y54.305
X-141.17 Y54.675
X-141.516 Y55.019
X-141.89 Y55.336
X-142.29 Y55.623
X-142.713 Y55.878
X-143.157 Y56.1
X-143.62 Y56.286
X-144.099 Y56.434
X-144.59 Y56.545
X-145.091 Y56.616
X-145.599 Y56.646
X-146.109 Y56.636
X-146.62 Y56.585
X-147.127 Y56.492
X-147.627 Y56.359
X-148.117 Y56.185
X-148.593 Y55.971
X-149.052 Y55.719
X-149.492 Y55.43
X-149.907 Y55.105
X-150.297 Y54.747
X-150.657 Y54.358
X-150.987 Y53.94
X-151.282 Y53.496
X-151.541 Y53.029
X-151.762 Y52.541
X-151.944 Y52.036
X-152.085 Y51.517
X-152.184 Y50.988
X-152.241 Y50.452
X-152.254 Y49.912
X-152.223 Y49.372
X-152.15 Y48.836
X-152.033 Y48.307
X-151.875 Y47.789
X-151.675 Y47.285
X-151.435 Y46.798
X-151.157 Y46.332
X-150.841 Y45.889
X-150.492 Y45.473
X-150.11 Y45.086
X-149.697 Y44.73
X-149.258 Y44.409
X-148.794 Y44.124
X-148.309 Y43.878
X-147.805 Y43.671
X-147.286 Y43.505
X-146.755 Y43.381
X-146.217 Y43.3
X-145.673 Y43.263
X-145.128 Y43.269
X-144.585 Y43.319
X-144.046 Y43.413
X-143.514 Y43.55
X-142.991 Y43.731
X-142.48 Y43.956
X-141.982 Y44.223
X-141.502 Y44.534
X-141.042 Y44.887
X-140.608 Y45.279
X-140.204 Y45.708
X-139.833 Y46.172
X-139.499 Y46.665
X-139.206 Y47.183
X-138.955 Y47.724
X-138.749 Y48.282
X-138.589 Y48.853
X-138.475 Y49.433
X-138.409 Y50.018
X-138.39 Y50.604
X-138.418 Y51.189
X-138.492 Y51.767
X-138.546 Y52.021
X-138.58 Y52.16
X-138.593 Y52.21
X-138.613 Y52.273
X-138.638 Y52.334
X-138.668 Y52.393
X-140.065 Y54.812
X-140.353 Y55.258
X-140.592 Y55.57
X-140.862 Y55.869
X-141.19 Y56.178
X-141.571 Y56.484
X-141.999 Y56.774
X-142.467 Y57.039
X-142.5 Y57.054
X-142.6 Y57.092
X-142.705 Y57.115
X-142.812 Y57.123
G3 X-143.118 Y56.795 Z8.7 I0.011 J-0.317 F800
G1 X-143.11 Y56.733
X-143.09 Y56.674
X-143.059 Y56.621
X-143.018 Y56.574
X-143.009 Y56.566 F1300
X-140.554 Y54.424
X-140.499 Y54.386
X-140.437 Y54.359
X-140.376 Y54.347 F600
X-140.314
X-140.254 Y54.36
X-140.196 Y54.383
G3 X-140.065 Y54.812 Z8.5 I-0.149 J0.28
G1 X-141.159 Y56.707 F1300
X-141.202 Y56.78
X-141.258 Y56.853
X-141.385 Y56.998
X-141.418 Y57.023
X-141.454 Y57.046
X-141.491 Y57.064
X-141.527 Y57.076
X-141.564 Y57.085
X-141.71 Y57.111
X-141.783 Y57.121
X-141.856 Y57.123
X-147.691
X-148.037 Y57.105
X-148.326 Y57.068
X-148.622 Y57.004
X-148.966 Y56.901
X-149.338 Y56.756
X-149.716 Y56.573
X-149.801 Y56.523
X-149.905 Y56.449
X-149.994 Y56.359
X-150.067 Y56.255
G3 X-149.936 Y55.825 Z8.7 I0.28 J-0.149 F800
G1 X-149.879 Y55.802
X-149.818 Y55.79
X-149.756 Y55.789
X-149.695 Y55.801
X-149.686 Y55.805 F1300
X-147.601 Y56.504
X-147.539 Y56.533
X-147.485 Y56.574
X-147.444 Y56.621 F600
X-147.413 Y56.674
X-147.393 Y56.733
X-147.385 Y56.795
G3 X-147.691 Y57.123 Z8.5 I-0.317 J0.011
G1 X-149.15 F1300
X-149.223 Y57.117
X-149.296 Y57.104
X-149.442 Y57.075
X-149.476 Y57.062
X-149.51 Y57.046
X-149.545 Y57.024
X-149.579 Y56.998
X-149.588 Y56.99
X-149.707 Y56.853
X-149.734 Y56.821
X-149.806 Y56.707
X-152.797 Y51.526
X-152.952 Y51.224
X-153.046 Y50.997
X-153.14 Y50.707
X-153.213 Y50.4
X-153.271 Y50.02
X-153.295 Y49.691
X-153.291 Y49.544
X-153.258 Y49.401
X-153.197 Y49.267
G3 X-152.76 Y49.166 Z8.7 I0.269 J0.168 F800
G1 X-152.711 Y49.204
X-152.67 Y49.25
X-152.639 Y49.304
X-152.619 Y49.363
X-152.617 Y49.371 F1300
X-152.217 Y51.293
X-152.211 Y51.361
X-152.219 Y51.43
X-152.239 Y51.489 F600
X-152.27 Y51.542
X-152.311 Y51.589
X-152.36 Y51.627
G3 X-152.797 Y51.526 Z8.5 I-0.168 J-0.269
G1 X-153.424 Y50.441 F1300
X-153.463 Y50.368
X-153.49 Y50.295
X-153.527 Y50.195
X-153.542 Y50.149
X-153.55 Y50.113
X-153.554 Y50.077
X-153.555 Y50.04
X-153.553 Y50.004
X-153.544 Y49.954
X-153.527 Y49.905
X-153.51 Y49.858
X-153.454 Y49.712
X-153.258 Y49.372
X-150.342 Y44.321
X-150.23 Y44.149
X-150.083 Y43.956
X-149.879 Y43.731
X-149.653 Y43.517
X-149.359 Y43.281
X-149.098 Y43.105
X-148.969 Y43.035
X-148.829 Y42.992
X-148.683 Y42.977
G3 X-148.376 Y43.305 Z8.7 I-0.011 J0.317 F800
G1 X-148.385 Y43.367
X-148.405 Y43.426
X-148.435 Y43.479
X-148.476 Y43.526
X-148.487 Y43.535 F1300
X-149.854 Y44.71
X-149.909 Y44.748
X-149.97 Y44.774
X-150.03 Y44.786 F600
X-150.092
X-150.153 Y44.774
X-150.21 Y44.75
G3 X-150.342 Y44.321 Z8.5 I0.149 J-0.28
G1 X-149.837 Y43.446 F1300
X-149.75 Y43.301
X-149.734 Y43.28
X-149.629 Y43.155
X-149.588 Y43.109
X-149.551 Y43.08
X-149.515 Y43.057
X-149.478 Y43.039
X-149.442 Y43.025
X-149.37 Y43.009
X-149.223 Y42.983
X-149.187 Y42.979
X-149.15 Y42.977
X-143.023
X-142.72 Y42.992
X-142.478 Y43.024
X-142.177 Y43.089
X-141.875 Y43.179
X-141.51 Y43.321
X-141.285 Y43.43
X-141.16 Y43.507
X-141.052 Y43.607
X-140.966 Y43.726
G3 X-141.097 Y44.156 Z8.7 I-0.28 J0.149 F800
G1 X-141.155 Y44.179
X-141.216 Y44.192
X-141.278
X-141.338 Y44.18
X-141.346 Y44.177 F1300
X-143.111 Y43.596
X-143.174 Y43.567
X-143.229 Y43.526
X-143.27 Y43.479 F600
X-143.301 Y43.426
X-143.321 Y43.367
X-143.329 Y43.305
G3 X-143.023 Y42.977 Z8.5 I0.317 J-0.011
G1 X-141.856 F1300
X-141.783 Y42.978
X-141.71 Y42.989
X-141.564 Y43.015
X-141.527 Y43.023
X-141.491 Y43.036
X-141.454 Y43.054
X-141.418 Y43.077
X-141.377 Y43.109
X-141.335 Y43.155
X-141.214 Y43.301
X-141.126 Y43.45
X-137.847 Y49.129
X-137.696 Y49.424
X-137.602 Y49.651
X-137.509 Y49.938
X-137.502 Y49.969
X-137.482 Y50.154
X-137.509 Y50.338
X-137.581 Y50.51
G3 X-138.018 Y50.611 Z8.7 I-0.269 J-0.168 F800
G1 X-138.067 Y50.574
X-138.107 Y50.529
X-138.138 Y50.477
X-138.158 Y50.42
X-138.16 Y50.414
X-138.424 Y49.376 F1300
X-138.433 Y49.326
Y49.275
X-138.425 Y49.225
X-138.405 Y49.166 F600
X-138.374 Y49.113
X-138.334 Y49.066
X-138.284 Y49.028
G3 X-137.847 Y49.129 Z8.5 I0.168 J0.269
G1 X-137.595 Y49.567 F1300
X-137.511 Y49.712
X-137.479 Y49.792
X-137.429 Y49.931
X-137.418 Y49.967
X-137.412 Y50.004
X-137.41 Y50.04
X-137.411 Y50.077
X-137.415 Y50.113
X-137.423 Y50.149
X-137.479 Y50.308
X-137.505 Y50.374
X-137.541 Y50.441
X-138.668 Y52.393
G3 X-139.079 Y52.509 I-0.269 J-0.168 F800
G1 X-139.12 Y52.474 Z8.505
X-139.16 Y52.439 Z8.519
X-139.198 Y52.407 Z8.542
X-139.215 Y52.361 Z8.578
X-139.23 Y52.322 Z8.622
X-139.241 Y52.292 Z8.673
X-139.249 Y52.271 Z8.729
X-139.253 Y52.261 Z8.789
Y52.26 Z8.818
G0 Z20.1
X-129.699 Y39.638
Z10.3
G3 X-127.65 Y39.277 Z10.22 I1.217 J0.912 F600
X-127.159 Y41.297 Z10.14 I-0.831 J1.272
X-129.141 Y41.916 Z10.06 I-1.321 J-0.747
X-129.886 Y39.98 Z9.98 I0.66 J-1.365
X-128.003 Y39.113 Z9.9 I1.404 J0.571
X-127.018 Y40.934 Z9.82 I-0.479 J1.436
X-128.771 Y42.034 Z9.74 I-1.463 J-0.385
X-129.979 Y40.357 Z9.66 I0.29 J-1.483
X-128.385 Y39.044 Z9.58 I1.497 J0.194
X-126.974 Y40.549 Z9.5 I-0.097 J1.505
X-129.99 Y40.549 I-1.508 J0
X-126.974 Y40.549 I1.508 J0
G1 X-126.957 Y41.191 F1300
X-126.928 Y41.266
X-126.894 Y41.412
X-126.89 Y41.562
X-126.912 Y41.711
X-126.954 Y41.854
X-127.014 Y41.992
X-127.09 Y42.121
X-127.18 Y42.242
X-127.281 Y42.353
X-127.392 Y42.454
X-127.511 Y42.544
X-127.638 Y42.624
X-127.772 Y42.693
X-127.913 Y42.752
X-128.063 Y42.801
X-128.219 Y42.838
X-128.381 Y42.864
X-128.548 Y42.876
X-128.718 Y42.875
X-128.891 Y42.86
X-129.063 Y42.831
X-129.235 Y42.788
X-129.405 Y42.731
X-129.571 Y42.659
X-129.732 Y42.574
X-129.887 Y42.475
X-130.034 Y42.363
X-130.173 Y42.239
X-130.302 Y42.104
X-130.421 Y41.958
X-130.528 Y41.802
X-130.622 Y41.638
X-130.703 Y41.466
X-130.77 Y41.288
X-130.823 Y41.105
X-130.86 Y40.917
X-130.883 Y40.727
X-130.891 Y40.535
X-130.883 Y40.343
X-130.859 Y40.153
X-130.821 Y39.964
X-130.767 Y39.779
X-130.698 Y39.598
X-130.616 Y39.424
X-130.519 Y39.257
X-130.409 Y39.098
X-130.287 Y38.948
X-130.153 Y38.808
X-130.009 Y38.68
X-129.854 Y38.563
X-129.69 Y38.46
X-129.519 Y38.369
X-129.341 Y38.293
X-129.157 Y38.231
X-128.969 Y38.185
X-128.778 Y38.153
X-128.585 Y38.137
X-128.391 Y38.136
X-128.198 Y38.151
X-128.006 Y38.182
X-127.818 Y38.228
X-127.634 Y38.288
X-127.455 Y38.364
X-127.283 Y38.453
X-127.119 Y38.556
X-126.963 Y38.672
X-126.817 Y38.8
X-126.682 Y38.939
X-126.559 Y39.089
X-126.448 Y39.248
X-126.343 Y39.427
X-126.204 Y39.715
X-126.05 Y40.115
X-125.962 Y40.411
X-125.907 Y40.674
X-125.875 Y40.917
X-125.865 Y41.146
X-125.872 Y41.363
X-125.896 Y41.572
X-125.936 Y41.778
X-125.993 Y41.979
X-126.065 Y42.174
X-126.153 Y42.363
X-126.256 Y42.545
X-126.374 Y42.719
X-126.506 Y42.884
X-126.654 Y43.04
X-126.815 Y43.186
X-126.99 Y43.32
X-127.177 Y43.441
X-127.377 Y43.548
X-127.588 Y43.641
X-127.809 Y43.717
X-128.038 Y43.776
X-128.274 Y43.817
X-128.516 Y43.839
X-128.762 Y43.842
X-129.009 Y43.824
X-129.257 Y43.787
X-129.503 Y43.729
X-129.745 Y43.652
X-129.983 Y43.554
X-130.213 Y43.437
X-130.434 Y43.3
X-130.646 Y43.146
X-130.845 Y42.974
X-131.03 Y42.786
X-131.201 Y42.583
X-131.355 Y42.365
X-131.492 Y42.136
X-131.611 Y41.895
X-131.71 Y41.644
X-131.788 Y41.386
X-131.846 Y41.122
X-131.883 Y40.853
X-131.898 Y40.582
X-131.891 Y40.31
X-131.863 Y40.039
X-131.812 Y39.771
X-131.74 Y39.507
X-131.648 Y39.25
X-131.534 Y39.001
X-131.401 Y38.762
X-131.249 Y38.534
X-131.08 Y38.318
X-130.893 Y38.117
X-130.691 Y37.932
X-130.474 Y37.763
X-130.245 Y37.612
X-130.004 Y37.48
X-129.753 Y37.368
X-129.494 Y37.276
X-129.228 Y37.205
X-128.958 Y37.156
X-128.684 Y37.129
X-128.409 Y37.123
X-128.134 Y37.14
X-127.862 Y37.179
X-127.594 Y37.239
X-127.331 Y37.321
X-127.076 Y37.424
X-126.829 Y37.547
X-126.594 Y37.689
X-126.37 Y37.85
X-126.159 Y38.03
X-125.944 Y38.243
X-125.726 Y38.499
X-125.523 Y38.78
X-125.338 Y39.085
X-125.178 Y39.404
X-125.047 Y39.727
X-124.945 Y40.05
X-124.872 Y40.37
X-124.827 Y40.686
X-124.807 Y41
X-124.812 Y41.31
X-124.842 Y41.615
X-124.895 Y41.914
X-124.972 Y42.206
X-125.072 Y42.489
X-125.194 Y42.763
X-125.337 Y43.027
X-125.502 Y43.278
X-125.687 Y43.517
X-125.891 Y43.741
X-126.115 Y43.949
X-126.356 Y44.14
X-126.613 Y44.313
X-126.887 Y44.465
X-127.173 Y44.597
X-127.473 Y44.705
X-127.782 Y44.791
X-128.1 Y44.851
X-128.425 Y44.886
X-128.754 Y44.895
X-129.084 Y44.878
X-129.415 Y44.834
X-129.743 Y44.762
X-130.066 Y44.665
X-130.383 Y44.54
X-130.69 Y44.39
X-130.985 Y44.215
X-131.267 Y44.016
X-131.534 Y43.793
X-131.782 Y43.549
X-132.012 Y43.285
X-132.22 Y43.002
X-132.405 Y42.702
X-132.566 Y42.388
X-132.702 Y42.06
X-132.811 Y41.722
X-132.893 Y41.376
X-132.947 Y41.023
X-132.973 Y40.667
X-132.97 Y40.309
X-132.938 Y39.952
X-132.878 Y39.598
X-132.789 Y39.25
X-132.672 Y38.91
X-132.529 Y38.58
X-132.359 Y38.262
X-132.164 Y37.959
X-131.946 Y37.672
X-131.705 Y37.404
X-131.443 Y37.155
X-131.162 Y36.929
X-130.863 Y36.725
X-130.549 Y36.547
X-130.222 Y36.393
X-129.883 Y36.267
X-129.535 Y36.168
X-129.181 Y36.098
X-128.822 Y36.056
X-128.46 Y36.043
X-128.099 Y36.059
X-127.74 Y36.104
X-127.386 Y36.178
X-127.038 Y36.28
X-126.701 Y36.41
X-126.373 Y36.566
X-126.055 Y36.752
X-125.741 Y36.97
X-125.435 Y37.22
X-125.143 Y37.503
X-124.867 Y37.815
X-124.615 Y38.152
X-124.389 Y38.51
X-124.194 Y38.884
X-124.031 Y39.269
X-123.9 Y39.663
X-123.802 Y40.062
X-123.737 Y40.464
X-123.704 Y40.867
X-123.705 Y41.267
X-123.737 Y41.664
X-123.8 Y42.054
X-123.894 Y42.436
X-124.018 Y42.808
X-124.171 Y43.169
X-124.353 Y43.516
X-124.562 Y43.847
X-124.798 Y44.162
X-125.059 Y44.457
X-125.344 Y44.732
X-125.652 Y44.984
X-125.98 Y45.212
X-126.328 Y45.414
X-126.693 Y45.588
X-127.074 Y45.734
X-127.467 Y45.849
X-127.87 Y45.933
X-128.282 Y45.984
X-128.698 Y46.003
X-129.118 Y45.987
X-129.537 Y45.938
X-129.952 Y45.855
X-130.362 Y45.738
X-130.764 Y45.588
X-131.153 Y45.406
X-131.529 Y45.192
X-131.887 Y44.947
X-132.226 Y44.673
X-132.543 Y44.372
X-132.836 Y44.045
X-133.103 Y43.695
X-133.341 Y43.324
X-133.549 Y42.933
X-133.726 Y42.526
X-133.87 Y42.106
X-133.979 Y41.674
X-134.054 Y41.234
X-134.094 Y40.789
X-134.097 Y40.341
X-134.065 Y39.894
X-133.996 Y39.451
X-133.893 Y39.014
X-133.754 Y38.586
X-133.581 Y38.17
X-133.376 Y37.77
X-133.138 Y37.387
X-132.871 Y37.024
X-132.575 Y36.683
X-132.253 Y36.368
X-131.906 Y36.079
X-131.537 Y35.818
X-131.148 Y35.588
X-130.742 Y35.39
X-130.322 Y35.225
X-129.889 Y35.095
X-129.447 Y34.999
X-128.999 Y34.939
X-128.547 Y34.916
X-128.095 Y34.929
X-127.646 Y34.978
X-127.201 Y35.063
X-126.764 Y35.183
X-126.335 Y35.34
X-125.914 Y35.532
X-125.506 Y35.761
X-125.11 Y36.026
X-124.729 Y36.329
X-124.368 Y36.666
X-124.031 Y37.036
X-123.721 Y37.436
X-123.444 Y37.86
X-123.202 Y38.305
X-122.997 Y38.767
X-122.83 Y39.242
X-122.703 Y39.727
X-122.615 Y40.217
X-122.568 Y40.71
X-122.56 Y41.203
X-122.591 Y41.693
X-122.662 Y42.176
X-122.77 Y42.651
X-122.916 Y43.114
X-123.099 Y43.563
X-123.317 Y43.996
X-123.569 Y44.411
X-123.853 Y44.804
X-124.17 Y45.175
X-124.516 Y45.519
X-124.89 Y45.836
X-125.289 Y46.123
X-125.712 Y46.378
X-126.157 Y46.599
X-126.62 Y46.785
X-127.098 Y46.934
X-127.59 Y47.044
X-128.091 Y47.115
X-128.598 Y47.146
X-129.109 Y47.136
X-129.62 Y47.085
X-130.127 Y46.992
X-130.627 Y46.858
X-131.117 Y46.684
X-131.593 Y46.471
X-132.052 Y46.219
X-132.491 Y45.929
X-132.907 Y45.605
X-133.297 Y45.247
X-133.657 Y44.858
X-133.986 Y44.44
X-134.281 Y43.996
X-134.541 Y43.529
X-134.762 Y43.041
X-134.944 Y42.536
X-135.085 Y42.017
X-135.184 Y41.488
X-135.24 Y40.952
X-135.253 Y40.412
X-135.223 Y39.872
X-135.149 Y39.336
X-135.033 Y38.807
X-134.874 Y38.289
X-134.674 Y37.785
X-134.435 Y37.298
X-134.156 Y36.831
X-133.841 Y36.388
X-133.491 Y35.972
X-133.109 Y35.585
X-132.697 Y35.23
X-132.258 Y34.909
X-131.794 Y34.624
X-131.308 Y34.377
X-130.805 Y34.17
X-130.286 Y34.004
X-129.755 Y33.88
X-129.216 Y33.8
X-128.672 Y33.762
X-128.127 Y33.769
X-127.584 Y33.819
X-127.045 Y33.913
X-126.513 Y34.05
X-125.991 Y34.231
X-125.479 Y34.455
X-124.982 Y34.723
X-124.502 Y35.034
X-124.042 Y35.386
X-123.608 Y35.779
X-123.203 Y36.208
X-122.832 Y36.671
X-122.499 Y37.164
X-122.205 Y37.683
X-121.955 Y38.224
X-121.749 Y38.781
X-121.589 Y39.352
X-121.475 Y39.932
X-121.409 Y40.518
X-121.39 Y41.104
X-121.418 Y41.688
X-121.492 Y42.267
X-121.546 Y42.52
X-121.58 Y42.659
X-121.593 Y42.709
X-121.612 Y42.772
X-121.637 Y42.834
X-121.668 Y42.892
X-123.081 Y45.341
X-123.349 Y45.755
X-123.589 Y46.068
X-123.859 Y46.367
X-124.188 Y46.677
X-124.569 Y46.983
X-124.997 Y47.273
X-125.466 Y47.538
X-125.5 Y47.554
X-125.6 Y47.592
X-125.705 Y47.615
X-125.812 Y47.623
G3 X-126.118 Y47.295 Z9.7 I0.011 J-0.317 F800
G1 X-126.11 Y47.233
X-126.09 Y47.174
X-126.059 Y47.121
X-126.018 Y47.074
X-126.008 Y47.066 F1300
X-123.57 Y44.952
X-123.515 Y44.913
X-123.453 Y44.888
X-123.393 Y44.876 F600
X-123.331
X-123.27 Y44.888
X-123.212 Y44.911
G3 X-123.081 Y45.341 Z9.5 I-0.149 J0.28
G1 X-124.203 Y47.283 F1300
X-124.281 Y47.381
X-124.349 Y47.461
X-124.386 Y47.497
X-124.423 Y47.526
X-124.459 Y47.548
X-124.495 Y47.564
X-124.531 Y47.578
X-124.568 Y47.586
X-124.641 Y47.599
X-124.787 Y47.622
X-125.37 Y47.623
X-130.768
X-131.028 Y47.61
X-131.319 Y47.572
X-131.615 Y47.508
X-131.961 Y47.405
X-132.333 Y47.26
X-132.712 Y47.076
X-132.801 Y47.024
X-132.904 Y46.95
X-132.994 Y46.86
X-133.067 Y46.756
G3 X-132.936 Y46.326 Z9.7 I0.28 J-0.149 F800
G1 X-132.878 Y46.303
X-132.817 Y46.291
X-132.756 Y46.29
X-132.695 Y46.302
X-132.682 Y46.307 F1300
X-130.675 Y47.006
X-130.615 Y47.034
X-130.562 Y47.074
X-130.521 Y47.121 F600
X-130.49 Y47.174
X-130.47 Y47.233
X-130.462 Y47.295
G3 X-130.768 Y47.623 Z9.5 I-0.317 J0.011
G1 X-132.081 F1300
X-132.227 Y47.612
X-132.373 Y47.59
X-132.446 Y47.575
X-132.482 Y47.561
X-132.519 Y47.541
X-132.543 Y47.526
X-132.578 Y47.499
X-132.612 Y47.465
X-132.684 Y47.381
X-132.744 Y47.308
X-132.79 Y47.235
X-135.819 Y41.989
X-135.952 Y41.73
X-136.046 Y41.502
X-136.14 Y41.212
X-136.213 Y40.903
X-136.271 Y40.523
X-136.295 Y40.191
X-136.291 Y40.045
X-136.258 Y39.902
X-136.198 Y39.768
G3 X-135.761 Y39.667 Z9.7 I0.269 J0.168 F800
G1 X-135.711 Y39.704
X-135.671 Y39.751
X-135.64 Y39.805
X-135.619 Y39.863
X-135.617 Y39.873 F1300
X-135.238 Y41.758
X-135.232 Y41.826
X-135.24 Y41.894
X-135.26 Y41.952 F600
X-135.291 Y42.006
X-135.332 Y42.052
X-135.381 Y42.09
G3 X-135.819 Y41.989 Z9.5 I-0.168 J-0.269
G1 X-136.407 Y40.969 F1300
X-136.458 Y40.878
X-136.48 Y40.823
X-136.533 Y40.678
X-136.544 Y40.641
X-136.551 Y40.605
X-136.555 Y40.568
Y40.532
X-136.552 Y40.495
X-136.545 Y40.459
X-136.52 Y40.386
X-136.466 Y40.24
X-136.458 Y40.22
X-136.345 Y40.024
X-133.394 Y34.912
X-133.221 Y34.644
X-133.073 Y34.451
X-132.871 Y34.227
X-132.645 Y34.014
X-132.352 Y33.779
X-132.095 Y33.605
X-131.966 Y33.535
X-131.826 Y33.492
X-131.679 Y33.477
G3 X-131.373 Y33.805 Z9.7 I-0.011 J0.317 F800
G1 X-131.381 Y33.867
X-131.401 Y33.926
X-131.432 Y33.979
X-131.473 Y34.026
X-131.48 Y34.032 F1300
X-132.903 Y35.298
X-132.959 Y35.338
X-133.022 Y35.365
X-133.083 Y35.377 F600
X-133.145
X-133.206 Y35.365
X-133.263 Y35.341
G3 X-133.394 Y34.912 Z9.5 I0.149 J-0.28
G1 X-132.769 Y33.829 F1300
X-132.653 Y33.683
X-132.586 Y33.608
X-132.552 Y33.58
X-132.519 Y33.559
X-132.475 Y33.537
X-132.424 Y33.52
X-132.373 Y33.51
X-132.227 Y33.488
X-132.081 Y33.477
X-125.954
X-125.725 Y33.489
X-125.483 Y33.52
X-125.181 Y33.585
X-124.878 Y33.676
X-124.512 Y33.818
X-124.286 Y33.928
X-124.161 Y34.005
X-124.053 Y34.105
X-123.968 Y34.224
G3 X-124.099 Y34.653 Z9.7 I-0.28 J0.149 F800
G1 X-124.156 Y34.677
X-124.217 Y34.689
X-124.279
X-124.34 Y34.677
X-124.351 Y34.674 F1300
X-126.045 Y34.095
X-126.106 Y34.067
X-126.16 Y34.026
X-126.201 Y33.979 F600
X-126.232 Y33.926
X-126.252 Y33.867
X-126.26 Y33.805
G3 X-125.954 Y33.477 Z9.5 I0.317 J-0.011
G1 X-124.787 Y33.478 F1300
X-124.641 Y33.501
X-124.568 Y33.514
X-124.531 Y33.522
X-124.488 Y33.537
X-124.453 Y33.555
X-124.418 Y33.576
X-124.384 Y33.604
X-124.349 Y33.639
X-124.312 Y33.683
X-124.203 Y33.817
X-120.848 Y39.629
X-120.696 Y39.924
X-120.602 Y40.152
X-120.509 Y40.438
X-120.502 Y40.467
X-120.482 Y40.652
X-120.509 Y40.835
X-120.58 Y41.006
G3 X-121.017 Y41.109 Z9.7 I-0.27 J-0.167 F800
G1 X-121.065 Y41.072
X-121.106 Y41.027
X-121.137 Y40.975
X-121.157 Y40.918
X-121.159 Y40.913
X-121.424 Y39.876 F1300
X-121.433 Y39.825
X-121.434 Y39.774
X-121.426 Y39.724
X-121.406 Y39.665 F600
X-121.375 Y39.612
X-121.334 Y39.565
X-121.285 Y39.527
G3 X-120.848 Y39.629 Z9.5 I0.168 J0.269
G1 X-120.578 Y40.095 F1300
X-120.556 Y40.142
X-120.51 Y40.24
X-120.445 Y40.386
X-120.42 Y40.459
X-120.413 Y40.495
X-120.41 Y40.543
Y40.562
X-120.416 Y40.62
X-120.422 Y40.649
X-120.432 Y40.678
X-120.485 Y40.823
X-120.559 Y40.969
X-120.81 Y41.406
X-121.668 Y42.892
G3 X-122.079 Y43.008 I-0.269 J-0.168 F800
G1 X-122.12 Y42.973 Z9.505
X-122.16 Y42.939 Z9.519
X-122.197 Y42.906 Z9.542
X-122.215 Y42.86 Z9.578
X-122.229 Y42.821 Z9.622
X-122.241 Y42.791 Z9.673
X-122.249 Y42.77 Z9.729
X-122.253 Y42.76 Z9.789
Y42.759 Z9.818
G0 X-129.699 Y39.639
Z9.8
G3 X-127.65 Y39.278 Z9.72 I1.217 J0.912 F600
X-127.159 Y41.298 Z9.64 I-0.831 J1.272
X-129.141 Y41.917 Z9.56 I-1.321 J-0.747
X-129.886 Y39.981 Z9.48 I0.66 J-1.365
X-128.003 Y39.114 Z9.4 I1.404 J0.571
X-127.018 Y40.935 Z9.32 I-0.479 J1.436
X-128.77 Y42.034 Z9.24 I-1.463 J-0.385
X-129.979 Y40.358 Z9.16 I0.29 J-1.483
X-128.385 Y39.045 Z9.08 I1.497 J0.194
X-126.974 Y40.55 Z9 I-0.097 J1.505
X-129.99 Y40.55 I-1.508 J0
X-126.974 Y40.55 I1.508 J0
G1 X-126.957 Y41.192 F1300
X-126.928 Y41.267
X-126.894 Y41.413
X-126.89 Y41.563
X-126.912 Y41.711
X-126.954 Y41.855
X-127.014 Y41.992
X-127.09 Y42.122
X-127.18 Y42.242
X-127.281 Y42.353
X-127.392 Y42.454
X-127.511 Y42.545
X-127.638 Y42.624
X-127.771 Y42.693
X-127.913 Y42.752
X-128.062 Y42.801
X-128.219 Y42.839
X-128.381 Y42.864
X-128.548 Y42.877
X-128.718 Y42.876
X-128.89 Y42.861
X-129.063 Y42.832
X-129.235 Y42.789
X-129.405 Y42.731
X-129.571 Y42.66
X-129.732 Y42.574
X-129.887 Y42.475
X-130.034 Y42.364
X-130.173 Y42.24
X-130.302 Y42.105
X-130.421 Y41.959
X-130.527 Y41.803
X-130.622 Y41.639
X-130.703 Y41.467
X-130.77 Y41.289
X-130.822 Y41.106
X-130.86 Y40.918
X-130.883 Y40.728
X-130.891 Y40.536
X-130.883 Y40.344
X-130.859 Y40.153
X-130.821 Y39.965
X-130.767 Y39.779
X-130.698 Y39.599
X-130.616 Y39.425
X-130.519 Y39.257
X-130.409 Y39.098
X-130.287 Y38.948
X-130.153 Y38.809
X-130.008 Y38.68
X-129.854 Y38.564
X-129.69 Y38.46
X-129.519 Y38.37
X-129.341 Y38.294
X-129.157 Y38.232
X-128.969 Y38.185
X-128.778 Y38.154
X-128.585 Y38.138
X-128.391 Y38.137
X-128.198 Y38.152
X-128.006 Y38.183
X-127.818 Y38.228
X-127.634 Y38.289
X-127.455 Y38.364
X-127.283 Y38.454
X-127.119 Y38.557
X-126.963 Y38.673
X-126.817 Y38.8
X-126.682 Y38.94
X-126.559 Y39.089
X-126.448 Y39.248
X-126.343 Y39.428
X-126.204 Y39.716
X-126.05 Y40.116
X-125.962 Y40.412
X-125.906 Y40.675
X-125.875 Y40.918
X-125.865 Y41.146
X-125.872 Y41.363
X-125.896 Y41.573
X-125.936 Y41.778
X-125.993 Y41.979
X-126.065 Y42.175
X-126.153 Y42.364
X-126.256 Y42.545
X-126.373 Y42.719
X-126.506 Y42.885
X-126.654 Y43.041
X-126.815 Y43.186
X-126.99 Y43.32
X-127.177 Y43.442
X-127.377 Y43.549
X-127.588 Y43.641
X-127.809 Y43.717
X-128.038 Y43.776
X-128.274 Y43.817
X-128.516 Y43.84
X-128.761 Y43.842
X-129.009 Y43.825
X-129.257 Y43.788
X-129.503 Y43.73
X-129.745 Y43.652
X-129.983 Y43.555
X-130.213 Y43.437
X-130.434 Y43.301
X-130.645 Y43.147
X-130.845 Y42.975
X-131.03 Y42.787
X-131.201 Y42.583
X-131.355 Y42.366
X-131.492 Y42.136
X-131.61 Y41.895
X-131.709 Y41.645
X-131.788 Y41.387
X-131.846 Y41.123
X-131.883 Y40.854
X-131.898 Y40.583
X-131.891 Y40.311
X-131.862 Y40.04
X-131.812 Y39.772
X-131.74 Y39.508
X-131.647 Y39.251
X-131.534 Y39.002
X-131.401 Y38.762
X-131.249 Y38.534
X-131.08 Y38.319
X-130.893 Y38.118
X-130.691 Y37.932
X-130.474 Y37.764
X-130.245 Y37.613
X-130.004 Y37.481
X-129.753 Y37.368
X-129.494 Y37.277
X-129.228 Y37.206
X-128.958 Y37.157
X-128.684 Y37.129
X-128.409 Y37.124
X-128.134 Y37.141
X-127.862 Y37.18
X-127.594 Y37.24
X-127.331 Y37.322
X-127.076 Y37.425
X-126.829 Y37.548
X-126.594 Y37.69
X-126.37 Y37.85
X-126.158 Y38.03
X-125.944 Y38.244
X-125.726 Y38.5
X-125.523 Y38.781
X-125.338 Y39.086
X-125.178 Y39.405
X-125.047 Y39.728
X-124.945 Y40.051
X-124.872 Y40.37
X-124.826 Y40.687
X-124.807 Y41.001
X-124.812 Y41.311
X-124.841 Y41.616
X-124.895 Y41.915
X-124.972 Y42.207
X-125.072 Y42.49
X-125.194 Y42.764
X-125.337 Y43.027
X-125.502 Y43.279
X-125.687 Y43.517
X-125.891 Y43.741
X-126.114 Y43.95
X-126.356 Y44.141
X-126.613 Y44.313
X-126.886 Y44.466
X-127.173 Y44.597
X-127.473 Y44.706
X-127.782 Y44.791
X-128.1 Y44.852
X-128.425 Y44.887
X-128.753 Y44.896
X-129.084 Y44.879
X-129.415 Y44.834
X-129.743 Y44.763
X-130.066 Y44.665
X-130.382 Y44.541
X-130.69 Y44.391
X-130.985 Y44.216
X-131.267 Y44.016
X-131.534 Y43.794
X-131.782 Y43.55
X-132.012 Y43.286
X-132.22 Y43.003
X-132.405 Y42.703
X-132.566 Y42.388
X-132.702 Y42.061
X-132.811 Y41.723
X-132.893 Y41.377
X-132.947 Y41.024
X-132.973 Y40.667
X-132.97 Y40.309
X-132.938 Y39.952
X-132.878 Y39.599
X-132.789 Y39.251
X-132.672 Y38.91
X-132.529 Y38.58
X-132.359 Y38.263
X-132.164 Y37.96
X-131.946 Y37.673
X-131.705 Y37.404
X-131.443 Y37.156
X-131.162 Y36.929
X-130.863 Y36.726
X-130.549 Y36.547
X-130.222 Y36.394
X-129.883 Y36.268
X-129.535 Y36.169
X-129.181 Y36.098
X-128.821 Y36.057
X-128.46 Y36.044
X-128.099 Y36.06
X-127.74 Y36.105
X-127.385 Y36.179
X-127.038 Y36.281
X-126.7 Y36.41
X-126.373 Y36.567
X-126.054 Y36.752
X-125.74 Y36.97
X-125.435 Y37.221
X-125.142 Y37.503
X-124.867 Y37.816
X-124.615 Y38.153
X-124.389 Y38.511
X-124.194 Y38.885
X-124.03 Y39.27
X-123.9 Y39.664
X-123.802 Y40.063
X-123.737 Y40.465
X-123.704 Y40.867
Y41.268
X-123.736 Y41.664
X-123.8 Y42.054
X-123.894 Y42.437
X-124.018 Y42.809
X-124.171 Y43.169
X-124.353 Y43.516
X-124.562 Y43.848
X-124.798 Y44.162
X-125.059 Y44.458
X-125.344 Y44.733
X-125.652 Y44.985
X-125.98 Y45.213
X-126.328 Y45.415
X-126.693 Y45.589
X-127.074 Y45.735
X-127.467 Y45.85
X-127.87 Y45.933
X-128.282 Y45.985
X-128.698 Y46.003
X-129.118 Y45.988
X-129.536 Y45.939
X-129.952 Y45.856
X-130.362 Y45.739
X-130.763 Y45.589
X-131.153 Y45.406
X-131.529 Y45.192
X-131.887 Y44.948
X-132.226 Y44.674
X-132.543 Y44.373
X-132.836 Y44.046
X-133.103 Y43.696
X-133.341 Y43.324
X-133.549 Y42.934
X-133.726 Y42.527
X-133.87 Y42.106
X-133.979 Y41.675
X-134.054 Y41.235
X-134.093 Y40.789
X-134.097 Y40.342
X-134.065 Y39.895
X-133.996 Y39.451
X-133.892 Y39.014
X-133.754 Y38.587
X-133.581 Y38.171
X-133.375 Y37.771
X-133.138 Y37.388
X-132.871 Y37.025
X-132.575 Y36.684
X-132.253 Y36.368
X-131.906 Y36.079
X-131.537 Y35.819
X-131.148 Y35.589
X-130.742 Y35.391
X-130.322 Y35.226
X-129.889 Y35.095
X-129.447 Y35
X-128.999 Y34.94
X-128.547 Y34.917
X-128.095 Y34.929
X-127.645 Y34.978
X-127.201 Y35.063
X-126.764 Y35.184
X-126.334 Y35.34
X-125.914 Y35.533
X-125.506 Y35.762
X-125.11 Y36.027
X-124.729 Y36.329
X-124.368 Y36.667
X-124.03 Y37.037
X-123.721 Y37.436
X-123.444 Y37.86
X-123.202 Y38.306
X-122.997 Y38.768
X-122.83 Y39.243
X-122.703 Y39.727
X-122.615 Y40.218
X-122.568 Y40.711
X-122.56 Y41.204
X-122.591 Y41.693
X-122.662 Y42.177
X-122.77 Y42.651
X-122.916 Y43.114
X-123.099 Y43.564
X-123.316 Y43.997
X-123.568 Y44.411
X-123.853 Y44.805
X-124.17 Y45.175
X-124.516 Y45.52
X-124.889 Y45.837
X-125.289 Y46.124
X-125.712 Y46.379
X-126.157 Y46.6
X-126.62 Y46.786
X-127.098 Y46.935
X-127.59 Y47.045
X-128.091 Y47.116
X-128.598 Y47.147
X-129.109 Y47.137
X-129.62 Y47.085
X-130.127 Y46.993
X-130.627 Y46.859
X-131.117 Y46.685
X-131.593 Y46.471
X-132.052 Y46.219
X-132.491 Y45.93
X-132.907 Y45.606
X-133.296 Y45.248
X-133.657 Y44.859
X-133.986 Y44.441
X-134.281 Y43.997
X-134.541 Y43.529
X-134.762 Y43.041
X-134.944 Y42.537
X-135.085 Y42.018
X-135.184 Y41.489
X-135.24 Y40.952
X-135.253 Y40.413
X-135.223 Y39.873
X-135.149 Y39.337
X-135.033 Y38.808
X-134.874 Y38.29
X-134.674 Y37.785
X-134.434 Y37.298
X-134.156 Y36.832
X-133.841 Y36.389
X-133.491 Y35.973
X-133.109 Y35.586
X-132.697 Y35.231
X-132.258 Y34.91
X-131.794 Y34.625
X-131.308 Y34.378
X-130.804 Y34.171
X-130.286 Y34.005
X-129.755 Y33.881
X-129.216 Y33.8
X-128.672 Y33.763
X-128.127 Y33.769
X-127.584 Y33.82
X-127.045 Y33.913
X-126.513 Y34.051
X-125.991 Y34.232
X-125.479 Y34.456
X-124.982 Y34.724
X-124.502 Y35.034
X-124.042 Y35.387
X-123.608 Y35.779
X-123.203 Y36.209
X-122.832 Y36.672
X-122.499 Y37.165
X-122.205 Y37.684
X-121.955 Y38.224
X-121.749 Y38.782
X-121.588 Y39.353
X-121.475 Y39.933
X-121.409 Y40.518
X-121.39 Y41.105
X-121.417 Y41.689
X-121.492 Y42.267
X-121.546 Y42.52
X-121.579 Y42.659
X-121.592 Y42.708
X-121.612 Y42.771
X-121.637 Y42.833
X-121.667 Y42.892
X-123.081 Y45.341
X-123.35 Y45.757
X-123.59 Y46.069
X-123.86 Y46.368
X-124.188 Y46.678
X-124.57 Y46.984
X-124.998 Y47.274
X-125.466 Y47.539
X-125.498 Y47.554
X-125.598 Y47.592
X-125.703 Y47.615
X-125.81 Y47.623
G3 X-126.116 Y47.295 Z9.2 I0.011 J-0.317 F800
G1 X-126.108 Y47.233
X-126.088 Y47.174
X-126.057 Y47.121
X-126.017 Y47.074
X-126.007 Y47.066 F1300
X-123.57 Y44.952
X-123.515 Y44.913
X-123.453 Y44.888
X-123.393 Y44.876 F600
X-123.331
X-123.27 Y44.888
X-123.212 Y44.911
G3 X-123.081 Y45.341 Z9 I-0.149 J0.28
G1 X-124.203 Y47.283 F1300
X-124.281 Y47.381
X-124.349 Y47.461
X-124.386 Y47.497
X-124.423 Y47.526
X-124.459 Y47.548
X-124.495 Y47.564
X-124.531 Y47.578
X-124.568 Y47.586
X-124.641 Y47.599
X-124.787 Y47.622
X-125.37 Y47.623
X-130.768
X-131.03 Y47.61
X-131.32 Y47.572
X-131.616 Y47.508
X-131.961 Y47.405
X-132.334 Y47.26
X-132.713 Y47.076
X-132.801 Y47.024
X-132.904 Y46.951
X-132.994 Y46.86
X-133.066 Y46.756
G3 X-132.935 Y46.327 Z9.2 I0.28 J-0.149 F800
G1 X-132.878 Y46.303
X-132.817 Y46.291
X-132.755
X-132.694 Y46.303
X-132.682 Y46.307 F1300
X-130.675 Y47.006
X-130.615 Y47.034
X-130.562 Y47.074
X-130.521 Y47.121 F600
X-130.49 Y47.174
X-130.47 Y47.233
X-130.462 Y47.295
G3 X-130.768 Y47.623 Z9 I-0.317 J0.011
G1 X-132.081 F1300
X-132.227 Y47.612
X-132.373 Y47.59
X-132.446 Y47.575
X-132.482 Y47.561
X-132.519 Y47.541
X-132.543 Y47.526
X-132.578 Y47.499
X-132.612 Y47.465
X-132.684 Y47.381
X-132.744 Y47.308
X-132.79 Y47.235
X-135.819 Y41.989
X-135.951 Y41.73
X-136.046 Y41.502
X-136.14 Y41.212
X-136.213 Y40.904
X-136.271 Y40.523
X-136.295 Y40.191
X-136.291 Y40.044
X-136.258 Y39.901
X-136.198 Y39.768
G3 X-135.76 Y39.667 Z9.2 I0.269 J0.168 F800
G1 X-135.711 Y39.704
X-135.67 Y39.751
X-135.639 Y39.805
X-135.619 Y39.863
X-135.617 Y39.873 F1300
X-135.238 Y41.758
X-135.232 Y41.826
X-135.24 Y41.894
X-135.26 Y41.952 F600
X-135.291 Y42.006
X-135.332 Y42.052
X-135.381 Y42.09
G3 X-135.819 Y41.989 Z9 I-0.168 J-0.269
G1 X-136.407 Y40.969 F1300
X-136.458 Y40.878
X-136.48 Y40.823
X-136.533 Y40.678
X-136.544 Y40.641
X-136.551 Y40.605
X-136.555 Y40.568
Y40.532
X-136.552 Y40.495
X-136.545 Y40.459
X-136.52 Y40.386
X-136.466 Y40.24
X-136.458 Y40.22
X-136.345 Y40.024
X-133.394 Y34.912
X-133.222 Y34.645
X-133.074 Y34.452
X-132.871 Y34.228
X-132.646 Y34.015
X-132.352 Y33.78
X-132.094 Y33.605
X-131.965 Y33.535
X-131.825 Y33.492
X-131.679 Y33.477
G3 X-131.372 Y33.805 Z9.2 I-0.011 J0.317 F800
G1 X-131.381 Y33.867
X-131.4 Y33.926
X-131.431 Y33.979
X-131.472 Y34.026
X-131.479 Y34.032 F1300
X-132.903 Y35.298
X-132.959 Y35.338
X-133.022 Y35.365
X-133.083 Y35.377 F600
X-133.145
X-133.206 Y35.365
X-133.263 Y35.341
G3 X-133.394 Y34.912 Z9 I0.149 J-0.28
G1 X-132.769 Y33.829 F1300
X-132.653 Y33.683
X-132.586 Y33.608
X-132.552 Y33.58
X-132.519 Y33.559
X-132.475 Y33.537
X-132.424 Y33.52
X-132.373 Y33.51
X-132.227 Y33.488
X-132.081 Y33.477
X-125.954
X-125.726 Y33.489
X-125.484 Y33.52
X-125.182 Y33.585
X-124.879 Y33.676
X-124.513 Y33.818
X-124.286 Y33.929
X-124.161 Y34.005
X-124.053 Y34.105
X-123.967 Y34.225
G3 X-124.099 Y34.654 Z9.2 I-0.28 J0.149 F800
G1 X-124.156 Y34.678
X-124.217 Y34.69
X-124.279
X-124.339 Y34.678
X-124.35 Y34.674 F1300
X-126.045 Y34.095
X-126.106 Y34.067
X-126.16 Y34.026
X-126.201 Y33.979 F600
X-126.232 Y33.926
X-126.252 Y33.867
X-126.26 Y33.805
G3 X-125.954 Y33.477 Z9 I0.317 J-0.011
G1 X-124.787 Y33.478 F1300
X-124.641 Y33.501
X-124.568 Y33.514
X-124.531 Y33.522
X-124.488 Y33.537
X-124.453 Y33.555
X-124.418 Y33.576
X-124.384 Y33.604
X-124.349 Y33.639
X-124.312 Y33.683
X-124.203 Y33.817
X-120.848 Y39.629
X-120.696 Y39.924
X-120.602 Y40.152
X-120.509 Y40.439
X-120.502 Y40.467
X-120.482 Y40.652
X-120.509 Y40.835
X-120.58 Y41.006
G3 X-121.017 Y41.109 Z9.2 I-0.27 J-0.167 F800
G1 X-121.065 Y41.072
X-121.105 Y41.027
X-121.137 Y40.975
X-121.157 Y40.918
X-121.159 Y40.913
X-121.424 Y39.876 F1300
X-121.433 Y39.825
X-121.434 Y39.774
X-121.426 Y39.724
X-121.406 Y39.665 F600
X-121.375 Y39.612
X-121.334 Y39.565
X-121.285 Y39.527
G3 X-120.848 Y39.629 Z9 I0.168 J0.269
G1 X-120.578 Y40.095 F1300
X-120.556 Y40.142
X-120.51 Y40.24
X-120.445 Y40.386
X-120.42 Y40.459
X-120.413 Y40.495
X-120.41 Y40.543
Y40.562
X-120.416 Y40.62
X-120.422 Y40.649
X-120.432 Y40.678
X-120.485 Y40.823
X-120.559 Y40.969
X-120.81 Y41.406
X-121.667 Y42.892
G3 X-122.078 Y43.008 I-0.269 J-0.168 F800
G1 X-122.119 Y42.972 Z9.005
X-122.159 Y42.938 Z9.019
X-122.197 Y42.906 Z9.042
X-122.214 Y42.859 Z9.078
X-122.229 Y42.821 Z9.122
X-122.24 Y42.79 Z9.173
X-122.248 Y42.77 Z9.229
X-122.252 Y42.759 Z9.289
Y42.758 Z9.318
G0 X-129.699 Y39.639
Z9.3
G3 X-127.65 Y39.278 Z9.22 I1.217 J0.912 F600
X-127.159 Y41.298 Z9.14 I-0.831 J1.272
X-129.141 Y41.917 Z9.06 I-1.321 J-0.747
X-129.886 Y39.981 Z8.98 I0.66 J-1.365
X-128.003 Y39.114 Z8.9 I1.404 J0.571
X-127.018 Y40.935 Z8.82 I-0.479 J1.436
X-128.77 Y42.034 Z8.74 I-1.463 J-0.385
X-129.979 Y40.358 Z8.66 I0.29 J-1.483
X-128.385 Y39.045 Z8.58 I1.497 J0.194
X-126.974 Y40.55 Z8.5 I-0.097 J1.505
X-129.99 Y40.55 I-1.508 J0
X-126.974 Y40.55 I1.508 J0
G1 X-126.957 Y41.192 F1300
X-126.928 Y41.267
X-126.894 Y41.413
X-126.89 Y41.563
X-126.912 Y41.711
X-126.954 Y41.855
X-127.014 Y41.992
X-127.09 Y42.122
X-127.18 Y42.242
X-127.281 Y42.353
X-127.392 Y42.454
X-127.511 Y42.545
X-127.638 Y42.624
X-127.771 Y42.693
X-127.913 Y42.752
X-128.062 Y42.801
X-128.219 Y42.839
X-128.381 Y42.864
X-128.548 Y42.877
X-128.718 Y42.876
X-128.89 Y42.861
X-129.063 Y42.832
X-129.235 Y42.789
X-129.405 Y42.731
X-129.571 Y42.66
X-129.732 Y42.574
X-129.887 Y42.475
X-130.034 Y42.364
X-130.173 Y42.24
X-130.302 Y42.105
X-130.421 Y41.959
X-130.527 Y41.803
X-130.622 Y41.639
X-130.703 Y41.467
X-130.77 Y41.289
X-130.822 Y41.106
X-130.86 Y40.918
X-130.883 Y40.728
X-130.891 Y40.536
X-130.883 Y40.344
X-130.859 Y40.153
X-130.821 Y39.965
X-130.767 Y39.779
X-130.698 Y39.599
X-130.616 Y39.425
X-130.519 Y39.257
X-130.409 Y39.098
X-130.287 Y38.948
X-130.153 Y38.809
X-130.008 Y38.68
X-129.854 Y38.564
X-129.69 Y38.46
X-129.519 Y38.37
X-129.341 Y38.294
X-129.157 Y38.232
X-128.969 Y38.185
X-128.778 Y38.154
X-128.585 Y38.138
X-128.391 Y38.137
X-128.198 Y38.152
X-128.006 Y38.183
X-127.818 Y38.228
X-127.634 Y38.289
X-127.455 Y38.364
X-127.283 Y38.454
X-127.119 Y38.557
X-126.963 Y38.673
X-126.817 Y38.8
X-126.682 Y38.94
X-126.559 Y39.089
X-126.448 Y39.248
X-126.343 Y39.428
X-126.204 Y39.716
X-126.05 Y40.116
X-125.962 Y40.412
X-125.906 Y40.675
X-125.875 Y40.918
X-125.865 Y41.146
X-125.872 Y41.363
X-125.896 Y41.573
X-125.936 Y41.778
X-125.993 Y41.979
X-126.065 Y42.175
X-126.153 Y42.364
X-126.256 Y42.545
X-126.373 Y42.719
X-126.506 Y42.885
X-126.654 Y43.041
X-126.815 Y43.186
X-126.99 Y43.32
X-127.177 Y43.442
X-127.377 Y43.549
X-127.588 Y43.641
X-127.809 Y43.717
X-128.038 Y43.776
X-128.274 Y43.817
X-128.516 Y43.84
X-128.761 Y43.842
X-129.009 Y43.825
X-129.257 Y43.788
X-129.503 Y43.73
X-129.745 Y43.652
X-129.983 Y43.555
X-130.213 Y43.437
X-130.434 Y43.301
X-130.645 Y43.147
X-130.845 Y42.975
X-131.03 Y42.787
X-131.201 Y42.583
X-131.355 Y42.366
X-131.492 Y42.136
X-131.61 Y41.895
X-131.709 Y41.645
X-131.788 Y41.387
X-131.846 Y41.123
X-131.883 Y40.854
X-131.898 Y40.583
X-131.891 Y40.311
X-131.862 Y40.04
X-131.812 Y39.772
X-131.74 Y39.508
X-131.647 Y39.251
X-131.534 Y39.002
X-131.401 Y38.762
X-131.249 Y38.534
X-131.08 Y38.319
X-130.893 Y38.118
X-130.691 Y37.932
X-130.474 Y37.764
X-130.245 Y37.613
X-130.004 Y37.481
X-129.753 Y37.368
X-129.494 Y37.277
X-129.228 Y37.206
X-128.958 Y37.157
X-128.684 Y37.129
X-128.409 Y37.124
X-128.134 Y37.141
X-127.862 Y37.18
X-127.594 Y37.24
X-127.331 Y37.322
X-127.076 Y37.425
X-126.829 Y37.548
X-126.594 Y37.69
X-126.37 Y37.85
X-126.158 Y38.03
X-125.944 Y38.244
X-125.726 Y38.5
X-125.523 Y38.781
X-125.338 Y39.086
X-125.178 Y39.405
X-125.047 Y39.728
X-124.945 Y40.051
X-124.872 Y40.37
X-124.826 Y40.687
X-124.807 Y41.001
X-124.812 Y41.311
X-124.841 Y41.616
X-124.895 Y41.915
X-124.972 Y42.207
X-125.072 Y42.49
X-125.194 Y42.764
X-125.337 Y43.027
X-125.502 Y43.279
X-125.687 Y43.517
X-125.891 Y43.741
X-126.114 Y43.95
X-126.356 Y44.141
X-126.613 Y44.313
X-126.886 Y44.466
X-127.173 Y44.597
X-127.473 Y44.706
X-127.782 Y44.791
X-128.1 Y44.852
X-128.425 Y44.887
X-128.753 Y44.896
X-129.084 Y44.879
X-129.415 Y44.834
X-129.743 Y44.763
X-130.066 Y44.665
X-130.382 Y44.541
X-130.69 Y44.391
X-130.985 Y44.216
X-131.267 Y44.016
X-131.534 Y43.794
X-131.782 Y43.55
X-132.012 Y43.286
X-132.22 Y43.003
X-132.405 Y42.703
X-132.566 Y42.388
X-132.702 Y42.061
X-132.811 Y41.723
X-132.893 Y41.377
X-132.947 Y41.024
X-132.973 Y40.667
X-132.97 Y40.309
X-132.938 Y39.952
X-132.878 Y39.599
X-132.789 Y39.251
X-132.672 Y38.91
X-132.529 Y38.58
X-132.359 Y38.263
X-132.164 Y37.96
X-131.946 Y37.673
X-131.705 Y37.404
X-131.443 Y37.156
X-131.162 Y36.929
X-130.863 Y36.726
X-130.549 Y36.547
X-130.222 Y36.394
X-129.883 Y36.268
X-129.535 Y36.169
X-129.181 Y36.098
X-128.821 Y36.057
X-128.46 Y36.044
X-128.099 Y36.06
X-127.74 Y36.105
X-127.385 Y36.179
X-127.038 Y36.281
X-126.7 Y36.41
X-126.373 Y36.567
X-126.054 Y36.752
X-125.74 Y36.97
X-125.435 Y37.221
X-125.142 Y37.503
X-124.867 Y37.816
X-124.615 Y38.153
X-124.389 Y38.511
X-124.194 Y38.885
X-124.03 Y39.27
X-123.9 Y39.664
X-123.802 Y40.063
X-123.737 Y40.465
X-123.704 Y40.867
Y41.268
X-123.736 Y41.664
X-123.8 Y42.054
X-123.894 Y42.437
X-124.018 Y42.809
X-124.171 Y43.169
X-124.353 Y43.516
X-124.562 Y43.848
X-124.798 Y44.162
X-125.059 Y44.458
X-125.344 Y44.733
X-125.652 Y44.985
X-125.98 Y45.213
X-126.328 Y45.415
X-126.693 Y45.589
X-127.074 Y45.735
X-127.467 Y45.85
X-127.87 Y45.933
X-128.282 Y45.985
X-128.698 Y46.003
X-129.118 Y45.988
X-129.536 Y45.939
X-129.952 Y45.856
X-130.362 Y45.739
X-130.763 Y45.589
X-131.153 Y45.406
X-131.529 Y45.192
X-131.887 Y44.948
X-132.226 Y44.674
X-132.543 Y44.373
X-132.836 Y44.046
X-133.103 Y43.696
X-133.341 Y43.324
X-133.549 Y42.934
X-133.726 Y42.527
X-133.87 Y42.106
X-133.979 Y41.675
X-134.054 Y41.235
X-134.093 Y40.789
X-134.097 Y40.342
X-134.065 Y39.895
X-133.996 Y39.451
X-133.892 Y39.014
X-133.754 Y38.587
X-133.581 Y38.171
X-133.375 Y37.771
X-133.138 Y37.388
X-132.871 Y37.025
X-132.575 Y36.684
X-132.253 Y36.368
X-131.906 Y36.079
X-131.537 Y35.819
X-131.148 Y35.589
X-130.742 Y35.391
X-130.322 Y35.226
X-129.889 Y35.095
X-129.447 Y35
X-128.999 Y34.94
X-128.547 Y34.917
X-128.095 Y34.929
X-127.645 Y34.978
X-127.201 Y35.063
X-126.764 Y35.184
X-126.334 Y35.34
X-125.914 Y35.533
X-125.506 Y35.762
X-125.11 Y36.027
X-124.729 Y36.329
X-124.368 Y36.667
X-124.03 Y37.037
X-123.721 Y37.436
X-123.444 Y37.86
X-123.202 Y38.306
X-122.997 Y38.768
X-122.83 Y39.243
X-122.703 Y39.727
X-122.615 Y40.218
X-122.568 Y40.711
X-122.56 Y41.204
X-122.591 Y41.693
X-122.662 Y42.177
X-122.77 Y42.651
X-122.916 Y43.114
X-123.099 Y43.564
X-123.316 Y43.997
X-123.568 Y44.411
X-123.853 Y44.805
X-124.17 Y45.175
X-124.516 Y45.52
X-124.889 Y45.837
X-125.289 Y46.124
X-125.712 Y46.379
X-126.157 Y46.6
X-126.62 Y46.786
X-127.098 Y46.935
X-127.59 Y47.045
X-128.091 Y47.116
X-128.598 Y47.147
X-129.109 Y47.137
X-129.62 Y47.085
X-130.127 Y46.993
X-130.627 Y46.859
X-131.117 Y46.685
X-131.593 Y46.471
X-132.052 Y46.219
X-132.491 Y45.93
X-132.907 Y45.606
X-133.296 Y45.248
X-133.657 Y44.859
X-133.986 Y44.441
X-134.281 Y43.997
X-134.541 Y43.529
X-134.762 Y43.041
X-134.944 Y42.537
X-135.085 Y42.018
X-135.184 Y41.489
X-135.24 Y40.952
X-135.253 Y40.413
X-135.223 Y39.873
X-135.149 Y39.337
X-135.033 Y38.808
X-134.874 Y38.29
X-134.674 Y37.785
X-134.434 Y37.298
X-134.156 Y36.832
X-133.841 Y36.389
X-133.491 Y35.973
X-133.109 Y35.586
X-132.697 Y35.231
X-132.258 Y34.91
X-131.794 Y34.625
X-131.308 Y34.378
X-130.804 Y34.171
X-130.286 Y34.005
X-129.755 Y33.881
X-129.216 Y33.8
X-128.672 Y33.763
X-128.127 Y33.769
X-127.584 Y33.82
X-127.045 Y33.913
X-126.513 Y34.051
X-125.991 Y34.232
X-125.479 Y34.456
X-124.982 Y34.724
X-124.502 Y35.034
X-124.042 Y35.387
X-123.608 Y35.779
X-123.203 Y36.209
X-122.832 Y36.672
X-122.499 Y37.165
X-122.205 Y37.684
X-121.955 Y38.224
X-121.749 Y38.782
X-121.588 Y39.353
X-121.475 Y39.933
X-121.409 Y40.518
X-121.39 Y41.105
X-121.417 Y41.689
X-121.492 Y42.267
X-121.546 Y42.52
X-121.579 Y42.659
X-121.592 Y42.708
X-121.612 Y42.771
X-121.637 Y42.833
X-121.667 Y42.892
X-123.081 Y45.341
X-123.35 Y45.757
X-123.59 Y46.069
X-123.86 Y46.368
X-124.188 Y46.678
X-124.57 Y46.984
X-124.998 Y47.274
X-125.466 Y47.539
X-125.498 Y47.554
X-125.598 Y47.592
X-125.703 Y47.615
X-125.81 Y47.623
G3 X-126.116 Y47.295 Z8.7 I0.011 J-0.317 F800
G1 X-126.108 Y47.233
X-126.088 Y47.174
X-126.057 Y47.121
X-126.017 Y47.074
X-126.007 Y47.066 F1300
X-123.57 Y44.952
X-123.515 Y44.913
X-123.453 Y44.888
X-123.393 Y44.876 F600
X-123.331
X-123.27 Y44.888
X-123.212 Y44.911
G3 X-123.081 Y45.341 Z8.5 I-0.149 J0.28
G1 X-124.203 Y47.283 F1300
X-124.281 Y47.381
X-124.349 Y47.461
X-124.386 Y47.497
X-124.423 Y47.526
X-124.459 Y47.548
X-124.495 Y47.564
X-124.531 Y47.578
X-124.568 Y47.586
X-124.641 Y47.599
X-124.787 Y47.622
X-125.37 Y47.623
X-130.768
X-131.03 Y47.61
X-131.32 Y47.572
X-131.616 Y47.508
X-131.961 Y47.405
X-132.334 Y47.26
X-132.713 Y47.076
X-132.801 Y47.024
X-132.904 Y46.951
X-132.994 Y46.86
X-133.066 Y46.756
G3 X-132.935 Y46.327 Z8.7 I0.28 J-0.149 F800
G1 X-132.878 Y46.303
X-132.817 Y46.291
X-132.755
X-132.694 Y46.303
X-132.682 Y46.307 F1300
X-130.675 Y47.006
X-130.615 Y47.034
X-130.562 Y47.074
X-130.521 Y47.121 F600
X-130.49 Y47.174
X-130.47 Y47.233
X-130.462 Y47.295
G3 X-130.768 Y47.623 Z8.5 I-0.317 J0.011
G1 X-132.081 F1300
X-132.227 Y47.612
X-132.373 Y47.59
X-132.446 Y47.575
X-132.482 Y47.561
X-132.519 Y47.541
X-132.543 Y47.526
X-132.578 Y47.499
X-132.612 Y47.465
X-132.684 Y47.381
X-132.744 Y47.308
X-132.79 Y47.235
X-135.819 Y41.989
X-135.951 Y41.73
X-136.046 Y41.502
X-136.14 Y41.212
X-136.213 Y40.904
X-136.271 Y40.523
X-136.295 Y40.191
X-136.291 Y40.044
X-136.258 Y39.901
X-136.198 Y39.768
G3 X-135.76 Y39.667 Z8.7 I0.269 J0.168 F800
G1 X-135.711 Y39.704
X-135.67 Y39.751
X-135.639 Y39.805
X-135.619 Y39.863
X-135.617 Y39.873 F1300
X-135.238 Y41.758
X-135.232 Y41.826
X-135.24 Y41.894
X-135.26 Y41.952 F600
X-135.291 Y42.006
X-135.332 Y42.052
X-135.381 Y42.09
G3 X-135.819 Y41.989 Z8.5 I-0.168 J-0.269
G1 X-136.407 Y40.969 F1300
X-136.458 Y40.878
X-136.48 Y40.823
X-136.533 Y40.678
X-136.544 Y40.641
X-136.551 Y40.605
X-136.555 Y40.568
Y40.532
X-136.552 Y40.495
X-136.545 Y40.459
X-136.52 Y40.386
X-136.466 Y40.24
X-136.458 Y40.22
X-136.345 Y40.024
X-133.394 Y34.912
X-133.222 Y34.645
X-133.074 Y34.452
X-132.871 Y34.228
X-132.646 Y34.015
X-132.352 Y33.78
X-132.094 Y33.605
X-131.965 Y33.535
X-131.825 Y33.492
X-131.679 Y33.477
G3 X-131.372 Y33.805 Z8.7 I-0.011 J0.317 F800
G1 X-131.381 Y33.867
X-131.4 Y33.926
X-131.431 Y33.979
X-131.472 Y34.026
X-131.479 Y34.032 F1300
X-132.903 Y35.298
X-132.959 Y35.338
X-133.022 Y35.365
X-133.083 Y35.377 F600
X-133.145
X-133.206 Y35.365
X-133.263 Y35.341
G3 X-133.394 Y34.912 Z8.5 I0.149 J-0.28
G1 X-132.769 Y33.829 F1300
X-132.653 Y33.683
X-132.586 Y33.608
X-132.552 Y33.58
X-132.519 Y33.559
X-132.475 Y33.537
X-132.424 Y33.52
X-132.373 Y33.51
X-132.227 Y33.488
X-132.081 Y33.477
X-125.954
X-125.726 Y33.489
X-125.484 Y33.52
X-125.182 Y33.585
X-124.879 Y33.676
X-124.513 Y33.818
X-124.286 Y33.929
X-124.161 Y34.005
X-124.053 Y34.105
X-123.967 Y34.225
G3 X-124.099 Y34.654 Z8.7 I-0.28 J0.149 F800
G1 X-124.156 Y34.678
X-124.217 Y34.69
X-124.279
X-124.339 Y34.678
X-124.35 Y34.674 F1300
X-126.045 Y34.095
X-126.106 Y34.067
X-126.16 Y34.026
X-126.201 Y33.979 F600
X-126.232 Y33.926
X-126.252 Y33.867
X-126.26 Y33.805
G3 X-125.954 Y33.477 Z8.5 I0.317 J-0.011
G1 X-124.787 Y33.478 F1300
X-124.641 Y33.501
X-124.568 Y33.514
X-124.531 Y33.522
X-124.488 Y33.537
X-124.453 Y33.555
X-124.418 Y33.576
X-124.384 Y33.604
X-124.349 Y33.639
X-124.312 Y33.683
X-124.203 Y33.817
X-120.848 Y39.629
X-120.696 Y39.924
X-120.602 Y40.152
X-120.509 Y40.439
X-120.502 Y40.467
X-120.482 Y40.652
X-120.509 Y40.835
X-120.58 Y41.006
G3 X-121.017 Y41.109 Z8.7 I-0.27 J-0.167 F800
G1 X-121.065 Y41.072
X-121.105 Y41.027
X-121.137 Y40.975
X-121.157 Y40.918
X-121.159 Y40.913
X-121.424 Y39.876 F1300
X-121.433 Y39.825
X-121.434 Y39.774
X-121.426 Y39.724
X-121.406 Y39.665 F600
X-121.375 Y39.612
X-121.334 Y39.565
X-121.285 Y39.527
G3 X-120.848 Y39.629 Z8.5 I0.168 J0.269
G1 X-120.578 Y40.095 F1300
X-120.556 Y40.142
X-120.51 Y40.24
X-120.445 Y40.386
X-120.42 Y40.459
X-120.413 Y40.495
X-120.41 Y40.543
Y40.562
X-120.416 Y40.62
X-120.422 Y40.649
X-120.432 Y40.678
X-120.485 Y40.823
X-120.559 Y40.969
X-120.81 Y41.406
X-121.667 Y42.892
G3 X-122.078 Y43.008 I-0.269 J-0.168 F800
G1 X-122.119 Y42.972 Z8.505
X-122.159 Y42.938 Z8.519
X-122.197 Y42.906 Z8.542
X-122.214 Y42.859 Z8.578
X-122.229 Y42.821 Z8.622
X-122.24 Y42.79 Z8.673
X-122.248 Y42.77 Z8.729
X-122.252 Y42.759 Z8.789
Y42.758 Z8.818
G0 Z20.1
X-112.7 Y29.638
Z10.3
G3 X-110.651 Y29.278 Z10.22 I1.217 J0.912 F600
X-110.16 Y31.297 Z10.14 I-0.831 J1.272
X-112.142 Y31.916 Z10.06 I-1.321 J-0.747
X-112.886 Y29.98 Z9.98 I0.66 J-1.365
X-111.004 Y29.113 Z9.9 I1.404 J0.571
X-110.019 Y30.935 Z9.82 I-0.479 J1.436
X-111.771 Y32.034 Z9.74 I-1.463 J-0.385
X-112.98 Y30.357 Z9.66 I0.29 J-1.483
X-111.386 Y29.044 Z9.58 I1.497 J0.194
X-109.974 Y30.549 Z9.5 I-0.097 J1.505
X-112.991 Y30.549 I-1.508 J0
X-109.974 Y30.549 I1.508 J0
G1 X-109.958 Y31.191 F1300
X-109.929 Y31.266
X-109.894 Y31.412
X-109.891 Y31.562
X-109.912 Y31.711
X-109.955 Y31.855
X-110.015 Y31.992
X-110.091 Y32.121
X-110.18 Y32.242
X-110.281 Y32.353
X-110.392 Y32.454
X-110.512 Y32.544
X-110.639 Y32.624
X-110.772 Y32.693
X-110.914 Y32.752
X-111.063 Y32.801
X-111.22 Y32.838
X-111.382 Y32.864
X-111.549 Y32.876
X-111.719 Y32.875
X-111.891 Y32.861
X-112.064 Y32.832
X-112.236 Y32.788
X-112.405 Y32.731
X-112.572 Y32.659
X-112.733 Y32.574
X-112.888 Y32.475
X-113.035 Y32.363
X-113.174 Y32.239
X-113.303 Y32.104
X-113.421 Y31.958
X-113.528 Y31.803
X-113.622 Y31.638
X-113.703 Y31.467
X-113.77 Y31.288
X-113.823 Y31.105
X-113.861 Y30.918
X-113.884 Y30.727
X-113.891 Y30.536
X-113.883 Y30.344
X-113.86 Y30.153
X-113.821 Y29.964
X-113.768 Y29.779
X-113.699 Y29.598
X-113.616 Y29.424
X-113.52 Y29.257
X-113.41 Y29.098
X-113.288 Y28.948
X-113.154 Y28.808
X-113.009 Y28.68
X-112.855 Y28.563
X-112.691 Y28.46
X-112.52 Y28.369
X-112.342 Y28.293
X-112.158 Y28.231
X-111.97 Y28.185
X-111.779 Y28.153
X-111.586 Y28.137
X-111.392
X-111.198 Y28.152
X-111.007 Y28.182
X-110.819 Y28.228
X-110.634 Y28.288
X-110.456 Y28.364
X-110.284 Y28.453
X-110.119 Y28.556
X-109.964 Y28.672
X-109.818 Y28.8
X-109.683 Y28.939
X-109.56 Y29.089
X-109.449 Y29.248
X-109.344 Y29.427
X-109.205 Y29.716
X-109.05 Y30.115
X-108.963 Y30.412
X-108.907 Y30.674
X-108.876 Y30.918
X-108.865 Y31.146
X-108.873 Y31.363
X-108.896 Y31.572
X-108.937 Y31.778
X-108.993 Y31.979
X-109.066 Y32.174
X-109.154 Y32.363
X-109.256 Y32.545
X-109.374 Y32.719
X-109.507 Y32.884
X-109.654 Y33.04
X-109.816 Y33.186
X-109.99 Y33.32
X-110.178 Y33.441
X-110.378 Y33.548
X-110.589 Y33.641
X-110.809 Y33.717
X-111.039 Y33.776
X-111.275 Y33.817
X-111.517 Y33.839
X-111.762 Y33.842
X-112.01 Y33.825
X-112.257 Y33.787
X-112.504 Y33.73
X-112.746 Y33.652
X-112.983 Y33.554
X-113.214 Y33.437
X-113.435 Y33.301
X-113.646 Y33.146
X-113.845 Y32.974
X-114.031 Y32.786
X-114.201 Y32.583
X-114.356 Y32.365
X-114.493 Y32.136
X-114.611 Y31.895
X-114.71 Y31.644
X-114.789 Y31.386
X-114.847 Y31.122
X-114.884 Y30.853
X-114.899 Y30.582
X-114.892 Y30.31
X-114.863 Y30.039
X-114.813 Y29.771
X-114.741 Y29.508
X-114.648 Y29.25
X-114.535 Y29.001
X-114.402 Y28.762
X-114.25 Y28.534
X-114.08 Y28.318
X-113.894 Y28.117
X-113.691 Y27.932
X-113.475 Y27.763
X-113.245 Y27.612
X-113.004 Y27.48
X-112.754 Y27.368
X-112.495 Y27.276
X-112.229 Y27.205
X-111.958 Y27.156
X-111.685 Y27.129
X-111.41 Y27.123
X-111.135 Y27.14
X-110.863 Y27.179
X-110.594 Y27.24
X-110.332 Y27.321
X-110.076 Y27.424
X-109.83 Y27.547
X-109.595 Y27.689
X-109.371 Y27.85
X-109.159 Y28.03
X-108.945 Y28.243
X-108.727 Y28.5
X-108.524 Y28.78
X-108.338 Y29.086
X-108.178 Y29.404
X-108.047 Y29.727
X-107.946 Y30.05
X-107.873 Y30.37
X-107.827 Y30.686
X-107.807 Y31
X-107.812 Y31.31
X-107.842 Y31.615
X-107.896 Y31.914
X-107.973 Y32.206
X-108.072 Y32.489
X-108.194 Y32.763
X-108.338 Y33.027
X-108.502 Y33.278
X-108.687 Y33.517
X-108.892 Y33.741
X-109.115 Y33.949
X-109.356 Y34.14
X-109.614 Y34.313
X-109.887 Y34.465
X-110.174 Y34.597
X-110.473 Y34.706
X-110.783 Y34.791
X-111.101 Y34.851
X-111.425 Y34.886
X-111.754 Y34.895
X-112.085 Y34.878
X-112.415 Y34.834
X-112.743 Y34.763
X-113.067 Y34.665
X-113.383 Y34.54
X-113.69 Y34.39
X-113.986 Y34.215
X-114.268 Y34.016
X-114.534 Y33.793
X-114.783 Y33.549
X-115.012 Y33.285
X-115.22 Y33.002
X-115.406 Y32.702
X-115.567 Y32.388
X-115.703 Y32.061
X-115.812 Y31.722
X-115.894 Y31.376
X-115.948 Y31.023
X-115.974 Y30.667
X-115.971 Y30.309
X-115.939 Y29.952
X-115.878 Y29.598
X-115.79 Y29.25
X-115.673 Y28.91
X-115.529 Y28.58
X-115.36 Y28.262
X-115.165 Y27.959
X-114.946 Y27.672
X-114.705 Y27.404
X-114.443 Y27.155
X-114.162 Y26.929
X-113.864 Y26.726
X-113.55 Y26.547
X-113.223 Y26.394
X-112.884 Y26.267
X-112.536 Y26.169
X-112.181 Y26.098
X-111.822 Y26.056
X-111.461 Y26.043
X-111.099 Y26.059
X-110.74 Y26.104
X-110.386 Y26.178
X-110.039 Y26.28
X-109.701 Y26.41
X-109.374 Y26.566
X-109.055 Y26.752
X-108.741 Y26.97
X-108.436 Y27.22
X-108.143 Y27.503
X-107.868 Y27.815
X-107.615 Y28.153
X-107.39 Y28.51
X-107.195 Y28.884
X-107.031 Y29.269
X-106.9 Y29.663
X-106.802 Y30.062
X-106.737 Y30.464
X-106.705 Y30.867
Y31.267
X-106.737 Y31.664
X-106.801 Y32.054
X-106.895 Y32.436
X-107.019 Y32.808
X-107.172 Y33.169
X-107.354 Y33.516
X-107.563 Y33.847
X-107.799 Y34.162
X-108.06 Y34.457
X-108.345 Y34.732
X-108.652 Y34.984
X-108.981 Y35.212
X-109.329 Y35.414
X-109.694 Y35.589
X-110.074 Y35.734
X-110.467 Y35.849
X-110.871 Y35.933
X-111.282 Y35.984
X-111.699 Y36.003
X-112.118 Y35.987
X-112.537 Y35.938
X-112.953 Y35.855
X-113.363 Y35.738
X-113.764 Y35.588
X-114.154 Y35.406
X-114.529 Y35.192
X-114.888 Y34.947
X-115.227 Y34.673
X-115.544 Y34.372
X-115.837 Y34.046
X-116.103 Y33.695
X-116.342 Y33.324
X-116.55 Y32.933
X-116.727 Y32.526
X-116.87 Y32.106
X-116.98 Y31.674
X-117.055 Y31.234
X-117.094 Y30.789
X-117.098 Y30.341
X-117.065 Y29.894
X-116.997 Y29.451
X-116.893 Y29.014
X-116.755 Y28.586
X-116.582 Y28.171
X-116.376 Y27.77
X-116.139 Y27.387
X-115.872 Y27.024
X-115.576 Y26.684
X-115.254 Y26.368
X-114.907 Y26.079
X-114.538 Y25.818
X-114.149 Y25.588
X-113.743 Y25.39
X-113.322 Y25.225
X-112.89 Y25.095
X-112.448 Y24.999
X-112 Y24.94
X-111.548 Y24.916
X-111.096 Y24.929
X-110.646 Y24.978
X-110.202 Y25.063
X-109.765 Y25.183
X-109.335 Y25.34
X-108.915 Y25.532
X-108.506 Y25.761
X-108.111 Y26.026
X-107.73 Y26.329
X-107.369 Y26.666
X-107.031 Y27.036
X-106.722 Y27.436
X-106.445 Y27.86
X-106.203 Y28.305
X-105.998 Y28.767
X-105.831 Y29.242
X-105.704 Y29.727
X-105.616 Y30.217
X-105.568 Y30.711
X-105.56 Y31.203
X-105.592 Y31.693
X-105.662 Y32.176
X-105.771 Y32.651
X-105.917 Y33.114
X-106.099 Y33.563
X-106.317 Y33.996
X-106.569 Y34.411
X-106.854 Y34.804
X-107.17 Y35.175
X-107.516 Y35.519
X-107.89 Y35.836
X-108.29 Y36.123
X-108.713 Y36.378
X-109.157 Y36.6
X-109.62 Y36.785
X-110.099 Y36.934
X-110.59 Y37.045
X-111.091 Y37.116
X-111.599 Y37.146
X-112.11 Y37.136
X-112.62 Y37.085
X-113.127 Y36.992
X-113.628 Y36.858
X-114.117 Y36.684
X-114.594 Y36.471
X-115.053 Y36.219
X-115.492 Y35.93
X-115.908 Y35.605
X-116.297 Y35.247
X-116.658 Y34.858
X-116.987 Y34.44
X-117.282 Y33.996
X-117.541 Y33.529
X-117.763 Y33.041
X-117.944 Y32.536
X-118.085 Y32.017
X-118.185 Y31.488
X-118.241 Y30.952
X-118.254 Y30.412
X-118.224 Y29.872
X-118.15 Y29.336
X-118.034 Y28.807
X-117.875 Y28.289
X-117.675 Y27.785
X-117.435 Y27.298
X-117.157 Y26.831
X-116.842 Y26.389
X-116.492 Y25.972
X-116.11 Y25.585
X-115.698 Y25.23
X-115.258 Y24.909
X-114.794 Y24.624
X-114.309 Y24.377
X-113.805 Y24.17
X-113.286 Y24.004
X-112.756 Y23.881
X-112.217 Y23.8
X-111.673 Y23.762
X-111.128 Y23.769
X-110.585 Y23.819
X-110.046 Y23.913
X-109.514 Y24.05
X-108.991 Y24.231
X-108.48 Y24.455
X-107.983 Y24.723
X-107.502 Y25.034
X-107.043 Y25.386
X-106.609 Y25.779
X-106.204 Y26.208
X-105.833 Y26.671
X-105.499 Y27.164
X-105.206 Y27.683
X-104.955 Y28.224
X-104.749 Y28.781
X-104.589 Y29.352
X-104.476 Y29.932
X-104.409 Y30.518
X-104.39 Y31.104
X-104.418 Y31.688
X-104.493 Y32.267
X-104.547 Y32.521
X-104.581 Y32.661
X-104.594 Y32.711
X-104.613 Y32.774
X-104.638 Y32.835
X-104.669 Y32.894
X-106.113 Y35.395
X-106.342 Y35.75
X-106.582 Y36.063
X-106.853 Y36.363
X-107.183 Y36.675
X-107.566 Y36.982
X-107.995 Y37.272
X-108.464 Y37.538
X-108.499 Y37.554
X-108.599 Y37.592
X-108.704 Y37.615
X-108.811 Y37.623
G3 X-109.117 Y37.295 Z9.7 I0.011 J-0.317 F800
G1 X-109.109 Y37.233
X-109.089 Y37.174
X-109.058 Y37.121
X-109.017 Y37.074
X-109.006 Y37.064 F1300
X-106.599 Y35.005
X-106.545 Y34.967
X-106.485 Y34.942
X-106.424 Y34.93 F600
X-106.362
X-106.301 Y34.942
X-106.244 Y34.966
G3 X-106.113 Y35.395 Z9.5 I-0.149 J0.28
G1 X-107.186 Y37.253 F1300
X-107.208 Y37.29
X-107.235 Y37.326
X-107.359 Y37.472
X-107.392 Y37.504
X-107.426 Y37.529
X-107.462 Y37.55
X-107.499 Y37.567
X-107.535 Y37.579
X-107.572 Y37.587
X-107.746 Y37.617
X-107.863 Y37.623
X-113.699
X-114.036 Y37.606
X-114.325 Y37.568
X-114.621 Y37.505
X-114.966 Y37.401
X-115.338 Y37.257
X-115.716 Y37.073
X-115.801 Y37.023
X-115.905 Y36.949
X-115.994 Y36.859
X-116.067 Y36.755
G3 X-115.936 Y36.326 Z9.7 I0.28 J-0.149 F800
G1 X-115.879 Y36.302
X-115.818 Y36.29
X-115.756
X-115.695 Y36.302
X-115.685 Y36.305 F1300
X-113.609 Y37.005
X-113.547 Y37.033
X-113.493 Y37.074
X-113.452 Y37.121 F600
X-113.421 Y37.174
X-113.401 Y37.233
X-113.393 Y37.295
G3 X-113.699 Y37.623 Z9.5 I-0.317 J0.011
G1 X-115.158 F1300
X-115.218 Y37.617
X-115.304 Y37.603
X-115.45 Y37.572
X-115.486 Y37.558
X-115.523 Y37.539
X-115.559 Y37.514
X-115.596 Y37.483
X-115.607 Y37.472
X-115.741 Y37.312
X-115.821 Y37.18
X-118.805 Y32.012
X-118.952 Y31.725
X-119.046 Y31.498
X-119.14 Y31.208
X-119.213 Y30.901
X-119.271 Y30.52
X-119.295 Y30.191
X-119.291 Y30.045
X-119.258 Y29.902
X-119.198 Y29.768
G3 X-118.76 Y29.667 Z9.7 I0.269 J0.168 F800
G1 X-118.711 Y29.704
X-118.67 Y29.751
X-118.639 Y29.805
X-118.619 Y29.863
X-118.618 Y29.872 F1300
X-118.225 Y31.78
X-118.218 Y31.849
X-118.227 Y31.917
X-118.247 Y31.975 F600
X-118.278 Y32.029
X-118.319 Y32.076
X-118.368 Y32.113
G3 X-118.805 Y32.012 Z9.5 I-0.168 J-0.269
G1 X-119.389 Y31.002 F1300
X-119.438 Y30.914
X-119.5 Y30.769
X-119.535 Y30.674
X-119.549 Y30.623
X-119.553 Y30.586
X-119.555 Y30.55
X-119.553 Y30.514
X-119.549 Y30.477
X-119.535 Y30.426
X-119.5 Y30.331
X-119.438 Y30.186
X-119.37 Y30.066
X-116.326 Y24.794
X-116.233 Y24.65
X-116.085 Y24.457
X-115.882 Y24.231
X-115.655 Y24.018
X-115.36 Y23.781
X-115.099 Y23.605
X-114.97 Y23.535
X-114.83 Y23.492
X-114.684 Y23.477
G3 X-114.378 Y23.805 Z9.7 I-0.011 J0.317 F800
G1 X-114.386 Y23.867
X-114.406 Y23.926
X-114.437 Y23.979
X-114.478 Y24.026
X-114.489 Y24.036 F1300
X-115.84 Y25.185
X-115.894 Y25.222
X-115.954 Y25.247
X-116.015 Y25.259 F600
X-116.077
X-116.138 Y25.247
X-116.195 Y25.223
G3 X-116.326 Y24.794 Z9.5 I0.149 J-0.28
G1 X-115.821 Y23.92 F1300
X-115.741 Y23.788
X-115.607 Y23.628
X-115.596 Y23.617
X-115.559 Y23.586
X-115.523 Y23.561
X-115.486 Y23.542
X-115.45 Y23.528
X-115.304 Y23.497
X-115.218 Y23.483
X-115.158 Y23.477
X-109.03
X-108.72 Y23.493
X-108.477 Y23.525
X-108.176 Y23.589
X-107.874 Y23.679
X-107.51 Y23.821
X-107.284 Y23.931
X-107.159 Y24.008
X-107.052 Y24.108
X-106.966 Y24.227
G3 X-107.097 Y24.656 Z9.7 I-0.28 J0.149 F800
G1 X-107.155 Y24.68
X-107.215 Y24.692
X-107.277
X-107.338 Y24.68
X-107.346 Y24.678 F1300
X-109.118 Y24.096
X-109.181 Y24.068
X-109.237 Y24.026
X-109.278 Y23.979 F600
X-109.309 Y23.926
X-109.329 Y23.867
X-109.337 Y23.805
G3 X-109.03 Y23.477 Z9.5 I0.317 J-0.011
G1 X-107.863 F1300
X-107.746 Y23.483
X-107.572 Y23.513
X-107.535 Y23.521
X-107.499 Y23.533
X-107.462 Y23.55
X-107.426 Y23.571
X-107.392 Y23.596
X-107.359 Y23.628
X-107.235 Y23.774
X-107.208 Y23.81
X-107.162 Y23.887
X-103.778 Y29.748
X-103.696 Y29.909
X-103.602 Y30.137
X-103.508 Y30.426
X-103.499 Y30.464
X-103.479 Y30.649
X-103.506 Y30.833
X-103.578 Y31.005
G3 X-104.016 Y31.106 Z9.7 I-0.269 J-0.168 F800
G1 X-104.065 Y31.069
X-104.106 Y31.022
X-104.137 Y30.968
X-104.157 Y30.91
X-104.158 Y30.904 F1300
X-104.358 Y29.984
X-104.365 Y29.914
X-104.357 Y29.844
X-104.337 Y29.785 F600
X-104.306 Y29.731
X-104.265 Y29.685
X-104.216 Y29.647
G3 X-103.778 Y29.748 Z9.5 I0.168 J0.269
G1 X-103.526 Y30.186 F1300
X-103.503 Y30.228
X-103.487 Y30.271
X-103.465 Y30.331
X-103.416 Y30.477
X-103.412 Y30.514
X-103.41 Y30.55
X-103.412 Y30.586
X-103.416 Y30.623
X-103.465 Y30.769
X-103.487 Y30.829
X-103.503 Y30.872
X-103.526 Y30.914
X-104.669 Y32.894
G3 X-105.08 Y33.01 I-0.269 J-0.168 F800
G1 X-105.121 Y32.975 Z9.505
X-105.161 Y32.94 Z9.519
X-105.198 Y32.908 Z9.542
X-105.216 Y32.862 Z9.578
X-105.23 Y32.823 Z9.622
X-105.242 Y32.793 Z9.673
X-105.25 Y32.772 Z9.729
X-105.254 Y32.762 Z9.789
Y32.761 Z9.818
G0 X-112.699 Y29.638
Z9.8
G3 X-110.65 Y29.278 Z9.72 I1.217 J0.912 F600
X-110.159 Y31.297 Z9.64 I-0.831 J1.272
X-112.141 Y31.917 Z9.56 I-1.321 J-0.747
X-112.886 Y29.98 Z9.48 I0.66 J-1.365
X-111.003 Y29.113 Z9.4 I1.404 J0.571
X-110.018 Y30.935 Z9.32 I-0.479 J1.436
X-111.77 Y32.034 Z9.24 I-1.463 J-0.385
X-112.979 Y30.357 Z9.16 I0.29 J-1.483
X-111.385 Y29.045 Z9.08 I1.497 J0.194
X-109.974 Y30.55 Z9 I-0.097 J1.505
X-112.99 Y30.55 I-1.508 J0
X-109.974 Y30.55 I1.508 J0
G1 X-109.957 Y31.192 F1300
X-109.928 Y31.267
X-109.894 Y31.413
X-109.89 Y31.563
X-109.911 Y31.711
X-109.954 Y31.855
X-110.014 Y31.992
X-110.09 Y32.122
X-110.179 Y32.242
X-110.28 Y32.353
X-110.391 Y32.454
X-110.511 Y32.544
X-110.638 Y32.624
X-110.771 Y32.693
X-110.913 Y32.752
X-111.062 Y32.801
X-111.219 Y32.839
X-111.381 Y32.864
X-111.548 Y32.877
X-111.718 Y32.876
X-111.89 Y32.861
X-112.063 Y32.832
X-112.235 Y32.789
X-112.405 Y32.731
X-112.571 Y32.659
X-112.732 Y32.574
X-112.887 Y32.475
X-113.034 Y32.363
X-113.173 Y32.24
X-113.302 Y32.104
X-113.421 Y31.958
X-113.527 Y31.803
X-113.621 Y31.639
X-113.702 Y31.467
X-113.77 Y31.289
X-113.822 Y31.105
X-113.86 Y30.918
X-113.883 Y30.728
X-113.89 Y30.536
X-113.882 Y30.344
X-113.859 Y30.153
X-113.82 Y29.964
X-113.767 Y29.779
X-113.698 Y29.599
X-113.615 Y29.424
X-113.519 Y29.257
X-113.409 Y29.098
X-113.287 Y28.948
X-113.153 Y28.809
X-113.008 Y28.68
X-112.854 Y28.564
X-112.69 Y28.46
X-112.519 Y28.37
X-112.341 Y28.293
X-112.157 Y28.232
X-111.969 Y28.185
X-111.778 Y28.153
X-111.585 Y28.137
X-111.391
X-111.197 Y28.152
X-111.006 Y28.182
