(bore1)
(T6 D=3.175 CR=0 - ZMIN=0 - flat end mill)
G90 G94
G17
G21
G28 G91 Z0
G90

(Bore1)
T6
(18 Flat-45 degree helix)
S18000 M3
G17 G90 G94
G54
G0 X-208.206 Y13.82
Z28.1
G0 Z12
G1 Z10.318 F600
G19 G2 Y13.502 Z10 J-0.318 K0
G1 Y13.344
G17 G3 X-208 Y13.137 I0.206 J0
X-208 Y13.963 Z9.93 I0 J0.413
X-208 Y13.137 Z9.86 I0 J-0.413
X-208 Y13.963 Z9.79 I0 J0.413
X-208 Y13.137 Z9.721 I0 J-0.413
X-208 Y13.963 Z9.651 I0 J0.413
X-208 Y13.137 Z9.581 I0 J-0.413
X-208 Y13.963 Z9.511 I0 J0.413
X-208 Y13.137 Z9.441 I0 J-0.413
X-208 Y13.963 Z9.371 I0 J0.413
X-208 Y13.137 Z9.302 I0 J-0.413
X-208 Y13.963 Z9.232 I0 J0.413
X-208 Y13.137 Z9.162 I0 J-0.413
X-208 Y13.963 Z9.092 I0 J0.413
X-208 Y13.137 Z9.022 I0 J-0.413
X-208 Y13.963 Z8.952 I0 J0.413
X-208 Y13.137 Z8.883 I0 J-0.413
X-208 Y13.963 Z8.813 I0 J0.413
X-208 Y13.137 Z8.743 I0 J-0.413
X-208 Y13.963 Z8.673 I0 J0.413
X-208 Y13.137 Z8.603 I0 J-0.413
X-208 Y13.963 Z8.533 I0 J0.413
X-208 Y13.137 Z8.463 I0 J-0.413
X-208 Y13.963 Z8.394 I0 J0.413
X-208 Y13.137 Z8.324 I0 J-0.413
X-208 Y13.963 Z8.254 I0 J0.413
X-208 Y13.138 Z8.184 I0 J-0.413
X-208 Y13.963 Z8.114 I0 J0.413
X-208 Y13.138 Z8.044 I0 J-0.413
X-208 Y13.963 Z7.975 I0 J0.413
X-208 Y13.138 Z7.905 I0 J-0.413
X-208 Y13.963 Z7.835 I0 J0.413
X-208 Y13.138 Z7.765 I0 J-0.413
X-208 Y13.963 Z7.695 I0 J0.413
X-208 Y13.138 Z7.625 I0 J-0.413
X-208 Y13.963 Z7.556 I0 J0.413
X-208 Y13.138 Z7.486 I0 J-0.413
X-208 Y13.963 Z7.416 I0 J0.413
X-208 Y13.138 Z7.346 I0 J-0.413
X-208 Y13.963 Z7.276 I0 J0.413
X-208 Y13.138 Z7.206 I0 J-0.413
X-208 Y13.963 Z7.136 I0 J0.413
X-208 Y13.138 Z7.067 I0 J-0.413
X-208 Y13.963 Z6.997 I0 J0.413
X-208 Y13.138 Z6.927 I0 J-0.413
X-208 Y13.963 Z6.857 I0 J0.413
X-208 Y13.138 Z6.787 I0 J-0.413
X-208 Y13.963 Z6.717 I0 J0.413
X-208 Y13.138 Z6.648 I0 J-0.413
X-208 Y13.963 Z6.578 I0 J0.413
X-208 Y13.138 Z6.508 I0 J-0.413
X-208 Y13.963 Z6.438 I0 J0.413
X-208 Y13.138 Z6.368 I0 J-0.413
X-208 Y13.963 Z6.298 I0 J0.412
X-208 Y13.138 Z6.229 I0 J-0.412
X-208 Y13.963 Z6.159 I0 J0.412
X-208 Y13.138 Z6.089 I0 J-0.412
X-208 Y13.963 Z6.019 I0 J0.412
X-208 Y13.138 Z5.949 I0 J-0.412
X-208 Y13.963 Z5.879 I0 J0.412
X-208 Y13.138 Z5.81 I0 J-0.412
X-208 Y13.963 Z5.74 I0 J0.412
X-208 Y13.138 Z5.67 I0 J-0.412
X-208 Y13.963 Z5.6 I0 J0.412
X-208 Y13.138 Z5.53 I0 J-0.412
X-208 Y13.963 Z5.46 I0 J0.412
X-208 Y13.138 Z5.39 I0 J-0.412
X-208 Y13.963 Z5.321 I0 J0.412
X-208 Y13.138 Z5.251 I0 J-0.412
X-208 Y13.963 Z5.181 I0 J0.412
X-208 Y13.138 Z5.111 I0 J-0.412
X-208 Y13.963 Z5.041 I0 J0.412
X-208 Y13.138 Z4.971 I0 J-0.412
X-208 Y13.963 Z4.902 I0 J0.412
X-208 Y13.138 Z4.832 I0 J-0.412
X-208 Y13.963 Z4.762 I0 J0.412
X-208 Y13.138 Z4.692 I0 J-0.412
X-208 Y13.963 Z4.622 I0 J0.412
X-208 Y13.138 Z4.552 I0 J-0.412
X-208 Y13.962 Z4.483 I0 J0.412
X-208 Y13.138 Z4.413 I0 J-0.412
X-208 Y13.962 Z4.343 I0 J0.412
X-208 Y13.138 Z4.273 I0 J-0.412
X-208 Y13.962 Z4.203 I0 J0.412
X-208 Y13.138 Z4.133 I0 J-0.412
X-208 Y13.962 Z4.063 I0 J0.412
X-208 Y13.138 Z3.994 I0 J-0.412
X-208 Y13.962 Z3.924 I0 J0.412
X-208 Y13.138 Z3.854 I0 J-0.412
X-208 Y13.962 Z3.784 I0 J0.412
X-208 Y13.138 Z3.714 I0 J-0.412
X-208 Y13.962 Z3.644 I0 J0.412
X-208 Y13.138 Z3.575 I0 J-0.412
X-208 Y13.962 Z3.505 I0 J0.412
X-208 Y13.138 Z3.435 I0 J-0.412
X-208 Y13.962 Z3.365 I0 J0.412
X-208 Y13.138 Z3.295 I0 J-0.412
X-208 Y13.962 Z3.225 I0 J0.412
X-208 Y13.138 Z3.156 I0 J-0.412
X-208 Y13.962 Z3.086 I0 J0.412
X-208 Y13.138 Z3.016 I0 J-0.412
X-208 Y13.962 Z2.946 I0 J0.412
X-208 Y13.138 Z2.876 I0 J-0.412
X-208 Y13.962 Z2.806 I0 J0.412
X-208 Y13.138 Z2.736 I0 J-0.412
X-208 Y13.962 Z2.667 I0 J0.412
X-208 Y13.138 Z2.597 I0 J-0.412
X-208 Y13.962 Z2.527 I0 J0.412
X-208 Y13.138 Z2.457 I0 J-0.412
X-208 Y13.962 Z2.387 I0 J0.412
X-208 Y13.138 Z2.317 I0 J-0.412
X-208 Y13.962 Z2.248 I0 J0.412
X-208 Y13.138 Z2.178 I0 J-0.412
X-208 Y13.962 Z2.108 I0 J0.412
X-208 Y13.138 Z2.038 I0 J-0.412
X-208 Y13.962 Z1.968 I0 J0.412
X-208 Y13.138 Z1.898 I0 J-0.412
X-208 Y13.962 Z1.829 I0 J0.412
X-208 Y13.138 Z1.759 I0 J-0.412
X-208 Y13.962 Z1.689 I0 J0.412
X-208 Y13.138 Z1.619 I0 J-0.412
X-208 Y13.962 Z1.549 I0 J0.412
X-208 Y13.138 Z1.479 I0 J-0.412
X-208 Y13.962 Z1.409 I0 J0.412
X-208 Y13.138 Z1.34 I0 J-0.412
X-208 Y13.962 Z1.27 I0 J0.412
X-208 Y13.138 Z1.2 I0 J-0.412
X-208 Y13.962 Z1.13 I0 J0.412
X-208 Y13.138 Z1.06 I0 J-0.412
X-208 Y13.962 Z0.99 I0 J0.412
X-208 Y13.138 Z0.921 I0 J-0.412
X-208 Y13.962 Z0.851 I0 J0.412
X-208 Y13.138 Z0.781 I0 J-0.412
X-208 Y13.962 Z0.711 I0 J0.412
X-208 Y13.138 Z0.641 I0 J-0.412
X-208 Y13.962 Z0.571 I0 J0.412
X-208 Y13.138 Z0.502 I0 J-0.412
X-208 Y13.962 Z0.432 I0 J0.412
X-208 Y13.138 Z0.362 I0 J-0.412
X-208 Y13.962 Z0.292 I0 J0.412
X-208 Y13.138 Z0.222 I0 J-0.412
X-208 Y13.962 Z0.152 I0 J0.412
X-208 Y13.138 Z0.083 I0 J-0.412
X-208 Y13.962 Z0.013 I0 J0.412
X-208.222 Y13.897 Z0 I0 J-0.412
X-207.778 Y13.203 I0.222 J-0.347
X-208.222 Y13.897 I-0.222 J0.347
X-208.285 Y13.612 I0.111 J-0.174
G1 X-208.199 Y13.479
X-208.161 Y13.419 Z0.008
X-208.125 Y13.363 Z0.031
X-208.093 Y13.312 Z0.069
X-208.065 Y13.27 Z0.12
X-208.045 Y13.238 Z0.18
X-208.032 Y13.218 Z0.247
X-208.028 Y13.211 Z0.317
G0 Z18.1
X-198.756 Y23.27
Z12
G1 Z10.318 F600
G19 G2 Y22.952 Z10 J-0.318 K0
G1 Y22.794
G17 G3 X-198.5 Y22.538 I0.256 J0
X-198.5 Y23.562 Z9.927 I0 J0.512
X-198.5 Y22.538 Z9.853 I0 J-0.512
X-198.5 Y23.562 Z9.78 I0 J0.512
X-198.5 Y22.538 Z9.707 I0 J-0.512
X-198.5 Y23.562 Z9.633 I0 J0.512
X-198.5 Y22.538 Z9.56 I0 J-0.512
X-198.5 Y23.562 Z9.487 I0 J0.512
X-198.5 Y22.538 Z9.413 I0 J-0.512
X-198.5 Y23.562 Z9.34 I0 J0.512
X-198.5 Y22.538 Z9.267 I0 J-0.512
X-198.5 Y23.562 Z9.193 I0 J0.512
X-198.5 Y22.538 Z9.12 I0 J-0.512
X-198.5 Y23.562 Z9.047 I0 J0.512
X-198.5 Y22.538 Z8.973 I0 J-0.512
X-198.5 Y23.562 Z8.9 I0 J0.512
X-198.5 Y22.538 Z8.827 I0 J-0.512
X-198.5 Y23.562 Z8.753 I0 J0.512
X-198.5 Y22.538 Z8.68 I0 J-0.512
X-198.5 Y23.562 Z8.607 I0 J0.512
X-198.5 Y22.538 Z8.533 I0 J-0.512
X-198.5 Y23.562 Z8.46 I0 J0.512
X-198.5 Y22.538 Z8.387 I0 J-0.512
X-198.5 Y23.562 Z8.313 I0 J0.512
X-198.5 Y22.538 Z8.24 I0 J-0.512
X-198.5 Y23.562 Z8.167 I0 J0.512
X-198.5 Y22.537 Z8.093 I0 J-0.512
X-198.5 Y23.562 Z8.02 I0 J0.512
X-198.5 Y22.537 Z7.947 I0 J-0.512
X-198.5 Y23.562 Z7.873 I0 J0.512
X-198.5 Y22.537 Z7.8 I0 J-0.512
X-198.5 Y23.562 Z7.727 I0 J0.512
X-198.5 Y22.537 Z7.653 I0 J-0.512
X-198.5 Y23.562 Z7.58 I0 J0.512
X-198.5 Y22.537 Z7.507 I0 J-0.512
X-198.5 Y23.562 Z7.433 I0 J0.512
X-198.5 Y22.537 Z7.36 I0 J-0.512
X-198.5 Y23.562 Z7.287 I0 J0.512
X-198.5 Y22.537 Z7.213 I0 J-0.512
X-198.5 Y23.562 Z7.14 I0 J0.512
X-198.5 Y22.537 Z7.067 I0 J-0.512
X-198.5 Y23.562 Z6.993 I0 J0.512
X-198.5 Y22.537 Z6.92 I0 J-0.512
X-198.5 Y23.562 Z6.847 I0 J0.512
X-198.5 Y22.537 Z6.773 I0 J-0.512
X-198.5 Y23.562 Z6.7 I0 J0.512
X-198.5 Y22.537 Z6.627 I0 J-0.512
X-198.5 Y23.562 Z6.553 I0 J0.512
X-198.5 Y22.537 Z6.48 I0 J-0.512
X-198.5 Y23.562 Z6.407 I0 J0.512
X-198.5 Y22.537 Z6.333 I0 J-0.512
X-198.5 Y23.562 Z6.26 I0 J0.512
X-198.5 Y22.537 Z6.187 I0 J-0.512
X-198.5 Y23.562 Z6.113 I0 J0.512
X-198.5 Y22.537 Z6.04 I0 J-0.512
X-198.5 Y23.562 Z5.967 I0 J0.512
X-198.5 Y22.537 Z5.893 I0 J-0.512
X-198.5 Y23.562 Z5.82 I0 J0.512
X-198.5 Y22.537 Z5.747 I0 J-0.512
X-198.5 Y23.562 Z5.673 I0 J0.512
X-198.5 Y22.537 Z5.6 I0 J-0.512
X-198.5 Y23.562 Z5.527 I0 J0.512
X-198.5 Y22.537 Z5.453 I0 J-0.512
X-198.5 Y23.562 Z5.38 I0 J0.512
X-198.5 Y22.537 Z5.307 I0 J-0.512
X-198.5 Y23.562 Z5.233 I0 J0.512
X-198.5 Y22.537 Z5.16 I0 J-0.512
X-198.5 Y23.562 Z5.087 I0 J0.512
X-198.5 Y22.537 Z5.013 I0 J-0.512
X-198.5 Y23.562 Z4.94 I0 J0.512
X-198.5 Y22.537 Z4.867 I0 J-0.512
X-198.5 Y23.562 Z4.793 I0 J0.512
X-198.5 Y22.537 Z4.72 I0 J-0.512
X-198.5 Y23.562 Z4.647 I0 J0.512
X-198.5 Y22.537 Z4.573 I0 J-0.512
X-198.5 Y23.562 Z4.5 I0 J0.512
X-198.5 Y22.537 Z4.427 I0 J-0.512
X-198.5 Y23.562 Z4.353 I0 J0.512
X-198.5 Y22.537 Z4.28 I0 J-0.512
X-198.5 Y23.562 Z4.207 I0 J0.513
X-198.5 Y22.537 Z4.133 I0 J-0.513
X-198.5 Y23.562 Z4.06 I0 J0.513
X-198.5 Y22.537 Z3.987 I0 J-0.513
X-198.5 Y23.562 Z3.913 I0 J0.513
X-198.5 Y22.537 Z3.84 I0 J-0.513
X-198.5 Y23.562 Z3.767 I0 J0.513
X-198.5 Y22.537 Z3.693 I0 J-0.513
X-198.5 Y23.562 Z3.62 I0 J0.513
X-198.5 Y22.537 Z3.547 I0 J-0.513
X-198.5 Y23.562 Z3.473 I0 J0.513
X-198.5 Y22.537 Z3.4 I0 J-0.513
X-198.5 Y23.562 Z3.327 I0 J0.513
X-198.5 Y22.537 Z3.253 I0 J-0.513
X-198.5 Y23.562 Z3.18 I0 J0.513
X-198.5 Y22.537 Z3.107 I0 J-0.513
X-198.5 Y23.562 Z3.033 I0 J0.513
X-198.5 Y22.537 Z2.96 I0 J-0.513
X-198.5 Y23.562 Z2.887 I0 J0.513
X-198.5 Y22.537 Z2.813 I0 J-0.513
X-198.5 Y23.562 Z2.74 I0 J0.513
X-198.5 Y22.537 Z2.667 I0 J-0.513
X-198.5 Y23.562 Z2.593 I0 J0.513
X-198.5 Y22.537 Z2.52 I0 J-0.513
X-198.5 Y23.562 Z2.447 I0 J0.513
X-198.5 Y22.537 Z2.373 I0 J-0.513
X-198.5 Y23.562 Z2.3 I0 J0.513
X-198.5 Y22.537 Z2.227 I0 J-0.513
X-198.5 Y23.562 Z2.153 I0 J0.513
X-198.5 Y22.537 Z2.08 I0 J-0.513
X-198.5 Y23.562 Z2.007 I0 J0.513
X-198.5 Y22.537 Z1.933 I0 J-0.513
X-198.5 Y23.562 Z1.86 I0 J0.513
X-198.5 Y22.537 Z1.787 I0 J-0.513
X-198.5 Y23.562 Z1.713 I0 J0.513
X-198.5 Y22.537 Z1.64 I0 J-0.513
X-198.5 Y23.562 Z1.567 I0 J0.513
X-198.5 Y22.537 Z1.493 I0 J-0.513
X-198.5 Y23.562 Z1.42 I0 J0.513
X-198.5 Y22.537 Z1.347 I0 J-0.513
X-198.5 Y23.562 Z1.273 I0 J0.513
X-198.5 Y22.537 Z1.2 I0 J-0.513
X-198.5 Y23.562 Z1.127 I0 J0.513
X-198.5 Y22.537 Z1.053 I0 J-0.513
X-198.5 Y23.562 Z0.98 I0 J0.513
X-198.5 Y22.537 Z0.907 I0 J-0.513
X-198.5 Y23.562 Z0.833 I0 J0.513
X-198.5 Y22.537 Z0.76 I0 J-0.513
X-198.5 Y23.562 Z0.687 I0 J0.513
X-198.5 Y22.537 Z0.613 I0 J-0.513
X-198.5 Y23.563 Z0.54 I0 J0.513
X-198.5 Y22.537 Z0.467 I0 J-0.513
X-198.5 Y23.563 Z0.393 I0 J0.513
X-198.5 Y22.537 Z0.32 I0 J-0.513
X-198.5 Y23.563 Z0.247 I0 J0.513
X-198.5 Y22.537 Z0.173 I0 J-0.513
X-198.5 Y23.563 Z0.1 I0 J0.513
X-198.5 Y22.537 Z0.027 I0 J-0.513
X-198.034 Y22.836 Z0 I0 J0.513
X-198.966 Y23.264 I-0.466 J0.214
X-198.034 Y22.836 I0.466 J-0.214
X-198.16 Y23.176 I-0.233 J0.107
G1 X-198.305 Y23.242
X-198.369 Y23.272 Z0.008
X-198.43 Y23.3 Z0.031
X-198.484 Y23.325 Z0.069
X-198.53 Y23.346 Z0.12
X-198.565 Y23.362 Z0.18
X-198.586 Y23.371 Z0.247
X-198.593 Y23.375 Z0.317
G0 Z18.1
X-198.756 Y38.27
Z12
G1 Z10.318 F600
G19 G2 Y37.952 Z10 J-0.318 K0
G1 Y37.794
G17 G3 X-198.5 Y37.537 I0.256 J0
X-198.5 Y38.563 Z9.927 I0 J0.513
X-198.5 Y37.537 Z9.853 I0 J-0.513
X-198.5 Y38.563 Z9.78 I0 J0.513
X-198.5 Y37.537 Z9.707 I0 J-0.513
X-198.5 Y38.563 Z9.633 I0 J0.513
X-198.5 Y37.537 Z9.56 I0 J-0.513
X-198.5 Y38.563 Z9.487 I0 J0.513
X-198.5 Y37.537 Z9.413 I0 J-0.513
X-198.5 Y38.563 Z9.34 I0 J0.513
X-198.5 Y37.537 Z9.267 I0 J-0.513
X-198.5 Y38.563 Z9.193 I0 J0.513
X-198.5 Y37.537 Z9.12 I0 J-0.513
X-198.5 Y38.563 Z9.047 I0 J0.513
X-198.5 Y37.537 Z8.973 I0 J-0.513
X-198.5 Y38.563 Z8.9 I0 J0.513
X-198.5 Y37.537 Z8.827 I0 J-0.513
X-198.5 Y38.563 Z8.753 I0 J0.513
X-198.5 Y37.537 Z8.68 I0 J-0.513
X-198.5 Y38.563 Z8.607 I0 J0.513
X-198.5 Y37.537 Z8.533 I0 J-0.513
X-198.5 Y38.563 Z8.46 I0 J0.513
X-198.5 Y37.537 Z8.387 I0 J-0.513
X-198.5 Y38.563 Z8.313 I0 J0.513
X-198.5 Y37.537 Z8.24 I0 J-0.513
X-198.5 Y38.563 Z8.167 I0 J0.513
X-198.5 Y37.537 Z8.093 I0 J-0.513
X-198.5 Y38.563 Z8.02 I0 J0.513
X-198.5 Y37.537 Z7.947 I0 J-0.513
X-198.5 Y38.563 Z7.873 I0 J0.513
X-198.5 Y37.537 Z7.8 I0 J-0.513
X-198.5 Y38.563 Z7.727 I0 J0.513
X-198.5 Y37.537 Z7.653 I0 J-0.513
X-198.5 Y38.563 Z7.58 I0 J0.513
X-198.5 Y37.537 Z7.507 I0 J-0.513
X-198.5 Y38.563 Z7.433 I0 J0.513
X-198.5 Y37.537 Z7.36 I0 J-0.513
X-198.5 Y38.563 Z7.287 I0 J0.513
X-198.5 Y37.537 Z7.213 I0 J-0.513
X-198.5 Y38.563 Z7.14 I0 J0.513
X-198.5 Y37.537 Z7.067 I0 J-0.513
X-198.5 Y38.563 Z6.993 I0 J0.513
X-198.5 Y37.537 Z6.92 I0 J-0.513
X-198.5 Y38.563 Z6.847 I0 J0.513
X-198.5 Y37.537 Z6.773 I0 J-0.513
X-198.5 Y38.563 Z6.7 I0 J0.513
X-198.5 Y37.537 Z6.627 I0 J-0.513
X-198.5 Y38.563 Z6.553 I0 J0.513
X-198.5 Y37.537 Z6.48 I0 J-0.513
X-198.5 Y38.563 Z6.407 I0 J0.513
X-198.5 Y37.537 Z6.333 I0 J-0.513
X-198.5 Y38.563 Z6.26 I0 J0.513
X-198.5 Y37.537 Z6.187 I0 J-0.513
X-198.5 Y38.563 Z6.113 I0 J0.513
X-198.5 Y37.537 Z6.04 I0 J-0.513
X-198.5 Y38.563 Z5.967 I0 J0.513
X-198.5 Y37.537 Z5.893 I0 J-0.513
X-198.5 Y38.563 Z5.82 I0 J0.513
X-198.5 Y37.537 Z5.747 I0 J-0.513
X-198.5 Y38.563 Z5.673 I0 J0.513
X-198.5 Y37.537 Z5.6 I0 J-0.513
X-198.5 Y38.563 Z5.527 I0 J0.513
X-198.5 Y37.537 Z5.453 I0 J-0.513
X-198.5 Y38.563 Z5.38 I0 J0.513
X-198.5 Y37.537 Z5.307 I0 J-0.513
X-198.5 Y38.563 Z5.233 I0 J0.513
X-198.5 Y37.537 Z5.16 I0 J-0.513
X-198.5 Y38.563 Z5.087 I0 J0.513
X-198.5 Y37.537 Z5.013 I0 J-0.513
X-198.5 Y38.563 Z4.94 I0 J0.513
X-198.5 Y37.537 Z4.867 I0 J-0.513
X-198.5 Y38.563 Z4.793 I0 J0.513
X-198.5 Y37.537 Z4.72 I0 J-0.513
X-198.5 Y38.563 Z4.647 I0 J0.513
X-198.5 Y37.537 Z4.573 I0 J-0.513
X-198.5 Y38.563 Z4.5 I0 J0.513
X-198.5 Y37.537 Z4.427 I0 J-0.513
X-198.5 Y38.563 Z4.353 I0 J0.513
X-198.5 Y37.537 Z4.28 I0 J-0.513
X-198.5 Y38.563 Z4.207 I0 J0.513
X-198.5 Y37.537 Z4.133 I0 J-0.513
X-198.5 Y38.563 Z4.06 I0 J0.513
X-198.5 Y37.537 Z3.987 I0 J-0.513
X-198.5 Y38.563 Z3.913 I0 J0.513
X-198.5 Y37.537 Z3.84 I0 J-0.513
X-198.5 Y38.563 Z3.767 I0 J0.513
X-198.5 Y37.537 Z3.693 I0 J-0.513
X-198.5 Y38.563 Z3.62 I0 J0.513
X-198.5 Y37.537 Z3.547 I0 J-0.513
X-198.5 Y38.563 Z3.473 I0 J0.513
X-198.5 Y37.537 Z3.4 I0 J-0.513
X-198.5 Y38.563 Z3.327 I0 J0.513
X-198.5 Y37.537 Z3.253 I0 J-0.513
X-198.5 Y38.563 Z3.18 I0 J0.513
X-198.5 Y37.537 Z3.107 I0 J-0.513
X-198.5 Y38.563 Z3.033 I0 J0.513
X-198.5 Y37.537 Z2.96 I0 J-0.513
X-198.5 Y38.563 Z2.887 I0 J0.513
X-198.5 Y37.537 Z2.813 I0 J-0.513
X-198.5 Y38.563 Z2.74 I0 J0.513
X-198.5 Y37.537 Z2.667 I0 J-0.513
X-198.5 Y38.563 Z2.593 I0 J0.513
X-198.5 Y37.537 Z2.52 I0 J-0.513
X-198.5 Y38.563 Z2.447 I0 J0.513
X-198.5 Y37.537 Z2.373 I0 J-0.513
X-198.5 Y38.563 Z2.3 I0 J0.513
X-198.5 Y37.537 Z2.227 I0 J-0.513
X-198.5 Y38.563 Z2.153 I0 J0.513
X-198.5 Y37.537 Z2.08 I0 J-0.513
X-198.5 Y38.563 Z2.007 I0 J0.513
X-198.5 Y37.537 Z1.933 I0 J-0.513
X-198.5 Y38.563 Z1.86 I0 J0.513
X-198.5 Y37.537 Z1.787 I0 J-0.513
X-198.5 Y38.563 Z1.713 I0 J0.513
X-198.5 Y37.537 Z1.64 I0 J-0.513
X-198.5 Y38.563 Z1.567 I0 J0.513
X-198.5 Y37.537 Z1.493 I0 J-0.513
X-198.5 Y38.563 Z1.42 I0 J0.513
X-198.5 Y37.537 Z1.347 I0 J-0.513
X-198.5 Y38.563 Z1.273 I0 J0.513
X-198.5 Y37.537 Z1.2 I0 J-0.513
X-198.5 Y38.563 Z1.127 I0 J0.513
X-198.5 Y37.537 Z1.053 I0 J-0.513
X-198.5 Y38.563 Z0.98 I0 J0.513
X-198.5 Y37.537 Z0.907 I0 J-0.513
X-198.5 Y38.563 Z0.833 I0 J0.513
X-198.5 Y37.537 Z0.76 I0 J-0.513
X-198.5 Y38.563 Z0.687 I0 J0.513
X-198.5 Y37.537 Z0.613 I0 J-0.513
X-198.5 Y38.563 Z0.54 I0 J0.513
X-198.5 Y37.537 Z0.467 I0 J-0.513
X-198.5 Y38.563 Z0.393 I0 J0.513
X-198.5 Y37.537 Z0.32 I0 J-0.513
X-198.5 Y38.563 Z0.247 I0 J0.513
X-198.5 Y37.537 Z0.173 I0 J-0.513
X-198.5 Y38.563 Z0.1 I0 J0.513
X-198.5 Y37.537 Z0.027 I0 J-0.513
X-198.034 Y37.836 Z0 I0 J0.513
X-198.966 Y38.264 I-0.466 J0.214
X-198.034 Y37.836 I0.466 J-0.214
X-198.16 Y38.176 I-0.233 J0.107
G1 X-198.305 Y38.242
X-198.369 Y38.272 Z0.008
X-198.43 Y38.3 Z0.031
X-198.484 Y38.325 Z0.069
X-198.53 Y38.346 Z0.12
X-198.565 Y38.362 Z0.18
X-198.586 Y38.371 Z0.247
X-198.593 Y38.375 Z0.317
G0 Z18.1
X-208.206 Y47.82
Z12
G1 Z10.318 F600
G19 G2 Y47.502 Z10 J-0.318 K0
G1 Y47.344
G17 G3 X-208 Y47.138 I0.206 J0
X-208 Y47.962 Z9.93 I0 J0.412
X-208 Y47.138 Z9.86 I0 J-0.412
X-208 Y47.962 Z9.79 I0 J0.412
X-208 Y47.138 Z9.721 I0 J-0.412
X-208 Y47.962 Z9.651 I0 J0.412
X-208 Y47.138 Z9.581 I0 J-0.412
X-208 Y47.962 Z9.511 I0 J0.412
X-208 Y47.138 Z9.441 I0 J-0.412
X-208 Y47.962 Z9.371 I0 J0.412
X-208 Y47.138 Z9.302 I0 J-0.412
X-208 Y47.962 Z9.232 I0 J0.412
X-208 Y47.138 Z9.162 I0 J-0.412
X-208 Y47.962 Z9.092 I0 J0.412
X-208 Y47.138 Z9.022 I0 J-0.412
X-208 Y47.962 Z8.952 I0 J0.412
X-208 Y47.138 Z8.883 I0 J-0.412
X-208 Y47.962 Z8.813 I0 J0.412
X-208 Y47.138 Z8.743 I0 J-0.412
X-208 Y47.962 Z8.673 I0 J0.412
X-208 Y47.138 Z8.603 I0 J-0.412
X-208 Y47.962 Z8.533 I0 J0.412
X-208 Y47.138 Z8.463 I0 J-0.412
X-208 Y47.962 Z8.394 I0 J0.412
X-208 Y47.138 Z8.324 I0 J-0.412
X-208 Y47.962 Z8.254 I0 J0.412
X-208 Y47.138 Z8.184 I0 J-0.412
X-208 Y47.962 Z8.114 I0 J0.412
X-208 Y47.138 Z8.044 I0 J-0.412
X-208 Y47.962 Z7.975 I0 J0.412
X-208 Y47.138 Z7.905 I0 J-0.412
X-208 Y47.962 Z7.835 I0 J0.412
X-208 Y47.138 Z7.765 I0 J-0.412
X-208 Y47.962 Z7.695 I0 J0.412
X-208 Y47.138 Z7.625 I0 J-0.412
X-208 Y47.962 Z7.556 I0 J0.412
X-208 Y47.138 Z7.486 I0 J-0.412
X-208 Y47.962 Z7.416 I0 J0.412
X-208 Y47.138 Z7.346 I0 J-0.412
X-208 Y47.962 Z7.276 I0 J0.412
X-208 Y47.138 Z7.206 I0 J-0.412
X-208 Y47.962 Z7.136 I0 J0.412
X-208 Y47.138 Z7.067 I0 J-0.412
X-208 Y47.962 Z6.997 I0 J0.412
X-208 Y47.138 Z6.927 I0 J-0.412
X-208 Y47.962 Z6.857 I0 J0.412
X-208 Y47.137 Z6.787 I0 J-0.412
X-208 Y47.962 Z6.717 I0 J0.412
X-208 Y47.137 Z6.648 I0 J-0.412
X-208 Y47.962 Z6.578 I0 J0.412
X-208 Y47.137 Z6.508 I0 J-0.412
X-208 Y47.962 Z6.438 I0 J0.412
X-208 Y47.137 Z6.368 I0 J-0.412
X-208 Y47.962 Z6.298 I0 J0.412
X-208 Y47.137 Z6.229 I0 J-0.412
X-208 Y47.962 Z6.159 I0 J0.412
X-208 Y47.137 Z6.089 I0 J-0.412
X-208 Y47.962 Z6.019 I0 J0.412
X-208 Y47.137 Z5.949 I0 J-0.412
X-208 Y47.962 Z5.879 I0 J0.412
X-208 Y47.137 Z5.81 I0 J-0.412
X-208 Y47.962 Z5.74 I0 J0.412
X-208 Y47.137 Z5.67 I0 J-0.412
X-208 Y47.962 Z5.6 I0 J0.412
X-208 Y47.137 Z5.53 I0 J-0.412
X-208 Y47.962 Z5.46 I0 J0.412
X-208 Y47.137 Z5.39 I0 J-0.412
X-208 Y47.962 Z5.321 I0 J0.412
X-208 Y47.137 Z5.251 I0 J-0.412
X-208 Y47.962 Z5.181 I0 J0.412
X-208 Y47.137 Z5.111 I0 J-0.412
X-208 Y47.962 Z5.041 I0 J0.412
X-208 Y47.137 Z4.971 I0 J-0.412
X-208 Y47.962 Z4.902 I0 J0.412
X-208 Y47.137 Z4.832 I0 J-0.412
X-208 Y47.962 Z4.762 I0 J0.412
X-208 Y47.137 Z4.692 I0 J-0.412
X-208 Y47.962 Z4.622 I0 J0.412
X-208 Y47.137 Z4.552 I0 J-0.412
X-208 Y47.962 Z4.483 I0 J0.412
X-208 Y47.137 Z4.413 I0 J-0.412
X-208 Y47.962 Z4.343 I0 J0.412
X-208 Y47.137 Z4.273 I0 J-0.412
X-208 Y47.962 Z4.203 I0 J0.412
X-208 Y47.137 Z4.133 I0 J-0.412
X-208 Y47.962 Z4.063 I0 J0.412
X-208 Y47.137 Z3.994 I0 J-0.412
X-208 Y47.962 Z3.924 I0 J0.412
X-208 Y47.137 Z3.854 I0 J-0.412
X-208 Y47.962 Z3.784 I0 J0.412
X-208 Y47.137 Z3.714 I0 J-0.413
X-208 Y47.962 Z3.644 I0 J0.413
X-208 Y47.137 Z3.575 I0 J-0.413
X-208 Y47.962 Z3.505 I0 J0.413
X-208 Y47.137 Z3.435 I0 J-0.413
X-208 Y47.962 Z3.365 I0 J0.413
X-208 Y47.137 Z3.295 I0 J-0.413
X-208 Y47.962 Z3.225 I0 J0.413
X-208 Y47.137 Z3.156 I0 J-0.413
X-208 Y47.962 Z3.086 I0 J0.413
X-208 Y47.137 Z3.016 I0 J-0.413
X-208 Y47.962 Z2.946 I0 J0.413
X-208 Y47.137 Z2.876 I0 J-0.413
X-208 Y47.962 Z2.806 I0 J0.413
X-208 Y47.137 Z2.736 I0 J-0.413
X-208 Y47.962 Z2.667 I0 J0.413
X-208 Y47.137 Z2.597 I0 J-0.413
X-208 Y47.962 Z2.527 I0 J0.413
X-208 Y47.137 Z2.457 I0 J-0.413
X-208 Y47.962 Z2.387 I0 J0.413
X-208 Y47.137 Z2.317 I0 J-0.413
X-208 Y47.962 Z2.248 I0 J0.413
X-208 Y47.137 Z2.178 I0 J-0.413
X-208 Y47.962 Z2.108 I0 J0.413
X-208 Y47.137 Z2.038 I0 J-0.413
X-208 Y47.962 Z1.968 I0 J0.413
X-208 Y47.137 Z1.898 I0 J-0.413
X-208 Y47.962 Z1.829 I0 J0.413
X-208 Y47.137 Z1.759 I0 J-0.413
X-208 Y47.962 Z1.689 I0 J0.413
X-208 Y47.137 Z1.619 I0 J-0.413
X-208 Y47.962 Z1.549 I0 J0.413
X-208 Y47.137 Z1.479 I0 J-0.413
X-208 Y47.962 Z1.409 I0 J0.413
X-208 Y47.137 Z1.34 I0 J-0.413
X-208 Y47.962 Z1.27 I0 J0.413
X-208 Y47.137 Z1.2 I0 J-0.413
X-208 Y47.962 Z1.13 I0 J0.413
X-208 Y47.137 Z1.06 I0 J-0.413
X-208 Y47.962 Z0.99 I0 J0.413
X-208 Y47.137 Z0.921 I0 J-0.413
X-208 Y47.962 Z0.851 I0 J0.413
X-208 Y47.137 Z0.781 I0 J-0.413
X-208 Y47.962 Z0.711 I0 J0.413
X-208 Y47.137 Z0.641 I0 J-0.413
X-208 Y47.963 Z0.571 I0 J0.413
X-208 Y47.137 Z0.502 I0 J-0.413
X-208 Y47.963 Z0.432 I0 J0.413
X-208 Y47.137 Z0.362 I0 J-0.413
X-208 Y47.963 Z0.292 I0 J0.413
X-208 Y47.137 Z0.222 I0 J-0.413
X-208 Y47.963 Z0.152 I0 J0.413
X-208 Y47.137 Z0.083 I0 J-0.413
X-208 Y47.963 Z0.013 I0 J0.413
X-208.222 Y47.897 Z0 I0 J-0.413
X-207.778 Y47.203 I0.222 J-0.347
X-208.222 Y47.897 I-0.222 J0.347
X-208.285 Y47.612 I0.111 J-0.174
G1 X-208.199 Y47.479
X-208.161 Y47.419 Z0.008
X-208.125 Y47.363 Z0.031
X-208.093 Y47.312 Z0.069
X-208.065 Y47.27 Z0.12
X-208.045 Y47.238 Z0.18
X-208.032 Y47.218 Z0.247
X-208.028 Y47.211 Z0.317
G0 Z18.1
X-174.206 Y47.82
Z12
G1 Z10.318 F600
G19 G2 Y47.502 Z10 J-0.318 K0
G1 Y47.344
G17 G3 X-174 Y47.138 I0.206 J0
X-174 Y47.962 Z9.93 I0 J0.412
X-174 Y47.138 Z9.86 I0 J-0.412
X-174 Y47.962 Z9.79 I0 J0.412
X-174 Y47.138 Z9.721 I0 J-0.412
X-174 Y47.962 Z9.651 I0 J0.412
X-174 Y47.138 Z9.581 I0 J-0.412
X-174 Y47.962 Z9.511 I0 J0.412
X-174 Y47.138 Z9.441 I0 J-0.412
X-174 Y47.962 Z9.371 I0 J0.412
X-174 Y47.138 Z9.302 I0 J-0.412
X-174 Y47.962 Z9.232 I0 J0.412
X-174 Y47.138 Z9.162 I0 J-0.412
X-174 Y47.962 Z9.092 I0 J0.412
X-174 Y47.138 Z9.022 I0 J-0.412
X-174 Y47.962 Z8.952 I0 J0.412
X-174 Y47.138 Z8.883 I0 J-0.412
X-174 Y47.962 Z8.813 I0 J0.412
X-174 Y47.138 Z8.743 I0 J-0.412
X-174 Y47.962 Z8.673 I0 J0.412
X-174 Y47.138 Z8.603 I0 J-0.412
X-174 Y47.962 Z8.533 I0 J0.412
X-174 Y47.138 Z8.463 I0 J-0.412
X-174 Y47.962 Z8.394 I0 J0.412
X-174 Y47.138 Z8.324 I0 J-0.412
X-174 Y47.962 Z8.254 I0 J0.412
X-174 Y47.138 Z8.184 I0 J-0.412
X-174 Y47.962 Z8.114 I0 J0.412
X-174 Y47.138 Z8.044 I0 J-0.412
X-174 Y47.962 Z7.975 I0 J0.412
X-174 Y47.138 Z7.905 I0 J-0.412
X-174 Y47.962 Z7.835 I0 J0.412
X-174 Y47.138 Z7.765 I0 J-0.412
X-174 Y47.962 Z7.695 I0 J0.412
X-174 Y47.138 Z7.625 I0 J-0.412
X-174 Y47.962 Z7.556 I0 J0.412
X-174 Y47.138 Z7.486 I0 J-0.412
X-174 Y47.962 Z7.416 I0 J0.412
X-174 Y47.138 Z7.346 I0 J-0.412
X-174 Y47.962 Z7.276 I0 J0.412
X-174 Y47.138 Z7.206 I0 J-0.412
X-174 Y47.962 Z7.136 I0 J0.412
X-174 Y47.138 Z7.067 I0 J-0.412
X-174 Y47.962 Z6.997 I0 J0.412
X-174 Y47.138 Z6.927 I0 J-0.412
X-174 Y47.962 Z6.857 I0 J0.412
X-174 Y47.137 Z6.787 I0 J-0.412
X-174 Y47.962 Z6.717 I0 J0.412
X-174 Y47.137 Z6.648 I0 J-0.412
X-174 Y47.962 Z6.578 I0 J0.412
X-174 Y47.137 Z6.508 I0 J-0.412
X-174 Y47.962 Z6.438 I0 J0.412
X-174 Y47.137 Z6.368 I0 J-0.412
X-174 Y47.962 Z6.298 I0 J0.412
X-174 Y47.137 Z6.229 I0 J-0.412
X-174 Y47.962 Z6.159 I0 J0.412
X-174 Y47.137 Z6.089 I0 J-0.412
X-174 Y47.962 Z6.019 I0 J0.412
X-174 Y47.137 Z5.949 I0 J-0.412
X-174 Y47.962 Z5.879 I0 J0.412
X-174 Y47.137 Z5.81 I0 J-0.412
X-174 Y47.962 Z5.74 I0 J0.412
X-174 Y47.137 Z5.67 I0 J-0.412
X-174 Y47.962 Z5.6 I0 J0.412
X-174 Y47.137 Z5.53 I0 J-0.412
X-174 Y47.962 Z5.46 I0 J0.412
X-174 Y47.137 Z5.39 I0 J-0.412
X-174 Y47.962 Z5.321 I0 J0.412
X-174 Y47.137 Z5.251 I0 J-0.412
X-174 Y47.962 Z5.181 I0 J0.412
X-174 Y47.137 Z5.111 I0 J-0.412
X-174 Y47.962 Z5.041 I0 J0.412
X-174 Y47.137 Z4.971 I0 J-0.412
X-174 Y47.962 Z4.902 I0 J0.412
X-174 Y47.137 Z4.832 I0 J-0.412
X-174 Y47.962 Z4.762 I0 J0.412
X-174 Y47.137 Z4.692 I0 J-0.412
X-174 Y47.962 Z4.622 I0 J0.412
X-174 Y47.137 Z4.552 I0 J-0.412
X-174 Y47.962 Z4.483 I0 J0.412
X-174 Y47.137 Z4.413 I0 J-0.412
X-174 Y47.962 Z4.343 I0 J0.412
X-174 Y47.137 Z4.273 I0 J-0.412
X-174 Y47.962 Z4.203 I0 J0.412
X-174 Y47.137 Z4.133 I0 J-0.412
X-174 Y47.962 Z4.063 I0 J0.412
X-174 Y47.137 Z3.994 I0 J-0.412
X-174 Y47.962 Z3.924 I0 J0.412
X-174 Y47.137 Z3.854 I0 J-0.412
X-174 Y47.962 Z3.784 I0 J0.412
X-174 Y47.137 Z3.714 I0 J-0.413
X-174 Y47.962 Z3.644 I0 J0.413
X-174 Y47.137 Z3.575 I0 J-0.413
X-174 Y47.962 Z3.505 I0 J0.413
X-174 Y47.137 Z3.435 I0 J-0.413
X-174 Y47.962 Z3.365 I0 J0.413
X-174 Y47.137 Z3.295 I0 J-0.413
X-174 Y47.962 Z3.225 I0 J0.413
X-174 Y47.137 Z3.156 I0 J-0.413
X-174 Y47.962 Z3.086 I0 J0.413
X-174 Y47.137 Z3.016 I0 J-0.413
X-174 Y47.962 Z2.946 I0 J0.413
X-174 Y47.137 Z2.876 I0 J-0.413
X-174 Y47.962 Z2.806 I0 J0.413
X-174 Y47.137 Z2.736 I0 J-0.413
X-174 Y47.962 Z2.667 I0 J0.413
X-174 Y47.137 Z2.597 I0 J-0.413
X-174 Y47.962 Z2.527 I0 J0.413
X-174 Y47.137 Z2.457 I0 J-0.413
X-174 Y47.962 Z2.387 I0 J0.413
X-174 Y47.137 Z2.317 I0 J-0.413
X-174 Y47.962 Z2.248 I0 J0.413
X-174 Y47.137 Z2.178 I0 J-0.413
X-174 Y47.962 Z2.108 I0 J0.413
X-174 Y47.137 Z2.038 I0 J-0.413
X-174 Y47.962 Z1.968 I0 J0.413
X-174 Y47.137 Z1.898 I0 J-0.413
X-174 Y47.962 Z1.829 I0 J0.413
X-174 Y47.137 Z1.759 I0 J-0.413
X-174 Y47.962 Z1.689 I0 J0.413
X-174 Y47.137 Z1.619 I0 J-0.413
X-174 Y47.962 Z1.549 I0 J0.413
X-174 Y47.137 Z1.479 I0 J-0.413
X-174 Y47.962 Z1.409 I0 J0.413
X-174 Y47.137 Z1.34 I0 J-0.413
X-174 Y47.962 Z1.27 I0 J0.413
X-174 Y47.137 Z1.2 I0 J-0.413
X-174 Y47.962 Z1.13 I0 J0.413
X-174 Y47.137 Z1.06 I0 J-0.413
X-174 Y47.962 Z0.99 I0 J0.413
X-174 Y47.137 Z0.921 I0 J-0.413
X-174 Y47.962 Z0.851 I0 J0.413
X-174 Y47.137 Z0.781 I0 J-0.413
X-174 Y47.962 Z0.711 I0 J0.413
X-174 Y47.137 Z0.641 I0 J-0.413
X-174 Y47.963 Z0.571 I0 J0.413
X-174 Y47.137 Z0.502 I0 J-0.413
X-174 Y47.963 Z0.432 I0 J0.413
X-174 Y47.137 Z0.362 I0 J-0.413
X-174 Y47.963 Z0.292 I0 J0.413
X-174 Y47.137 Z0.222 I0 J-0.413
X-174 Y47.963 Z0.152 I0 J0.413
X-174 Y47.137 Z0.083 I0 J-0.413
X-174 Y47.963 Z0.013 I0 J0.413
X-174.222 Y47.897 Z0 I0 J-0.413
X-173.778 Y47.203 I0.222 J-0.347
X-174.222 Y47.897 I-0.222 J0.347
X-174.285 Y47.612 I0.111 J-0.174
G1 X-174.199 Y47.479
X-174.161 Y47.419 Z0.008
X-174.125 Y47.363 Z0.031
X-174.093 Y47.312 Z0.069
X-174.065 Y47.27 Z0.12
X-174.045 Y47.238 Z0.18
X-174.032 Y47.218 Z0.247
X-174.028 Y47.211 Z0.317
G0 Z18.1
X-183.756 Y38.27
Z12
G1 Z10.318 F600
G19 G2 Y37.952 Z10 J-0.318 K0
G1 Y37.794
G17 G3 X-183.5 Y37.537 I0.256 J0
X-183.5 Y38.563 Z9.927 I0 J0.513
X-183.5 Y37.537 Z9.853 I0 J-0.513
X-183.5 Y38.563 Z9.78 I0 J0.513
X-183.5 Y37.537 Z9.707 I0 J-0.513
X-183.5 Y38.563 Z9.633 I0 J0.513
X-183.5 Y37.537 Z9.56 I0 J-0.513
X-183.5 Y38.563 Z9.487 I0 J0.513
X-183.5 Y37.537 Z9.413 I0 J-0.513
X-183.5 Y38.563 Z9.34 I0 J0.513
X-183.5 Y37.537 Z9.267 I0 J-0.513
X-183.5 Y38.563 Z9.193 I0 J0.513
X-183.5 Y37.537 Z9.12 I0 J-0.513
X-183.5 Y38.563 Z9.047 I0 J0.513
X-183.5 Y37.537 Z8.973 I0 J-0.513
X-183.5 Y38.563 Z8.9 I0 J0.513
X-183.5 Y37.537 Z8.827 I0 J-0.513
X-183.5 Y38.563 Z8.753 I0 J0.513
X-183.5 Y37.537 Z8.68 I0 J-0.513
X-183.5 Y38.563 Z8.607 I0 J0.513
X-183.5 Y37.537 Z8.533 I0 J-0.513
X-183.5 Y38.563 Z8.46 I0 J0.513
X-183.5 Y37.537 Z8.387 I0 J-0.513
X-183.5 Y38.563 Z8.313 I0 J0.513
X-183.5 Y37.537 Z8.24 I0 J-0.513
X-183.5 Y38.563 Z8.167 I0 J0.513
X-183.5 Y37.537 Z8.093 I0 J-0.513
X-183.5 Y38.563 Z8.02 I0 J0.513
X-183.5 Y37.537 Z7.947 I0 J-0.513
X-183.5 Y38.563 Z7.873 I0 J0.513
X-183.5 Y37.537 Z7.8 I0 J-0.513
X-183.5 Y38.563 Z7.727 I0 J0.513
X-183.5 Y37.537 Z7.653 I0 J-0.513
X-183.5 Y38.563 Z7.58 I0 J0.513
X-183.5 Y37.537 Z7.507 I0 J-0.513
X-183.5 Y38.563 Z7.433 I0 J0.513
X-183.5 Y37.537 Z7.36 I0 J-0.513
X-183.5 Y38.563 Z7.287 I0 J0.513
X-183.5 Y37.537 Z7.213 I0 J-0.513
X-183.5 Y38.563 Z7.14 I0 J0.513
X-183.5 Y37.537 Z7.067 I0 J-0.513
X-183.5 Y38.563 Z6.993 I0 J0.513
X-183.5 Y37.537 Z6.92 I0 J-0.513
X-183.5 Y38.563 Z6.847 I0 J0.513
X-183.5 Y37.537 Z6.773 I0 J-0.513
X-183.5 Y38.563 Z6.7 I0 J0.513
X-183.5 Y37.537 Z6.627 I0 J-0.513
X-183.5 Y38.563 Z6.553 I0 J0.513
X-183.5 Y37.537 Z6.48 I0 J-0.513
X-183.5 Y38.563 Z6.407 I0 J0.513
X-183.5 Y37.537 Z6.333 I0 J-0.513
X-183.5 Y38.563 Z6.26 I0 J0.513
X-183.5 Y37.537 Z6.187 I0 J-0.513
X-183.5 Y38.563 Z6.113 I0 J0.513
X-183.5 Y37.537 Z6.04 I0 J-0.513
X-183.5 Y38.563 Z5.967 I0 J0.513
X-183.5 Y37.537 Z5.893 I0 J-0.513
X-183.5 Y38.563 Z5.82 I0 J0.513
X-183.5 Y37.537 Z5.747 I0 J-0.513
X-183.5 Y38.563 Z5.673 I0 J0.513
X-183.5 Y37.537 Z5.6 I0 J-0.513
X-183.5 Y38.563 Z5.527 I0 J0.513
X-183.5 Y37.537 Z5.453 I0 J-0.513
X-183.5 Y38.563 Z5.38 I0 J0.513
X-183.5 Y37.537 Z5.307 I0 J-0.513
X-183.5 Y38.563 Z5.233 I0 J0.513
X-183.5 Y37.537 Z5.16 I0 J-0.513
X-183.5 Y38.563 Z5.087 I0 J0.513
X-183.5 Y37.537 Z5.013 I0 J-0.513
X-183.5 Y38.563 Z4.94 I0 J0.513
X-183.5 Y37.537 Z4.867 I0 J-0.513
X-183.5 Y38.563 Z4.793 I0 J0.513
X-183.5 Y37.537 Z4.72 I0 J-0.513
X-183.5 Y38.563 Z4.647 I0 J0.513
X-183.5 Y37.537 Z4.573 I0 J-0.513
X-183.5 Y38.563 Z4.5 I0 J0.513
X-183.5 Y37.537 Z4.427 I0 J-0.513
X-183.5 Y38.563 Z4.353 I0 J0.513
X-183.5 Y37.537 Z4.28 I0 J-0.513
X-183.5 Y38.563 Z4.207 I0 J0.513
X-183.5 Y37.537 Z4.133 I0 J-0.513
X-183.5 Y38.563 Z4.06 I0 J0.513
X-183.5 Y37.537 Z3.987 I0 J-0.513
X-183.5 Y38.563 Z3.913 I0 J0.513
X-183.5 Y37.537 Z3.84 I0 J-0.513
X-183.5 Y38.563 Z3.767 I0 J0.513
X-183.5 Y37.537 Z3.693 I0 J-0.513
X-183.5 Y38.563 Z3.62 I0 J0.513
X-183.5 Y37.537 Z3.547 I0 J-0.513
X-183.5 Y38.563 Z3.473 I0 J0.513
X-183.5 Y37.537 Z3.4 I0 J-0.513
X-183.5 Y38.563 Z3.327 I0 J0.513
X-183.5 Y37.537 Z3.253 I0 J-0.513
X-183.5 Y38.563 Z3.18 I0 J0.513
X-183.5 Y37.537 Z3.107 I0 J-0.513
X-183.5 Y38.563 Z3.033 I0 J0.513
X-183.5 Y37.537 Z2.96 I0 J-0.513
X-183.5 Y38.563 Z2.887 I0 J0.513
X-183.5 Y37.537 Z2.813 I0 J-0.513
X-183.5 Y38.563 Z2.74 I0 J0.513
X-183.5 Y37.537 Z2.667 I0 J-0.513
X-183.5 Y38.563 Z2.593 I0 J0.513
X-183.5 Y37.537 Z2.52 I0 J-0.513
X-183.5 Y38.563 Z2.447 I0 J0.513
X-183.5 Y37.537 Z2.373 I0 J-0.513
X-183.5 Y38.563 Z2.3 I0 J0.513
X-183.5 Y37.537 Z2.227 I0 J-0.513
X-183.5 Y38.563 Z2.153 I0 J0.513
X-183.5 Y37.537 Z2.08 I0 J-0.513
X-183.5 Y38.563 Z2.007 I0 J0.513
X-183.5 Y37.537 Z1.933 I0 J-0.513
X-183.5 Y38.563 Z1.86 I0 J0.513
X-183.5 Y37.537 Z1.787 I0 J-0.513
X-183.5 Y38.563 Z1.713 I0 J0.513
X-183.5 Y37.537 Z1.64 I0 J-0.513
X-183.5 Y38.563 Z1.567 I0 J0.513
X-183.5 Y37.537 Z1.493 I0 J-0.513
X-183.5 Y38.563 Z1.42 I0 J0.513
X-183.5 Y37.537 Z1.347 I0 J-0.513
X-183.5 Y38.563 Z1.273 I0 J0.513
X-183.5 Y37.537 Z1.2 I0 J-0.513
X-183.5 Y38.563 Z1.127 I0 J0.513
X-183.5 Y37.537 Z1.053 I0 J-0.513
X-183.5 Y38.563 Z0.98 I0 J0.513
X-183.5 Y37.537 Z0.907 I0 J-0.513
X-183.5 Y38.563 Z0.833 I0 J0.513
X-183.5 Y37.537 Z0.76 I0 J-0.513
X-183.5 Y38.563 Z0.687 I0 J0.513
X-183.5 Y37.537 Z0.613 I0 J-0.513
X-183.5 Y38.563 Z0.54 I0 J0.513
X-183.5 Y37.537 Z0.467 I0 J-0.513
X-183.5 Y38.563 Z0.393 I0 J0.513
X-183.5 Y37.537 Z0.32 I0 J-0.513
X-183.5 Y38.563 Z0.247 I0 J0.513
X-183.5 Y37.537 Z0.173 I0 J-0.513
X-183.5 Y38.563 Z0.1 I0 J0.513
X-183.5 Y37.537 Z0.027 I0 J-0.513
X-183.034 Y37.836 Z0 I0 J0.513
X-183.966 Y38.264 I-0.466 J0.214
X-183.034 Y37.836 I0.466 J-0.214
X-183.16 Y38.176 I-0.233 J0.107
G1 X-183.305 Y38.242
X-183.369 Y38.272 Z0.008
X-183.43 Y38.3 Z0.031
X-183.484 Y38.325 Z0.069
X-183.53 Y38.346 Z0.12
X-183.565 Y38.362 Z0.18
X-183.586 Y38.371 Z0.247
X-183.593 Y38.375 Z0.317
G0 Z18.1
X-191.256 Y30.77
Z12
G1 Z10.318 F600
G19 G2 Y30.452 Z10 J-0.318 K0
G1 Y30.294
G17 G3 X-191 Y30.038 I0.256 J0
X-191 Y31.062 Z9.927 I0 J0.512
X-191 Y30.038 Z9.853 I0 J-0.512
X-191 Y31.062 Z9.78 I0 J0.512
X-191 Y30.038 Z9.707 I0 J-0.512
X-191 Y31.062 Z9.633 I0 J0.512
X-191 Y30.038 Z9.56 I0 J-0.512
X-191 Y31.062 Z9.487 I0 J0.512
X-191 Y30.038 Z9.413 I0 J-0.512
X-191 Y31.062 Z9.34 I0 J0.512
X-191 Y30.038 Z9.267 I0 J-0.512
X-191 Y31.062 Z9.193 I0 J0.512
X-191 Y30.038 Z9.12 I0 J-0.512
X-191 Y31.062 Z9.047 I0 J0.512
X-191 Y30.038 Z8.973 I0 J-0.512
X-191 Y31.062 Z8.9 I0 J0.512
X-191 Y30.038 Z8.827 I0 J-0.512
X-191 Y31.062 Z8.753 I0 J0.512
X-191 Y30.038 Z8.68 I0 J-0.512
X-191 Y31.062 Z8.607 I0 J0.512
X-191 Y30.038 Z8.533 I0 J-0.512
X-191 Y31.062 Z8.46 I0 J0.512
X-191 Y30.038 Z8.387 I0 J-0.512
X-191 Y31.062 Z8.313 I0 J0.512
X-191 Y30.038 Z8.24 I0 J-0.512
X-191 Y31.062 Z8.167 I0 J0.512
X-191 Y30.037 Z8.093 I0 J-0.512
X-191 Y31.062 Z8.02 I0 J0.512
X-191 Y30.037 Z7.947 I0 J-0.512
X-191 Y31.062 Z7.873 I0 J0.512
X-191 Y30.037 Z7.8 I0 J-0.512
X-191 Y31.062 Z7.727 I0 J0.512
X-191 Y30.037 Z7.653 I0 J-0.512
X-191 Y31.062 Z7.58 I0 J0.512
X-191 Y30.037 Z7.507 I0 J-0.512
X-191 Y31.062 Z7.433 I0 J0.512
X-191 Y30.037 Z7.36 I0 J-0.512
X-191 Y31.062 Z7.287 I0 J0.512
X-191 Y30.037 Z7.213 I0 J-0.512
X-191 Y31.062 Z7.14 I0 J0.512
X-191 Y30.037 Z7.067 I0 J-0.512
X-191 Y31.062 Z6.993 I0 J0.512
X-191 Y30.037 Z6.92 I0 J-0.512
X-191 Y31.062 Z6.847 I0 J0.512
X-191 Y30.037 Z6.773 I0 J-0.512
X-191 Y31.062 Z6.7 I0 J0.512
X-191 Y30.037 Z6.627 I0 J-0.512
X-191 Y31.062 Z6.553 I0 J0.512
X-191 Y30.037 Z6.48 I0 J-0.512
X-191 Y31.062 Z6.407 I0 J0.512
X-191 Y30.037 Z6.333 I0 J-0.512
X-191 Y31.062 Z6.26 I0 J0.512
X-191 Y30.037 Z6.187 I0 J-0.512
X-191 Y31.062 Z6.113 I0 J0.512
X-191 Y30.037 Z6.04 I0 J-0.512
X-191 Y31.062 Z5.967 I0 J0.512
X-191 Y30.037 Z5.893 I0 J-0.512
X-191 Y31.062 Z5.82 I0 J0.512
X-191 Y30.037 Z5.747 I0 J-0.512
X-191 Y31.062 Z5.673 I0 J0.512
X-191 Y30.037 Z5.6 I0 J-0.512
X-191 Y31.062 Z5.527 I0 J0.512
X-191 Y30.037 Z5.453 I0 J-0.512
X-191 Y31.062 Z5.38 I0 J0.512
X-191 Y30.037 Z5.307 I0 J-0.512
X-191 Y31.062 Z5.233 I0 J0.512
X-191 Y30.037 Z5.16 I0 J-0.512
X-191 Y31.062 Z5.087 I0 J0.512
X-191 Y30.037 Z5.013 I0 J-0.512
X-191 Y31.062 Z4.94 I0 J0.512
X-191 Y30.037 Z4.867 I0 J-0.512
X-191 Y31.062 Z4.793 I0 J0.512
X-191 Y30.037 Z4.72 I0 J-0.512
X-191 Y31.062 Z4.647 I0 J0.512
X-191 Y30.037 Z4.573 I0 J-0.512
X-191 Y31.062 Z4.5 I0 J0.512
X-191 Y30.037 Z4.427 I0 J-0.512
X-191 Y31.062 Z4.353 I0 J0.512
X-191 Y30.037 Z4.28 I0 J-0.512
X-191 Y31.062 Z4.207 I0 J0.513
X-191 Y30.037 Z4.133 I0 J-0.513
X-191 Y31.062 Z4.06 I0 J0.513
X-191 Y30.037 Z3.987 I0 J-0.513
X-191 Y31.062 Z3.913 I0 J0.513
X-191 Y30.037 Z3.84 I0 J-0.513
X-191 Y31.062 Z3.767 I0 J0.513
X-191 Y30.037 Z3.693 I0 J-0.513
X-191 Y31.062 Z3.62 I0 J0.513
X-191 Y30.037 Z3.547 I0 J-0.513
X-191 Y31.062 Z3.473 I0 J0.513
X-191 Y30.037 Z3.4 I0 J-0.513
X-191 Y31.062 Z3.327 I0 J0.513
X-191 Y30.037 Z3.253 I0 J-0.513
X-191 Y31.062 Z3.18 I0 J0.513
X-191 Y30.037 Z3.107 I0 J-0.513
X-191 Y31.062 Z3.033 I0 J0.513
X-191 Y30.037 Z2.96 I0 J-0.513
X-191 Y31.062 Z2.887 I0 J0.513
X-191 Y30.037 Z2.813 I0 J-0.513
X-191 Y31.062 Z2.74 I0 J0.513
X-191 Y30.037 Z2.667 I0 J-0.513
X-191 Y31.062 Z2.593 I0 J0.513
X-191 Y30.037 Z2.52 I0 J-0.513
X-191 Y31.062 Z2.447 I0 J0.513
X-191 Y30.037 Z2.373 I0 J-0.513
X-191 Y31.062 Z2.3 I0 J0.513
X-191 Y30.037 Z2.227 I0 J-0.513
X-191 Y31.062 Z2.153 I0 J0.513
X-191 Y30.037 Z2.08 I0 J-0.513
X-191 Y31.062 Z2.007 I0 J0.513
X-191 Y30.037 Z1.933 I0 J-0.513
X-191 Y31.062 Z1.86 I0 J0.513
X-191 Y30.037 Z1.787 I0 J-0.513
X-191 Y31.062 Z1.713 I0 J0.513
X-191 Y30.037 Z1.64 I0 J-0.513
X-191 Y31.062 Z1.567 I0 J0.513
X-191 Y30.037 Z1.493 I0 J-0.513
X-191 Y31.062 Z1.42 I0 J0.513
X-191 Y30.037 Z1.347 I0 J-0.513
X-191 Y31.062 Z1.273 I0 J0.513
X-191 Y30.037 Z1.2 I0 J-0.513
X-191 Y31.062 Z1.127 I0 J0.513
X-191 Y30.037 Z1.053 I0 J-0.513
X-191 Y31.062 Z0.98 I0 J0.513
X-191 Y30.037 Z0.907 I0 J-0.513
X-191 Y31.062 Z0.833 I0 J0.513
X-191 Y30.037 Z0.76 I0 J-0.513
X-191 Y31.062 Z0.687 I0 J0.513
X-191 Y30.037 Z0.613 I0 J-0.513
X-191 Y31.063 Z0.54 I0 J0.513
X-191 Y30.037 Z0.467 I0 J-0.513
X-191 Y31.063 Z0.393 I0 J0.513
X-191 Y30.037 Z0.32 I0 J-0.513
X-191 Y31.063 Z0.247 I0 J0.513
X-191 Y30.037 Z0.173 I0 J-0.513
X-191 Y31.063 Z0.1 I0 J0.513
X-191 Y30.037 Z0.027 I0 J-0.513
X-190.534 Y30.336 Z0 I0 J0.513
X-191.466 Y30.764 I-0.466 J0.214
X-190.534 Y30.336 I0.466 J-0.214
X-190.66 Y30.676 I-0.233 J0.107
G1 X-190.805 Y30.742
X-190.869 Y30.772 Z0.008
X-190.93 Y30.8 Z0.031
X-190.984 Y30.825 Z0.069
X-191.03 Y30.846 Z0.12
X-191.065 Y30.862 Z0.18
X-191.086 Y30.871 Z0.247
X-191.093 Y30.875 Z0.317
G0 Z18.1
X-183.756 Y23.27
Z12
G1 Z10.318 F600
G19 G2 Y22.952 Z10 J-0.318 K0
G1 Y22.794
G17 G3 X-183.5 Y22.538 I0.256 J0
X-183.5 Y23.562 Z9.927 I0 J0.512
X-183.5 Y22.538 Z9.853 I0 J-0.512
X-183.5 Y23.562 Z9.78 I0 J0.512
X-183.5 Y22.538 Z9.707 I0 J-0.512
X-183.5 Y23.562 Z9.633 I0 J0.512
X-183.5 Y22.538 Z9.56 I0 J-0.512
X-183.5 Y23.562 Z9.487 I0 J0.512
X-183.5 Y22.538 Z9.413 I0 J-0.512
X-183.5 Y23.562 Z9.34 I0 J0.512
X-183.5 Y22.538 Z9.267 I0 J-0.512
X-183.5 Y23.562 Z9.193 I0 J0.512
X-183.5 Y22.538 Z9.12 I0 J-0.512
X-183.5 Y23.562 Z9.047 I0 J0.512
X-183.5 Y22.538 Z8.973 I0 J-0.512
X-183.5 Y23.562 Z8.9 I0 J0.512
X-183.5 Y22.538 Z8.827 I0 J-0.512
X-183.5 Y23.562 Z8.753 I0 J0.512
X-183.5 Y22.538 Z8.68 I0 J-0.512
X-183.5 Y23.562 Z8.607 I0 J0.512
X-183.5 Y22.538 Z8.533 I0 J-0.512
X-183.5 Y23.562 Z8.46 I0 J0.512
X-183.5 Y22.538 Z8.387 I0 J-0.512
X-183.5 Y23.562 Z8.313 I0 J0.512
X-183.5 Y22.538 Z8.24 I0 J-0.512
X-183.5 Y23.562 Z8.167 I0 J0.512
X-183.5 Y22.537 Z8.093 I0 J-0.512
X-183.5 Y23.562 Z8.02 I0 J0.512
X-183.5 Y22.537 Z7.947 I0 J-0.512
X-183.5 Y23.562 Z7.873 I0 J0.512
X-183.5 Y22.537 Z7.8 I0 J-0.512
X-183.5 Y23.562 Z7.727 I0 J0.512
X-183.5 Y22.537 Z7.653 I0 J-0.512
X-183.5 Y23.562 Z7.58 I0 J0.512
X-183.5 Y22.537 Z7.507 I0 J-0.512
X-183.5 Y23.562 Z7.433 I0 J0.512
X-183.5 Y22.537 Z7.36 I0 J-0.512
X-183.5 Y23.562 Z7.287 I0 J0.512
X-183.5 Y22.537 Z7.213 I0 J-0.512
X-183.5 Y23.562 Z7.14 I0 J0.512
X-183.5 Y22.537 Z7.067 I0 J-0.512
X-183.5 Y23.562 Z6.993 I0 J0.512
X-183.5 Y22.537 Z6.92 I0 J-0.512
X-183.5 Y23.562 Z6.847 I0 J0.512
X-183.5 Y22.537 Z6.773 I0 J-0.512
X-183.5 Y23.562 Z6.7 I0 J0.512
X-183.5 Y22.537 Z6.627 I0 J-0.512
X-183.5 Y23.562 Z6.553 I0 J0.512
X-183.5 Y22.537 Z6.48 I0 J-0.512
X-183.5 Y23.562 Z6.407 I0 J0.512
X-183.5 Y22.537 Z6.333 I0 J-0.512
X-183.5 Y23.562 Z6.26 I0 J0.512
X-183.5 Y22.537 Z6.187 I0 J-0.512
X-183.5 Y23.562 Z6.113 I0 J0.512
X-183.5 Y22.537 Z6.04 I0 J-0.512
X-183.5 Y23.562 Z5.967 I0 J0.512
X-183.5 Y22.537 Z5.893 I0 J-0.512
X-183.5 Y23.562 Z5.82 I0 J0.512
X-183.5 Y22.537 Z5.747 I0 J-0.512
X-183.5 Y23.562 Z5.673 I0 J0.512
X-183.5 Y22.537 Z5.6 I0 J-0.512
X-183.5 Y23.562 Z5.527 I0 J0.512
X-183.5 Y22.537 Z5.453 I0 J-0.512
X-183.5 Y23.562 Z5.38 I0 J0.512
X-183.5 Y22.537 Z5.307 I0 J-0.512
X-183.5 Y23.562 Z5.233 I0 J0.512
X-183.5 Y22.537 Z5.16 I0 J-0.512
X-183.5 Y23.562 Z5.087 I0 J0.512
X-183.5 Y22.537 Z5.013 I0 J-0.512
X-183.5 Y23.562 Z4.94 I0 J0.512
X-183.5 Y22.537 Z4.867 I0 J-0.512
X-183.5 Y23.562 Z4.793 I0 J0.512
X-183.5 Y22.537 Z4.72 I0 J-0.512
X-183.5 Y23.562 Z4.647 I0 J0.512
X-183.5 Y22.537 Z4.573 I0 J-0.512
X-183.5 Y23.562 Z4.5 I0 J0.512
X-183.5 Y22.537 Z4.427 I0 J-0.512
X-183.5 Y23.562 Z4.353 I0 J0.512
X-183.5 Y22.537 Z4.28 I0 J-0.512
X-183.5 Y23.562 Z4.207 I0 J0.513
X-183.5 Y22.537 Z4.133 I0 J-0.513
X-183.5 Y23.562 Z4.06 I0 J0.513
X-183.5 Y22.537 Z3.987 I0 J-0.513
X-183.5 Y23.562 Z3.913 I0 J0.513
X-183.5 Y22.537 Z3.84 I0 J-0.513
X-183.5 Y23.562 Z3.767 I0 J0.513
X-183.5 Y22.537 Z3.693 I0 J-0.513
X-183.5 Y23.562 Z3.62 I0 J0.513
X-183.5 Y22.537 Z3.547 I0 J-0.513
X-183.5 Y23.562 Z3.473 I0 J0.513
X-183.5 Y22.537 Z3.4 I0 J-0.513
X-183.5 Y23.562 Z3.327 I0 J0.513
X-183.5 Y22.537 Z3.253 I0 J-0.513
X-183.5 Y23.562 Z3.18 I0 J0.513
X-183.5 Y22.537 Z3.107 I0 J-0.513
X-183.5 Y23.562 Z3.033 I0 J0.513
X-183.5 Y22.537 Z2.96 I0 J-0.513
X-183.5 Y23.562 Z2.887 I0 J0.513
X-183.5 Y22.537 Z2.813 I0 J-0.513
X-183.5 Y23.562 Z2.74 I0 J0.513
X-183.5 Y22.537 Z2.667 I0 J-0.513
X-183.5 Y23.562 Z2.593 I0 J0.513
X-183.5 Y22.537 Z2.52 I0 J-0.513
X-183.5 Y23.562 Z2.447 I0 J0.513
X-183.5 Y22.537 Z2.373 I0 J-0.513
X-183.5 Y23.562 Z2.3 I0 J0.513
X-183.5 Y22.537 Z2.227 I0 J-0.513
X-183.5 Y23.562 Z2.153 I0 J0.513
X-183.5 Y22.537 Z2.08 I0 J-0.513
X-183.5 Y23.562 Z2.007 I0 J0.513
X-183.5 Y22.537 Z1.933 I0 J-0.513
X-183.5 Y23.562 Z1.86 I0 J0.513
X-183.5 Y22.537 Z1.787 I0 J-0.513
X-183.5 Y23.562 Z1.713 I0 J0.513
X-183.5 Y22.537 Z1.64 I0 J-0.513
X-183.5 Y23.562 Z1.567 I0 J0.513
X-183.5 Y22.537 Z1.493 I0 J-0.513
X-183.5 Y23.562 Z1.42 I0 J0.513
X-183.5 Y22.537 Z1.347 I0 J-0.513
X-183.5 Y23.562 Z1.273 I0 J0.513
X-183.5 Y22.537 Z1.2 I0 J-0.513
X-183.5 Y23.562 Z1.127 I0 J0.513
X-183.5 Y22.537 Z1.053 I0 J-0.513
X-183.5 Y23.562 Z0.98 I0 J0.513
X-183.5 Y22.537 Z0.907 I0 J-0.513
X-183.5 Y23.562 Z0.833 I0 J0.513
X-183.5 Y22.537 Z0.76 I0 J-0.513
X-183.5 Y23.562 Z0.687 I0 J0.513
X-183.5 Y22.537 Z0.613 I0 J-0.513
X-183.5 Y23.563 Z0.54 I0 J0.513
X-183.5 Y22.537 Z0.467 I0 J-0.513
X-183.5 Y23.563 Z0.393 I0 J0.513
X-183.5 Y22.537 Z0.32 I0 J-0.513
X-183.5 Y23.563 Z0.247 I0 J0.513
X-183.5 Y22.537 Z0.173 I0 J-0.513
X-183.5 Y23.563 Z0.1 I0 J0.513
X-183.5 Y22.537 Z0.027 I0 J-0.513
X-183.034 Y22.836 Z0 I0 J0.513
X-183.966 Y23.264 I-0.466 J0.214
X-183.034 Y22.836 I0.466 J-0.214
X-183.16 Y23.176 I-0.233 J0.107
G1 X-183.305 Y23.242
X-183.369 Y23.272 Z0.008
X-183.43 Y23.3 Z0.031
X-183.484 Y23.325 Z0.069
X-183.53 Y23.346 Z0.12
X-183.565 Y23.362 Z0.18
X-183.586 Y23.371 Z0.247
X-183.593 Y23.375 Z0.317
G0 Z18.1
X-174.206 Y13.82
Z12
G1 Z10.318 F600
G19 G2 Y13.502 Z10 J-0.318 K0
G1 Y13.344
G17 G3 X-174 Y13.137 I0.206 J0
X-174 Y13.963 Z9.93 I0 J0.413
X-174 Y13.137 Z9.86 I0 J-0.413
X-174 Y13.963 Z9.79 I0 J0.413
X-174 Y13.137 Z9.721 I0 J-0.413
X-174 Y13.963 Z9.651 I0 J0.413
X-174 Y13.137 Z9.581 I0 J-0.413
X-174 Y13.963 Z9.511 I0 J0.413
X-174 Y13.137 Z9.441 I0 J-0.413
X-174 Y13.963 Z9.371 I0 J0.413
X-174 Y13.137 Z9.302 I0 J-0.413
X-174 Y13.963 Z9.232 I0 J0.413
X-174 Y13.137 Z9.162 I0 J-0.413
X-174 Y13.963 Z9.092 I0 J0.413
X-174 Y13.137 Z9.022 I0 J-0.413
X-174 Y13.963 Z8.952 I0 J0.413
X-174 Y13.137 Z8.883 I0 J-0.413
X-174 Y13.963 Z8.813 I0 J0.413
X-174 Y13.137 Z8.743 I0 J-0.413
X-174 Y13.963 Z8.673 I0 J0.413
X-174 Y13.137 Z8.603 I0 J-0.413
X-174 Y13.963 Z8.533 I0 J0.413
X-174 Y13.137 Z8.463 I0 J-0.413
X-174 Y13.963 Z8.394 I0 J0.413
X-174 Y13.137 Z8.324 I0 J-0.413
X-174 Y13.963 Z8.254 I0 J0.413
X-174 Y13.138 Z8.184 I0 J-0.413
X-174 Y13.963 Z8.114 I0 J0.413
X-174 Y13.138 Z8.044 I0 J-0.413
X-174 Y13.963 Z7.975 I0 J0.413
X-174 Y13.138 Z7.905 I0 J-0.413
X-174 Y13.963 Z7.835 I0 J0.413
X-174 Y13.138 Z7.765 I0 J-0.413
X-174 Y13.963 Z7.695 I0 J0.413
X-174 Y13.138 Z7.625 I0 J-0.413
X-174 Y13.963 Z7.556 I0 J0.413
X-174 Y13.138 Z7.486 I0 J-0.413
X-174 Y13.963 Z7.416 I0 J0.413
X-174 Y13.138 Z7.346 I0 J-0.413
X-174 Y13.963 Z7.276 I0 J0.413
X-174 Y13.138 Z7.206 I0 J-0.413
X-174 Y13.963 Z7.136 I0 J0.413
X-174 Y13.138 Z7.067 I0 J-0.413
X-174 Y13.963 Z6.997 I0 J0.413
X-174 Y13.138 Z6.927 I0 J-0.413
X-174 Y13.963 Z6.857 I0 J0.413
X-174 Y13.138 Z6.787 I0 J-0.413
X-174 Y13.963 Z6.717 I0 J0.413
X-174 Y13.138 Z6.648 I0 J-0.413
X-174 Y13.963 Z6.578 I0 J0.413
X-174 Y13.138 Z6.508 I0 J-0.413
X-174 Y13.963 Z6.438 I0 J0.413
X-174 Y13.138 Z6.368 I0 J-0.413
X-174 Y13.963 Z6.298 I0 J0.412
X-174 Y13.138 Z6.229 I0 J-0.412
X-174 Y13.963 Z6.159 I0 J0.412
X-174 Y13.138 Z6.089 I0 J-0.412
X-174 Y13.963 Z6.019 I0 J0.412
X-174 Y13.138 Z5.949 I0 J-0.412
X-174 Y13.963 Z5.879 I0 J0.412
X-174 Y13.138 Z5.81 I0 J-0.412
X-174 Y13.963 Z5.74 I0 J0.412
X-174 Y13.138 Z5.67 I0 J-0.412
X-174 Y13.963 Z5.6 I0 J0.412
X-174 Y13.138 Z5.53 I0 J-0.412
X-174 Y13.963 Z5.46 I0 J0.412
X-174 Y13.138 Z5.39 I0 J-0.412
X-174 Y13.963 Z5.321 I0 J0.412
X-174 Y13.138 Z5.251 I0 J-0.412
X-174 Y13.963 Z5.181 I0 J0.412
X-174 Y13.138 Z5.111 I0 J-0.412
X-174 Y13.963 Z5.041 I0 J0.412
X-174 Y13.138 Z4.971 I0 J-0.412
X-174 Y13.963 Z4.902 I0 J0.412
X-174 Y13.138 Z4.832 I0 J-0.412
X-174 Y13.963 Z4.762 I0 J0.412
X-174 Y13.138 Z4.692 I0 J-0.412
X-174 Y13.963 Z4.622 I0 J0.412
X-174 Y13.138 Z4.552 I0 J-0.412
X-174 Y13.962 Z4.483 I0 J0.412
X-174 Y13.138 Z4.413 I0 J-0.412
X-174 Y13.962 Z4.343 I0 J0.412
X-174 Y13.138 Z4.273 I0 J-0.412
X-174 Y13.962 Z4.203 I0 J0.412
X-174 Y13.138 Z4.133 I0 J-0.412
X-174 Y13.962 Z4.063 I0 J0.412
X-174 Y13.138 Z3.994 I0 J-0.412
X-174 Y13.962 Z3.924 I0 J0.412
X-174 Y13.138 Z3.854 I0 J-0.412
X-174 Y13.962 Z3.784 I0 J0.412
X-174 Y13.138 Z3.714 I0 J-0.412
X-174 Y13.962 Z3.644 I0 J0.412
X-174 Y13.138 Z3.575 I0 J-0.412
X-174 Y13.962 Z3.505 I0 J0.412
X-174 Y13.138 Z3.435 I0 J-0.412
X-174 Y13.962 Z3.365 I0 J0.412
X-174 Y13.138 Z3.295 I0 J-0.412
X-174 Y13.962 Z3.225 I0 J0.412
X-174 Y13.138 Z3.156 I0 J-0.412
X-174 Y13.962 Z3.086 I0 J0.412
X-174 Y13.138 Z3.016 I0 J-0.412
X-174 Y13.962 Z2.946 I0 J0.412
X-174 Y13.138 Z2.876 I0 J-0.412
X-174 Y13.962 Z2.806 I0 J0.412
X-174 Y13.138 Z2.736 I0 J-0.412
X-174 Y13.962 Z2.667 I0 J0.412
X-174 Y13.138 Z2.597 I0 J-0.412
X-174 Y13.962 Z2.527 I0 J0.412
X-174 Y13.138 Z2.457 I0 J-0.412
X-174 Y13.962 Z2.387 I0 J0.412
X-174 Y13.138 Z2.317 I0 J-0.412
X-174 Y13.962 Z2.248 I0 J0.412
X-174 Y13.138 Z2.178 I0 J-0.412
X-174 Y13.962 Z2.108 I0 J0.412
X-174 Y13.138 Z2.038 I0 J-0.412
X-174 Y13.962 Z1.968 I0 J0.412
X-174 Y13.138 Z1.898 I0 J-0.412
X-174 Y13.962 Z1.829 I0 J0.412
X-174 Y13.138 Z1.759 I0 J-0.412
X-174 Y13.962 Z1.689 I0 J0.412
X-174 Y13.138 Z1.619 I0 J-0.412
X-174 Y13.962 Z1.549 I0 J0.412
X-174 Y13.138 Z1.479 I0 J-0.412
X-174 Y13.962 Z1.409 I0 J0.412
X-174 Y13.138 Z1.34 I0 J-0.412
X-174 Y13.962 Z1.27 I0 J0.412
X-174 Y13.138 Z1.2 I0 J-0.412
X-174 Y13.962 Z1.13 I0 J0.412
X-174 Y13.138 Z1.06 I0 J-0.412
X-174 Y13.962 Z0.99 I0 J0.412
X-174 Y13.138 Z0.921 I0 J-0.412
X-174 Y13.962 Z0.851 I0 J0.412
X-174 Y13.138 Z0.781 I0 J-0.412
X-174 Y13.962 Z0.711 I0 J0.412
X-174 Y13.138 Z0.641 I0 J-0.412
X-174 Y13.962 Z0.571 I0 J0.412
X-174 Y13.138 Z0.502 I0 J-0.412
X-174 Y13.962 Z0.432 I0 J0.412
X-174 Y13.138 Z0.362 I0 J-0.412
X-174 Y13.962 Z0.292 I0 J0.412
X-174 Y13.138 Z0.222 I0 J-0.412
X-174 Y13.962 Z0.152 I0 J0.412
X-174 Y13.138 Z0.083 I0 J-0.412
X-174 Y13.962 Z0.013 I0 J0.412
X-174.222 Y13.897 Z0 I0 J-0.412
X-173.778 Y13.203 I0.222 J-0.347
X-174.222 Y13.897 I-0.222 J0.347
X-174.285 Y13.612 I0.111 J-0.174
G1 X-174.199 Y13.479
X-174.161 Y13.419 Z0.008
X-174.125 Y13.363 Z0.031
X-174.093 Y13.312 Z0.069
X-174.065 Y13.27 Z0.12
X-174.045 Y13.238 Z0.18
X-174.032 Y13.218 Z0.247
X-174.028 Y13.211 Z0.317
G0 Z18.1
X-145.818 Y11.181
Z6
G1 Z4.318 F600
G19 G2 Y10.864 Z4 J-0.317 K0
G1 Y10.705
G17 G3 X-145.5 Y10.387 I0.318 J0
X-145.5 Y11.713 Z3.921 I0 J0.663
X-145.5 Y10.387 Z3.843 I0 J-0.663
X-145.5 Y11.713 Z3.764 I0 J0.663
X-145.5 Y10.387 Z3.686 I0 J-0.663
X-145.5 Y11.713 Z3.607 I0 J0.663
X-145.5 Y10.387 Z3.529 I0 J-0.663
X-145.5 Y11.713 Z3.45 I0 J0.663
X-145.5 Y10.387 Z3.371 I0 J-0.663
X-145.5 Y11.713 Z3.293 I0 J0.663
X-145.5 Y10.387 Z3.214 I0 J-0.663
X-145.5 Y11.713 Z3.136 I0 J0.663
X-145.5 Y10.387 Z3.057 I0 J-0.663
X-145.5 Y11.713 Z2.979 I0 J0.663
X-145.5 Y10.387 Z2.9 I0 J-0.663
X-145.5 Y11.713 Z2.821 I0 J0.663
X-145.5 Y10.387 Z2.743 I0 J-0.663
X-145.5 Y11.713 Z2.664 I0 J0.663
X-145.5 Y10.387 Z2.586 I0 J-0.663
X-145.5 Y11.713 Z2.507 I0 J0.663
X-145.5 Y10.387 Z2.429 I0 J-0.663
X-145.5 Y11.713 Z2.35 I0 J0.663
X-145.5 Y10.387 Z2.271 I0 J-0.663
X-145.5 Y11.713 Z2.193 I0 J0.663
X-145.5 Y10.387 Z2.114 I0 J-0.663
X-145.5 Y11.713 Z2.036 I0 J0.663
X-145.5 Y10.387 Z1.957 I0 J-0.663
X-145.5 Y11.713 Z1.879 I0 J0.663
X-145.5 Y10.387 Z1.8 I0 J-0.663
X-145.5 Y11.713 Z1.721 I0 J0.663
X-145.5 Y10.387 Z1.643 I0 J-0.663
X-145.5 Y11.713 Z1.564 I0 J0.663
X-145.5 Y10.387 Z1.486 I0 J-0.663
X-145.5 Y11.713 Z1.407 I0 J0.663
X-145.5 Y10.387 Z1.329 I0 J-0.663
X-145.5 Y11.713 Z1.25 I0 J0.663
X-145.5 Y10.387 Z1.171 I0 J-0.663
X-145.5 Y11.713 Z1.093 I0 J0.663
X-145.5 Y10.387 Z1.014 I0 J-0.663
X-145.5 Y11.713 Z0.936 I0 J0.663
X-145.5 Y10.387 Z0.857 I0 J-0.663
X-145.5 Y11.713 Z0.779 I0 J0.663
X-145.5 Y10.387 Z0.7 I0 J-0.663
X-145.5 Y11.713 Z0.621 I0 J0.663
X-145.5 Y10.387 Z0.543 I0 J-0.663
X-145.5 Y11.713 Z0.464 I0 J0.663
X-145.5 Y10.387 Z0.386 I0 J-0.663
X-145.5 Y11.713 Z0.307 I0 J0.663
X-145.5 Y10.387 Z0.229 I0 J-0.663
X-145.5 Y11.713 Z0.15 I0 J0.663
X-145.5 Y10.387 Z0.071 I0 J-0.663
X-145.313 Y11.686 Z0 I0 J0.663
X-145.687 Y10.414 I-0.187 J-0.636
X-145.313 Y11.686 I0.187 J0.636
X-145.708 Y11.471 I-0.09 J-0.305
G1 X-145.752 Y11.318
X-145.772 Y11.251 Z0.008
X-145.791 Y11.186 Z0.031
X-145.808 Y11.128 Z0.069
X-145.822 Y11.08 Z0.12
X-145.833 Y11.044 Z0.18
X-145.84 Y11.021 Z0.247
X-145.842 Y11.014 Z0.317
G0 Z18.1
X-128.818 Y20.681
Z6
G1 Z4.318 F600
G19 G2 Y20.364 Z4 J-0.317 K0
G1 Y20.205
G17 G3 X-128.5 Y19.888 I0.318 J0
X-128.5 Y21.212 Z3.921 I0 J0.662
X-128.5 Y19.888 Z3.843 I0 J-0.662
X-128.5 Y21.212 Z3.764 I0 J0.662
X-128.5 Y19.888 Z3.686 I0 J-0.662
X-128.5 Y21.212 Z3.607 I0 J0.662
X-128.5 Y19.888 Z3.529 I0 J-0.662
X-128.5 Y21.212 Z3.45 I0 J0.662
X-128.5 Y19.888 Z3.371 I0 J-0.662
X-128.5 Y21.212 Z3.293 I0 J0.662
X-128.5 Y19.888 Z3.214 I0 J-0.662
X-128.5 Y21.212 Z3.136 I0 J0.662
X-128.5 Y19.888 Z3.057 I0 J-0.662
X-128.5 Y21.212 Z2.979 I0 J0.662
X-128.5 Y19.887 Z2.9 I0 J-0.662
X-128.5 Y21.212 Z2.821 I0 J0.662
X-128.5 Y19.887 Z2.743 I0 J-0.662
X-128.5 Y21.212 Z2.664 I0 J0.662
X-128.5 Y19.887 Z2.586 I0 J-0.662
X-128.5 Y21.212 Z2.507 I0 J0.662
X-128.5 Y19.887 Z2.429 I0 J-0.662
X-128.5 Y21.212 Z2.35 I0 J0.662
X-128.5 Y19.887 Z2.271 I0 J-0.662
X-128.5 Y21.212 Z2.193 I0 J0.662
X-128.5 Y19.887 Z2.114 I0 J-0.662
X-128.5 Y21.212 Z2.036 I0 J0.662
X-128.5 Y19.887 Z1.957 I0 J-0.662
X-128.5 Y21.212 Z1.879 I0 J0.662
X-128.5 Y19.887 Z1.8 I0 J-0.662
X-128.5 Y21.212 Z1.721 I0 J0.663
X-128.5 Y19.887 Z1.643 I0 J-0.663
X-128.5 Y21.212 Z1.564 I0 J0.663
X-128.5 Y19.887 Z1.486 I0 J-0.663
X-128.5 Y21.212 Z1.407 I0 J0.663
X-128.5 Y19.887 Z1.329 I0 J-0.663
X-128.5 Y21.212 Z1.25 I0 J0.663
X-128.5 Y19.887 Z1.171 I0 J-0.663
X-128.5 Y21.212 Z1.093 I0 J0.663
X-128.5 Y19.887 Z1.014 I0 J-0.663
X-128.5 Y21.212 Z0.936 I0 J0.663
X-128.5 Y19.887 Z0.857 I0 J-0.663
X-128.5 Y21.213 Z0.779 I0 J0.663
X-128.5 Y19.887 Z0.7 I0 J-0.663
X-128.5 Y21.213 Z0.621 I0 J0.663
X-128.5 Y19.887 Z0.543 I0 J-0.663
X-128.5 Y21.213 Z0.464 I0 J0.663
X-128.5 Y19.887 Z0.386 I0 J-0.663
X-128.5 Y21.213 Z0.307 I0 J0.663
X-128.5 Y19.887 Z0.229 I0 J-0.663
X-128.5 Y21.213 Z0.15 I0 J0.663
X-128.5 Y19.887 Z0.071 I0 J-0.663
X-128.313 Y21.186 Z0 I0 J0.663
X-128.687 Y19.914 I-0.187 J-0.636
X-128.313 Y21.186 I0.187 J0.636
X-128.708 Y20.971 I-0.09 J-0.305
G1 X-128.752 Y20.818
X-128.772 Y20.751 Z0.008
X-128.791 Y20.686 Z0.031
X-128.808 Y20.628 Z0.069
X-128.822 Y20.58 Z0.12
X-128.833 Y20.544 Z0.18
X-128.84 Y20.521 Z0.247
X-128.842 Y20.514 Z0.317
G0 Z18.1
X-145.818 Y30.681
Z6
G1 Z4.318 F600
G19 G2 Y30.364 Z4 J-0.317 K0
G1 Y30.205
G17 G3 X-145.5 Y29.888 I0.318 J0
X-145.5 Y31.212 Z3.921 I0 J0.662
X-145.5 Y29.888 Z3.843 I0 J-0.662
X-145.5 Y31.212 Z3.764 I0 J0.662
X-145.5 Y29.888 Z3.686 I0 J-0.662
X-145.5 Y31.212 Z3.607 I0 J0.662
X-145.5 Y29.888 Z3.529 I0 J-0.662
X-145.5 Y31.212 Z3.45 I0 J0.662
X-145.5 Y29.888 Z3.371 I0 J-0.662
X-145.5 Y31.212 Z3.293 I0 J0.662
X-145.5 Y29.888 Z3.214 I0 J-0.662
X-145.5 Y31.212 Z3.136 I0 J0.662
X-145.5 Y29.888 Z3.057 I0 J-0.662
X-145.5 Y31.212 Z2.979 I0 J0.662
X-145.5 Y29.887 Z2.9 I0 J-0.662
X-145.5 Y31.212 Z2.821 I0 J0.662
X-145.5 Y29.887 Z2.743 I0 J-0.662
X-145.5 Y31.212 Z2.664 I0 J0.662
X-145.5 Y29.887 Z2.586 I0 J-0.662
X-145.5 Y31.212 Z2.507 I0 J0.662
X-145.5 Y29.887 Z2.429 I0 J-0.662
X-145.5 Y31.212 Z2.35 I0 J0.662
X-145.5 Y29.887 Z2.271 I0 J-0.662
X-145.5 Y31.212 Z2.193 I0 J0.662
X-145.5 Y29.887 Z2.114 I0 J-0.662
X-145.5 Y31.212 Z2.036 I0 J0.662
X-145.5 Y29.887 Z1.957 I0 J-0.662
X-145.5 Y31.212 Z1.879 I0 J0.662
X-145.5 Y29.887 Z1.8 I0 J-0.662
X-145.5 Y31.212 Z1.721 I0 J0.663
X-145.5 Y29.887 Z1.643 I0 J-0.663
X-145.5 Y31.212 Z1.564 I0 J0.663
X-145.5 Y29.887 Z1.486 I0 J-0.663
X-145.5 Y31.212 Z1.407 I0 J0.663
X-145.5 Y29.887 Z1.329 I0 J-0.663
X-145.5 Y31.212 Z1.25 I0 J0.663
X-145.5 Y29.887 Z1.171 I0 J-0.663
X-145.5 Y31.212 Z1.093 I0 J0.663
X-145.5 Y29.887 Z1.014 I0 J-0.663
X-145.5 Y31.212 Z0.936 I0 J0.663
X-145.5 Y29.887 Z0.857 I0 J-0.663
X-145.5 Y31.213 Z0.779 I0 J0.663
X-145.5 Y29.887 Z0.7 I0 J-0.663
X-145.5 Y31.213 Z0.621 I0 J0.663
X-145.5 Y29.887 Z0.543 I0 J-0.663
X-145.5 Y31.213 Z0.464 I0 J0.663
X-145.5 Y29.887 Z0.386 I0 J-0.663
X-145.5 Y31.213 Z0.307 I0 J0.663
X-145.5 Y29.887 Z0.229 I0 J-0.663
X-145.5 Y31.213 Z0.15 I0 J0.663
X-145.5 Y29.887 Z0.071 I0 J-0.663
X-145.313 Y31.186 Z0 I0 J0.663
X-145.687 Y29.914 I-0.187 J-0.636
X-145.313 Y31.186 I0.187 J0.636
X-145.708 Y30.971 I-0.09 J-0.305
G1 X-145.752 Y30.818
X-145.772 Y30.751 Z0.008
X-145.791 Y30.686 Z0.031
X-145.808 Y30.628 Z0.069
X-145.822 Y30.58 Z0.12
X-145.833 Y30.544 Z0.18
X-145.84 Y30.521 Z0.247
X-145.842 Y30.514 Z0.317
G0 Z18.1
X-145.818 Y50.181
Z6
G1 Z4.318 F600
G19 G2 Y49.864 Z4 J-0.318 K0
G1 Y49.705
G17 G3 X-145.5 Y49.388 I0.318 J0
X-145.5 Y50.712 Z3.921 I0 J0.662
X-145.5 Y49.388 Z3.843 I0 J-0.662
X-145.5 Y50.712 Z3.764 I0 J0.662
X-145.5 Y49.388 Z3.686 I0 J-0.662
X-145.5 Y50.712 Z3.607 I0 J0.662
X-145.5 Y49.388 Z3.529 I0 J-0.662
X-145.5 Y50.712 Z3.45 I0 J0.662
X-145.5 Y49.388 Z3.371 I0 J-0.662
X-145.5 Y50.712 Z3.293 I0 J0.662
X-145.5 Y49.387 Z3.214 I0 J-0.662
X-145.5 Y50.712 Z3.136 I0 J0.662
X-145.5 Y49.387 Z3.057 I0 J-0.662
X-145.5 Y50.712 Z2.979 I0 J0.662
X-145.5 Y49.387 Z2.9 I0 J-0.662
X-145.5 Y50.712 Z2.821 I0 J0.662
X-145.5 Y49.387 Z2.743 I0 J-0.662
X-145.5 Y50.712 Z2.664 I0 J0.662
X-145.5 Y49.387 Z2.586 I0 J-0.663
X-145.5 Y50.712 Z2.507 I0 J0.663
X-145.5 Y49.387 Z2.429 I0 J-0.663
X-145.5 Y50.712 Z2.35 I0 J0.663
X-145.5 Y49.387 Z2.271 I0 J-0.663
X-145.5 Y50.712 Z2.193 I0 J0.663
X-145.5 Y49.387 Z2.114 I0 J-0.663
X-145.5 Y50.713 Z2.036 I0 J0.663
X-145.5 Y49.387 Z1.957 I0 J-0.663
X-145.5 Y50.713 Z1.879 I0 J0.663
X-145.5 Y49.387 Z1.8 I0 J-0.663
X-145.5 Y50.713 Z1.721 I0 J0.663
X-145.5 Y49.387 Z1.643 I0 J-0.663
X-145.5 Y50.713 Z1.564 I0 J0.663
X-145.5 Y49.387 Z1.486 I0 J-0.663
X-145.5 Y50.713 Z1.407 I0 J0.663
X-145.5 Y49.387 Z1.329 I0 J-0.663
X-145.5 Y50.713 Z1.25 I0 J0.663
X-145.5 Y49.387 Z1.171 I0 J-0.663
X-145.5 Y50.713 Z1.093 I0 J0.663
X-145.5 Y49.387 Z1.014 I0 J-0.663
X-145.5 Y50.713 Z0.936 I0 J0.663
X-145.5 Y49.387 Z0.857 I0 J-0.663
X-145.5 Y50.713 Z0.779 I0 J0.663
X-145.5 Y49.387 Z0.7 I0 J-0.663
X-145.5 Y50.713 Z0.621 I0 J0.663
X-145.5 Y49.387 Z0.543 I0 J-0.663
X-145.5 Y50.713 Z0.464 I0 J0.663
X-145.5 Y49.387 Z0.386 I0 J-0.663
X-145.5 Y50.713 Z0.307 I0 J0.663
X-145.5 Y49.387 Z0.229 I0 J-0.663
X-145.5 Y50.713 Z0.15 I0 J0.663
X-145.5 Y49.387 Z0.071 I0 J-0.663
X-145.313 Y50.686 Z0 I0 J0.663
X-145.687 Y49.414 I-0.187 J-0.636
X-145.313 Y50.686 I0.187 J0.636
X-145.708 Y50.471 I-0.09 J-0.305
G1 X-145.752 Y50.318
X-145.772 Y50.251 Z0.008
X-145.791 Y50.186 Z0.031
X-145.808 Y50.128 Z0.069
X-145.822 Y50.08 Z0.12
X-145.833 Y50.044 Z0.18
X-145.84 Y50.021 Z0.247
X-145.842 Y50.014 Z0.317
G0 Z18.1
X-128.818 Y40.681
Z6
G1 Z4.318 F600
G19 G2 Y40.364 Z4 J-0.318 K0
G1 Y40.205
G17 G3 X-128.5 Y39.888 I0.318 J0
X-128.5 Y41.212 Z3.921 I0 J0.662
X-128.5 Y39.888 Z3.843 I0 J-0.662
X-128.5 Y41.212 Z3.764 I0 J0.662
X-128.5 Y39.888 Z3.686 I0 J-0.662
X-128.5 Y41.212 Z3.607 I0 J0.662
X-128.5 Y39.888 Z3.529 I0 J-0.662
X-128.5 Y41.212 Z3.45 I0 J0.662
X-128.5 Y39.888 Z3.371 I0 J-0.662
X-128.5 Y41.212 Z3.293 I0 J0.662
X-128.5 Y39.887 Z3.214 I0 J-0.662
X-128.5 Y41.212 Z3.136 I0 J0.662
X-128.5 Y39.887 Z3.057 I0 J-0.662
X-128.5 Y41.212 Z2.979 I0 J0.662
X-128.5 Y39.887 Z2.9 I0 J-0.662
X-128.5 Y41.212 Z2.821 I0 J0.662
X-128.5 Y39.887 Z2.743 I0 J-0.662
X-128.5 Y41.212 Z2.664 I0 J0.662
X-128.5 Y39.887 Z2.586 I0 J-0.663
X-128.5 Y41.212 Z2.507 I0 J0.663
X-128.5 Y39.887 Z2.429 I0 J-0.663
X-128.5 Y41.212 Z2.35 I0 J0.663
X-128.5 Y39.887 Z2.271 I0 J-0.663
X-128.5 Y41.212 Z2.193 I0 J0.663
X-128.5 Y39.887 Z2.114 I0 J-0.663
X-128.5 Y41.213 Z2.036 I0 J0.663
X-128.5 Y39.887 Z1.957 I0 J-0.663
X-128.5 Y41.213 Z1.879 I0 J0.663
X-128.5 Y39.887 Z1.8 I0 J-0.663
X-128.5 Y41.213 Z1.721 I0 J0.663
X-128.5 Y39.887 Z1.643 I0 J-0.663
X-128.5 Y41.213 Z1.564 I0 J0.663
X-128.5 Y39.887 Z1.486 I0 J-0.663
X-128.5 Y41.213 Z1.407 I0 J0.663
X-128.5 Y39.887 Z1.329 I0 J-0.663
X-128.5 Y41.213 Z1.25 I0 J0.663
X-128.5 Y39.887 Z1.171 I0 J-0.663
X-128.5 Y41.213 Z1.093 I0 J0.663
X-128.5 Y39.887 Z1.014 I0 J-0.663
X-128.5 Y41.213 Z0.936 I0 J0.663
X-128.5 Y39.887 Z0.857 I0 J-0.663
X-128.5 Y41.213 Z0.779 I0 J0.663
X-128.5 Y39.887 Z0.7 I0 J-0.663
X-128.5 Y41.213 Z0.621 I0 J0.663
X-128.5 Y39.887 Z0.543 I0 J-0.663
X-128.5 Y41.213 Z0.464 I0 J0.663
X-128.5 Y39.887 Z0.386 I0 J-0.663
X-128.5 Y41.213 Z0.307 I0 J0.663
X-128.5 Y39.887 Z0.229 I0 J-0.663
X-128.5 Y41.213 Z0.15 I0 J0.663
X-128.5 Y39.887 Z0.071 I0 J-0.663
X-128.313 Y41.186 Z0 I0 J0.663
X-128.687 Y39.914 I-0.187 J-0.636
X-128.313 Y41.186 I0.187 J0.636
X-128.708 Y40.971 I-0.09 J-0.305
G1 X-128.752 Y40.818
X-128.772 Y40.751 Z0.008
X-128.791 Y40.686 Z0.031
X-128.808 Y40.628 Z0.069
X-128.822 Y40.58 Z0.12
X-128.833 Y40.544 Z0.18
X-128.84 Y40.521 Z0.247
X-128.842 Y40.514 Z0.317
G0 Z18.1
X-111.818 Y30.681
Z6
G1 Z4.318 F600
G19 G2 Y30.364 Z4 J-0.317 K0
G1 Y30.205
G17 G3 X-111.5 Y29.888 I0.317 J0
X-111.5 Y31.212 Z3.921 I0 J0.662
X-111.5 Y29.888 Z3.843 I0 J-0.662
X-111.5 Y31.212 Z3.764 I0 J0.662
X-111.5 Y29.888 Z3.686 I0 J-0.662
X-111.5 Y31.212 Z3.607 I0 J0.662
X-111.5 Y29.888 Z3.529 I0 J-0.662
X-111.5 Y31.212 Z3.45 I0 J0.662
X-111.5 Y29.888 Z3.371 I0 J-0.662
X-111.5 Y31.212 Z3.293 I0 J0.662
X-111.5 Y29.888 Z3.214 I0 J-0.662
X-111.5 Y31.212 Z3.136 I0 J0.662
X-111.5 Y29.888 Z3.057 I0 J-0.662
X-111.5 Y31.212 Z2.979 I0 J0.662
X-111.5 Y29.887 Z2.9 I0 J-0.662
X-111.5 Y31.212 Z2.821 I0 J0.662
X-111.5 Y29.887 Z2.743 I0 J-0.662
X-111.5 Y31.212 Z2.664 I0 J0.662
X-111.5 Y29.887 Z2.586 I0 J-0.662
X-111.5 Y31.212 Z2.507 I0 J0.662
X-111.5 Y29.887 Z2.429 I0 J-0.662
X-111.5 Y31.212 Z2.35 I0 J0.662
X-111.5 Y29.887 Z2.271 I0 J-0.662
X-111.5 Y31.212 Z2.193 I0 J0.662
X-111.5 Y29.887 Z2.114 I0 J-0.662
X-111.5 Y31.212 Z2.036 I0 J0.662
X-111.5 Y29.887 Z1.957 I0 J-0.662
X-111.5 Y31.212 Z1.879 I0 J0.662
X-111.5 Y29.887 Z1.8 I0 J-0.662
X-111.5 Y31.212 Z1.721 I0 J0.663
X-111.5 Y29.887 Z1.643 I0 J-0.663
X-111.5 Y31.212 Z1.564 I0 J0.663
X-111.5 Y29.887 Z1.486 I0 J-0.663
X-111.5 Y31.212 Z1.407 I0 J0.663
X-111.5 Y29.887 Z1.329 I0 J-0.663
X-111.5 Y31.212 Z1.25 I0 J0.663
X-111.5 Y29.887 Z1.171 I0 J-0.663
X-111.5 Y31.212 Z1.093 I0 J0.663
X-111.5 Y29.887 Z1.014 I0 J-0.663
X-111.5 Y31.212 Z0.936 I0 J0.663
X-111.5 Y29.887 Z0.857 I0 J-0.663
X-111.5 Y31.213 Z0.779 I0 J0.663
X-111.5 Y29.887 Z0.7 I0 J-0.663
X-111.5 Y31.213 Z0.621 I0 J0.663
X-111.5 Y29.887 Z0.543 I0 J-0.663
X-111.5 Y31.213 Z0.464 I0 J0.663
X-111.5 Y29.887 Z0.386 I0 J-0.663
X-111.5 Y31.213 Z0.307 I0 J0.663
X-111.5 Y29.887 Z0.229 I0 J-0.663
X-111.5 Y31.213 Z0.15 I0 J0.663
X-111.5 Y29.887 Z0.071 I0 J-0.663
X-111.313 Y31.186 Z0 I0 J0.663
X-111.687 Y29.914 I-0.187 J-0.636
X-111.313 Y31.186 I0.187 J0.636
X-111.708 Y30.971 I-0.09 J-0.305
G1 X-111.752 Y30.818
X-111.772 Y30.751 Z0.008
X-111.791 Y30.686 Z0.031
X-111.808 Y30.628 Z0.069
X-111.822 Y30.58 Z0.12
X-111.833 Y30.544 Z0.18
X-111.84 Y30.521 Z0.247
X-111.842 Y30.514 Z0.317
G0 Z18.1
X-94.818 Y20.681
Z6
G1 Z4.318 F600
G19 G2 Y20.364 Z4 J-0.317 K0
G1 Y20.205
G17 G3 X-94.5 Y19.888 I0.317 J0
X-94.5 Y21.212 Z3.921 I0 J0.662
X-94.5 Y19.888 Z3.843 I0 J-0.662
X-94.5 Y21.212 Z3.764 I0 J0.662
X-94.5 Y19.888 Z3.686 I0 J-0.662
X-94.5 Y21.212 Z3.607 I0 J0.662
X-94.5 Y19.888 Z3.529 I0 J-0.662
X-94.5 Y21.212 Z3.45 I0 J0.662
X-94.5 Y19.888 Z3.371 I0 J-0.662
X-94.5 Y21.212 Z3.293 I0 J0.662
X-94.5 Y19.888 Z3.214 I0 J-0.662
X-94.5 Y21.212 Z3.136 I0 J0.662
X-94.5 Y19.888 Z3.057 I0 J-0.662
X-94.5 Y21.212 Z2.979 I0 J0.662
X-94.5 Y19.887 Z2.9 I0 J-0.662
X-94.5 Y21.212 Z2.821 I0 J0.662
X-94.5 Y19.887 Z2.743 I0 J-0.662
X-94.5 Y21.212 Z2.664 I0 J0.662
X-94.5 Y19.887 Z2.586 I0 J-0.662
X-94.5 Y21.212 Z2.507 I0 J0.662
X-94.5 Y19.887 Z2.429 I0 J-0.662
X-94.5 Y21.212 Z2.35 I0 J0.662
X-94.5 Y19.887 Z2.271 I0 J-0.662
X-94.5 Y21.212 Z2.193 I0 J0.662
X-94.5 Y19.887 Z2.114 I0 J-0.662
X-94.5 Y21.212 Z2.036 I0 J0.662
X-94.5 Y19.887 Z1.957 I0 J-0.662
X-94.5 Y21.212 Z1.879 I0 J0.662
X-94.5 Y19.887 Z1.8 I0 J-0.662
X-94.5 Y21.212 Z1.721 I0 J0.663
X-94.5 Y19.887 Z1.643 I0 J-0.663
X-94.5 Y21.212 Z1.564 I0 J0.663
X-94.5 Y19.887 Z1.486 I0 J-0.663
X-94.5 Y21.212 Z1.407 I0 J0.663
X-94.5 Y19.887 Z1.329 I0 J-0.663
X-94.5 Y21.212 Z1.25 I0 J0.663
X-94.5 Y19.887 Z1.171 I0 J-0.663
X-94.5 Y21.212 Z1.093 I0 J0.663
X-94.5 Y19.887 Z1.014 I0 J-0.663
X-94.5 Y21.212 Z0.936 I0 J0.663
X-94.5 Y19.887 Z0.857 I0 J-0.663
X-94.5 Y21.213 Z0.779 I0 J0.663
X-94.5 Y19.887 Z0.7 I0 J-0.663
X-94.5 Y21.213 Z0.621 I0 J0.663
X-94.5 Y19.887 Z0.543 I0 J-0.663
X-94.5 Y21.213 Z0.464 I0 J0.663
X-94.5 Y19.887 Z0.386 I0 J-0.663
X-94.5 Y21.213 Z0.307 I0 J0.663
X-94.5 Y19.887 Z0.229 I0 J-0.663
X-94.5 Y21.213 Z0.15 I0 J0.663
X-94.5 Y19.887 Z0.071 I0 J-0.663
X-94.313 Y21.186 Z0 I0 J0.663
X-94.687 Y19.914 I-0.187 J-0.636
X-94.313 Y21.186 I0.187 J0.636
X-94.708 Y20.971 I-0.09 J-0.305
G1 X-94.752 Y20.818
X-94.772 Y20.751 Z0.008
X-94.791 Y20.686 Z0.031
X-94.808 Y20.628 Z0.069
X-94.822 Y20.58 Z0.12
X-94.833 Y20.544 Z0.18
X-94.84 Y20.521 Z0.247
X-94.842 Y20.514 Z0.317
G0 Z18.1
X-77.818 Y11.181
Z6
G1 Z4.318 F600
G19 G2 Y10.864 Z4 J-0.317 K0
G1 Y10.705
G17 G3 X-77.5 Y10.387 I0.317 J0
X-77.5 Y11.713 Z3.921 I0 J0.663
X-77.5 Y10.387 Z3.843 I0 J-0.663
X-77.5 Y11.713 Z3.764 I0 J0.663
X-77.5 Y10.387 Z3.686 I0 J-0.663
X-77.5 Y11.713 Z3.607 I0 J0.663
X-77.5 Y10.387 Z3.529 I0 J-0.663
X-77.5 Y11.713 Z3.45 I0 J0.663
X-77.5 Y10.387 Z3.371 I0 J-0.663
X-77.5 Y11.713 Z3.293 I0 J0.663
X-77.5 Y10.387 Z3.214 I0 J-0.663
X-77.5 Y11.713 Z3.136 I0 J0.663
X-77.5 Y10.387 Z3.057 I0 J-0.663
X-77.5 Y11.713 Z2.979 I0 J0.663
X-77.5 Y10.387 Z2.9 I0 J-0.663
X-77.5 Y11.713 Z2.821 I0 J0.663
X-77.5 Y10.387 Z2.743 I0 J-0.663
X-77.5 Y11.713 Z2.664 I0 J0.663
X-77.5 Y10.387 Z2.586 I0 J-0.663
X-77.5 Y11.713 Z2.507 I0 J0.663
X-77.5 Y10.387 Z2.429 I0 J-0.663
X-77.5 Y11.713 Z2.35 I0 J0.663
X-77.5 Y10.387 Z2.271 I0 J-0.663
X-77.5 Y11.713 Z2.193 I0 J0.663
X-77.5 Y10.387 Z2.114 I0 J-0.663
X-77.5 Y11.713 Z2.036 I0 J0.663
X-77.5 Y10.387 Z1.957 I0 J-0.663
X-77.5 Y11.713 Z1.879 I0 J0.663
X-77.5 Y10.387 Z1.8 I0 J-0.663
X-77.5 Y11.713 Z1.721 I0 J0.663
X-77.5 Y10.387 Z1.643 I0 J-0.663
X-77.5 Y11.713 Z1.564 I0 J0.663
X-77.5 Y10.387 Z1.486 I0 J-0.663
X-77.5 Y11.713 Z1.407 I0 J0.663
X-77.5 Y10.387 Z1.329 I0 J-0.663
X-77.5 Y11.713 Z1.25 I0 J0.663
X-77.5 Y10.387 Z1.171 I0 J-0.663
X-77.5 Y11.713 Z1.093 I0 J0.663
X-77.5 Y10.387 Z1.014 I0 J-0.663
X-77.5 Y11.713 Z0.936 I0 J0.663
X-77.5 Y10.387 Z0.857 I0 J-0.663
X-77.5 Y11.713 Z0.779 I0 J0.663
X-77.5 Y10.387 Z0.7 I0 J-0.663
X-77.5 Y11.713 Z0.621 I0 J0.663
X-77.5 Y10.387 Z0.543 I0 J-0.663
X-77.5 Y11.713 Z0.464 I0 J0.663
X-77.5 Y10.387 Z0.386 I0 J-0.663
X-77.5 Y11.713 Z0.307 I0 J0.663
X-77.5 Y10.387 Z0.229 I0 J-0.663
X-77.5 Y11.713 Z0.15 I0 J0.663
X-77.5 Y10.387 Z0.071 I0 J-0.663
X-77.313 Y11.686 Z0 I0 J0.663
X-77.687 Y10.414 I-0.187 J-0.636
X-77.313 Y11.686 I0.187 J0.636
X-77.708 Y11.471 I-0.09 J-0.305
G1 X-77.752 Y11.318
X-77.772 Y11.251 Z0.008
X-77.791 Y11.186 Z0.031
X-77.808 Y11.128 Z0.069
X-77.822 Y11.08 Z0.12
X-77.833 Y11.044 Z0.18
X-77.84 Y11.021 Z0.247
X-77.842 Y11.014 Z0.317
G0 Z18.1
X-77.818 Y30.681
Z6
G1 Z4.318 F600
G19 G2 Y30.364 Z4 J-0.317 K0
G1 Y30.205
G17 G3 X-77.5 Y29.888 I0.317 J0
X-77.5 Y31.212 Z3.921 I0 J0.662
X-77.5 Y29.888 Z3.843 I0 J-0.662
X-77.5 Y31.212 Z3.764 I0 J0.662
X-77.5 Y29.888 Z3.686 I0 J-0.662
X-77.5 Y31.212 Z3.607 I0 J0.662
X-77.5 Y29.888 Z3.529 I0 J-0.662
X-77.5 Y31.212 Z3.45 I0 J0.662
X-77.5 Y29.888 Z3.371 I0 J-0.662
X-77.5 Y31.212 Z3.293 I0 J0.662
X-77.5 Y29.888 Z3.214 I0 J-0.662
X-77.5 Y31.212 Z3.136 I0 J0.662
X-77.5 Y29.888 Z3.057 I0 J-0.662
X-77.5 Y31.212 Z2.979 I0 J0.662
X-77.5 Y29.887 Z2.9 I0 J-0.662
X-77.5 Y31.212 Z2.821 I0 J0.662
X-77.5 Y29.887 Z2.743 I0 J-0.662
X-77.5 Y31.212 Z2.664 I0 J0.662
X-77.5 Y29.887 Z2.586 I0 J-0.662
X-77.5 Y31.212 Z2.507 I0 J0.662
X-77.5 Y29.887 Z2.429 I0 J-0.662
X-77.5 Y31.212 Z2.35 I0 J0.662
X-77.5 Y29.887 Z2.271 I0 J-0.662
X-77.5 Y31.212 Z2.193 I0 J0.662
X-77.5 Y29.887 Z2.114 I0 J-0.662
X-77.5 Y31.212 Z2.036 I0 J0.662
X-77.5 Y29.887 Z1.957 I0 J-0.662
X-77.5 Y31.212 Z1.879 I0 J0.662
X-77.5 Y29.887 Z1.8 I0 J-0.662
X-77.5 Y31.212 Z1.721 I0 J0.663
X-77.5 Y29.887 Z1.643 I0 J-0.663
X-77.5 Y31.212 Z1.564 I0 J0.663
X-77.5 Y29.887 Z1.486 I0 J-0.663
X-77.5 Y31.212 Z1.407 I0 J0.663
X-77.5 Y29.887 Z1.329 I0 J-0.663
X-77.5 Y31.212 Z1.25 I0 J0.663
X-77.5 Y29.887 Z1.171 I0 J-0.663
X-77.5 Y31.212 Z1.093 I0 J0.663
X-77.5 Y29.887 Z1.014 I0 J-0.663
X-77.5 Y31.212 Z0.936 I0 J0.663
X-77.5 Y29.887 Z0.857 I0 J-0.663
X-77.5 Y31.213 Z0.779 I0 J0.663
X-77.5 Y29.887 Z0.7 I0 J-0.663
X-77.5 Y31.213 Z0.621 I0 J0.663
X-77.5 Y29.887 Z0.543 I0 J-0.663
X-77.5 Y31.213 Z0.464 I0 J0.663
X-77.5 Y29.887 Z0.386 I0 J-0.663
X-77.5 Y31.213 Z0.307 I0 J0.663
X-77.5 Y29.887 Z0.229 I0 J-0.663
X-77.5 Y31.213 Z0.15 I0 J0.663
X-77.5 Y29.887 Z0.071 I0 J-0.663
X-77.313 Y31.186 Z0 I0 J0.663
X-77.687 Y29.914 I-0.187 J-0.636
X-77.313 Y31.186 I0.187 J0.636
X-77.708 Y30.971 I-0.09 J-0.305
G1 X-77.752 Y30.818
X-77.772 Y30.751 Z0.008
X-77.791 Y30.686 Z0.031
X-77.808 Y30.628 Z0.069
X-77.822 Y30.58 Z0.12
X-77.833 Y30.544 Z0.18
X-77.84 Y30.521 Z0.247
X-77.842 Y30.514 Z0.317
G0 Z18.1
X-94.818 Y40.681
Z6
G1 Z4.318 F600
G19 G2 Y40.364 Z4 J-0.318 K0
G1 Y40.205
G17 G3 X-94.5 Y39.888 I0.317 J0
X-94.5 Y41.212 Z3.921 I0 J0.662
X-94.5 Y39.888 Z3.843 I0 J-0.662
X-94.5 Y41.212 Z3.764 I0 J0.662
X-94.5 Y39.888 Z3.686 I0 J-0.662
X-94.5 Y41.212 Z3.607 I0 J0.662
X-94.5 Y39.888 Z3.529 I0 J-0.662
X-94.5 Y41.212 Z3.45 I0 J0.662
X-94.5 Y39.888 Z3.371 I0 J-0.662
X-94.5 Y41.212 Z3.293 I0 J0.662
X-94.5 Y39.887 Z3.214 I0 J-0.662
X-94.5 Y41.212 Z3.136 I0 J0.662
X-94.5 Y39.887 Z3.057 I0 J-0.662
X-94.5 Y41.212 Z2.979 I0 J0.662
X-94.5 Y39.887 Z2.9 I0 J-0.662
X-94.5 Y41.212 Z2.821 I0 J0.662
X-94.5 Y39.887 Z2.743 I0 J-0.662
X-94.5 Y41.212 Z2.664 I0 J0.662
X-94.5 Y39.887 Z2.586 I0 J-0.663
X-94.5 Y41.212 Z2.507 I0 J0.663
X-94.5 Y39.887 Z2.429 I0 J-0.663
X-94.5 Y41.212 Z2.35 I0 J0.663
X-94.5 Y39.887 Z2.271 I0 J-0.663
X-94.5 Y41.212 Z2.193 I0 J0.663
X-94.5 Y39.887 Z2.114 I0 J-0.663
X-94.5 Y41.213 Z2.036 I0 J0.663
X-94.5 Y39.887 Z1.957 I0 J-0.663
X-94.5 Y41.213 Z1.879 I0 J0.663
X-94.5 Y39.887 Z1.8 I0 J-0.663
X-94.5 Y41.213 Z1.721 I0 J0.663
X-94.5 Y39.887 Z1.643 I0 J-0.663
X-94.5 Y41.213 Z1.564 I0 J0.663
X-94.5 Y39.887 Z1.486 I0 J-0.663
X-94.5 Y41.213 Z1.407 I0 J0.663
X-94.5 Y39.887 Z1.329 I0 J-0.663
X-94.5 Y41.213 Z1.25 I0 J0.663
X-94.5 Y39.887 Z1.171 I0 J-0.663
X-94.5 Y41.213 Z1.093 I0 J0.663
X-94.5 Y39.887 Z1.014 I0 J-0.663
X-94.5 Y41.213 Z0.936 I0 J0.663
X-94.5 Y39.887 Z0.857 I0 J-0.663
X-94.5 Y41.213 Z0.779 I0 J0.663
X-94.5 Y39.887 Z0.7 I0 J-0.663
X-94.5 Y41.213 Z0.621 I0 J0.663
X-94.5 Y39.887 Z0.543 I0 J-0.663
X-94.5 Y41.213 Z0.464 I0 J0.663
X-94.5 Y39.887 Z0.386 I0 J-0.663
X-94.5 Y41.213 Z0.307 I0 J0.663
X-94.5 Y39.887 Z0.229 I0 J-0.663
X-94.5 Y41.213 Z0.15 I0 J0.663
X-94.5 Y39.887 Z0.071 I0 J-0.663
X-94.313 Y41.186 Z0 I0 J0.663
X-94.687 Y39.914 I-0.187 J-0.636
X-94.313 Y41.186 I0.187 J0.636
X-94.708 Y40.971 I-0.09 J-0.305
G1 X-94.752 Y40.818
X-94.772 Y40.751 Z0.008
X-94.791 Y40.686 Z0.031
X-94.808 Y40.628 Z0.069
X-94.822 Y40.58 Z0.12
X-94.833 Y40.544 Z0.18
X-94.84 Y40.521 Z0.247
X-94.842 Y40.514 Z0.317
G0 Z18.1
X-77.818 Y50.181
Z6
G1 Z4.318 F600
G19 G2 Y49.864 Z4 J-0.318 K0
G1 Y49.705
G17 G3 X-77.5 Y49.388 I0.317 J0
X-77.5 Y50.712 Z3.921 I0 J0.662
X-77.5 Y49.388 Z3.843 I0 J-0.662
X-77.5 Y50.712 Z3.764 I0 J0.662
X-77.5 Y49.388 Z3.686 I0 J-0.662
X-77.5 Y50.712 Z3.607 I0 J0.662
X-77.5 Y49.388 Z3.529 I0 J-0.662
X-77.5 Y50.712 Z3.45 I0 J0.662
X-77.5 Y49.388 Z3.371 I0 J-0.662
X-77.5 Y50.712 Z3.293 I0 J0.662
X-77.5 Y49.387 Z3.214 I0 J-0.662
X-77.5 Y50.712 Z3.136 I0 J0.662
X-77.5 Y49.387 Z3.057 I0 J-0.662
X-77.5 Y50.712 Z2.979 I0 J0.662
X-77.5 Y49.387 Z2.9 I0 J-0.662
X-77.5 Y50.712 Z2.821 I0 J0.662
X-77.5 Y49.387 Z2.743 I0 J-0.662
X-77.5 Y50.712 Z2.664 I0 J0.662
X-77.5 Y49.387 Z2.586 I0 J-0.663
X-77.5 Y50.712 Z2.507 I0 J0.663
X-77.5 Y49.387 Z2.429 I0 J-0.663
X-77.5 Y50.712 Z2.35 I0 J0.663
X-77.5 Y49.387 Z2.271 I0 J-0.663
X-77.5 Y50.712 Z2.193 I0 J0.663
X-77.5 Y49.387 Z2.114 I0 J-0.663
X-77.5 Y50.713 Z2.036 I0 J0.663
X-77.5 Y49.387 Z1.957 I0 J-0.663
X-77.5 Y50.713 Z1.879 I0 J0.663
X-77.5 Y49.387 Z1.8 I0 J-0.663
X-77.5 Y50.713 Z1.721 I0 J0.663
X-77.5 Y49.387 Z1.643 I0 J-0.663
X-77.5 Y50.713 Z1.564 I0 J0.663
X-77.5 Y49.387 Z1.486 I0 J-0.663
X-77.5 Y50.713 Z1.407 I0 J0.663
X-77.5 Y49.387 Z1.329 I0 J-0.663
X-77.5 Y50.713 Z1.25 I0 J0.663
X-77.5 Y49.387 Z1.171 I0 J-0.663
X-77.5 Y50.713 Z1.093 I0 J0.663
X-77.5 Y49.387 Z1.014 I0 J-0.663
X-77.5 Y50.713 Z0.936 I0 J0.663
X-77.5 Y49.387 Z0.857 I0 J-0.663
X-77.5 Y50.713 Z0.779 I0 J0.663
X-77.5 Y49.387 Z0.7 I0 J-0.663
X-77.5 Y50.713 Z0.621 I0 J0.663
X-77.5 Y49.387 Z0.543 I0 J-0.663
X-77.5 Y50.713 Z0.464 I0 J0.663
X-77.5 Y49.387 Z0.386 I0 J-0.663
X-77.5 Y50.713 Z0.307 I0 J0.663
X-77.5 Y49.387 Z0.229 I0 J-0.663
X-77.5 Y50.713 Z0.15 I0 J0.663
X-77.5 Y49.387 Z0.071 I0 J-0.663
X-77.313 Y50.686 Z0 I0 J0.663
X-77.687 Y49.414 I-0.187 J-0.636
X-77.313 Y50.686 I0.187 J0.636
X-77.708 Y50.471 I-0.09 J-0.305
G1 X-77.752 Y50.318
X-77.772 Y50.251 Z0.008
X-77.791 Y50.186 Z0.031
X-77.808 Y50.128 Z0.069
X-77.822 Y50.08 Z0.12
X-77.833 Y50.044 Z0.18
X-77.84 Y50.021 Z0.247
X-77.842 Y50.014 Z0.317
G0 Z18.1
X-50.682 Y30.669
Z12
G1 Z10.318 F600
G19 G3 Y30.986 Z10 J0.317 K0
G1 Y31.145
G17 G3 X-51 Y31.462 I-0.318 J0
X-51 Y29.637 Z9.913 I0 J-0.913
X-51 Y31.462 Z9.825 I0 J0.913
X-51 Y29.637 Z9.738 I0 J-0.913
X-51 Y31.462 Z9.651 I0 J0.913
X-51 Y29.637 Z9.563 I0 J-0.913
X-51 Y31.462 Z9.476 I0 J0.913
X-51 Y29.637 Z9.389 I0 J-0.913
X-51 Y31.462 Z9.302 I0 J0.913
X-51 Y29.637 Z9.214 I0 J-0.913
X-51 Y31.462 Z9.127 I0 J0.913
X-51 Y29.637 Z9.04 I0 J-0.913
X-51 Y31.462 Z8.952 I0 J0.913
X-51 Y29.637 Z8.865 I0 J-0.913
X-51 Y31.462 Z8.778 I0 J0.913
X-51 Y29.637 Z8.69 I0 J-0.913
X-51 Y31.462 Z8.603 I0 J0.913
X-51 Y29.637 Z8.516 I0 J-0.913
X-51 Y31.462 Z8.429 I0 J0.913
X-51 Y29.637 Z8.341 I0 J-0.913
X-51 Y31.462 Z8.254 I0 J0.913
X-51 Y29.637 Z8.167 I0 J-0.913
X-51 Y31.462 Z8.079 I0 J0.913
X-51 Y29.637 Z7.992 I0 J-0.913
X-51 Y31.462 Z7.905 I0 J0.913
X-51 Y29.637 Z7.817 I0 J-0.913
X-51 Y31.462 Z7.73 I0 J0.913
X-51 Y29.637 Z7.643 I0 J-0.913
X-51 Y31.462 Z7.556 I0 J0.913
X-51 Y29.637 Z7.468 I0 J-0.913
X-51 Y31.462 Z7.381 I0 J0.913
X-51 Y29.637 Z7.294 I0 J-0.913
X-51 Y31.462 Z7.206 I0 J0.913
X-51 Y29.637 Z7.119 I0 J-0.913
X-51 Y31.462 Z7.032 I0 J0.913
X-51 Y29.637 Z6.944 I0 J-0.913
X-51 Y31.462 Z6.857 I0 J0.913
X-51 Y29.637 Z6.77 I0 J-0.913
X-51 Y31.462 Z6.683 I0 J0.913
X-51 Y29.637 Z6.595 I0 J-0.913
X-51 Y31.462 Z6.508 I0 J0.913
X-51 Y29.637 Z6.421 I0 J-0.913
X-51 Y31.462 Z6.333 I0 J0.913
X-51 Y29.637 Z6.246 I0 J-0.913
X-51 Y31.462 Z6.159 I0 J0.913
X-51 Y29.637 Z6.071 I0 J-0.913
X-51 Y31.463 Z5.984 I0 J0.913
X-51 Y29.637 Z5.897 I0 J-0.913
X-51 Y31.463 Z5.81 I0 J0.913
X-51 Y29.637 Z5.722 I0 J-0.913
X-51 Y31.463 Z5.635 I0 J0.913
X-51 Y29.637 Z5.548 I0 J-0.913
X-51 Y31.463 Z5.46 I0 J0.913
X-51 Y29.637 Z5.373 I0 J-0.913
X-51 Y31.463 Z5.286 I0 J0.913
X-51 Y29.637 Z5.198 I0 J-0.913
X-51 Y31.463 Z5.111 I0 J0.913
X-51 Y29.637 Z5.024 I0 J-0.913
X-51 Y31.463 Z4.936 I0 J0.913
X-51 Y29.637 Z4.849 I0 J-0.913
X-51 Y31.463 Z4.762 I0 J0.913
X-51 Y29.637 Z4.675 I0 J-0.913
X-51 Y31.463 Z4.587 I0 J0.913
X-51 Y29.637 Z4.5 I0 J-0.913
X-51 Y31.463 Z4.413 I0 J0.913
X-51 Y29.637 Z4.325 I0 J-0.913
X-51 Y31.463 Z4.238 I0 J0.913
X-51 Y29.637 Z4.151 I0 J-0.913
X-51 Y31.463 Z4.063 I0 J0.913
X-51 Y29.637 Z3.976 I0 J-0.913
X-51 Y31.463 Z3.889 I0 J0.913
X-51 Y29.637 Z3.802 I0 J-0.913
X-51 Y31.463 Z3.714 I0 J0.913
X-51 Y29.637 Z3.627 I0 J-0.913
X-51 Y31.463 Z3.54 I0 J0.913
X-51 Y29.637 Z3.452 I0 J-0.913
X-51 Y31.463 Z3.365 I0 J0.913
X-51 Y29.637 Z3.278 I0 J-0.913
X-51 Y31.463 Z3.19 I0 J0.913
X-51 Y29.637 Z3.103 I0 J-0.913
X-51 Y31.463 Z3.016 I0 J0.913
X-51 Y29.637 Z2.929 I0 J-0.913
X-51 Y31.463 Z2.841 I0 J0.913
X-51 Y29.637 Z2.754 I0 J-0.913
X-51 Y31.463 Z2.667 I0 J0.913
X-51 Y29.637 Z2.579 I0 J-0.913
X-51 Y31.463 Z2.492 I0 J0.913
X-51 Y29.637 Z2.405 I0 J-0.913
X-51 Y31.463 Z2.317 I0 J0.913
X-51 Y29.637 Z2.23 I0 J-0.913
X-51 Y31.463 Z2.143 I0 J0.913
X-51 Y29.637 Z2.056 I0 J-0.913
X-51 Y31.463 Z1.968 I0 J0.913
X-51 Y29.637 Z1.881 I0 J-0.913
X-51 Y31.463 Z1.794 I0 J0.913
X-51 Y29.637 Z1.706 I0 J-0.913
X-51 Y31.463 Z1.619 I0 J0.913
X-51 Y29.637 Z1.532 I0 J-0.913
X-51 Y31.463 Z1.444 I0 J0.913
X-51 Y29.637 Z1.357 I0 J-0.913
X-51 Y31.463 Z1.27 I0 J0.913
X-51 Y29.637 Z1.183 I0 J-0.913
X-51 Y31.463 Z1.095 I0 J0.913
X-51 Y29.637 Z1.008 I0 J-0.913
X-51 Y31.463 Z0.921 I0 J0.913
X-51 Y29.637 Z0.833 I0 J-0.913
X-51 Y31.463 Z0.746 I0 J0.913
X-51 Y29.637 Z0.659 I0 J-0.913
X-51 Y31.463 Z0.571 I0 J0.913
X-51 Y29.637 Z0.484 I0 J-0.913
X-51 Y31.463 Z0.397 I0 J0.913
X-51 Y29.637 Z0.309 I0 J-0.913
X-51 Y31.463 Z0.222 I0 J0.913
X-51 Y29.637 Z0.135 I0 J-0.913
X-51 Y31.463 Z0.048 I0 J0.913
X-51.903 Y30.421 Z0 I0 J-0.913
X-50.097 Y30.679 I0.903 J0.129
X-51.903 Y30.421 I-0.903 J-0.129
X-51.544 Y30.152 I0.314 J0.045
G1 X-51.387 Y30.174
X-51.317 Y30.184 Z0.008
X-51.251 Y30.194 Z0.031
X-51.191 Y30.202 Z0.069
X-51.141 Y30.209 Z0.12
X-51.104 Y30.215 Z0.18
X-51.081 Y30.218 Z0.247
X-51.073 Y30.219 Z0.317
G0 Z18.1
X-5.744 Y45.33
Z12
G1 Z10.318 F600
G19 G3 Y45.647 Z10 J0.317 K0
G1 Y45.806
G17 G3 X-6 Y46.063 I-0.256 J0
X-6 Y45.037 Z9.927 I0 J-0.513
X-6 Y46.062 Z9.853 I0 J0.513
X-6 Y45.037 Z9.78 I0 J-0.513
X-6 Y46.062 Z9.707 I0 J0.513
X-6 Y45.037 Z9.633 I0 J-0.513
X-6 Y46.062 Z9.56 I0 J0.513
X-6 Y45.037 Z9.487 I0 J-0.513
X-6 Y46.062 Z9.413 I0 J0.513
X-6 Y45.037 Z9.34 I0 J-0.513
X-6 Y46.062 Z9.267 I0 J0.513
X-6 Y45.037 Z9.193 I0 J-0.513
X-6 Y46.062 Z9.12 I0 J0.513
X-6 Y45.037 Z9.047 I0 J-0.513
X-6 Y46.062 Z8.973 I0 J0.513
X-6 Y45.037 Z8.9 I0 J-0.513
X-6 Y46.062 Z8.827 I0 J0.513
X-6 Y45.037 Z8.753 I0 J-0.513
X-6 Y46.062 Z8.68 I0 J0.513
X-6 Y45.037 Z8.607 I0 J-0.513
X-6 Y46.062 Z8.533 I0 J0.513
X-6 Y45.037 Z8.46 I0 J-0.513
X-6 Y46.062 Z8.387 I0 J0.513
X-6 Y45.037 Z8.313 I0 J-0.513
X-6 Y46.062 Z8.24 I0 J0.513
X-6 Y45.037 Z8.167 I0 J-0.513
X-6 Y46.062 Z8.093 I0 J0.513
X-6 Y45.037 Z8.02 I0 J-0.513
X-6 Y46.062 Z7.947 I0 J0.513
X-6 Y45.037 Z7.873 I0 J-0.513
X-6 Y46.062 Z7.8 I0 J0.513
X-6 Y45.037 Z7.727 I0 J-0.513
X-6 Y46.062 Z7.653 I0 J0.513
X-6 Y45.037 Z7.58 I0 J-0.513
X-6 Y46.062 Z7.507 I0 J0.513
X-6 Y45.037 Z7.433 I0 J-0.513
X-6 Y46.062 Z7.36 I0 J0.513
X-6 Y45.037 Z7.287 I0 J-0.513
X-6 Y46.062 Z7.213 I0 J0.513
X-6 Y45.037 Z7.14 I0 J-0.513
X-6 Y46.062 Z7.067 I0 J0.513
X-6 Y45.037 Z6.993 I0 J-0.513
X-6 Y46.062 Z6.92 I0 J0.513
X-6 Y45.037 Z6.847 I0 J-0.513
X-6 Y46.062 Z6.773 I0 J0.513
X-6 Y45.037 Z6.7 I0 J-0.513
X-6 Y46.062 Z6.627 I0 J0.513
X-6 Y45.037 Z6.553 I0 J-0.513
X-6 Y46.062 Z6.48 I0 J0.513
X-6 Y45.037 Z6.407 I0 J-0.513
X-6 Y46.062 Z6.333 I0 J0.513
X-6 Y45.037 Z6.26 I0 J-0.513
X-6 Y46.062 Z6.187 I0 J0.513
X-6 Y45.037 Z6.113 I0 J-0.513
X-6 Y46.062 Z6.04 I0 J0.513
X-6 Y45.037 Z5.967 I0 J-0.513
X-6 Y46.062 Z5.893 I0 J0.513
X-6 Y45.037 Z5.82 I0 J-0.513
X-6 Y46.062 Z5.747 I0 J0.513
X-6 Y45.037 Z5.673 I0 J-0.513
X-6 Y46.062 Z5.6 I0 J0.513
X-6 Y45.037 Z5.527 I0 J-0.513
X-6 Y46.062 Z5.453 I0 J0.513
X-6 Y45.037 Z5.38 I0 J-0.513
X-6 Y46.062 Z5.307 I0 J0.513
X-6 Y45.037 Z5.233 I0 J-0.513
X-6 Y46.062 Z5.16 I0 J0.513
X-6 Y45.037 Z5.087 I0 J-0.513
X-6 Y46.062 Z5.013 I0 J0.513
X-6 Y45.037 Z4.94 I0 J-0.513
X-6 Y46.062 Z4.867 I0 J0.513
X-6 Y45.037 Z4.793 I0 J-0.513
X-6 Y46.062 Z4.72 I0 J0.513
X-6 Y45.037 Z4.647 I0 J-0.513
X-6 Y46.062 Z4.573 I0 J0.513
X-6 Y45.037 Z4.5 I0 J-0.513
X-6 Y46.062 Z4.427 I0 J0.513
X-6 Y45.037 Z4.353 I0 J-0.513
X-6 Y46.062 Z4.28 I0 J0.513
X-6 Y45.037 Z4.207 I0 J-0.513
X-6 Y46.062 Z4.133 I0 J0.513
X-6 Y45.037 Z4.06 I0 J-0.513
X-6 Y46.062 Z3.987 I0 J0.513
X-6 Y45.037 Z3.913 I0 J-0.513
X-6 Y46.062 Z3.84 I0 J0.513
X-6 Y45.037 Z3.767 I0 J-0.513
X-6 Y46.062 Z3.693 I0 J0.513
X-6 Y45.037 Z3.62 I0 J-0.513
X-6 Y46.062 Z3.547 I0 J0.513
X-6 Y45.037 Z3.473 I0 J-0.512
X-6 Y46.062 Z3.4 I0 J0.512
X-6 Y45.037 Z3.327 I0 J-0.512
X-6 Y46.062 Z3.253 I0 J0.512
X-6 Y45.037 Z3.18 I0 J-0.512
X-6 Y46.062 Z3.107 I0 J0.512
X-6 Y45.037 Z3.033 I0 J-0.512
X-6 Y46.062 Z2.96 I0 J0.512
X-6 Y45.037 Z2.887 I0 J-0.512
X-6 Y46.062 Z2.813 I0 J0.512
X-6 Y45.037 Z2.74 I0 J-0.512
X-6 Y46.062 Z2.667 I0 J0.512
X-6 Y45.037 Z2.593 I0 J-0.512
X-6 Y46.062 Z2.52 I0 J0.512
X-6 Y45.037 Z2.447 I0 J-0.512
X-6 Y46.062 Z2.373 I0 J0.512
X-6 Y45.037 Z2.3 I0 J-0.512
X-6 Y46.062 Z2.227 I0 J0.512
X-6 Y45.037 Z2.153 I0 J-0.512
X-6 Y46.062 Z2.08 I0 J0.512
X-6 Y45.037 Z2.007 I0 J-0.512
X-6 Y46.062 Z1.933 I0 J0.512
X-6 Y45.037 Z1.86 I0 J-0.512
X-6 Y46.062 Z1.787 I0 J0.512
X-6 Y45.037 Z1.713 I0 J-0.512
X-6 Y46.062 Z1.64 I0 J0.512
X-6 Y45.037 Z1.567 I0 J-0.512
X-6 Y46.062 Z1.493 I0 J0.512
X-6 Y45.037 Z1.42 I0 J-0.512
X-6 Y46.062 Z1.347 I0 J0.512
X-6 Y45.037 Z1.273 I0 J-0.512
X-6 Y46.062 Z1.2 I0 J0.512
X-6 Y45.037 Z1.127 I0 J-0.512
X-6 Y46.062 Z1.053 I0 J0.512
X-6 Y45.037 Z0.98 I0 J-0.512
X-6 Y46.062 Z0.907 I0 J0.512
X-6 Y45.037 Z0.833 I0 J-0.512
X-6 Y46.062 Z0.76 I0 J0.512
X-6 Y45.037 Z0.687 I0 J-0.512
X-6 Y46.062 Z0.613 I0 J0.512
X-6 Y45.037 Z0.54 I0 J-0.512
X-6 Y46.062 Z0.467 I0 J0.512
X-6 Y45.037 Z0.393 I0 J-0.512
X-6 Y46.062 Z0.32 I0 J0.512
X-6 Y45.037 Z0.247 I0 J-0.512
X-6 Y46.062 Z0.173 I0 J0.512
X-6 Y45.037 Z0.1 I0 J-0.512
X-6 Y46.062 Z0.027 I0 J0.512
X-6.466 Y45.764 Z0 I0 J-0.512
X-5.534 Y45.336 I0.466 J-0.214
X-6.466 Y45.764 I-0.466 J0.214
X-6.34 Y45.424 I0.233 J-0.107
G1 X-6.195 Y45.358
X-6.131 Y45.328 Z0.008
X-6.07 Y45.3 Z0.031
X-6.016 Y45.275 Z0.069
X-5.97 Y45.254 Z0.12
X-5.935 Y45.238 Z0.18
X-5.914 Y45.229 Z0.247
X-5.907 Y45.225 Z0.317
G0 Z18.1
X-26.818 Y40.681
Z6
G1 Z4.318 F600
G19 G2 Y40.364 Z4 J-0.318 K0
G1 Y40.205
G17 G3 X-26.5 Y39.888 I0.318 J0
X-26.5 Y41.212 Z3.921 I0 J0.662
X-26.5 Y39.888 Z3.843 I0 J-0.662
X-26.5 Y41.212 Z3.764 I0 J0.662
X-26.5 Y39.888 Z3.686 I0 J-0.662
X-26.5 Y41.212 Z3.607 I0 J0.662
X-26.5 Y39.888 Z3.529 I0 J-0.662
X-26.5 Y41.212 Z3.45 I0 J0.662
X-26.5 Y39.888 Z3.371 I0 J-0.662
X-26.5 Y41.212 Z3.293 I0 J0.662
X-26.5 Y39.888 Z3.214 I0 J-0.662
X-26.5 Y41.212 Z3.136 I0 J0.662
X-26.5 Y39.887 Z3.057 I0 J-0.662
X-26.5 Y41.212 Z2.979 I0 J0.662
X-26.5 Y39.887 Z2.9 I0 J-0.662
X-26.5 Y41.212 Z2.821 I0 J0.662
X-26.5 Y39.887 Z2.743 I0 J-0.662
X-26.5 Y41.212 Z2.664 I0 J0.662
X-26.5 Y39.887 Z2.586 I0 J-0.662
X-26.5 Y41.212 Z2.507 I0 J0.662
X-26.5 Y39.887 Z2.429 I0 J-0.662
X-26.5 Y41.212 Z2.35 I0 J0.662
X-26.5 Y39.887 Z2.271 I0 J-0.662
X-26.5 Y41.212 Z2.193 I0 J0.663
X-26.5 Y39.887 Z2.114 I0 J-0.663
X-26.5 Y41.212 Z2.036 I0 J0.663
X-26.5 Y39.887 Z1.957 I0 J-0.663
X-26.5 Y41.212 Z1.879 I0 J0.663
X-26.5 Y39.887 Z1.8 I0 J-0.663
X-26.5 Y41.212 Z1.721 I0 J0.663
X-26.5 Y39.887 Z1.643 I0 J-0.663
X-26.5 Y41.212 Z1.564 I0 J0.663
X-26.5 Y39.887 Z1.486 I0 J-0.663
X-26.5 Y41.213 Z1.407 I0 J0.663
X-26.5 Y39.887 Z1.329 I0 J-0.663
X-26.5 Y41.213 Z1.25 I0 J0.663
X-26.5 Y39.887 Z1.171 I0 J-0.663
X-26.5 Y41.213 Z1.093 I0 J0.663
X-26.5 Y39.887 Z1.014 I0 J-0.663
X-26.5 Y41.213 Z0.936 I0 J0.663
X-26.5 Y39.887 Z0.857 I0 J-0.663
X-26.5 Y41.213 Z0.779 I0 J0.663
X-26.5 Y39.887 Z0.7 I0 J-0.663
X-26.5 Y41.213 Z0.621 I0 J0.663
X-26.5 Y39.887 Z0.543 I0 J-0.663
X-26.5 Y41.213 Z0.464 I0 J0.663
X-26.5 Y39.887 Z0.386 I0 J-0.663
X-26.5 Y41.213 Z0.307 I0 J0.663
X-26.5 Y39.887 Z0.229 I0 J-0.663
X-26.5 Y41.213 Z0.15 I0 J0.663
X-26.5 Y39.887 Z0.071 I0 J-0.663
X-26.313 Y41.186 Z0 I0 J0.663
X-26.687 Y39.914 I-0.187 J-0.636
X-26.313 Y41.186 I0.187 J0.636
X-26.708 Y40.971 I-0.09 J-0.305
G1 X-26.752 Y40.818
X-26.772 Y40.751 Z0.008
X-26.791 Y40.686 Z0.031
X-26.808 Y40.628 Z0.069
X-26.822 Y40.58 Z0.12
X-26.833 Y40.544 Z0.18
X-26.84 Y40.521 Z0.247
X-26.842 Y40.514 Z0.317
G0 Z18.1
X-26.818 Y20.681
Z6
G1 Z4.318 F600
G19 G2 Y20.364 Z4 J-0.317 K0
G1 Y20.205
G17 G3 X-26.5 Y19.888 I0.318 J0
X-26.5 Y21.212 Z3.921 I0 J0.662
X-26.5 Y19.888 Z3.843 I0 J-0.662
X-26.5 Y21.212 Z3.764 I0 J0.662
X-26.5 Y19.888 Z3.686 I0 J-0.662
X-26.5 Y21.212 Z3.607 I0 J0.662
X-26.5 Y19.888 Z3.529 I0 J-0.662
X-26.5 Y21.212 Z3.45 I0 J0.662
X-26.5 Y19.888 Z3.371 I0 J-0.662
X-26.5 Y21.212 Z3.293 I0 J0.662
X-26.5 Y19.888 Z3.214 I0 J-0.662
X-26.5 Y21.212 Z3.136 I0 J0.662
X-26.5 Y19.888 Z3.057 I0 J-0.662
X-26.5 Y21.212 Z2.979 I0 J0.662
X-26.5 Y19.888 Z2.9 I0 J-0.662
X-26.5 Y21.212 Z2.821 I0 J0.662
X-26.5 Y19.888 Z2.743 I0 J-0.662
X-26.5 Y21.212 Z2.664 I0 J0.662
X-26.5 Y19.888 Z2.586 I0 J-0.662
X-26.5 Y21.212 Z2.507 I0 J0.662
X-26.5 Y19.888 Z2.429 I0 J-0.662
X-26.5 Y21.212 Z2.35 I0 J0.662
X-26.5 Y19.887 Z2.271 I0 J-0.662
X-26.5 Y21.212 Z2.193 I0 J0.662
X-26.5 Y19.887 Z2.114 I0 J-0.662
X-26.5 Y21.212 Z2.036 I0 J0.662
X-26.5 Y19.887 Z1.957 I0 J-0.662
X-26.5 Y21.212 Z1.879 I0 J0.662
X-26.5 Y19.887 Z1.8 I0 J-0.662
X-26.5 Y21.212 Z1.721 I0 J0.662
X-26.5 Y19.887 Z1.643 I0 J-0.662
X-26.5 Y21.212 Z1.564 I0 J0.662
X-26.5 Y19.887 Z1.486 I0 J-0.662
X-26.5 Y21.212 Z1.407 I0 J0.662
X-26.5 Y19.887 Z1.329 I0 J-0.662
X-26.5 Y21.212 Z1.25 I0 J0.662
X-26.5 Y19.887 Z1.171 I0 J-0.662
X-26.5 Y21.212 Z1.093 I0 J0.662
X-26.5 Y19.887 Z1.014 I0 J-0.662
X-26.5 Y21.212 Z0.936 I0 J0.662
X-26.5 Y19.887 Z0.857 I0 J-0.662
X-26.5 Y21.212 Z0.779 I0 J0.662
X-26.5 Y19.887 Z0.7 I0 J-0.662
X-26.5 Y21.212 Z0.621 I0 J0.662
X-26.5 Y19.887 Z0.543 I0 J-0.662
X-26.5 Y21.212 Z0.464 I0 J0.663
X-26.5 Y19.887 Z0.386 I0 J-0.663
X-26.5 Y21.212 Z0.307 I0 J0.663
X-26.5 Y19.887 Z0.229 I0 J-0.663
X-26.5 Y21.212 Z0.15 I0 J0.663
X-26.5 Y19.887 Z0.071 I0 J-0.663
X-26.313 Y21.186 Z0 I0 J0.663
X-26.687 Y19.914 I-0.187 J-0.636
X-26.313 Y21.186 I0.187 J0.636
X-26.708 Y20.971 I-0.09 J-0.305
G1 X-26.752 Y20.818
X-26.772 Y20.751 Z0.008
X-26.791 Y20.686 Z0.031
X-26.808 Y20.628 Z0.069
X-26.822 Y20.58 Z0.12
X-26.833 Y20.544 Z0.18
X-26.84 Y20.521 Z0.247
X-26.842 Y20.514 Z0.317
G0 Z18.1
X-5.744 Y15.33
Z12
G1 Z10.318 F600
G19 G3 Y15.648 Z10 J0.318 K0
G1 Y15.806
G17 G3 X-6 Y16.063 I-0.256 J0
X-6 Y15.038 Z9.927 I0 J-0.512
X-6 Y16.063 Z9.853 I0 J0.512
X-6 Y15.038 Z9.78 I0 J-0.512
X-6 Y16.063 Z9.707 I0 J0.512
X-6 Y15.038 Z9.633 I0 J-0.512
X-6 Y16.063 Z9.56 I0 J0.512
X-6 Y15.038 Z9.487 I0 J-0.512
X-6 Y16.063 Z9.413 I0 J0.512
X-6 Y15.038 Z9.34 I0 J-0.512
X-6 Y16.063 Z9.267 I0 J0.512
X-6 Y15.038 Z9.193 I0 J-0.512
X-6 Y16.063 Z9.12 I0 J0.512
X-6 Y15.038 Z9.047 I0 J-0.512
X-6 Y16.063 Z8.973 I0 J0.512
X-6 Y15.038 Z8.9 I0 J-0.512
X-6 Y16.063 Z8.827 I0 J0.512
X-6 Y15.038 Z8.753 I0 J-0.512
X-6 Y16.063 Z8.68 I0 J0.512
X-6 Y15.038 Z8.607 I0 J-0.512
X-6 Y16.063 Z8.533 I0 J0.512
X-6 Y15.038 Z8.46 I0 J-0.512
X-6 Y16.063 Z8.387 I0 J0.512
X-6 Y15.038 Z8.313 I0 J-0.512
X-6 Y16.063 Z8.24 I0 J0.512
X-6 Y15.038 Z8.167 I0 J-0.512
X-6 Y16.063 Z8.093 I0 J0.512
X-6 Y15.038 Z8.02 I0 J-0.512
X-6 Y16.063 Z7.947 I0 J0.512
X-6 Y15.038 Z7.873 I0 J-0.512
X-6 Y16.063 Z7.8 I0 J0.512
X-6 Y15.038 Z7.727 I0 J-0.512
X-6 Y16.063 Z7.653 I0 J0.512
X-6 Y15.038 Z7.58 I0 J-0.512
X-6 Y16.063 Z7.507 I0 J0.512
X-6 Y15.038 Z7.433 I0 J-0.512
X-6 Y16.063 Z7.36 I0 J0.512
X-6 Y15.038 Z7.287 I0 J-0.512
X-6 Y16.063 Z7.213 I0 J0.512
X-6 Y15.038 Z7.14 I0 J-0.512
X-6 Y16.063 Z7.067 I0 J0.512
X-6 Y15.038 Z6.993 I0 J-0.512
X-6 Y16.063 Z6.92 I0 J0.512
X-6 Y15.038 Z6.847 I0 J-0.512
X-6 Y16.063 Z6.773 I0 J0.512
X-6 Y15.038 Z6.7 I0 J-0.512
X-6 Y16.063 Z6.627 I0 J0.512
X-6 Y15.038 Z6.553 I0 J-0.512
X-6 Y16.063 Z6.48 I0 J0.512
X-6 Y15.038 Z6.407 I0 J-0.512
X-6 Y16.063 Z6.333 I0 J0.512
X-6 Y15.038 Z6.26 I0 J-0.512
X-6 Y16.063 Z6.187 I0 J0.512
X-6 Y15.038 Z6.113 I0 J-0.512
X-6 Y16.063 Z6.04 I0 J0.512
X-6 Y15.038 Z5.967 I0 J-0.512
X-6 Y16.063 Z5.893 I0 J0.512
X-6 Y15.038 Z5.82 I0 J-0.512
X-6 Y16.063 Z5.747 I0 J0.512
X-6 Y15.038 Z5.673 I0 J-0.512
X-6 Y16.063 Z5.6 I0 J0.512
X-6 Y15.038 Z5.527 I0 J-0.512
X-6 Y16.063 Z5.453 I0 J0.512
X-6 Y15.038 Z5.38 I0 J-0.512
X-6 Y16.063 Z5.307 I0 J0.512
X-6 Y15.038 Z5.233 I0 J-0.512
X-6 Y16.063 Z5.16 I0 J0.512
X-6 Y15.038 Z5.087 I0 J-0.512
X-6 Y16.063 Z5.013 I0 J0.512
X-6 Y15.038 Z4.94 I0 J-0.512
X-6 Y16.063 Z4.867 I0 J0.512
X-6 Y15.038 Z4.793 I0 J-0.512
X-6 Y16.063 Z4.72 I0 J0.512
X-6 Y15.038 Z4.647 I0 J-0.512
X-6 Y16.063 Z4.573 I0 J0.512
X-6 Y15.038 Z4.5 I0 J-0.512
X-6 Y16.063 Z4.427 I0 J0.512
X-6 Y15.038 Z4.353 I0 J-0.512
X-6 Y16.063 Z4.28 I0 J0.512
X-6 Y15.038 Z4.207 I0 J-0.512
X-6 Y16.063 Z4.133 I0 J0.512
X-6 Y15.038 Z4.06 I0 J-0.512
X-6 Y16.063 Z3.987 I0 J0.512
X-6 Y15.038 Z3.913 I0 J-0.512
X-6 Y16.063 Z3.84 I0 J0.512
X-6 Y15.038 Z3.767 I0 J-0.512
X-6 Y16.063 Z3.693 I0 J0.512
X-6 Y15.038 Z3.62 I0 J-0.512
X-6 Y16.063 Z3.547 I0 J0.512
X-6 Y15.038 Z3.473 I0 J-0.512
X-6 Y16.063 Z3.4 I0 J0.512
X-6 Y15.038 Z3.327 I0 J-0.512
X-6 Y16.063 Z3.253 I0 J0.512
X-6 Y15.038 Z3.18 I0 J-0.512
X-6 Y16.063 Z3.107 I0 J0.512
X-6 Y15.038 Z3.033 I0 J-0.512
X-6 Y16.063 Z2.96 I0 J0.512
X-6 Y15.038 Z2.887 I0 J-0.512
X-6 Y16.063 Z2.813 I0 J0.512
X-6 Y15.038 Z2.74 I0 J-0.512
X-6 Y16.063 Z2.667 I0 J0.512
X-6 Y15.038 Z2.593 I0 J-0.512
X-6 Y16.063 Z2.52 I0 J0.512
X-6 Y15.038 Z2.447 I0 J-0.512
X-6 Y16.063 Z2.373 I0 J0.512
X-6 Y15.038 Z2.3 I0 J-0.512
X-6 Y16.063 Z2.227 I0 J0.512
X-6 Y15.038 Z2.153 I0 J-0.512
X-6 Y16.063 Z2.08 I0 J0.512
X-6 Y15.038 Z2.007 I0 J-0.512
X-6 Y16.063 Z1.933 I0 J0.512
X-6 Y15.038 Z1.86 I0 J-0.512
X-6 Y16.063 Z1.787 I0 J0.512
X-6 Y15.038 Z1.713 I0 J-0.512
X-6 Y16.063 Z1.64 I0 J0.512
X-6 Y15.038 Z1.567 I0 J-0.512
X-6 Y16.063 Z1.493 I0 J0.512
X-6 Y15.038 Z1.42 I0 J-0.512
X-6 Y16.063 Z1.347 I0 J0.512
X-6 Y15.038 Z1.273 I0 J-0.512
X-6 Y16.063 Z1.2 I0 J0.512
X-6 Y15.038 Z1.127 I0 J-0.512
X-6 Y16.063 Z1.053 I0 J0.512
X-6 Y15.038 Z0.98 I0 J-0.512
X-6 Y16.063 Z0.907 I0 J0.512
X-6 Y15.038 Z0.833 I0 J-0.512
X-6 Y16.063 Z0.76 I0 J0.512
X-6 Y15.038 Z0.687 I0 J-0.512
X-6 Y16.063 Z0.613 I0 J0.512
X-6 Y15.038 Z0.54 I0 J-0.512
X-6 Y16.063 Z0.467 I0 J0.512
X-6 Y15.038 Z0.393 I0 J-0.512
X-6 Y16.063 Z0.32 I0 J0.512
X-6 Y15.038 Z0.247 I0 J-0.512
X-6 Y16.063 Z0.173 I0 J0.512
X-6 Y15.038 Z0.1 I0 J-0.512
X-6 Y16.063 Z0.027 I0 J0.512
X-6.466 Y15.764 Z0 I0 J-0.512
X-5.534 Y15.336 I0.466 J-0.214
X-6.466 Y15.764 I-0.466 J0.214
X-6.34 Y15.424 I0.233 J-0.107
G1 X-6.195 Y15.358
X-6.131 Y15.328 Z0.008
X-6.07 Y15.3 Z0.031
X-6.016 Y15.275 Z0.069
X-5.97 Y15.254 Z0.12
X-5.935 Y15.238 Z0.18
X-5.914 Y15.229 Z0.247
X-5.907 Y15.225 Z0.317
G0 Z28.1
G28 G91 Z0
G90
G28 G91 X0 Y0
G90
M5
M30
