(bore2)
(T6 D=3.175 CR=0 - ZMIN=0 - flat end mill)
G90 G94
G17
G21
G28 G91 Z0
G90

(Bore1 2)
T6
(18 Flat-45 degree helix)
S18000 M3
G17 G90 G94
G54
G0 X-203.818 Y54.931
Z28.1
G0 Z12
G1 Z10.318 F500
G19 G2 Y54.614 Z10 J-0.318 K0
G1 Y54.455
G17 G3 X-203.5 Y54.138 I0.318 J0
X-203.5 Y56.962 Z9.895 I0 J1.412
X-203.5 Y54.138 Z9.79 I0 J-1.412
X-203.5 Y56.962 Z9.686 I0 J1.412
X-203.5 Y54.138 Z9.581 I0 J-1.412
X-203.5 Y56.962 Z9.476 I0 J1.412
X-203.5 Y54.138 Z9.371 I0 J-1.412
X-203.5 Y56.962 Z9.267 I0 J1.412
X-203.5 Y54.138 Z9.162 I0 J-1.412
X-203.5 Y56.962 Z9.057 I0 J1.412
X-203.5 Y54.138 Z8.952 I0 J-1.412
X-203.5 Y56.962 Z8.848 I0 J1.412
X-203.5 Y54.138 Z8.743 I0 J-1.412
X-203.5 Y56.962 Z8.638 I0 J1.412
X-203.5 Y54.138 Z8.533 I0 J-1.412
X-203.5 Y56.962 Z8.429 I0 J1.412
X-203.5 Y54.138 Z8.324 I0 J-1.412
X-203.5 Y56.962 Z8.219 I0 J1.412
X-203.5 Y54.138 Z8.114 I0 J-1.412
X-203.5 Y56.962 Z8.01 I0 J1.412
X-203.5 Y54.138 Z7.905 I0 J-1.412
X-203.5 Y56.962 Z7.8 I0 J1.412
X-203.5 Y54.138 Z7.695 I0 J-1.412
X-203.5 Y56.962 Z7.59 I0 J1.412
X-203.5 Y54.138 Z7.486 I0 J-1.412
X-203.5 Y56.962 Z7.381 I0 J1.412
X-203.5 Y54.138 Z7.276 I0 J-1.412
X-203.5 Y56.962 Z7.171 I0 J1.412
X-203.5 Y54.138 Z7.067 I0 J-1.412
X-203.5 Y56.962 Z6.962 I0 J1.412
X-203.5 Y54.138 Z6.857 I0 J-1.412
X-203.5 Y56.962 Z6.752 I0 J1.412
X-203.5 Y54.138 Z6.648 I0 J-1.412
X-203.5 Y56.962 Z6.543 I0 J1.412
X-203.5 Y54.138 Z6.438 I0 J-1.412
X-203.5 Y56.962 Z6.333 I0 J1.412
X-203.5 Y54.138 Z6.229 I0 J-1.412
X-203.5 Y56.962 Z6.124 I0 J1.412
X-203.5 Y54.138 Z6.019 I0 J-1.412
X-203.5 Y56.962 Z5.914 I0 J1.412
X-203.5 Y54.138 Z5.81 I0 J-1.412
X-203.5 Y56.962 Z5.705 I0 J1.412
X-203.5 Y54.138 Z5.6 I0 J-1.412
X-203.5 Y56.962 Z5.495 I0 J1.412
X-203.5 Y54.138 Z5.39 I0 J-1.412
X-203.5 Y56.962 Z5.286 I0 J1.412
X-203.5 Y54.138 Z5.181 I0 J-1.412
X-203.5 Y56.962 Z5.076 I0 J1.412
X-203.5 Y54.138 Z4.971 I0 J-1.412
X-203.5 Y56.962 Z4.867 I0 J1.412
X-203.5 Y54.138 Z4.762 I0 J-1.412
X-203.5 Y56.962 Z4.657 I0 J1.412
X-203.5 Y54.138 Z4.552 I0 J-1.412
X-203.5 Y56.962 Z4.448 I0 J1.412
X-203.5 Y54.138 Z4.343 I0 J-1.412
X-203.5 Y56.962 Z4.238 I0 J1.412
X-203.5 Y54.138 Z4.133 I0 J-1.412
X-203.5 Y56.962 Z4.029 I0 J1.412
X-203.5 Y54.138 Z3.924 I0 J-1.412
X-203.5 Y56.962 Z3.819 I0 J1.412
X-203.5 Y54.138 Z3.714 I0 J-1.412
X-203.5 Y56.962 Z3.609 I0 J1.412
X-203.5 Y54.138 Z3.505 I0 J-1.412
X-203.5 Y56.962 Z3.4 I0 J1.412
X-203.5 Y54.138 Z3.295 I0 J-1.412
X-203.5 Y56.962 Z3.19 I0 J1.412
X-203.5 Y54.138 Z3.086 I0 J-1.412
X-203.5 Y56.962 Z2.981 I0 J1.412
X-203.5 Y54.138 Z2.876 I0 J-1.412
X-203.5 Y56.962 Z2.771 I0 J1.412
X-203.5 Y54.138 Z2.667 I0 J-1.412
X-203.5 Y56.962 Z2.562 I0 J1.412
X-203.5 Y54.138 Z2.457 I0 J-1.412
X-203.5 Y56.962 Z2.352 I0 J1.412
X-203.5 Y54.138 Z2.248 I0 J-1.412
X-203.5 Y56.962 Z2.143 I0 J1.412
X-203.5 Y54.138 Z2.038 I0 J-1.412
X-203.5 Y56.962 Z1.933 I0 J1.412
X-203.5 Y54.138 Z1.829 I0 J-1.412
X-203.5 Y56.962 Z1.724 I0 J1.412
X-203.5 Y54.138 Z1.619 I0 J-1.412
X-203.5 Y56.962 Z1.514 I0 J1.412
X-203.5 Y54.138 Z1.409 I0 J-1.412
X-203.5 Y56.962 Z1.305 I0 J1.412
X-203.5 Y54.138 Z1.2 I0 J-1.412
X-203.5 Y56.962 Z1.095 I0 J1.412
X-203.5 Y54.138 Z0.99 I0 J-1.412
X-203.5 Y56.962 Z0.886 I0 J1.412
X-203.5 Y54.138 Z0.781 I0 J-1.412
X-203.5 Y56.962 Z0.676 I0 J1.412
X-203.5 Y54.138 Z0.571 I0 J-1.412
X-203.5 Y56.962 Z0.467 I0 J1.412
X-203.5 Y54.138 Z0.362 I0 J-1.412
X-203.5 Y56.962 Z0.257 I0 J1.412
X-203.5 Y54.138 Z0.152 I0 J-1.412
X-203.5 Y56.962 Z0.048 I0 J1.412
X-204.898 Y55.753 Z0 I0 J-1.412
X-202.102 Y55.347 I1.398 J-0.203
X-204.898 Y55.753 I-1.398 J0.203
X-204.629 Y55.393 I0.314 J-0.046
G1 X-204.472 Y55.37
X-204.402 Y55.36 Z0.008
X-204.336 Y55.35 Z0.031
X-204.276 Y55.342 Z0.069
X-204.226 Y55.334 Z0.12
X-204.189 Y55.329 Z0.18
X-204.166 Y55.326 Z0.247
X-204.158 Y55.325 Z0.317
G0 Z18.1
X-191.318 Y54.931
Z12
G1 Z10.318 F500
G19 G2 Y54.614 Z10 J-0.318 K0
G1 Y54.455
G17 G3 X-191 Y54.138 I0.318 J0
X-191 Y56.962 Z9.895 I0 J1.412
X-191 Y54.138 Z9.79 I0 J-1.412
X-191 Y56.962 Z9.686 I0 J1.412
X-191 Y54.138 Z9.581 I0 J-1.412
X-191 Y56.962 Z9.476 I0 J1.412
X-191 Y54.138 Z9.371 I0 J-1.412
X-191 Y56.962 Z9.267 I0 J1.412
X-191 Y54.138 Z9.162 I0 J-1.412
X-191 Y56.962 Z9.057 I0 J1.412
X-191 Y54.138 Z8.952 I0 J-1.412
X-191 Y56.962 Z8.848 I0 J1.412
X-191 Y54.138 Z8.743 I0 J-1.412
X-191 Y56.962 Z8.638 I0 J1.412
X-191 Y54.138 Z8.533 I0 J-1.412
X-191 Y56.962 Z8.429 I0 J1.412
X-191 Y54.138 Z8.324 I0 J-1.412
X-191 Y56.962 Z8.219 I0 J1.412
X-191 Y54.138 Z8.114 I0 J-1.412
X-191 Y56.962 Z8.01 I0 J1.412
X-191 Y54.138 Z7.905 I0 J-1.412
X-191 Y56.962 Z7.8 I0 J1.412
X-191 Y54.138 Z7.695 I0 J-1.412
X-191 Y56.962 Z7.59 I0 J1.412
X-191 Y54.138 Z7.486 I0 J-1.412
X-191 Y56.962 Z7.381 I0 J1.412
X-191 Y54.138 Z7.276 I0 J-1.412
X-191 Y56.962 Z7.171 I0 J1.412
X-191 Y54.138 Z7.067 I0 J-1.412
X-191 Y56.962 Z6.962 I0 J1.412
X-191 Y54.138 Z6.857 I0 J-1.412
X-191 Y56.962 Z6.752 I0 J1.412
X-191 Y54.138 Z6.648 I0 J-1.412
X-191 Y56.962 Z6.543 I0 J1.412
X-191 Y54.138 Z6.438 I0 J-1.412
X-191 Y56.962 Z6.333 I0 J1.412
X-191 Y54.138 Z6.229 I0 J-1.412
X-191 Y56.962 Z6.124 I0 J1.412
X-191 Y54.138 Z6.019 I0 J-1.412
X-191 Y56.962 Z5.914 I0 J1.412
X-191 Y54.138 Z5.81 I0 J-1.412
X-191 Y56.962 Z5.705 I0 J1.412
X-191 Y54.138 Z5.6 I0 J-1.412
X-191 Y56.962 Z5.495 I0 J1.412
X-191 Y54.138 Z5.39 I0 J-1.412
X-191 Y56.962 Z5.286 I0 J1.412
X-191 Y54.138 Z5.181 I0 J-1.412
X-191 Y56.962 Z5.076 I0 J1.412
X-191 Y54.138 Z4.971 I0 J-1.412
X-191 Y56.962 Z4.867 I0 J1.412
X-191 Y54.138 Z4.762 I0 J-1.412
X-191 Y56.962 Z4.657 I0 J1.412
X-191 Y54.138 Z4.552 I0 J-1.412
X-191 Y56.962 Z4.448 I0 J1.412
X-191 Y54.138 Z4.343 I0 J-1.412
X-191 Y56.962 Z4.238 I0 J1.412
X-191 Y54.138 Z4.133 I0 J-1.412
X-191 Y56.962 Z4.029 I0 J1.412
X-191 Y54.138 Z3.924 I0 J-1.412
X-191 Y56.962 Z3.819 I0 J1.412
X-191 Y54.138 Z3.714 I0 J-1.412
X-191 Y56.962 Z3.609 I0 J1.412
X-191 Y54.138 Z3.505 I0 J-1.412
X-191 Y56.962 Z3.4 I0 J1.412
X-191 Y54.138 Z3.295 I0 J-1.412
X-191 Y56.962 Z3.19 I0 J1.412
X-191 Y54.138 Z3.086 I0 J-1.412
X-191 Y56.962 Z2.981 I0 J1.412
X-191 Y54.138 Z2.876 I0 J-1.412
X-191 Y56.962 Z2.771 I0 J1.412
X-191 Y54.138 Z2.667 I0 J-1.412
X-191 Y56.962 Z2.562 I0 J1.412
X-191 Y54.138 Z2.457 I0 J-1.412
X-191 Y56.962 Z2.352 I0 J1.412
X-191 Y54.138 Z2.248 I0 J-1.412
X-191 Y56.962 Z2.143 I0 J1.412
X-191 Y54.138 Z2.038 I0 J-1.412
X-191 Y56.962 Z1.933 I0 J1.412
X-191 Y54.138 Z1.829 I0 J-1.412
X-191 Y56.962 Z1.724 I0 J1.412
X-191 Y54.138 Z1.619 I0 J-1.412
X-191 Y56.962 Z1.514 I0 J1.412
X-191 Y54.138 Z1.409 I0 J-1.412
X-191 Y56.962 Z1.305 I0 J1.412
X-191 Y54.138 Z1.2 I0 J-1.412
X-191 Y56.962 Z1.095 I0 J1.412
X-191 Y54.138 Z0.99 I0 J-1.412
X-191 Y56.962 Z0.886 I0 J1.412
X-191 Y54.138 Z0.781 I0 J-1.412
X-191 Y56.962 Z0.676 I0 J1.412
X-191 Y54.138 Z0.571 I0 J-1.412
X-191 Y56.962 Z0.467 I0 J1.412
X-191 Y54.138 Z0.362 I0 J-1.412
X-191 Y56.962 Z0.257 I0 J1.412
X-191 Y54.138 Z0.152 I0 J-1.412
X-191 Y56.962 Z0.048 I0 J1.412
X-192.398 Y55.753 Z0 I0 J-1.412
X-189.602 Y55.347 I1.398 J-0.203
X-192.398 Y55.753 I-1.398 J0.203
X-192.129 Y55.393 I0.314 J-0.046
G1 X-191.972 Y55.37
X-191.902 Y55.36 Z0.008
X-191.836 Y55.35 Z0.031
X-191.776 Y55.342 Z0.069
X-191.726 Y55.334 Z0.12
X-191.689 Y55.329 Z0.18
X-191.666 Y55.326 Z0.247
X-191.658 Y55.325 Z0.317
G0 Z18.1
X-178.818 Y54.931
Z12
G1 Z10.318 F500
G19 G2 Y54.614 Z10 J-0.318 K0
G1 Y54.455
G17 G3 X-178.5 Y54.138 I0.318 J0
X-178.5 Y56.962 Z9.895 I0 J1.412
X-178.5 Y54.138 Z9.79 I0 J-1.412
X-178.5 Y56.962 Z9.686 I0 J1.412
X-178.5 Y54.138 Z9.581 I0 J-1.412
X-178.5 Y56.962 Z9.476 I0 J1.412
X-178.5 Y54.138 Z9.371 I0 J-1.412
X-178.5 Y56.962 Z9.267 I0 J1.412
X-178.5 Y54.138 Z9.162 I0 J-1.412
X-178.5 Y56.962 Z9.057 I0 J1.412
X-178.5 Y54.138 Z8.952 I0 J-1.412
X-178.5 Y56.962 Z8.848 I0 J1.412
X-178.5 Y54.138 Z8.743 I0 J-1.412
X-178.5 Y56.962 Z8.638 I0 J1.412
X-178.5 Y54.138 Z8.533 I0 J-1.412
X-178.5 Y56.962 Z8.429 I0 J1.412
X-178.5 Y54.138 Z8.324 I0 J-1.412
X-178.5 Y56.962 Z8.219 I0 J1.412
X-178.5 Y54.138 Z8.114 I0 J-1.412
X-178.5 Y56.962 Z8.01 I0 J1.412
X-178.5 Y54.138 Z7.905 I0 J-1.412
X-178.5 Y56.962 Z7.8 I0 J1.412
X-178.5 Y54.138 Z7.695 I0 J-1.412
X-178.5 Y56.962 Z7.59 I0 J1.412
X-178.5 Y54.138 Z7.486 I0 J-1.412
X-178.5 Y56.962 Z7.381 I0 J1.412
X-178.5 Y54.138 Z7.276 I0 J-1.412
X-178.5 Y56.962 Z7.171 I0 J1.412
X-178.5 Y54.138 Z7.067 I0 J-1.412
X-178.5 Y56.962 Z6.962 I0 J1.412
X-178.5 Y54.138 Z6.857 I0 J-1.412
X-178.5 Y56.962 Z6.752 I0 J1.412
X-178.5 Y54.138 Z6.648 I0 J-1.412
X-178.5 Y56.962 Z6.543 I0 J1.412
X-178.5 Y54.138 Z6.438 I0 J-1.412
X-178.5 Y56.962 Z6.333 I0 J1.412
X-178.5 Y54.138 Z6.229 I0 J-1.412
X-178.5 Y56.962 Z6.124 I0 J1.412
X-178.5 Y54.138 Z6.019 I0 J-1.412
X-178.5 Y56.962 Z5.914 I0 J1.412
X-178.5 Y54.138 Z5.81 I0 J-1.412
X-178.5 Y56.962 Z5.705 I0 J1.412
X-178.5 Y54.138 Z5.6 I0 J-1.412
X-178.5 Y56.962 Z5.495 I0 J1.412
X-178.5 Y54.138 Z5.39 I0 J-1.412
X-178.5 Y56.962 Z5.286 I0 J1.412
X-178.5 Y54.138 Z5.181 I0 J-1.412
X-178.5 Y56.962 Z5.076 I0 J1.412
X-178.5 Y54.138 Z4.971 I0 J-1.412
X-178.5 Y56.962 Z4.867 I0 J1.412
X-178.5 Y54.138 Z4.762 I0 J-1.412
X-178.5 Y56.962 Z4.657 I0 J1.412
X-178.5 Y54.138 Z4.552 I0 J-1.412
X-178.5 Y56.962 Z4.448 I0 J1.412
X-178.5 Y54.138 Z4.343 I0 J-1.412
X-178.5 Y56.962 Z4.238 I0 J1.412
X-178.5 Y54.138 Z4.133 I0 J-1.412
X-178.5 Y56.962 Z4.029 I0 J1.412
X-178.5 Y54.138 Z3.924 I0 J-1.412
X-178.5 Y56.962 Z3.819 I0 J1.412
X-178.5 Y54.138 Z3.714 I0 J-1.412
X-178.5 Y56.962 Z3.609 I0 J1.412
X-178.5 Y54.138 Z3.505 I0 J-1.412
X-178.5 Y56.962 Z3.4 I0 J1.412
X-178.5 Y54.138 Z3.295 I0 J-1.412
X-178.5 Y56.962 Z3.19 I0 J1.412
X-178.5 Y54.138 Z3.086 I0 J-1.412
X-178.5 Y56.962 Z2.981 I0 J1.412
X-178.5 Y54.138 Z2.876 I0 J-1.412
X-178.5 Y56.962 Z2.771 I0 J1.412
X-178.5 Y54.138 Z2.667 I0 J-1.412
X-178.5 Y56.962 Z2.562 I0 J1.412
X-178.5 Y54.138 Z2.457 I0 J-1.412
X-178.5 Y56.962 Z2.352 I0 J1.412
X-178.5 Y54.138 Z2.248 I0 J-1.412
X-178.5 Y56.962 Z2.143 I0 J1.412
X-178.5 Y54.138 Z2.038 I0 J-1.412
X-178.5 Y56.962 Z1.933 I0 J1.412
X-178.5 Y54.138 Z1.829 I0 J-1.412
X-178.5 Y56.962 Z1.724 I0 J1.412
X-178.5 Y54.138 Z1.619 I0 J-1.412
X-178.5 Y56.962 Z1.514 I0 J1.412
X-178.5 Y54.138 Z1.409 I0 J-1.412
X-178.5 Y56.962 Z1.305 I0 J1.412
X-178.5 Y54.138 Z1.2 I0 J-1.412
X-178.5 Y56.962 Z1.095 I0 J1.412
X-178.5 Y54.138 Z0.99 I0 J-1.412
X-178.5 Y56.962 Z0.886 I0 J1.412
X-178.5 Y54.138 Z0.781 I0 J-1.412
X-178.5 Y56.962 Z0.676 I0 J1.412
X-178.5 Y54.138 Z0.571 I0 J-1.412
X-178.5 Y56.962 Z0.467 I0 J1.412
X-178.5 Y54.138 Z0.362 I0 J-1.412
X-178.5 Y56.962 Z0.257 I0 J1.412
X-178.5 Y54.138 Z0.152 I0 J-1.412
X-178.5 Y56.962 Z0.048 I0 J1.412
X-179.898 Y55.753 Z0 I0 J-1.412
X-177.102 Y55.347 I1.398 J-0.203
X-179.898 Y55.753 I-1.398 J0.203
X-179.629 Y55.393 I0.314 J-0.046
G1 X-179.472 Y55.37
X-179.402 Y55.36 Z0.008
X-179.336 Y55.35 Z0.031
X-179.276 Y55.342 Z0.069
X-179.226 Y55.334 Z0.12
X-179.189 Y55.329 Z0.18
X-179.166 Y55.326 Z0.247
X-179.158 Y55.325 Z0.317
G0 Z18.1
X-166.318 Y42.431
Z12
G1 Z10.318 F500
G19 G2 Y42.114 Z10 J-0.318 K0
G1 Y41.955
G17 G3 X-166 Y41.638 I0.318 J0
X-166 Y44.462 Z9.895 I0 J1.412
X-166 Y41.638 Z9.79 I0 J-1.412
X-166 Y44.462 Z9.686 I0 J1.412
X-166 Y41.638 Z9.581 I0 J-1.412
X-166 Y44.462 Z9.476 I0 J1.412
X-166 Y41.638 Z9.371 I0 J-1.412
X-166 Y44.462 Z9.267 I0 J1.412
X-166 Y41.638 Z9.162 I0 J-1.412
X-166 Y44.462 Z9.057 I0 J1.412
X-166 Y41.638 Z8.952 I0 J-1.412
X-166 Y44.462 Z8.848 I0 J1.412
X-166 Y41.638 Z8.743 I0 J-1.412
X-166 Y44.462 Z8.638 I0 J1.412
X-166 Y41.638 Z8.533 I0 J-1.412
X-166 Y44.462 Z8.429 I0 J1.412
X-166 Y41.638 Z8.324 I0 J-1.412
X-166 Y44.462 Z8.219 I0 J1.412
X-166 Y41.638 Z8.114 I0 J-1.412
X-166 Y44.462 Z8.01 I0 J1.412
X-166 Y41.638 Z7.905 I0 J-1.412
X-166 Y44.462 Z7.8 I0 J1.412
X-166 Y41.638 Z7.695 I0 J-1.412
X-166 Y44.462 Z7.59 I0 J1.412
X-166 Y41.638 Z7.486 I0 J-1.412
X-166 Y44.462 Z7.381 I0 J1.412
X-166 Y41.638 Z7.276 I0 J-1.412
X-166 Y44.462 Z7.171 I0 J1.412
X-166 Y41.638 Z7.067 I0 J-1.412
X-166 Y44.462 Z6.962 I0 J1.412
X-166 Y41.638 Z6.857 I0 J-1.412
X-166 Y44.462 Z6.752 I0 J1.412
X-166 Y41.638 Z6.648 I0 J-1.412
X-166 Y44.462 Z6.543 I0 J1.412
X-166 Y41.638 Z6.438 I0 J-1.412
X-166 Y44.462 Z6.333 I0 J1.412
X-166 Y41.638 Z6.229 I0 J-1.412
X-166 Y44.462 Z6.124 I0 J1.412
X-166 Y41.638 Z6.019 I0 J-1.412
X-166 Y44.462 Z5.914 I0 J1.412
X-166 Y41.638 Z5.81 I0 J-1.412
X-166 Y44.462 Z5.705 I0 J1.412
X-166 Y41.638 Z5.6 I0 J-1.412
X-166 Y44.462 Z5.495 I0 J1.412
X-166 Y41.638 Z5.39 I0 J-1.412
X-166 Y44.462 Z5.286 I0 J1.412
X-166 Y41.638 Z5.181 I0 J-1.412
X-166 Y44.462 Z5.076 I0 J1.412
X-166 Y41.638 Z4.971 I0 J-1.412
X-166 Y44.462 Z4.867 I0 J1.412
X-166 Y41.638 Z4.762 I0 J-1.412
X-166 Y44.462 Z4.657 I0 J1.412
X-166 Y41.638 Z4.552 I0 J-1.412
X-166 Y44.462 Z4.448 I0 J1.412
X-166 Y41.638 Z4.343 I0 J-1.412
X-166 Y44.462 Z4.238 I0 J1.412
X-166 Y41.638 Z4.133 I0 J-1.412
X-166 Y44.462 Z4.029 I0 J1.412
X-166 Y41.638 Z3.924 I0 J-1.412
X-166 Y44.462 Z3.819 I0 J1.412
X-166 Y41.638 Z3.714 I0 J-1.412
X-166 Y44.462 Z3.609 I0 J1.412
X-166 Y41.638 Z3.505 I0 J-1.412
X-166 Y44.462 Z3.4 I0 J1.412
X-166 Y41.638 Z3.295 I0 J-1.412
X-166 Y44.462 Z3.19 I0 J1.412
X-166 Y41.638 Z3.086 I0 J-1.412
X-166 Y44.462 Z2.981 I0 J1.412
X-166 Y41.638 Z2.876 I0 J-1.412
X-166 Y44.462 Z2.771 I0 J1.412
X-166 Y41.638 Z2.667 I0 J-1.412
X-166 Y44.462 Z2.562 I0 J1.412
X-166 Y41.638 Z2.457 I0 J-1.412
X-166 Y44.462 Z2.352 I0 J1.412
X-166 Y41.638 Z2.248 I0 J-1.412
X-166 Y44.462 Z2.143 I0 J1.412
X-166 Y41.638 Z2.038 I0 J-1.412
X-166 Y44.462 Z1.933 I0 J1.412
X-166 Y41.638 Z1.829 I0 J-1.412
X-166 Y44.462 Z1.724 I0 J1.412
X-166 Y41.638 Z1.619 I0 J-1.412
X-166 Y44.462 Z1.514 I0 J1.412
X-166 Y41.638 Z1.409 I0 J-1.412
X-166 Y44.462 Z1.305 I0 J1.412
X-166 Y41.638 Z1.2 I0 J-1.412
X-166 Y44.462 Z1.095 I0 J1.412
X-166 Y41.638 Z0.99 I0 J-1.412
X-166 Y44.462 Z0.886 I0 J1.412
X-166 Y41.638 Z0.781 I0 J-1.412
X-166 Y44.462 Z0.676 I0 J1.412
X-166 Y41.638 Z0.571 I0 J-1.412
X-166 Y44.462 Z0.467 I0 J1.412
X-166 Y41.638 Z0.362 I0 J-1.412
X-166 Y44.462 Z0.257 I0 J1.412
X-166 Y41.638 Z0.152 I0 J-1.412
X-166 Y44.462 Z0.048 I0 J1.412
X-167.398 Y43.253 Z0 I0 J-1.412
X-164.602 Y42.847 I1.398 J-0.203
X-167.398 Y43.253 I-1.398 J0.203
X-167.129 Y42.893 I0.314 J-0.046
G1 X-166.972 Y42.87
X-166.902 Y42.86 Z0.008
X-166.836 Y42.85 Z0.031
X-166.776 Y42.842 Z0.069
X-166.726 Y42.834 Z0.12
X-166.689 Y42.829 Z0.18
X-166.666 Y42.826 Z0.247
X-166.658 Y42.825 Z0.317
G0 Z18.1
X-166.318 Y29.931
Z12
G1 Z10.318 F500
G19 G2 Y29.614 Z10 J-0.317 K0
G1 Y29.455
G17 G3 X-166 Y29.138 I0.318 J0
X-166 Y31.962 Z9.895 I0 J1.412
X-166 Y29.138 Z9.79 I0 J-1.412
X-166 Y31.962 Z9.686 I0 J1.412
X-166 Y29.138 Z9.581 I0 J-1.412
X-166 Y31.962 Z9.476 I0 J1.412
X-166 Y29.138 Z9.371 I0 J-1.412
X-166 Y31.962 Z9.267 I0 J1.412
X-166 Y29.138 Z9.162 I0 J-1.412
X-166 Y31.962 Z9.057 I0 J1.412
X-166 Y29.138 Z8.952 I0 J-1.412
X-166 Y31.962 Z8.848 I0 J1.412
X-166 Y29.138 Z8.743 I0 J-1.412
X-166 Y31.962 Z8.638 I0 J1.412
X-166 Y29.138 Z8.533 I0 J-1.412
X-166 Y31.962 Z8.429 I0 J1.412
X-166 Y29.138 Z8.324 I0 J-1.412
X-166 Y31.962 Z8.219 I0 J1.412
X-166 Y29.138 Z8.114 I0 J-1.412
X-166 Y31.962 Z8.01 I0 J1.412
X-166 Y29.138 Z7.905 I0 J-1.412
X-166 Y31.962 Z7.8 I0 J1.412
X-166 Y29.138 Z7.695 I0 J-1.412
X-166 Y31.962 Z7.59 I0 J1.412
X-166 Y29.138 Z7.486 I0 J-1.412
X-166 Y31.962 Z7.381 I0 J1.412
X-166 Y29.138 Z7.276 I0 J-1.412
X-166 Y31.962 Z7.171 I0 J1.412
X-166 Y29.138 Z7.067 I0 J-1.412
X-166 Y31.962 Z6.962 I0 J1.412
X-166 Y29.138 Z6.857 I0 J-1.412
X-166 Y31.962 Z6.752 I0 J1.412
X-166 Y29.138 Z6.648 I0 J-1.412
X-166 Y31.962 Z6.543 I0 J1.412
X-166 Y29.138 Z6.438 I0 J-1.412
X-166 Y31.962 Z6.333 I0 J1.412
X-166 Y29.138 Z6.229 I0 J-1.412
X-166 Y31.962 Z6.124 I0 J1.412
X-166 Y29.138 Z6.019 I0 J-1.412
X-166 Y31.962 Z5.914 I0 J1.412
X-166 Y29.138 Z5.81 I0 J-1.412
X-166 Y31.962 Z5.705 I0 J1.412
X-166 Y29.138 Z5.6 I0 J-1.412
X-166 Y31.962 Z5.495 I0 J1.412
X-166 Y29.138 Z5.39 I0 J-1.412
X-166 Y31.962 Z5.286 I0 J1.412
X-166 Y29.138 Z5.181 I0 J-1.412
X-166 Y31.962 Z5.076 I0 J1.412
X-166 Y29.138 Z4.971 I0 J-1.412
X-166 Y31.962 Z4.867 I0 J1.412
X-166 Y29.138 Z4.762 I0 J-1.412
X-166 Y31.962 Z4.657 I0 J1.412
X-166 Y29.138 Z4.552 I0 J-1.412
X-166 Y31.962 Z4.448 I0 J1.412
X-166 Y29.138 Z4.343 I0 J-1.412
X-166 Y31.962 Z4.238 I0 J1.412
X-166 Y29.138 Z4.133 I0 J-1.412
X-166 Y31.962 Z4.029 I0 J1.412
X-166 Y29.138 Z3.924 I0 J-1.412
X-166 Y31.962 Z3.819 I0 J1.412
X-166 Y29.138 Z3.714 I0 J-1.412
X-166 Y31.962 Z3.609 I0 J1.412
X-166 Y29.138 Z3.505 I0 J-1.412
X-166 Y31.962 Z3.4 I0 J1.412
X-166 Y29.138 Z3.295 I0 J-1.412
X-166 Y31.962 Z3.19 I0 J1.412
X-166 Y29.138 Z3.086 I0 J-1.412
X-166 Y31.962 Z2.981 I0 J1.412
X-166 Y29.138 Z2.876 I0 J-1.412
X-166 Y31.962 Z2.771 I0 J1.412
X-166 Y29.138 Z2.667 I0 J-1.412
X-166 Y31.962 Z2.562 I0 J1.412
X-166 Y29.138 Z2.457 I0 J-1.412
X-166 Y31.962 Z2.352 I0 J1.412
X-166 Y29.138 Z2.248 I0 J-1.412
X-166 Y31.962 Z2.143 I0 J1.412
X-166 Y29.138 Z2.038 I0 J-1.412
X-166 Y31.962 Z1.933 I0 J1.412
X-166 Y29.138 Z1.829 I0 J-1.412
X-166 Y31.962 Z1.724 I0 J1.412
X-166 Y29.138 Z1.619 I0 J-1.412
X-166 Y31.962 Z1.514 I0 J1.412
X-166 Y29.138 Z1.409 I0 J-1.412
X-166 Y31.962 Z1.305 I0 J1.412
X-166 Y29.138 Z1.2 I0 J-1.412
X-166 Y31.962 Z1.095 I0 J1.412
X-166 Y29.138 Z0.99 I0 J-1.412
X-166 Y31.962 Z0.886 I0 J1.412
X-166 Y29.138 Z0.781 I0 J-1.412
X-166 Y31.962 Z0.676 I0 J1.412
X-166 Y29.138 Z0.571 I0 J-1.412
X-166 Y31.962 Z0.467 I0 J1.412
X-166 Y29.138 Z0.362 I0 J-1.412
X-166 Y31.962 Z0.257 I0 J1.412
X-166 Y29.138 Z0.152 I0 J-1.412
X-166 Y31.962 Z0.048 I0 J1.412
X-167.398 Y30.753 Z0 I0 J-1.412
X-164.602 Y30.347 I1.398 J-0.203
X-167.398 Y30.753 I-1.398 J0.203
X-167.129 Y30.393 I0.314 J-0.046
G1 X-166.972 Y30.37
X-166.902 Y30.36 Z0.008
X-166.836 Y30.35 Z0.031
X-166.776 Y30.342 Z0.069
X-166.726 Y30.334 Z0.12
X-166.689 Y30.329 Z0.18
X-166.666 Y30.326 Z0.247
X-166.658 Y30.325 Z0.317
G0 Z18.1
X-166.318 Y17.431
Z12
G1 Z10.318 F500
G19 G2 Y17.114 Z10 J-0.317 K0
G1 Y16.955
G17 G3 X-166 Y16.638 I0.318 J0
X-166 Y19.462 Z9.895 I0 J1.412
X-166 Y16.638 Z9.79 I0 J-1.412
X-166 Y19.462 Z9.686 I0 J1.412
X-166 Y16.638 Z9.581 I0 J-1.412
X-166 Y19.462 Z9.476 I0 J1.412
X-166 Y16.638 Z9.371 I0 J-1.412
X-166 Y19.462 Z9.267 I0 J1.412
X-166 Y16.638 Z9.162 I0 J-1.412
X-166 Y19.462 Z9.057 I0 J1.412
X-166 Y16.638 Z8.952 I0 J-1.412
X-166 Y19.462 Z8.848 I0 J1.412
X-166 Y16.638 Z8.743 I0 J-1.412
X-166 Y19.462 Z8.638 I0 J1.412
X-166 Y16.638 Z8.533 I0 J-1.412
X-166 Y19.462 Z8.429 I0 J1.412
X-166 Y16.638 Z8.324 I0 J-1.412
X-166 Y19.462 Z8.219 I0 J1.412
X-166 Y16.638 Z8.114 I0 J-1.412
X-166 Y19.462 Z8.01 I0 J1.412
X-166 Y16.638 Z7.905 I0 J-1.412
X-166 Y19.462 Z7.8 I0 J1.412
X-166 Y16.638 Z7.695 I0 J-1.412
X-166 Y19.462 Z7.59 I0 J1.412
X-166 Y16.638 Z7.486 I0 J-1.412
X-166 Y19.462 Z7.381 I0 J1.412
X-166 Y16.638 Z7.276 I0 J-1.412
X-166 Y19.462 Z7.171 I0 J1.412
X-166 Y16.638 Z7.067 I0 J-1.412
X-166 Y19.462 Z6.962 I0 J1.412
X-166 Y16.638 Z6.857 I0 J-1.412
X-166 Y19.462 Z6.752 I0 J1.412
X-166 Y16.638 Z6.648 I0 J-1.412
X-166 Y19.462 Z6.543 I0 J1.412
X-166 Y16.638 Z6.438 I0 J-1.412
X-166 Y19.462 Z6.333 I0 J1.412
X-166 Y16.638 Z6.229 I0 J-1.412
X-166 Y19.462 Z6.124 I0 J1.412
X-166 Y16.638 Z6.019 I0 J-1.412
X-166 Y19.462 Z5.914 I0 J1.412
X-166 Y16.638 Z5.81 I0 J-1.412
X-166 Y19.462 Z5.705 I0 J1.412
X-166 Y16.638 Z5.6 I0 J-1.412
X-166 Y19.462 Z5.495 I0 J1.412
X-166 Y16.638 Z5.39 I0 J-1.412
X-166 Y19.462 Z5.286 I0 J1.412
X-166 Y16.638 Z5.181 I0 J-1.412
X-166 Y19.462 Z5.076 I0 J1.412
X-166 Y16.638 Z4.971 I0 J-1.412
X-166 Y19.462 Z4.867 I0 J1.412
X-166 Y16.638 Z4.762 I0 J-1.412
X-166 Y19.462 Z4.657 I0 J1.412
X-166 Y16.638 Z4.552 I0 J-1.412
X-166 Y19.462 Z4.448 I0 J1.412
X-166 Y16.638 Z4.343 I0 J-1.412
X-166 Y19.462 Z4.238 I0 J1.412
X-166 Y16.638 Z4.133 I0 J-1.412
X-166 Y19.462 Z4.029 I0 J1.412
X-166 Y16.638 Z3.924 I0 J-1.412
X-166 Y19.462 Z3.819 I0 J1.412
X-166 Y16.638 Z3.714 I0 J-1.412
X-166 Y19.462 Z3.609 I0 J1.412
X-166 Y16.638 Z3.505 I0 J-1.412
X-166 Y19.462 Z3.4 I0 J1.412
X-166 Y16.638 Z3.295 I0 J-1.412
X-166 Y19.462 Z3.19 I0 J1.412
X-166 Y16.638 Z3.086 I0 J-1.412
X-166 Y19.462 Z2.981 I0 J1.412
X-166 Y16.638 Z2.876 I0 J-1.412
X-166 Y19.462 Z2.771 I0 J1.412
X-166 Y16.638 Z2.667 I0 J-1.412
X-166 Y19.462 Z2.562 I0 J1.412
X-166 Y16.638 Z2.457 I0 J-1.412
X-166 Y19.462 Z2.352 I0 J1.412
X-166 Y16.638 Z2.248 I0 J-1.412
X-166 Y19.462 Z2.143 I0 J1.412
X-166 Y16.638 Z2.038 I0 J-1.412
X-166 Y19.462 Z1.933 I0 J1.412
X-166 Y16.638 Z1.829 I0 J-1.412
X-166 Y19.462 Z1.724 I0 J1.412
X-166 Y16.638 Z1.619 I0 J-1.412
X-166 Y19.462 Z1.514 I0 J1.412
X-166 Y16.638 Z1.409 I0 J-1.412
X-166 Y19.462 Z1.305 I0 J1.412
X-166 Y16.638 Z1.2 I0 J-1.412
X-166 Y19.462 Z1.095 I0 J1.412
X-166 Y16.638 Z0.99 I0 J-1.412
X-166 Y19.462 Z0.886 I0 J1.412
X-166 Y16.638 Z0.781 I0 J-1.412
X-166 Y19.462 Z0.676 I0 J1.412
X-166 Y16.638 Z0.571 I0 J-1.412
X-166 Y19.462 Z0.467 I0 J1.412
X-166 Y16.638 Z0.362 I0 J-1.412
X-166 Y19.462 Z0.257 I0 J1.412
X-166 Y16.638 Z0.152 I0 J-1.412
X-166 Y19.462 Z0.048 I0 J1.412
X-167.398 Y18.253 Z0 I0 J-1.412
X-164.602 Y17.847 I1.398 J-0.203
X-167.398 Y18.253 I-1.398 J0.203
X-167.129 Y17.893 I0.314 J-0.046
G1 X-166.972 Y17.87
X-166.902 Y17.86 Z0.008
X-166.836 Y17.85 Z0.031
X-166.776 Y17.842 Z0.069
X-166.726 Y17.834 Z0.12
X-166.689 Y17.829 Z0.18
X-166.666 Y17.826 Z0.247
X-166.658 Y17.825 Z0.317
G0 Z18.1
X-178.818 Y4.931
Z12
G1 Z10.318 F500
G19 G2 Y4.614 Z10 J-0.318 K0
G1 Y4.455
G17 G3 X-178.5 Y4.137 I0.318 J0
X-178.5 Y6.963 Z9.895 I0 J1.413
X-178.5 Y4.137 Z9.79 I0 J-1.413
X-178.5 Y6.963 Z9.686 I0 J1.413
X-178.5 Y4.137 Z9.581 I0 J-1.413
X-178.5 Y6.963 Z9.476 I0 J1.413
X-178.5 Y4.137 Z9.371 I0 J-1.413
X-178.5 Y6.963 Z9.267 I0 J1.413
X-178.5 Y4.137 Z9.162 I0 J-1.413
X-178.5 Y6.963 Z9.057 I0 J1.413
X-178.5 Y4.137 Z8.952 I0 J-1.413
X-178.5 Y6.963 Z8.848 I0 J1.413
X-178.5 Y4.138 Z8.743 I0 J-1.413
X-178.5 Y6.963 Z8.638 I0 J1.413
X-178.5 Y4.138 Z8.533 I0 J-1.413
X-178.5 Y6.963 Z8.429 I0 J1.413
X-178.5 Y4.138 Z8.324 I0 J-1.413
X-178.5 Y6.963 Z8.219 I0 J1.413
X-178.5 Y4.138 Z8.114 I0 J-1.413
X-178.5 Y6.963 Z8.01 I0 J1.413
X-178.5 Y4.138 Z7.905 I0 J-1.413
X-178.5 Y6.963 Z7.8 I0 J1.413
X-178.5 Y4.138 Z7.695 I0 J-1.413
X-178.5 Y6.963 Z7.59 I0 J1.412
X-178.5 Y4.138 Z7.486 I0 J-1.412
X-178.5 Y6.963 Z7.381 I0 J1.412
X-178.5 Y4.138 Z7.276 I0 J-1.412
X-178.5 Y6.963 Z7.171 I0 J1.412
X-178.5 Y4.138 Z7.067 I0 J-1.412
X-178.5 Y6.963 Z6.962 I0 J1.412
X-178.5 Y4.138 Z6.857 I0 J-1.412
X-178.5 Y6.963 Z6.752 I0 J1.412
X-178.5 Y4.138 Z6.648 I0 J-1.412
X-178.5 Y6.962 Z6.543 I0 J1.412
X-178.5 Y4.138 Z6.438 I0 J-1.412
X-178.5 Y6.962 Z6.333 I0 J1.412
X-178.5 Y4.138 Z6.229 I0 J-1.412
X-178.5 Y6.962 Z6.124 I0 J1.412
X-178.5 Y4.138 Z6.019 I0 J-1.412
X-178.5 Y6.962 Z5.914 I0 J1.412
X-178.5 Y4.138 Z5.81 I0 J-1.412
X-178.5 Y6.962 Z5.705 I0 J1.412
X-178.5 Y4.138 Z5.6 I0 J-1.412
X-178.5 Y6.962 Z5.495 I0 J1.412
X-178.5 Y4.138 Z5.39 I0 J-1.412
X-178.5 Y6.962 Z5.286 I0 J1.412
X-178.5 Y4.138 Z5.181 I0 J-1.412
X-178.5 Y6.962 Z5.076 I0 J1.412
X-178.5 Y4.138 Z4.971 I0 J-1.412
X-178.5 Y6.962 Z4.867 I0 J1.412
X-178.5 Y4.138 Z4.762 I0 J-1.412
X-178.5 Y6.962 Z4.657 I0 J1.412
X-178.5 Y4.138 Z4.552 I0 J-1.412
X-178.5 Y6.962 Z4.448 I0 J1.412
X-178.5 Y4.138 Z4.343 I0 J-1.412
X-178.5 Y6.962 Z4.238 I0 J1.412
X-178.5 Y4.138 Z4.133 I0 J-1.412
X-178.5 Y6.962 Z4.029 I0 J1.412
X-178.5 Y4.138 Z3.924 I0 J-1.412
X-178.5 Y6.962 Z3.819 I0 J1.412
X-178.5 Y4.138 Z3.714 I0 J-1.412
X-178.5 Y6.962 Z3.609 I0 J1.412
X-178.5 Y4.138 Z3.505 I0 J-1.412
X-178.5 Y6.962 Z3.4 I0 J1.412
X-178.5 Y4.138 Z3.295 I0 J-1.412
X-178.5 Y6.962 Z3.19 I0 J1.412
X-178.5 Y4.138 Z3.086 I0 J-1.412
X-178.5 Y6.962 Z2.981 I0 J1.412
X-178.5 Y4.138 Z2.876 I0 J-1.412
X-178.5 Y6.962 Z2.771 I0 J1.412
X-178.5 Y4.138 Z2.667 I0 J-1.412
X-178.5 Y6.962 Z2.562 I0 J1.412
X-178.5 Y4.138 Z2.457 I0 J-1.412
X-178.5 Y6.962 Z2.352 I0 J1.412
X-178.5 Y4.138 Z2.248 I0 J-1.412
X-178.5 Y6.962 Z2.143 I0 J1.412
X-178.5 Y4.138 Z2.038 I0 J-1.412
X-178.5 Y6.962 Z1.933 I0 J1.412
X-178.5 Y4.138 Z1.829 I0 J-1.412
X-178.5 Y6.962 Z1.724 I0 J1.412
X-178.5 Y4.138 Z1.619 I0 J-1.412
X-178.5 Y6.962 Z1.514 I0 J1.412
X-178.5 Y4.138 Z1.409 I0 J-1.412
X-178.5 Y6.962 Z1.305 I0 J1.412
X-178.5 Y4.138 Z1.2 I0 J-1.412
X-178.5 Y6.962 Z1.095 I0 J1.412
X-178.5 Y4.138 Z0.99 I0 J-1.412
X-178.5 Y6.962 Z0.886 I0 J1.412
X-178.5 Y4.138 Z0.781 I0 J-1.412
X-178.5 Y6.962 Z0.676 I0 J1.412
X-178.5 Y4.138 Z0.571 I0 J-1.412
X-178.5 Y6.962 Z0.467 I0 J1.412
X-178.5 Y4.138 Z0.362 I0 J-1.412
X-178.5 Y6.962 Z0.257 I0 J1.412
X-178.5 Y4.138 Z0.152 I0 J-1.412
X-178.5 Y6.962 Z0.048 I0 J1.412
X-179.898 Y5.753 Z0 I0 J-1.412
X-177.102 Y5.347 I1.398 J-0.203
X-179.898 Y5.753 I-1.398 J0.203
X-179.629 Y5.393 I0.314 J-0.046
G1 X-179.472 Y5.37
X-179.402 Y5.36 Z0.008
X-179.336 Y5.35 Z0.031
X-179.276 Y5.342 Z0.069
X-179.226 Y5.334 Z0.12
X-179.189 Y5.329 Z0.18
X-179.166 Y5.326 Z0.247
X-179.158 Y5.325 Z0.317
G0 Z18.1
X-191.318 Y4.931
Z12
G1 Z10.318 F500
G19 G2 Y4.614 Z10 J-0.318 K0
G1 Y4.455
G17 G3 X-191 Y4.137 I0.318 J0
X-191 Y6.963 Z9.895 I0 J1.413
X-191 Y4.137 Z9.79 I0 J-1.413
X-191 Y6.963 Z9.686 I0 J1.413
X-191 Y4.137 Z9.581 I0 J-1.413
X-191 Y6.963 Z9.476 I0 J1.413
X-191 Y4.137 Z9.371 I0 J-1.413
X-191 Y6.963 Z9.267 I0 J1.413
X-191 Y4.137 Z9.162 I0 J-1.413
X-191 Y6.963 Z9.057 I0 J1.413
X-191 Y4.137 Z8.952 I0 J-1.413
X-191 Y6.963 Z8.848 I0 J1.413
X-191 Y4.138 Z8.743 I0 J-1.413
X-191 Y6.963 Z8.638 I0 J1.413
X-191 Y4.138 Z8.533 I0 J-1.413
X-191 Y6.963 Z8.429 I0 J1.413
X-191 Y4.138 Z8.324 I0 J-1.413
X-191 Y6.963 Z8.219 I0 J1.413
X-191 Y4.138 Z8.114 I0 J-1.413
X-191 Y6.963 Z8.01 I0 J1.413
X-191 Y4.138 Z7.905 I0 J-1.413
X-191 Y6.963 Z7.8 I0 J1.413
X-191 Y4.138 Z7.695 I0 J-1.413
X-191 Y6.963 Z7.59 I0 J1.412
X-191 Y4.138 Z7.486 I0 J-1.412
X-191 Y6.963 Z7.381 I0 J1.412
X-191 Y4.138 Z7.276 I0 J-1.412
X-191 Y6.963 Z7.171 I0 J1.412
X-191 Y4.138 Z7.067 I0 J-1.412
X-191 Y6.963 Z6.962 I0 J1.412
X-191 Y4.138 Z6.857 I0 J-1.412
X-191 Y6.963 Z6.752 I0 J1.412
X-191 Y4.138 Z6.648 I0 J-1.412
X-191 Y6.962 Z6.543 I0 J1.412
X-191 Y4.138 Z6.438 I0 J-1.412
X-191 Y6.962 Z6.333 I0 J1.412
X-191 Y4.138 Z6.229 I0 J-1.412
X-191 Y6.962 Z6.124 I0 J1.412
X-191 Y4.138 Z6.019 I0 J-1.412
X-191 Y6.962 Z5.914 I0 J1.412
X-191 Y4.138 Z5.81 I0 J-1.412
X-191 Y6.962 Z5.705 I0 J1.412
X-191 Y4.138 Z5.6 I0 J-1.412
X-191 Y6.962 Z5.495 I0 J1.412
X-191 Y4.138 Z5.39 I0 J-1.412
X-191 Y6.962 Z5.286 I0 J1.412
X-191 Y4.138 Z5.181 I0 J-1.412
X-191 Y6.962 Z5.076 I0 J1.412
X-191 Y4.138 Z4.971 I0 J-1.412
X-191 Y6.962 Z4.867 I0 J1.412
X-191 Y4.138 Z4.762 I0 J-1.412
X-191 Y6.962 Z4.657 I0 J1.412
X-191 Y4.138 Z4.552 I0 J-1.412
X-191 Y6.962 Z4.448 I0 J1.412
X-191 Y4.138 Z4.343 I0 J-1.412
X-191 Y6.962 Z4.238 I0 J1.412
X-191 Y4.138 Z4.133 I0 J-1.412
X-191 Y6.962 Z4.029 I0 J1.412
X-191 Y4.138 Z3.924 I0 J-1.412
X-191 Y6.962 Z3.819 I0 J1.412
X-191 Y4.138 Z3.714 I0 J-1.412
X-191 Y6.962 Z3.609 I0 J1.412
X-191 Y4.138 Z3.505 I0 J-1.412
X-191 Y6.962 Z3.4 I0 J1.412
X-191 Y4.138 Z3.295 I0 J-1.412
X-191 Y6.962 Z3.19 I0 J1.412
X-191 Y4.138 Z3.086 I0 J-1.412
X-191 Y6.962 Z2.981 I0 J1.412
X-191 Y4.138 Z2.876 I0 J-1.412
X-191 Y6.962 Z2.771 I0 J1.412
X-191 Y4.138 Z2.667 I0 J-1.412
X-191 Y6.962 Z2.562 I0 J1.412
X-191 Y4.138 Z2.457 I0 J-1.412
X-191 Y6.962 Z2.352 I0 J1.412
X-191 Y4.138 Z2.248 I0 J-1.412
X-191 Y6.962 Z2.143 I0 J1.412
X-191 Y4.138 Z2.038 I0 J-1.412
X-191 Y6.962 Z1.933 I0 J1.412
X-191 Y4.138 Z1.829 I0 J-1.412
X-191 Y6.962 Z1.724 I0 J1.412
X-191 Y4.138 Z1.619 I0 J-1.412
X-191 Y6.962 Z1.514 I0 J1.412
X-191 Y4.138 Z1.409 I0 J-1.412
X-191 Y6.962 Z1.305 I0 J1.412
X-191 Y4.138 Z1.2 I0 J-1.412
X-191 Y6.962 Z1.095 I0 J1.412
X-191 Y4.138 Z0.99 I0 J-1.412
X-191 Y6.962 Z0.886 I0 J1.412
X-191 Y4.138 Z0.781 I0 J-1.412
X-191 Y6.962 Z0.676 I0 J1.412
X-191 Y4.138 Z0.571 I0 J-1.412
X-191 Y6.962 Z0.467 I0 J1.412
X-191 Y4.138 Z0.362 I0 J-1.412
X-191 Y6.962 Z0.257 I0 J1.412
X-191 Y4.138 Z0.152 I0 J-1.412
X-191 Y6.962 Z0.048 I0 J1.412
X-192.398 Y5.753 Z0 I0 J-1.412
X-189.602 Y5.347 I1.398 J-0.203
X-192.398 Y5.753 I-1.398 J0.203
X-192.129 Y5.393 I0.314 J-0.046
G1 X-191.972 Y5.37
X-191.902 Y5.36 Z0.008
X-191.836 Y5.35 Z0.031
X-191.776 Y5.342 Z0.069
X-191.726 Y5.334 Z0.12
X-191.689 Y5.329 Z0.18
X-191.666 Y5.326 Z0.247
X-191.658 Y5.325 Z0.317
G0 Z18.1
X-203.818 Y4.931
Z12
G1 Z10.318 F500
G19 G2 Y4.614 Z10 J-0.318 K0
G1 Y4.455
G17 G3 X-203.5 Y4.137 I0.318 J0
X-203.5 Y6.963 Z9.895 I0 J1.413
X-203.5 Y4.137 Z9.79 I0 J-1.413
X-203.5 Y6.963 Z9.686 I0 J1.413
X-203.5 Y4.137 Z9.581 I0 J-1.413
X-203.5 Y6.963 Z9.476 I0 J1.413
X-203.5 Y4.137 Z9.371 I0 J-1.413
X-203.5 Y6.963 Z9.267 I0 J1.413
X-203.5 Y4.137 Z9.162 I0 J-1.413
X-203.5 Y6.963 Z9.057 I0 J1.413
X-203.5 Y4.137 Z8.952 I0 J-1.413
X-203.5 Y6.963 Z8.848 I0 J1.413
X-203.5 Y4.138 Z8.743 I0 J-1.413
X-203.5 Y6.963 Z8.638 I0 J1.413
X-203.5 Y4.138 Z8.533 I0 J-1.413
X-203.5 Y6.963 Z8.429 I0 J1.413
X-203.5 Y4.138 Z8.324 I0 J-1.413
X-203.5 Y6.963 Z8.219 I0 J1.413
X-203.5 Y4.138 Z8.114 I0 J-1.413
X-203.5 Y6.963 Z8.01 I0 J1.413
X-203.5 Y4.138 Z7.905 I0 J-1.413
X-203.5 Y6.963 Z7.8 I0 J1.413
X-203.5 Y4.138 Z7.695 I0 J-1.413
X-203.5 Y6.963 Z7.59 I0 J1.412
X-203.5 Y4.138 Z7.486 I0 J-1.412
X-203.5 Y6.963 Z7.381 I0 J1.412
X-203.5 Y4.138 Z7.276 I0 J-1.412
X-203.5 Y6.963 Z7.171 I0 J1.412
X-203.5 Y4.138 Z7.067 I0 J-1.412
X-203.5 Y6.963 Z6.962 I0 J1.412
X-203.5 Y4.138 Z6.857 I0 J-1.412
X-203.5 Y6.963 Z6.752 I0 J1.412
X-203.5 Y4.138 Z6.648 I0 J-1.412
X-203.5 Y6.962 Z6.543 I0 J1.412
X-203.5 Y4.138 Z6.438 I0 J-1.412
X-203.5 Y6.962 Z6.333 I0 J1.412
X-203.5 Y4.138 Z6.229 I0 J-1.412
X-203.5 Y6.962 Z6.124 I0 J1.412
X-203.5 Y4.138 Z6.019 I0 J-1.412
X-203.5 Y6.962 Z5.914 I0 J1.412
X-203.5 Y4.138 Z5.81 I0 J-1.412
X-203.5 Y6.962 Z5.705 I0 J1.412
X-203.5 Y4.138 Z5.6 I0 J-1.412
X-203.5 Y6.962 Z5.495 I0 J1.412
X-203.5 Y4.138 Z5.39 I0 J-1.412
X-203.5 Y6.962 Z5.286 I0 J1.412
X-203.5 Y4.138 Z5.181 I0 J-1.412
X-203.5 Y6.962 Z5.076 I0 J1.412
X-203.5 Y4.138 Z4.971 I0 J-1.412
X-203.5 Y6.962 Z4.867 I0 J1.412
X-203.5 Y4.138 Z4.762 I0 J-1.412
X-203.5 Y6.962 Z4.657 I0 J1.412
X-203.5 Y4.138 Z4.552 I0 J-1.412
X-203.5 Y6.962 Z4.448 I0 J1.412
X-203.5 Y4.138 Z4.343 I0 J-1.412
X-203.5 Y6.962 Z4.238 I0 J1.412
X-203.5 Y4.138 Z4.133 I0 J-1.412
X-203.5 Y6.962 Z4.029 I0 J1.412
X-203.5 Y4.138 Z3.924 I0 J-1.412
X-203.5 Y6.962 Z3.819 I0 J1.412
X-203.5 Y4.138 Z3.714 I0 J-1.412
X-203.5 Y6.962 Z3.609 I0 J1.412
X-203.5 Y4.138 Z3.505 I0 J-1.412
X-203.5 Y6.962 Z3.4 I0 J1.412
X-203.5 Y4.138 Z3.295 I0 J-1.412
X-203.5 Y6.962 Z3.19 I0 J1.412
X-203.5 Y4.138 Z3.086 I0 J-1.412
X-203.5 Y6.962 Z2.981 I0 J1.412
X-203.5 Y4.138 Z2.876 I0 J-1.412
X-203.5 Y6.962 Z2.771 I0 J1.412
X-203.5 Y4.138 Z2.667 I0 J-1.412
X-203.5 Y6.962 Z2.562 I0 J1.412
X-203.5 Y4.138 Z2.457 I0 J-1.412
X-203.5 Y6.962 Z2.352 I0 J1.412
X-203.5 Y4.138 Z2.248 I0 J-1.412
X-203.5 Y6.962 Z2.143 I0 J1.412
X-203.5 Y4.138 Z2.038 I0 J-1.412
X-203.5 Y6.962 Z1.933 I0 J1.412
X-203.5 Y4.138 Z1.829 I0 J-1.412
X-203.5 Y6.962 Z1.724 I0 J1.412
X-203.5 Y4.138 Z1.619 I0 J-1.412
X-203.5 Y6.962 Z1.514 I0 J1.412
X-203.5 Y4.138 Z1.409 I0 J-1.412
X-203.5 Y6.962 Z1.305 I0 J1.412
X-203.5 Y4.138 Z1.2 I0 J-1.412
X-203.5 Y6.962 Z1.095 I0 J1.412
X-203.5 Y4.138 Z0.99 I0 J-1.412
X-203.5 Y6.962 Z0.886 I0 J1.412
X-203.5 Y4.138 Z0.781 I0 J-1.412
X-203.5 Y6.962 Z0.676 I0 J1.412
X-203.5 Y4.138 Z0.571 I0 J-1.412
X-203.5 Y6.962 Z0.467 I0 J1.412
X-203.5 Y4.138 Z0.362 I0 J-1.412
X-203.5 Y6.962 Z0.257 I0 J1.412
X-203.5 Y4.138 Z0.152 I0 J-1.412
X-203.5 Y6.962 Z0.048 I0 J1.412
X-204.898 Y5.753 Z0 I0 J-1.412
X-202.102 Y5.347 I1.398 J-0.203
X-204.898 Y5.753 I-1.398 J0.203
X-204.629 Y5.393 I0.314 J-0.046
G1 X-204.472 Y5.37
X-204.402 Y5.36 Z0.008
X-204.336 Y5.35 Z0.031
X-204.276 Y5.342 Z0.069
X-204.226 Y5.334 Z0.12
X-204.189 Y5.329 Z0.18
X-204.166 Y5.326 Z0.247
X-204.158 Y5.325 Z0.317
G0 Z18.1
X-216.318 Y17.431
Z12
G1 Z10.318 F500
G19 G2 Y17.114 Z10 J-0.317 K0
G1 Y16.955
G17 G3 X-216 Y16.638 I0.318 J0
X-216 Y19.462 Z9.895 I0 J1.412
X-216 Y16.638 Z9.79 I0 J-1.412
X-216 Y19.462 Z9.686 I0 J1.412
X-216 Y16.638 Z9.581 I0 J-1.412
X-216 Y19.462 Z9.476 I0 J1.412
X-216 Y16.638 Z9.371 I0 J-1.412
X-216 Y19.462 Z9.267 I0 J1.412
X-216 Y16.638 Z9.162 I0 J-1.412
X-216 Y19.462 Z9.057 I0 J1.412
X-216 Y16.638 Z8.952 I0 J-1.412
X-216 Y19.462 Z8.848 I0 J1.412
X-216 Y16.638 Z8.743 I0 J-1.412
X-216 Y19.462 Z8.638 I0 J1.412
X-216 Y16.638 Z8.533 I0 J-1.412
X-216 Y19.462 Z8.429 I0 J1.412
X-216 Y16.638 Z8.324 I0 J-1.412
X-216 Y19.462 Z8.219 I0 J1.412
X-216 Y16.638 Z8.114 I0 J-1.412
X-216 Y19.462 Z8.01 I0 J1.412
X-216 Y16.638 Z7.905 I0 J-1.412
X-216 Y19.462 Z7.8 I0 J1.412
X-216 Y16.638 Z7.695 I0 J-1.412
X-216 Y19.462 Z7.59 I0 J1.412
X-216 Y16.638 Z7.486 I0 J-1.412
X-216 Y19.462 Z7.381 I0 J1.412
X-216 Y16.638 Z7.276 I0 J-1.412
X-216 Y19.462 Z7.171 I0 J1.412
X-216 Y16.638 Z7.067 I0 J-1.412
X-216 Y19.462 Z6.962 I0 J1.412
X-216 Y16.638 Z6.857 I0 J-1.412
X-216 Y19.462 Z6.752 I0 J1.412
X-216 Y16.638 Z6.648 I0 J-1.412
X-216 Y19.462 Z6.543 I0 J1.412
X-216 Y16.638 Z6.438 I0 J-1.412
X-216 Y19.462 Z6.333 I0 J1.412
X-216 Y16.638 Z6.229 I0 J-1.412
X-216 Y19.462 Z6.124 I0 J1.412
X-216 Y16.638 Z6.019 I0 J-1.412
X-216 Y19.462 Z5.914 I0 J1.412
X-216 Y16.638 Z5.81 I0 J-1.412
X-216 Y19.462 Z5.705 I0 J1.412
X-216 Y16.638 Z5.6 I0 J-1.412
X-216 Y19.462 Z5.495 I0 J1.412
X-216 Y16.638 Z5.39 I0 J-1.412
X-216 Y19.462 Z5.286 I0 J1.412
X-216 Y16.638 Z5.181 I0 J-1.412
X-216 Y19.462 Z5.076 I0 J1.412
X-216 Y16.638 Z4.971 I0 J-1.412
X-216 Y19.462 Z4.867 I0 J1.412
X-216 Y16.638 Z4.762 I0 J-1.412
X-216 Y19.462 Z4.657 I0 J1.412
X-216 Y16.638 Z4.552 I0 J-1.412
X-216 Y19.462 Z4.448 I0 J1.412
X-216 Y16.638 Z4.343 I0 J-1.412
X-216 Y19.462 Z4.238 I0 J1.412
X-216 Y16.638 Z4.133 I0 J-1.412
X-216 Y19.462 Z4.029 I0 J1.412
X-216 Y16.638 Z3.924 I0 J-1.412
X-216 Y19.462 Z3.819 I0 J1.412
X-216 Y16.638 Z3.714 I0 J-1.412
X-216 Y19.462 Z3.609 I0 J1.412
X-216 Y16.638 Z3.505 I0 J-1.412
X-216 Y19.462 Z3.4 I0 J1.412
X-216 Y16.638 Z3.295 I0 J-1.412
X-216 Y19.462 Z3.19 I0 J1.412
X-216 Y16.638 Z3.086 I0 J-1.412
X-216 Y19.462 Z2.981 I0 J1.412
X-216 Y16.638 Z2.876 I0 J-1.412
X-216 Y19.462 Z2.771 I0 J1.412
X-216 Y16.638 Z2.667 I0 J-1.412
X-216 Y19.462 Z2.562 I0 J1.412
X-216 Y16.638 Z2.457 I0 J-1.412
X-216 Y19.462 Z2.352 I0 J1.412
X-216 Y16.638 Z2.248 I0 J-1.412
X-216 Y19.462 Z2.143 I0 J1.412
X-216 Y16.638 Z2.038 I0 J-1.412
X-216 Y19.462 Z1.933 I0 J1.412
X-216 Y16.638 Z1.829 I0 J-1.412
X-216 Y19.462 Z1.724 I0 J1.412
X-216 Y16.638 Z1.619 I0 J-1.412
X-216 Y19.462 Z1.514 I0 J1.412
X-216 Y16.638 Z1.409 I0 J-1.412
X-216 Y19.462 Z1.305 I0 J1.412
X-216 Y16.638 Z1.2 I0 J-1.412
X-216 Y19.462 Z1.095 I0 J1.412
X-216 Y16.638 Z0.99 I0 J-1.412
X-216 Y19.462 Z0.886 I0 J1.412
X-216 Y16.638 Z0.781 I0 J-1.412
X-216 Y19.462 Z0.676 I0 J1.412
X-216 Y16.638 Z0.571 I0 J-1.412
X-216 Y19.462 Z0.467 I0 J1.412
X-216 Y16.638 Z0.362 I0 J-1.412
X-216 Y19.462 Z0.257 I0 J1.412
X-216 Y16.638 Z0.152 I0 J-1.412
X-216 Y19.462 Z0.048 I0 J1.412
X-217.398 Y18.253 Z0 I0 J-1.412
X-214.602 Y17.847 I1.398 J-0.203
X-217.398 Y18.253 I-1.398 J0.203
X-217.129 Y17.893 I0.314 J-0.046
G1 X-216.972 Y17.87
X-216.902 Y17.86 Z0.008
X-216.836 Y17.85 Z0.031
X-216.776 Y17.842 Z0.069
X-216.726 Y17.834 Z0.12
X-216.689 Y17.829 Z0.18
X-216.666 Y17.826 Z0.247
X-216.658 Y17.825 Z0.317
G0 Z18.1
X-216.318 Y29.931
Z12
G1 Z10.318 F500
G19 G2 Y29.614 Z10 J-0.317 K0
G1 Y29.455
G17 G3 X-216 Y29.138 I0.318 J0
X-216 Y31.962 Z9.895 I0 J1.412
X-216 Y29.138 Z9.79 I0 J-1.412
X-216 Y31.962 Z9.686 I0 J1.412
X-216 Y29.138 Z9.581 I0 J-1.412
X-216 Y31.962 Z9.476 I0 J1.412
X-216 Y29.138 Z9.371 I0 J-1.412
X-216 Y31.962 Z9.267 I0 J1.412
X-216 Y29.138 Z9.162 I0 J-1.412
X-216 Y31.962 Z9.057 I0 J1.412
X-216 Y29.138 Z8.952 I0 J-1.412
X-216 Y31.962 Z8.848 I0 J1.412
X-216 Y29.138 Z8.743 I0 J-1.412
X-216 Y31.962 Z8.638 I0 J1.412
X-216 Y29.138 Z8.533 I0 J-1.412
X-216 Y31.962 Z8.429 I0 J1.412
X-216 Y29.138 Z8.324 I0 J-1.412
X-216 Y31.962 Z8.219 I0 J1.412
X-216 Y29.138 Z8.114 I0 J-1.412
X-216 Y31.962 Z8.01 I0 J1.412
X-216 Y29.138 Z7.905 I0 J-1.412
X-216 Y31.962 Z7.8 I0 J1.412
X-216 Y29.138 Z7.695 I0 J-1.412
X-216 Y31.962 Z7.59 I0 J1.412
X-216 Y29.138 Z7.486 I0 J-1.412
X-216 Y31.962 Z7.381 I0 J1.412
X-216 Y29.138 Z7.276 I0 J-1.412
X-216 Y31.962 Z7.171 I0 J1.412
X-216 Y29.138 Z7.067 I0 J-1.412
X-216 Y31.962 Z6.962 I0 J1.412
X-216 Y29.138 Z6.857 I0 J-1.412
X-216 Y31.962 Z6.752 I0 J1.412
X-216 Y29.138 Z6.648 I0 J-1.412
X-216 Y31.962 Z6.543 I0 J1.412
X-216 Y29.138 Z6.438 I0 J-1.412
X-216 Y31.962 Z6.333 I0 J1.412
X-216 Y29.138 Z6.229 I0 J-1.412
X-216 Y31.962 Z6.124 I0 J1.412
X-216 Y29.138 Z6.019 I0 J-1.412
X-216 Y31.962 Z5.914 I0 J1.412
X-216 Y29.138 Z5.81 I0 J-1.412
X-216 Y31.962 Z5.705 I0 J1.412
X-216 Y29.138 Z5.6 I0 J-1.412
X-216 Y31.962 Z5.495 I0 J1.412
X-216 Y29.138 Z5.39 I0 J-1.412
X-216 Y31.962 Z5.286 I0 J1.412
X-216 Y29.138 Z5.181 I0 J-1.412
X-216 Y31.962 Z5.076 I0 J1.412
X-216 Y29.138 Z4.971 I0 J-1.412
X-216 Y31.962 Z4.867 I0 J1.412
X-216 Y29.138 Z4.762 I0 J-1.412
X-216 Y31.962 Z4.657 I0 J1.412
X-216 Y29.138 Z4.552 I0 J-1.412
X-216 Y31.962 Z4.448 I0 J1.412
X-216 Y29.138 Z4.343 I0 J-1.412
X-216 Y31.962 Z4.238 I0 J1.412
X-216 Y29.138 Z4.133 I0 J-1.412
X-216 Y31.962 Z4.029 I0 J1.412
X-216 Y29.138 Z3.924 I0 J-1.412
X-216 Y31.962 Z3.819 I0 J1.412
X-216 Y29.138 Z3.714 I0 J-1.412
X-216 Y31.962 Z3.609 I0 J1.412
X-216 Y29.138 Z3.505 I0 J-1.412
X-216 Y31.962 Z3.4 I0 J1.412
X-216 Y29.138 Z3.295 I0 J-1.412
X-216 Y31.962 Z3.19 I0 J1.412
X-216 Y29.138 Z3.086 I0 J-1.412
X-216 Y31.962 Z2.981 I0 J1.412
X-216 Y29.138 Z2.876 I0 J-1.412
X-216 Y31.962 Z2.771 I0 J1.412
X-216 Y29.138 Z2.667 I0 J-1.412
X-216 Y31.962 Z2.562 I0 J1.412
X-216 Y29.138 Z2.457 I0 J-1.412
X-216 Y31.962 Z2.352 I0 J1.412
X-216 Y29.138 Z2.248 I0 J-1.412
X-216 Y31.962 Z2.143 I0 J1.412
X-216 Y29.138 Z2.038 I0 J-1.412
X-216 Y31.962 Z1.933 I0 J1.412
X-216 Y29.138 Z1.829 I0 J-1.412
X-216 Y31.962 Z1.724 I0 J1.412
X-216 Y29.138 Z1.619 I0 J-1.412
X-216 Y31.962 Z1.514 I0 J1.412
X-216 Y29.138 Z1.409 I0 J-1.412
X-216 Y31.962 Z1.305 I0 J1.412
X-216 Y29.138 Z1.2 I0 J-1.412
X-216 Y31.962 Z1.095 I0 J1.412
X-216 Y29.138 Z0.99 I0 J-1.412
X-216 Y31.962 Z0.886 I0 J1.412
X-216 Y29.138 Z0.781 I0 J-1.412
X-216 Y31.962 Z0.676 I0 J1.412
X-216 Y29.138 Z0.571 I0 J-1.412
X-216 Y31.962 Z0.467 I0 J1.412
X-216 Y29.138 Z0.362 I0 J-1.412
X-216 Y31.962 Z0.257 I0 J1.412
X-216 Y29.138 Z0.152 I0 J-1.412
X-216 Y31.962 Z0.048 I0 J1.412
X-217.398 Y30.753 Z0 I0 J-1.412
X-214.602 Y30.347 I1.398 J-0.203
X-217.398 Y30.753 I-1.398 J0.203
X-217.129 Y30.393 I0.314 J-0.046
G1 X-216.972 Y30.37
X-216.902 Y30.36 Z0.008
X-216.836 Y30.35 Z0.031
X-216.776 Y30.342 Z0.069
X-216.726 Y30.334 Z0.12
X-216.689 Y30.329 Z0.18
X-216.666 Y30.326 Z0.247
X-216.658 Y30.325 Z0.317
G0 Z18.1
X-216.318 Y42.431
Z12
G1 Z10.318 F500
G19 G2 Y42.114 Z10 J-0.318 K0
G1 Y41.955
G17 G3 X-216 Y41.638 I0.318 J0
X-216 Y44.462 Z9.895 I0 J1.412
X-216 Y41.638 Z9.79 I0 J-1.412
X-216 Y44.462 Z9.686 I0 J1.412
X-216 Y41.638 Z9.581 I0 J-1.412
X-216 Y44.462 Z9.476 I0 J1.412
X-216 Y41.638 Z9.371 I0 J-1.412
X-216 Y44.462 Z9.267 I0 J1.412
X-216 Y41.638 Z9.162 I0 J-1.412
X-216 Y44.462 Z9.057 I0 J1.412
X-216 Y41.638 Z8.952 I0 J-1.412
X-216 Y44.462 Z8.848 I0 J1.412
X-216 Y41.638 Z8.743 I0 J-1.412
X-216 Y44.462 Z8.638 I0 J1.412
X-216 Y41.638 Z8.533 I0 J-1.412
X-216 Y44.462 Z8.429 I0 J1.412
X-216 Y41.638 Z8.324 I0 J-1.412
X-216 Y44.462 Z8.219 I0 J1.412
X-216 Y41.638 Z8.114 I0 J-1.412
X-216 Y44.462 Z8.01 I0 J1.412
X-216 Y41.638 Z7.905 I0 J-1.412
X-216 Y44.462 Z7.8 I0 J1.412
X-216 Y41.638 Z7.695 I0 J-1.412
X-216 Y44.462 Z7.59 I0 J1.412
X-216 Y41.638 Z7.486 I0 J-1.412
X-216 Y44.462 Z7.381 I0 J1.412
X-216 Y41.638 Z7.276 I0 J-1.412
X-216 Y44.462 Z7.171 I0 J1.412
X-216 Y41.638 Z7.067 I0 J-1.412
X-216 Y44.462 Z6.962 I0 J1.412
X-216 Y41.638 Z6.857 I0 J-1.412
X-216 Y44.462 Z6.752 I0 J1.412
X-216 Y41.638 Z6.648 I0 J-1.412
X-216 Y44.462 Z6.543 I0 J1.412
X-216 Y41.638 Z6.438 I0 J-1.412
X-216 Y44.462 Z6.333 I0 J1.412
X-216 Y41.638 Z6.229 I0 J-1.412
X-216 Y44.462 Z6.124 I0 J1.412
X-216 Y41.638 Z6.019 I0 J-1.412
X-216 Y44.462 Z5.914 I0 J1.412
X-216 Y41.638 Z5.81 I0 J-1.412
X-216 Y44.462 Z5.705 I0 J1.412
X-216 Y41.638 Z5.6 I0 J-1.412
X-216 Y44.462 Z5.495 I0 J1.412
X-216 Y41.638 Z5.39 I0 J-1.412
X-216 Y44.462 Z5.286 I0 J1.412
X-216 Y41.638 Z5.181 I0 J-1.412
X-216 Y44.462 Z5.076 I0 J1.412
X-216 Y41.638 Z4.971 I0 J-1.412
X-216 Y44.462 Z4.867 I0 J1.412
X-216 Y41.638 Z4.762 I0 J-1.412
X-216 Y44.462 Z4.657 I0 J1.412
X-216 Y41.638 Z4.552 I0 J-1.412
X-216 Y44.462 Z4.448 I0 J1.412
X-216 Y41.638 Z4.343 I0 J-1.412
X-216 Y44.462 Z4.238 I0 J1.412
X-216 Y41.638 Z4.133 I0 J-1.412
X-216 Y44.462 Z4.029 I0 J1.412
X-216 Y41.638 Z3.924 I0 J-1.412
X-216 Y44.462 Z3.819 I0 J1.412
X-216 Y41.638 Z3.714 I0 J-1.412
X-216 Y44.462 Z3.609 I0 J1.412
X-216 Y41.638 Z3.505 I0 J-1.412
X-216 Y44.462 Z3.4 I0 J1.412
X-216 Y41.638 Z3.295 I0 J-1.412
X-216 Y44.462 Z3.19 I0 J1.412
X-216 Y41.638 Z3.086 I0 J-1.412
X-216 Y44.462 Z2.981 I0 J1.412
X-216 Y41.638 Z2.876 I0 J-1.412
X-216 Y44.462 Z2.771 I0 J1.412
X-216 Y41.638 Z2.667 I0 J-1.412
X-216 Y44.462 Z2.562 I0 J1.412
X-216 Y41.638 Z2.457 I0 J-1.412
X-216 Y44.462 Z2.352 I0 J1.412
X-216 Y41.638 Z2.248 I0 J-1.412
X-216 Y44.462 Z2.143 I0 J1.412
X-216 Y41.638 Z2.038 I0 J-1.412
X-216 Y44.462 Z1.933 I0 J1.412
X-216 Y41.638 Z1.829 I0 J-1.412
X-216 Y44.462 Z1.724 I0 J1.412
X-216 Y41.638 Z1.619 I0 J-1.412
X-216 Y44.462 Z1.514 I0 J1.412
X-216 Y41.638 Z1.409 I0 J-1.412
X-216 Y44.462 Z1.305 I0 J1.412
X-216 Y41.638 Z1.2 I0 J-1.412
X-216 Y44.462 Z1.095 I0 J1.412
X-216 Y41.638 Z0.99 I0 J-1.412
X-216 Y44.462 Z0.886 I0 J1.412
X-216 Y41.638 Z0.781 I0 J-1.412
X-216 Y44.462 Z0.676 I0 J1.412
X-216 Y41.638 Z0.571 I0 J-1.412
X-216 Y44.462 Z0.467 I0 J1.412
X-216 Y41.638 Z0.362 I0 J-1.412
X-216 Y44.462 Z0.257 I0 J1.412
X-216 Y41.638 Z0.152 I0 J-1.412
X-216 Y44.462 Z0.048 I0 J1.412
X-217.398 Y43.253 Z0 I0 J-1.412
X-214.602 Y42.847 I1.398 J-0.203
X-217.398 Y43.253 I-1.398 J0.203
X-217.129 Y42.893 I0.314 J-0.046
G1 X-216.972 Y42.87
X-216.902 Y42.86 Z0.008
X-216.836 Y42.85 Z0.031
X-216.776 Y42.842 Z0.069
X-216.726 Y42.834 Z0.12
X-216.689 Y42.829 Z0.18
X-216.666 Y42.826 Z0.247
X-216.658 Y42.825 Z0.317
G0 Z28.1
G28 G91 Z0
G90
G28 G91 X0 Y0
G90
M5
M30
