(chamfer1)
(T2 D=3 CR=0 TAPER=45deg - ZMIN=3 - chamfer mill)
G90 G94
G17
G21
G28 G91 Z0
G90

(2D Chamfer2)
T2
S15000 M3
G17 G90 G94
G54
G0 X-104.632 Y26.595
Z28.1
G0 Z15.1
G1 Z12.1 F333.3
Z9
X-104.372 Y26.445 F1000
X-102.45 Y29.775
G3 X-102.45 Y31.325 I-1.342 J0.775
G1 X-106.295 Y37.985
G3 X-107.637 Y38.76 I-1.342 J-0.775
G1 X-115.328
G3 X-116.67 Y37.985 I0 J-1.55
G1 X-120.515 Y31.325
G3 X-120.515 Y29.775 I1.342 J-0.775
G1 X-116.67 Y23.115
G3 X-115.328 Y22.34 I1.342 J0.775
G1 X-107.637
G3 X-106.295 Y23.115 I0 J1.55
G1 X-104.372 Y26.445
X-104.632 Y26.595
G0 Z18.1
X-87.632 Y24.505
Z15.1
G1 Z12.1 F333.3
Z9
X-87.372 Y24.655 F1000
X-89.295 Y27.985
G3 X-90.637 Y28.76 I-1.342 J-0.775
G1 X-98.328
G3 X-99.67 Y27.985 I0 J-1.55
G1 X-103.515 Y21.325
G3 X-103.515 Y19.775 I1.342 J-0.775
G1 X-99.67 Y13.115
G3 X-98.328 Y12.34 I1.342 J0.775
G1 X-90.637
G3 X-89.295 Y13.115 I0 J1.55
G1 X-85.45 Y19.775
G3 X-85.45 Y21.325 I-1.342 J0.775
G1 X-87.372 Y24.655
X-87.632 Y24.505
G0 Z18.1
X-70.632 Y26.595
Z15.1
G1 Z12.1 F333.3
Z9
X-70.372 Y26.445 F1000
X-68.45 Y29.775
G3 X-68.45 Y31.325 I-1.342 J0.775
G1 X-72.295 Y37.985
G3 X-73.637 Y38.76 I-1.342 J-0.775
G1 X-81.328
G3 X-82.67 Y37.985 I0 J-1.55
G1 X-86.515 Y31.325
G3 X-86.515 Y29.775 I1.342 J-0.775
G1 X-82.67 Y23.115
G3 X-81.328 Y22.34 I1.342 J0.775
G1 X-73.637
G3 X-72.295 Y23.115 I0 J1.55
G1 X-70.372 Y26.445
X-70.632 Y26.595
G0 Z18.1
X-61.75 Y20.55
Z15.1
G1 Z12.1 F333.3
Z9
X-61.45 F1000
Y27.21
G3 X-63 Y28.76 I-1.55 J0
G1 X-64.345
G3 X-65.688 Y27.985 I0 J-1.55
G1 X-69.533 Y21.325
G3 X-69.533 Y19.775 I1.342 J-0.775
G1 X-65.688 Y13.115
G3 X-64.345 Y12.34 I1.342 J0.775
G1 X-63
G3 X-61.45 Y13.89 I0 J1.55
G1 Y20.55
X-61.75
G0 Z18.1
X-74.562 Y9.059
Z15.1
G1 Z12.1 F333.3
Z9
X-74.348 Y8.848 F1000
G2 X-71 Y10.25 I3.348 J-3.298
G1 X-70.242
G3 X-68.9 Y12.575 I0 J1.55
G1 X-72.312 Y18.485
G3 X-73.655 Y19.26 I-1.342 J-0.775
G1 X-81.345
G3 X-82.688 Y18.485 I0 J-1.55
G1 X-86.533 Y11.825
G3 X-86.533 Y10.275 I1.342 J-0.775
G1 X-82.688 Y3.615
G3 X-81.345 Y2.84 I1.342 J0.775
G1 X-77.141
G3 X-75.618 Y4.677 I0 J1.55
G2 X-74.348 Y8.848 I4.618 J0.873
G1 X-74.562 Y9.059
G0 Z18.1
X-59.514 Y5.753
Z15.1
G1 Z12.1 F333.3
Z9
X-59.217 Y5.794 F1000
G3 X-61 Y7.35 I-1.783 J-0.244
G1 X-71
G3 X-71 Y3.75 I0 J-1.8
G1 X-61
G3 X-59.217 Y5.794 I0 J1.8
G1 X-59.514 Y5.753
G0 Z18.1
X-3 Y-0.2
Z15.1
G1 Z12.1 F333.3
Z9
Y0.1 F1000
X-205.172
G2 X-206.904 Y0.818 I0 J2.45
G1 X-220.732 Y14.646
G2 X-221.45 Y16.378 I1.732 J1.733
G1 Y44.722
G2 X-220.732 Y46.454 I2.45 J0
G1 X-206.904 Y60.282
G2 X-205.172 Y61 I1.732 J-1.732
G1 X-3
G2 X-0.55 Y58.55 I0 J-2.45
G1 Y2.55
G2 X-3 Y0.1 I-2.45 J0
G1 Y-0.2
G0 Z18.1
X-4.65 Y15.55
Z15.1
G1 Z12.1 F333.3
Z9
X-4.35 F1000
G3 X-7.65 Y15.55 I-1.65 J0
X-4.35 Y15.55 I1.65 J0
G1 X-4.65
G0 Z18.1
X-19.632 Y16.595
Z15.1
G1 Z12.1 F333.3
Z9
X-19.372 Y16.445 F1000
X-17.45 Y19.775
G3 X-17.45 Y21.325 I-1.342 J0.775
G1 X-21.295 Y27.985
G3 X-22.637 Y28.76 I-1.342 J-0.775
G1 X-30.328
G3 X-31.67 Y27.985 I0 J-1.55
G1 X-35.515 Y21.325
G3 X-35.515 Y19.775 I1.342 J-0.775
G1 X-31.67 Y13.115
G3 X-30.328 Y12.34 I1.342 J0.775
G1 X-22.637
G3 X-21.295 Y13.115 I0 J1.55
G1 X-19.372 Y16.445
X-19.632 Y16.595
G0 Z18.1
X-31 Y4.05
Z15.1
G1 Z12.1 F333.3
Z9
Y3.75 F1000
X-21
G3 X-21 Y7.35 I0 J1.8
G1 X-31
G3 X-31 Y3.75 I0 J-1.8
G1 Y4.05
G0 Z18.1
X-19.632 Y36.595
Z15.1
G1 Z12.1 F333.3
Z9
X-19.372 Y36.445 F1000
X-17.45 Y39.775
G3 X-17.45 Y41.325 I-1.342 J0.775
G1 X-21.295 Y47.985
G3 X-22.637 Y48.76 I-1.342 J-0.775
G1 X-30.328
G3 X-31.67 Y47.985 I0 J-1.55
G1 X-35.515 Y41.325
G3 X-35.515 Y39.775 I1.342 J-0.775
G1 X-31.67 Y33.115
G3 X-30.328 Y32.34 I1.342 J0.775
G1 X-22.637
G3 X-21.295 Y33.115 I0 J1.55
G1 X-19.372 Y36.445
X-19.632 Y36.595
G0 Z18.1
X-4.65 Y45.55
Z15.1
G1 Z12.1 F333.3
Z9
X-4.35 F1000
G3 X-7.65 Y45.55 I-1.65 J0
X-4.35 Y45.55 I1.65 J0
G1 X-4.65
G0 Z18.1
X-31 Y54.05
Z15.1
G1 Z12.1 F333.3
Z9
Y53.75 F1000
X-21
G3 X-21 Y57.35 I0 J1.8
G1 X-31
G3 X-31 Y53.75 I0 J-1.8
G1 Y54.05
G0 Z18.1
X-59.514 Y55.753
Z15.1
G1 Z12.1 F333.3
Z9
X-59.217 Y55.794 F1000
G3 X-61 Y57.35 I-1.783 J-0.244
G1 X-71
G3 X-71 Y53.75 I0 J-1.8
G1 X-61
G3 X-59.217 Y55.794 I0 J1.8
G1 X-59.514 Y55.753
G0 Z18.1
X-61.648 Y40.55
Z15.1
G1 Z12.1 F333.3
Z9
X-61.348 F1000
Y47.21
G3 X-62.898 Y48.76 I-1.55 J0
G1 X-64.345
G3 X-65.688 Y47.985 I0 J-1.55
G1 X-69.533 Y41.325
G3 X-69.533 Y39.775 I1.342 J-0.775
G1 X-65.688 Y33.115
G3 X-64.345 Y32.34 I1.342 J0.775
G1 X-62.898
G3 X-61.348 Y33.89 I0 J1.55
G1 Y40.55
X-61.648
G0 Z18.1
X-74.562 Y52.041
Z15.1
G1 Z12.1 F333.3
Z9
X-74.348 Y52.252 F1000
G2 X-75.618 Y56.423 I3.348 J3.298
G3 X-77.141 Y58.26 I-1.523 J0.288
G1 X-81.345
G3 X-82.688 Y57.485 I0 J-1.55
G1 X-86.533 Y50.825
G3 X-86.533 Y49.275 I1.342 J-0.775
G1 X-82.688 Y42.615
G3 X-81.345 Y41.84 I1.342 J0.775
G1 X-73.655
G3 X-72.312 Y42.615 I0 J1.55
G1 X-68.9 Y48.525
G3 X-70.242 Y50.85 I-1.342 J0.775
G1 X-71
G2 X-74.348 Y52.252 I0 J4.7
G1 X-74.562 Y52.041
G0 Z18.1
X-87.632 Y36.595
Z15.1
G1 Z12.1 F333.3
Z9
X-87.372 Y36.445 F1000
X-85.45 Y39.775
G3 X-85.45 Y41.325 I-1.342 J0.775
G1 X-89.295 Y47.985
G3 X-90.637 Y48.76 I-1.342 J-0.775
G1 X-98.328
G3 X-99.67 Y47.985 I0 J-1.55
G1 X-103.515 Y41.325
G3 X-103.515 Y39.775 I1.342 J-0.775
G1 X-99.67 Y33.115
G3 X-98.328 Y32.34 I1.342 J0.775
G1 X-90.637
G3 X-89.295 Y33.115 I0 J1.55
G1 X-87.372 Y36.445
X-87.632 Y36.595
G0 Z18.1
X-89.514 Y55.753
Z15.1
G1 Z12.1 F333.3
Z9
X-89.217 Y55.794 F1000
G3 X-91 Y57.35 I-1.783 J-0.244
G1 X-101
G3 X-101 Y53.75 I0 J-1.8
G1 X-91
G3 X-89.217 Y55.794 I0 J1.8
G1 X-89.514 Y55.753
G0 Z18.1
X-131.029 Y54.05
Z15.1
G1 Z12.1 F333.3
Z9
X-131.028 Y53.75 F1000
X-121.062 Y53.782
G3 X-121.074 Y57.383 I-0.006 J1.8
G1 X-131.04 Y57.35
G3 X-132.834 Y55.544 I0.006 J-1.8
X-131.028 Y53.75 I1.8 J0.006
G1 X-131.029 Y54.05
G0 Z18.1
X-121.632 Y36.595
Z15.1
G1 Z12.1 F333.3
Z9
X-121.372 Y36.445 F1000
X-119.45 Y39.775
G3 X-119.45 Y41.325 I-1.342 J0.775
G1 X-123.295 Y47.985
G3 X-124.637 Y48.76 I-1.342 J-0.775
G1 X-132.328
G3 X-133.67 Y47.985 I0 J-1.55
G1 X-137.515 Y41.325
G3 X-137.515 Y39.775 I1.342 J-0.775
G1 X-133.67 Y33.115
G3 X-132.328 Y32.34 I1.342 J0.775
G1 X-124.637
G3 X-123.295 Y33.115 I0 J1.55
G1 X-121.372 Y36.445
X-121.632 Y36.595
G0 Z18.1
Y16.595
Z15.1
G1 Z12.1 F333.3
Z9
X-121.372 Y16.445 F1000
X-119.45 Y19.775
G3 X-119.45 Y21.325 I-1.342 J0.775
G1 X-123.295 Y27.985
G3 X-124.637 Y28.76 I-1.342 J-0.775
G1 X-132.328
G3 X-133.67 Y27.985 I0 J-1.55
G1 X-137.515 Y21.325
G3 X-137.515 Y19.775 I1.342 J-0.775
G1 X-133.67 Y13.115
G3 X-132.328 Y12.34 I1.342 J0.775
G1 X-124.637
G3 X-123.295 Y13.115 I0 J1.55
G1 X-121.372 Y16.445
X-121.632 Y16.595
G0 Z18.1
X-131.029 Y4.05
Z15.1
G1 Z12.1 F333.3
Z9
X-131.028 Y3.75 F1000
X-121.062 Y3.782
G3 X-121.074 Y7.382 I-0.006 J1.8
G1 X-131.039 Y7.35
G3 X-132.834 Y5.544 I0.005 J-1.8
X-131.028 Y3.75 I1.8 J0.006
G1 X-131.029 Y4.05
G0 Z18.1
X-138.632 Y7.095
Z15.1
G1 Z12.1 F333.3
Z9
X-138.372 Y6.945 F1000
X-136.45 Y10.275
G3 X-136.45 Y11.825 I-1.342 J0.775
G1 X-140.295 Y18.485
G3 X-141.637 Y19.26 I-1.342 J-0.775
G1 X-149.328
G3 X-150.67 Y18.485 I0 J-1.55
G1 X-154.515 Y11.825
G3 X-154.515 Y10.275 I1.342 J-0.775
G1 X-150.67 Y3.615
G3 X-149.328 Y2.84 I1.342 J0.775
G1 X-141.637
G3 X-140.295 Y3.615 I0 J1.55
G1 X-138.372 Y6.945
X-138.632 Y7.095
G0 Z18.1
Y26.595
Z15.1
G1 Z12.1 F333.3
Z9
X-138.372 Y26.445 F1000
X-136.45 Y29.775
G3 X-136.45 Y31.325 I-1.342 J0.775
G1 X-140.295 Y37.985
G3 X-141.637 Y38.76 I-1.342 J-0.775
G1 X-149.328
G3 X-150.67 Y37.985 I0 J-1.55
G1 X-154.515 Y31.325
G3 X-154.515 Y29.775 I1.342 J-0.775
G1 X-150.67 Y23.115
G3 X-149.328 Y22.34 I1.342 J0.775
G1 X-141.637
G3 X-140.295 Y23.115 I0 J1.55
G1 X-138.372 Y26.445
X-138.632 Y26.595
G0 Z18.1
Y46.095
Z15.1
G1 Z12.1 F333.3
Z9
X-138.372 Y45.945 F1000
X-136.45 Y49.275
G3 X-136.45 Y50.825 I-1.342 J0.775
G1 X-140.295 Y57.485
G3 X-141.637 Y58.26 I-1.342 J-0.775
G1 X-149.328
G3 X-150.67 Y57.485 I0 J-1.55
G1 X-154.515 Y50.825
G3 X-154.515 Y49.275 I1.342 J-0.775
G1 X-150.67 Y42.615
G3 X-149.328 Y41.84 I1.342 J0.775
G1 X-141.637
G3 X-140.295 Y42.615 I0 J1.55
G1 X-138.372 Y45.945
X-138.632 Y46.095
G0 Z18.1
X-161.664 Y57.8
Z15.1
G1 Z12.1 F333.3
Z9
Y58.1 F1000
X-164.675
G3 X-165.778 Y55.461 I0 J-1.55
G2 X-163.493 Y52.912 I-25.223 J-24.91
G3 X-162.29 Y52.34 I1.203 J0.978
G1 X-158.655
G3 X-157.313 Y53.115 I0 J1.55
G1 X-155.777 Y55.775
G3 X-157.119 Y58.1 I-1.342 J0.775
G1 X-161.664
Y57.8
G0 Z18.1
X-163.75 Y43.05
Z15.1
G1 Z12.1 F333.3
Z9
X-163.45 F1000
G3 X-168.55 Y43.05 I-2.55 J0
X-163.45 Y43.05 I2.55 J0
G1 X-163.75
G0 Z18.1
X-172.75 Y47.55
Z15.1
G1 Z12.1 F333.3
Z9
X-172.45 F1000
G3 X-175.55 Y47.55 I-1.55 J0
X-172.45 Y47.55 I1.55 J0
G1 X-172.75
G0 Z18.1
X-176.25 Y55.55
Z15.1
G1 Z12.1 F333.3
Z9
X-175.95 F1000
G3 X-181.05 Y55.55 I-2.55 J0
X-175.95 Y55.55 I2.55 J0
G1 X-176.25
G0 Z18.1
X-188.75
Z15.1
G1 Z12.1 F333.3
Z9
X-188.45 F1000
G3 X-193.55 Y55.55 I-2.55 J0
X-188.45 Y55.55 I2.55 J0
G1 X-188.75
G0 Z18.1
X-201.25
Z15.1
G1 Z12.1 F333.3
Z9
X-200.95 F1000
G3 X-206.05 Y55.55 I-2.55 J0
X-200.95 Y55.55 I2.55 J0
G1 X-201.25
G0 Z18.1
X-206.75 Y47.55
Z15.1
G1 Z12.1 F333.3
Z9
X-206.45 F1000
G3 X-209.55 Y47.55 I-1.55 J0
X-206.45 Y47.55 I1.55 J0
G1 X-206.75
G0 Z18.1
X-213.75 Y43.05
Z15.1
G1 Z12.1 F333.3
Z9
X-213.45 F1000
G3 X-218.55 Y43.05 I-2.55 J0
X-213.45 Y43.05 I2.55 J0
G1 X-213.75
G0 Z18.1
Y30.55
Z15.1
G1 Z12.1 F333.3
Z9
X-213.45 F1000
G3 X-218.55 Y30.55 I-2.55 J0
X-213.45 Y30.55 I2.55 J0
G1 X-213.75
G0 Z18.1
X-213.76 Y18.264
Z15.1
G1 Z12.1 F333.3
Z9
X-213.462 Y18.292 F1000
G3 X-218.538 Y17.808 I-2.538 J-0.242
X-213.462 Y18.292 I2.538 J0.242
G1 X-213.76 Y18.264
G0 Z18.1
X-206.75 Y13.55
Z15.1
G1 Z12.1 F333.3
Z9
X-206.45 F1000
G3 X-209.55 Y13.55 I-1.55 J0
X-206.45 Y13.55 I1.55 J0
G1 X-206.75
G0 Z18.1
X-201.25 Y5.55
Z15.1
G1 Z12.1 F333.3
Z9
X-200.95 F1000
G3 X-206.05 Y5.55 I-2.55 J0
X-200.95 Y5.55 I2.55 J0
G1 X-201.25
G0 Z18.1
X-188.75
Z15.1
G1 Z12.1 F333.3
Z9
X-188.45 F1000
G3 X-193.55 Y5.55 I-2.55 J0
X-188.45 Y5.55 I2.55 J0
G1 X-188.75
G0 Z18.1
X-176.25
Z15.1
G1 Z12.1 F333.3
Z9
X-175.95 F1000
G3 X-181.05 Y5.55 I-2.55 J0
X-175.95 Y5.55 I2.55 J0
G1 X-176.25
G0 Z18.1
X-172.75 Y13.55
Z15.1
G1 Z12.1 F333.3
Z9
X-172.45 F1000
G3 X-175.55 Y13.55 I-1.55 J0
X-172.45 Y13.55 I1.55 J0
G1 X-172.75
G0 Z18.1
X-163.75 Y18.05
Z15.1
G1 Z12.1 F333.3
Z9
X-163.45 F1000
G3 X-168.55 Y18.05 I-2.55 J0
X-163.45 Y18.05 I2.55 J0
G1 X-163.75
G0 Z18.1
X-157.189 Y7.17
Z15.1
G1 Z12.1 F333.3
Z9
X-156.929 Y7.32 F1000
X-157.313 Y7.985
G3 X-158.655 Y8.76 I-1.342 J-0.775
G1 X-162.29
G3 X-163.493 Y8.188 I0 J-1.55
G2 X-165.778 Y5.639 I-27.507 J22.362
G3 X-164.675 Y3 I1.103 J-1.089
G1 X-157.119
G3 X-155.777 Y5.325 I0 J1.55
G1 X-156.929 Y7.32
X-157.189 Y7.17
G0 Z18.1
X-163.75 Y30.55
Z15.1
G1 Z12.1 F333.3
Z9
X-163.45 F1000
G3 X-168.55 Y30.55 I-2.55 J0
X-163.45 Y30.55 I2.55 J0
G1 X-163.75
G0 Z18.1
X-182.15 Y23.05
Z15.1
G1 Z12.1 F333.3
Z9
X-181.85 F1000
G3 X-185.15 Y23.05 I-1.65 J0
X-181.85 Y23.05 I1.65 J0
G1 X-182.15
G0 Z18.1
X-189.65 Y30.55
Z15.1
G1 Z12.1 F333.3
Z9
X-189.35 F1000
G3 X-192.65 Y30.55 I-1.65 J0
X-189.35 Y30.55 I1.65 J0
G1 X-189.65
G0 Z18.1
X-182.164 Y38.247
Z15.1
G1 Z12.1 F333.3
Z9
X-181.868 Y38.29 F1000
G3 X-185.132 Y37.81 I-1.632 J-0.24
X-181.868 Y38.29 I1.632 J0.24
G1 X-182.164 Y38.247
G0 Z18.1
X-197.15 Y38.05
Z15.1
G1 Z12.1 F333.3
Z9
X-196.85 F1000
G3 X-200.15 Y38.05 I-1.65 J0
X-196.85 Y38.05 I1.65 J0
G1 X-197.15
G0 Z18.1
Y23.05
Z15.1
G1 Z12.1 F333.3
Z9
X-196.85 F1000
G3 X-200.15 Y23.05 I-1.65 J0
X-196.85 Y23.05 I1.65 J0
G1 X-197.15
G0 Z18.1
X-89.514 Y5.753
Z15.1
G1 Z12.1 F333.3
Z9
X-89.217 Y5.794 F1000
G3 X-91 Y7.35 I-1.783 J-0.244
G1 X-101
G3 X-101 Y3.75 I0 J-1.8
G1 X-91
G3 X-89.217 Y5.794 I0 J1.8
G1 X-89.514 Y5.753
G0 Z18.1
X-49.25 Y30.55
Z15.1
G1 Z12.1 F333.3
Z9
X-48.95 F1000
G3 X-53.05 Y30.55 I-2.05 J0
X-48.95 Y30.55 I2.05 J0
G1 X-49.25
G0 Z28.1
X-76.014 Y30.75
Z15.1
G1 Z12.1 F333.3
Z3
X-75.716 Y30.79 F1000
G3 X-79.284 Y30.31 I-1.784 J-0.24
X-75.716 Y30.79 I1.784 J0.24
G1 X-76.014 Y30.75
G0 Z18.1
X-76 Y50.05
Z15.1
G1 Z12.1 F333.3
Z3
X-75.7 F1000
G3 X-79.3 Y50.05 I-1.8 J0
X-75.7 Y50.05 I1.8 J0
G1 X-76
G0 Z18.1
X-93 Y40.55
Z15.1
G1 Z12.1 F333.3
Z3
X-92.7 F1000
G3 X-96.3 Y40.55 I-1.8 J0
X-92.7 Y40.55 I1.8 J0
G1 X-93
G0 Z18.1
Y20.55
Z15.1
G1 Z12.1 F333.3
Z3
X-92.7 F1000
G3 X-96.3 Y20.55 I-1.8 J0
X-92.7 Y20.55 I1.8 J0
G1 X-93
G0 Z18.1
X-76 Y11.05
Z15.1
G1 Z12.1 F333.3
Z3
X-75.7 F1000
G3 X-79.3 Y11.05 I-1.8 J0
X-75.7 Y11.05 I1.8 J0
G1 X-76
G0 Z18.1
X-110 Y30.55
Z15.1
G1 Z12.1 F333.3
Z3
X-109.7 F1000
G3 X-113.3 Y30.55 I-1.8 J0
X-109.7 Y30.55 I1.8 J0
G1 X-110
G0 Z18.1
X-127 Y20.55
Z15.1
G1 Z12.1 F333.3
Z3
X-126.7 F1000
G3 X-130.3 Y20.55 I-1.8 J0
X-126.7 Y20.55 I1.8 J0
G1 X-127
G0 Z18.1
X-127.013 Y40.75
Z15.1
G1 Z12.1 F333.3
Z3
X-126.716 Y40.79 F1000
G3 X-130.284 Y40.31 I-1.784 J-0.24
X-126.716 Y40.79 I1.784 J0.24
G1 X-127.013 Y40.75
G0 Z18.1
X-144 Y50.05
Z15.1
G1 Z12.1 F333.3
Z3
X-143.7 F1000
G3 X-147.3 Y50.05 I-1.8 J0
X-143.7 Y50.05 I1.8 J0
G1 X-144
G0 Z18.1
Y30.55
Z15.1
G1 Z12.1 F333.3
Z3
X-143.7 F1000
G3 X-147.3 Y30.55 I-1.8 J0
X-143.7 Y30.55 I1.8 J0
G1 X-144
G0 Z18.1
Y11.05
Z15.1
G1 Z12.1 F333.3
Z3
X-143.7 F1000
G3 X-147.3 Y11.05 I-1.8 J0
X-143.7 Y11.05 I1.8 J0
G1 X-144
G0 Z18.1
X-25 Y20.55
Z15.1
G1 Z12.1 F333.3
Z3
X-24.7 F1000
G3 X-28.3 Y20.55 I-1.8 J0
X-24.7 Y20.55 I1.8 J0
G1 X-25
G0 Z18.1
Y40.55
Z15.1
G1 Z12.1 F333.3
Z3
X-24.7 F1000
G3 X-28.3 Y40.55 I-1.8 J0
X-24.7 Y40.55 I1.8 J0
G1 X-25
G0 Z28.1
G28 G91 Z0
G90
G28 G91 X0 Y0
G90
M5
M30
