(contour1)
(T6 D=3.175 CR=0 - ZMIN=0 - flat end mill)
G90 G94
G17
G21
G28 G91 Z0
G90

(2D Contour7)
T6
(18 Flat-45 degree helix)
S18000 M3
G17 G90 G94
G54
G0 X-68.584 Y54.888
Z30.1
G0 Z10.35
G1 Z10.3 F30
X-61 Z10.143 F600
G3 X-61 Y56.213 Z10.1 I0 J0.662
G1 X-71 Z9.893
G3 X-71 Y54.888 Z9.85 I0 J-0.663
G1 X-61 Z9.643
G3 X-61 Y56.213 Z9.6 I0 J0.662
G1 X-71 F1000
G3 X-71 Y54.888 I0 J-0.663
G1 X-61
G3 X-61 Y56.213 I0 J0.662
G1 X-71 Z9.393 F600
G3 X-71 Y54.888 Z9.35 I0 J-0.663
G1 X-61 Z9.143
G3 X-61 Y56.213 Z9.1 I0 J0.662
G1 X-71 F1000
G3 X-71 Y54.888 I0 J-0.663
G1 X-61
G3 X-61 Y56.213 I0 J0.662
G1 X-71 Z8.893 F600
G3 X-71 Y54.888 Z8.85 I0 J-0.663
G1 X-61 Z8.643
G3 X-61 Y56.213 Z8.6 I0 J0.662
G1 X-71 F1000
G3 X-71 Y54.888 I0 J-0.663
G1 X-61
G3 X-61 Y56.213 I0 J0.662
G1 X-71 Z8.393 F600
G3 X-71 Y54.888 Z8.35 I0 J-0.663
G1 X-61 Z8.143
G3 X-61 Y56.213 Z8.1 I0 J0.662
G1 X-71 F1000
G3 X-71 Y54.888 I0 J-0.663
G1 X-61
G3 X-61 Y56.213 I0 J0.662
G1 X-71 Z7.893 F600
G3 X-71 Y54.888 Z7.85 I0 J-0.663
G1 X-61 Z7.643
G3 X-61 Y56.213 Z7.6 I0 J0.662
G1 X-71 F1000
G3 X-71 Y54.888 I0 J-0.663
G1 X-61
G3 X-61 Y56.213 I0 J0.662
G1 X-71 Z7.393 F600
G3 X-71 Y54.888 Z7.35 I0 J-0.663
G1 X-61 Z7.143
G3 X-61 Y56.213 Z7.1 I0 J0.662
G1 X-71 F1000
G3 X-71 Y54.888 I0 J-0.663
G1 X-61
G3 X-61 Y56.213 I0 J0.662
G1 X-71 Z6.893 F600
G3 X-71 Y54.888 Z6.85 I0 J-0.663
G1 X-61 Z6.643
G3 X-61 Y56.213 Z6.6 I0 J0.662
G1 X-71 F1000
G3 X-71 Y54.888 I0 J-0.663
G1 X-61
G3 X-61 Y56.213 I0 J0.662
G1 X-71 Z6.393 F600
G3 X-71 Y54.888 Z6.35 I0 J-0.663
G1 X-61 Z6.143
G3 X-61 Y56.213 Z6.1 I0 J0.662
G1 X-71 F1000
G3 X-71 Y54.888 I0 J-0.663
G1 X-61
G3 X-61 Y56.213 I0 J0.662
G1 X-71 Z5.893 F600
G3 X-71 Y54.888 Z5.85 I0 J-0.663
G1 X-61 Z5.643
G3 X-61 Y56.213 Z5.6 I0 J0.662
G1 X-71 F1000
G3 X-71 Y54.888 I0 J-0.663
G1 X-61
G3 X-61 Y56.213 I0 J0.662
G1 X-71 Z5.393 F600
G3 X-71 Y54.888 Z5.35 I0 J-0.663
G1 X-61 Z5.143
G3 X-61 Y56.213 Z5.1 I0 J0.662
G1 X-71 F1000
G3 X-71 Y54.888 I0 J-0.663
G1 X-61
G3 X-61 Y56.213 I0 J0.662
G1 X-71 Z4.893 F600
G3 X-71 Y54.888 Z4.85 I0 J-0.663
G1 X-61 Z4.643
G3 X-61 Y56.213 Z4.6 I0 J0.662
G1 X-71 F1000
G3 X-71 Y54.888 I0 J-0.663
G1 X-61
G3 X-61 Y56.213 I0 J0.662
G1 X-71 Z4.393 F600
G3 X-71 Y54.888 Z4.35 I0 J-0.663
G1 X-61 Z4.143
G3 X-61 Y56.213 Z4.1 I0 J0.662
G1 X-71 F1000
G3 X-71 Y54.888 I0 J-0.663
G1 X-61
G3 X-61 Y56.213 I0 J0.662
G1 X-71 Z3.893 F600
G3 X-71 Y54.888 Z3.85 I0 J-0.663
G1 X-61 Z3.643
G3 X-61 Y56.213 Z3.6 I0 J0.662
G1 X-71 F1000
G3 X-71 Y54.888 I0 J-0.663
G1 X-61
G3 X-61 Y56.213 I0 J0.662
G1 X-71 Z3.393 F600
G3 X-71 Y54.888 Z3.35 I0 J-0.663
G1 X-61 Z3.143
G3 X-61 Y56.213 Z3.1 I0 J0.662
G1 X-71 F1000
G3 X-71 Y54.888 I0 J-0.663
G1 X-61
G3 X-61 Y56.213 I0 J0.662
G1 X-71 Z2.893 F600
G3 X-71 Y54.888 Z2.85 I0 J-0.663
G1 X-61 Z2.643
G3 X-61 Y56.213 Z2.6 I0 J0.662
G1 X-71 F1000
G3 X-71 Y54.888 I0 J-0.663
G1 X-61
G3 X-61 Y56.213 I0 J0.662
G1 X-71 Z2.393 F600
G3 X-71 Y54.888 Z2.35 I0 J-0.663
G1 X-61 Z2.143
G3 X-61 Y56.213 Z2.1 I0 J0.662
G1 X-71 F1000
G3 X-71 Y54.888 I0 J-0.663
G1 X-61
G3 X-61 Y56.213 I0 J0.662
G1 X-71 Z1.893 F600
G3 X-71 Y54.888 Z1.85 I0 J-0.663
G1 X-61 Z1.643
G3 X-61 Y56.213 Z1.6 I0 J0.662
G1 X-71 F1000
G3 X-71 Y54.888 I0 J-0.663
G1 X-61
G3 X-61 Y56.213 I0 J0.662
G1 X-71 Z1.393 F600
G3 X-71 Y54.888 Z1.35 I0 J-0.663
G1 X-61 Z1.143
G3 X-61 Y56.213 Z1.1 I0 J0.662
G1 X-71 F1000
G3 X-71 Y54.888 I0 J-0.663
G1 X-61
G3 X-61 Y56.213 I0 J0.662
G1 X-71 Z0.893 F600
G3 X-71 Y54.888 Z0.85 I0 J-0.663
G1 X-61 Z0.643
G3 X-61 Y56.213 Z0.6 I0 J0.662
G1 X-71 F1000
G3 X-71 Y54.888 I0 J-0.663
G1 X-61
G3 X-61 Y56.213 I0 J0.662
G1 X-71 Z0.393 F600
G3 X-71 Y54.888 Z0.35 I0 J-0.663
G1 X-68.584 Z0.3
X-61 F1000
G3 X-61 Y56.213 I0 J0.662
G1 X-71
G3 X-71 Y54.888 I0 J-0.663
G1 X-68.584
X-61 Z0.143 F600
G3 X-61 Y56.213 Z0.1 I0 J0.662
G1 X-65.833 Z0
X-71 F1000
G3 X-71 Y54.888 I0 J-0.663
G1 X-61
G3 X-61 Y56.213 I0 J0.662
G1 X-65.833
G0 Z20.1
X-98.584 Y54.888
Z10.35
G1 Z10.3 F30
X-91 Z10.143 F600
G3 X-91 Y56.213 Z10.1 I0 J0.662
G1 X-101 Z9.893
G3 X-101 Y54.888 Z9.85 I0 J-0.663
G1 X-91 Z9.643
G3 X-91 Y56.213 Z9.6 I0 J0.662
G1 X-101 F1000
G3 X-101 Y54.888 I0 J-0.663
G1 X-91
G3 X-91 Y56.213 I0 J0.662
G1 X-101 Z9.393 F600
G3 X-101 Y54.888 Z9.35 I0 J-0.663
G1 X-91 Z9.143
G3 X-91 Y56.213 Z9.1 I0 J0.662
G1 X-101 F1000
G3 X-101 Y54.888 I0 J-0.663
G1 X-91
G3 X-91 Y56.213 I0 J0.662
G1 X-101 Z8.893 F600
G3 X-101 Y54.888 Z8.85 I0 J-0.663
G1 X-91 Z8.643
G3 X-91 Y56.213 Z8.6 I0 J0.662
G1 X-101 F1000
G3 X-101 Y54.888 I0 J-0.663
G1 X-91
G3 X-91 Y56.213 I0 J0.662
G1 X-101 Z8.393 F600
G3 X-101 Y54.888 Z8.35 I0 J-0.663
G1 X-91 Z8.143
G3 X-91 Y56.213 Z8.1 I0 J0.662
G1 X-101 F1000
G3 X-101 Y54.888 I0 J-0.663
G1 X-91
G3 X-91 Y56.213 I0 J0.662
G1 X-101 Z7.893 F600
G3 X-101 Y54.888 Z7.85 I0 J-0.663
G1 X-91 Z7.643
G3 X-91 Y56.213 Z7.6 I0 J0.662
G1 X-101 F1000
G3 X-101 Y54.888 I0 J-0.663
G1 X-91
G3 X-91 Y56.213 I0 J0.662
G1 X-101 Z7.393 F600
G3 X-101 Y54.888 Z7.35 I0 J-0.663
G1 X-91 Z7.143
G3 X-91 Y56.213 Z7.1 I0 J0.662
G1 X-101 F1000
G3 X-101 Y54.888 I0 J-0.663
G1 X-91
G3 X-91 Y56.213 I0 J0.662
G1 X-101 Z6.893 F600
G3 X-101 Y54.888 Z6.85 I0 J-0.663
G1 X-91 Z6.643
G3 X-91 Y56.213 Z6.6 I0 J0.662
G1 X-101 F1000
G3 X-101 Y54.888 I0 J-0.663
G1 X-91
G3 X-91 Y56.213 I0 J0.662
G1 X-101 Z6.393 F600
G3 X-101 Y54.888 Z6.35 I0 J-0.663
G1 X-91 Z6.143
G3 X-91 Y56.213 Z6.1 I0 J0.662
G1 X-101 F1000
G3 X-101 Y54.888 I0 J-0.663
G1 X-91
G3 X-91 Y56.213 I0 J0.662
G1 X-101 Z5.893 F600
G3 X-101 Y54.888 Z5.85 I0 J-0.663
G1 X-91 Z5.643
G3 X-91 Y56.213 Z5.6 I0 J0.662
G1 X-101 F1000
G3 X-101 Y54.888 I0 J-0.663
G1 X-91
G3 X-91 Y56.213 I0 J0.662
G1 X-101 Z5.393 F600
G3 X-101 Y54.888 Z5.35 I0 J-0.663
G1 X-91 Z5.143
G3 X-91 Y56.213 Z5.1 I0 J0.662
G1 X-101 F1000
G3 X-101 Y54.888 I0 J-0.663
G1 X-91
G3 X-91 Y56.213 I0 J0.662
G1 X-101 Z4.893 F600
G3 X-101 Y54.888 Z4.85 I0 J-0.663
G1 X-91 Z4.643
G3 X-91 Y56.213 Z4.6 I0 J0.662
G1 X-101 F1000
G3 X-101 Y54.888 I0 J-0.663
G1 X-91
G3 X-91 Y56.213 I0 J0.662
G1 X-101 Z4.393 F600
G3 X-101 Y54.888 Z4.35 I0 J-0.663
G1 X-91 Z4.143
G3 X-91 Y56.213 Z4.1 I0 J0.662
G1 X-101 F1000
G3 X-101 Y54.888 I0 J-0.663
G1 X-91
G3 X-91 Y56.213 I0 J0.662
G1 X-101 Z3.893 F600
G3 X-101 Y54.888 Z3.85 I0 J-0.663
G1 X-91 Z3.643
G3 X-91 Y56.213 Z3.6 I0 J0.662
G1 X-101 F1000
G3 X-101 Y54.888 I0 J-0.663
G1 X-91
G3 X-91 Y56.213 I0 J0.662
G1 X-101 Z3.393 F600
G3 X-101 Y54.888 Z3.35 I0 J-0.663
G1 X-91 Z3.143
G3 X-91 Y56.213 Z3.1 I0 J0.662
G1 X-101 F1000
G3 X-101 Y54.888 I0 J-0.663
G1 X-91
G3 X-91 Y56.213 I0 J0.662
G1 X-101 Z2.893 F600
G3 X-101 Y54.888 Z2.85 I0 J-0.663
G1 X-91 Z2.643
G3 X-91 Y56.213 Z2.6 I0 J0.662
G1 X-101 F1000
G3 X-101 Y54.888 I0 J-0.663
G1 X-91
G3 X-91 Y56.213 I0 J0.662
G1 X-101 Z2.393 F600
G3 X-101 Y54.888 Z2.35 I0 J-0.663
G1 X-91 Z2.143
G3 X-91 Y56.213 Z2.1 I0 J0.662
G1 X-101 F1000
G3 X-101 Y54.888 I0 J-0.663
G1 X-91
G3 X-91 Y56.213 I0 J0.662
G1 X-101 Z1.893 F600
G3 X-101 Y54.888 Z1.85 I0 J-0.663
G1 X-91 Z1.643
G3 X-91 Y56.213 Z1.6 I0 J0.662
G1 X-101 F1000
G3 X-101 Y54.888 I0 J-0.663
G1 X-91
G3 X-91 Y56.213 I0 J0.662
G1 X-101 Z1.393 F600
G3 X-101 Y54.888 Z1.35 I0 J-0.663
G1 X-91 Z1.143
G3 X-91 Y56.213 Z1.1 I0 J0.662
G1 X-101 F1000
G3 X-101 Y54.888 I0 J-0.663
G1 X-91
G3 X-91 Y56.213 I0 J0.662
G1 X-101 Z0.893 F600
G3 X-101 Y54.888 Z0.85 I0 J-0.663
G1 X-91 Z0.643
G3 X-91 Y56.213 Z0.6 I0 J0.662
G1 X-101 F1000
G3 X-101 Y54.888 I0 J-0.663
G1 X-91
G3 X-91 Y56.213 I0 J0.662
G1 X-101 Z0.393 F600
G3 X-101 Y54.888 Z0.35 I0 J-0.663
G1 X-98.584 Z0.3
X-91 F1000
G3 X-91 Y56.213 I0 J0.662
G1 X-101
G3 X-101 Y54.888 I0 J-0.663
G1 X-98.584
X-91 Z0.143 F600
G3 X-91 Y56.213 Z0.1 I0 J0.662
G1 X-95.833 Z0
X-101 F1000
G3 X-101 Y54.888 I0 J-0.663
G1 X-91
G3 X-91 Y56.213 I0 J0.662
G1 X-95.833
G0 Z20.1
X-121.398 Y56.244
Z10.35
G1 Z10.3 F30
X-131.036 Y56.213 Z10.1 F600
G3 X-131.697 Y55.548 Z10.078 I0.002 J-0.663
X-131.032 Y54.887 Z10.057 I0.663 J0.002
G1 X-121.065 Y54.92 Z9.85
G3 X-121.07 Y56.245 Z9.807 I-0.003 J0.663
G1 X-131.036 Y56.213 Z9.6
G3 X-131.697 Y55.548 I0.002 J-0.663 F1000
X-131.032 Y54.887 I0.663 J0.002
G1 X-121.065 Y54.92
G3 X-121.07 Y56.245 I-0.003 J0.663
G1 X-131.036 Y56.213
G3 X-131.697 Y55.548 Z9.578 I0.002 J-0.663 F600
X-131.032 Y54.887 Z9.557 I0.663 J0.002
G1 X-121.065 Y54.92 Z9.35
G3 X-121.07 Y56.245 Z9.307 I-0.003 J0.663
G1 X-131.036 Y56.213 Z9.1
G3 X-131.697 Y55.548 I0.002 J-0.663 F1000
X-131.032 Y54.887 I0.663 J0.002
G1 X-121.065 Y54.92
G3 X-121.07 Y56.245 I-0.003 J0.663
G1 X-131.036 Y56.213
G3 X-131.697 Y55.548 Z9.078 I0.002 J-0.663 F600
X-131.032 Y54.887 Z9.057 I0.663 J0.002
G1 X-121.065 Y54.92 Z8.85
G3 X-121.07 Y56.245 Z8.807 I-0.003 J0.663
G1 X-131.036 Y56.213 Z8.6
G3 X-131.697 Y55.548 I0.002 J-0.663 F1000
X-131.032 Y54.887 I0.663 J0.002
G1 X-121.065 Y54.92
G3 X-121.07 Y56.245 I-0.003 J0.663
G1 X-131.036 Y56.213
G3 X-131.697 Y55.548 Z8.578 I0.002 J-0.663 F600
X-131.032 Y54.887 Z8.557 I0.663 J0.002
G1 X-121.065 Y54.92 Z8.35
G3 X-121.07 Y56.245 Z8.307 I-0.003 J0.663
G1 X-131.036 Y56.213 Z8.1
G3 X-131.697 Y55.548 I0.002 J-0.663 F1000
X-131.032 Y54.887 I0.663 J0.002
G1 X-121.065 Y54.92
G3 X-121.07 Y56.245 I-0.003 J0.663
G1 X-131.036 Y56.213
G3 X-131.697 Y55.548 Z8.078 I0.002 J-0.663 F600
X-131.032 Y54.887 Z8.057 I0.663 J0.002
G1 X-121.065 Y54.92 Z7.85
G3 X-121.07 Y56.245 Z7.807 I-0.003 J0.663
G1 X-131.036 Y56.213 Z7.6
G3 X-131.697 Y55.548 I0.002 J-0.663 F1000
X-131.032 Y54.887 I0.663 J0.002
G1 X-121.065 Y54.92
G3 X-121.07 Y56.245 I-0.003 J0.663
G1 X-131.036 Y56.213
G3 X-131.697 Y55.548 Z7.578 I0.002 J-0.663 F600
X-131.032 Y54.887 Z7.557 I0.663 J0.002
G1 X-121.065 Y54.92 Z7.35
G3 X-121.07 Y56.245 Z7.307 I-0.003 J0.663
G1 X-131.036 Y56.213 Z7.1
G3 X-131.697 Y55.548 I0.002 J-0.663 F1000
X-131.032 Y54.887 I0.663 J0.002
G1 X-121.065 Y54.92
G3 X-121.07 Y56.245 I-0.003 J0.663
G1 X-131.036 Y56.213
G3 X-131.697 Y55.548 Z7.078 I0.002 J-0.663 F600
X-131.032 Y54.887 Z7.057 I0.663 J0.002
G1 X-121.065 Y54.92 Z6.85
G3 X-121.07 Y56.245 Z6.807 I-0.003 J0.663
G1 X-131.036 Y56.213 Z6.6
G3 X-131.697 Y55.548 I0.002 J-0.663 F1000
X-131.032 Y54.887 I0.663 J0.002
G1 X-121.065 Y54.92
G3 X-121.07 Y56.245 I-0.003 J0.663
G1 X-131.036 Y56.213
G3 X-131.697 Y55.548 Z6.578 I0.002 J-0.663 F600
X-131.032 Y54.887 Z6.557 I0.663 J0.002
G1 X-121.065 Y54.92 Z6.35
G3 X-121.07 Y56.245 Z6.307 I-0.003 J0.663
G1 X-131.036 Y56.213 Z6.1
G3 X-131.697 Y55.548 I0.002 J-0.663 F1000
X-131.032 Y54.887 I0.663 J0.002
G1 X-121.065 Y54.92
G3 X-121.07 Y56.245 I-0.003 J0.663
G1 X-131.036 Y56.213
G3 X-131.697 Y55.548 Z6.078 I0.002 J-0.663 F600
X-131.032 Y54.887 Z6.057 I0.663 J0.002
G1 X-121.065 Y54.92 Z5.85
G3 X-121.07 Y56.245 Z5.807 I-0.003 J0.663
G1 X-131.036 Y56.213 Z5.6
G3 X-131.697 Y55.548 I0.002 J-0.663 F1000
X-131.032 Y54.887 I0.663 J0.002
G1 X-121.065 Y54.92
G3 X-121.07 Y56.245 I-0.003 J0.663
G1 X-131.036 Y56.213
G3 X-131.697 Y55.548 Z5.578 I0.002 J-0.663 F600
X-131.032 Y54.887 Z5.557 I0.663 J0.002
G1 X-121.065 Y54.92 Z5.35
G3 X-121.07 Y56.245 Z5.307 I-0.003 J0.663
G1 X-131.036 Y56.213 Z5.1
G3 X-131.697 Y55.548 I0.002 J-0.663 F1000
X-131.032 Y54.887 I0.663 J0.002
G1 X-121.065 Y54.92
G3 X-121.07 Y56.245 I-0.003 J0.663
G1 X-131.036 Y56.213
G3 X-131.697 Y55.548 Z5.078 I0.002 J-0.663 F600
X-131.032 Y54.887 Z5.057 I0.663 J0.002
G1 X-121.065 Y54.92 Z4.85
G3 X-121.07 Y56.245 Z4.807 I-0.003 J0.663
G1 X-131.036 Y56.213 Z4.6
G3 X-131.697 Y55.548 I0.002 J-0.663 F1000
X-131.032 Y54.887 I0.663 J0.002
G1 X-121.065 Y54.92
G3 X-121.07 Y56.245 I-0.003 J0.663
G1 X-131.036 Y56.213
G3 X-131.697 Y55.548 Z4.578 I0.002 J-0.663 F600
X-131.032 Y54.887 Z4.557 I0.663 J0.002
G1 X-121.065 Y54.92 Z4.35
G3 X-121.07 Y56.245 Z4.307 I-0.003 J0.663
G1 X-131.036 Y56.213 Z4.1
G3 X-131.697 Y55.548 I0.002 J-0.663 F1000
X-131.032 Y54.887 I0.663 J0.002
G1 X-121.065 Y54.92
G3 X-121.07 Y56.245 I-0.003 J0.663
G1 X-131.036 Y56.213
G3 X-131.697 Y55.548 Z4.078 I0.002 J-0.663 F600
X-131.032 Y54.887 Z4.057 I0.663 J0.002
G1 X-121.065 Y54.92 Z3.85
G3 X-121.07 Y56.245 Z3.807 I-0.003 J0.663
G1 X-131.036 Y56.213 Z3.6
G3 X-131.697 Y55.548 I0.002 J-0.663 F1000
X-131.032 Y54.887 I0.663 J0.002
G1 X-121.065 Y54.92
G3 X-121.07 Y56.245 I-0.003 J0.663
G1 X-131.036 Y56.213
G3 X-131.697 Y55.548 Z3.578 I0.002 J-0.663 F600
X-131.032 Y54.887 Z3.557 I0.663 J0.002
G1 X-121.065 Y54.92 Z3.35
G3 X-121.07 Y56.245 Z3.307 I-0.003 J0.663
G1 X-131.036 Y56.213 Z3.1
G3 X-131.697 Y55.548 I0.002 J-0.663 F1000
X-131.032 Y54.887 I0.663 J0.002
G1 X-121.065 Y54.92
G3 X-121.07 Y56.245 I-0.003 J0.663
G1 X-131.036 Y56.213
G3 X-131.697 Y55.548 Z3.078 I0.002 J-0.663 F600
X-131.032 Y54.887 Z3.057 I0.663 J0.002
G1 X-121.065 Y54.92 Z2.85
G3 X-121.07 Y56.245 Z2.807 I-0.003 J0.663
G1 X-131.036 Y56.213 Z2.6
G3 X-131.697 Y55.548 I0.002 J-0.663 F1000
X-131.032 Y54.887 I0.663 J0.002
G1 X-121.065 Y54.92
G3 X-121.07 Y56.245 I-0.003 J0.663
G1 X-131.036 Y56.213
G3 X-131.697 Y55.548 Z2.578 I0.002 J-0.663 F600
X-131.032 Y54.887 Z2.557 I0.663 J0.002
G1 X-121.065 Y54.92 Z2.35
G3 X-121.07 Y56.245 Z2.307 I-0.003 J0.663
G1 X-131.036 Y56.213 Z2.1
G3 X-131.697 Y55.548 I0.002 J-0.663 F1000
X-131.032 Y54.887 I0.663 J0.002
G1 X-121.065 Y54.92
G3 X-121.07 Y56.245 I-0.003 J0.663
G1 X-131.036 Y56.213
G3 X-131.697 Y55.548 Z2.078 I0.002 J-0.663 F600
X-131.032 Y54.887 Z2.057 I0.663 J0.002
G1 X-121.065 Y54.92 Z1.85
G3 X-121.07 Y56.245 Z1.807 I-0.003 J0.663
G1 X-131.036 Y56.213 Z1.6
G3 X-131.697 Y55.548 I0.002 J-0.663 F1000
X-131.032 Y54.887 I0.663 J0.002
G1 X-121.065 Y54.92
G3 X-121.07 Y56.245 I-0.003 J0.663
G1 X-131.036 Y56.213
G3 X-131.697 Y55.548 Z1.578 I0.002 J-0.663 F600
X-131.032 Y54.887 Z1.557 I0.663 J0.002
G1 X-121.065 Y54.92 Z1.35
G3 X-121.07 Y56.245 Z1.307 I-0.003 J0.663
G1 X-131.036 Y56.213 Z1.1
G3 X-131.697 Y55.548 I0.002 J-0.663 F1000
X-131.032 Y54.887 I0.663 J0.002
G1 X-121.065 Y54.92
G3 X-121.07 Y56.245 I-0.003 J0.663
G1 X-131.036 Y56.213
G3 X-131.697 Y55.548 Z1.078 I0.002 J-0.663 F600
X-131.032 Y54.887 Z1.057 I0.663 J0.002
G1 X-121.065 Y54.92 Z0.85
G3 X-121.07 Y56.245 Z0.807 I-0.003 J0.663
G1 X-131.036 Y56.213 Z0.6
G3 X-131.697 Y55.548 I0.002 J-0.663 F1000
X-131.032 Y54.887 I0.663 J0.002
G1 X-121.065 Y54.92
G3 X-121.07 Y56.245 I-0.003 J0.663
G1 X-131.036 Y56.213
G3 X-131.697 Y55.548 Z0.578 I0.002 J-0.663 F600
X-131.032 Y54.887 Z0.557 I0.663 J0.002
G1 X-121.065 Y54.92 Z0.35
G3 X-121.07 Y56.245 Z0.307 I-0.003 J0.663
G1 X-121.398 Y56.244 Z0.3
X-131.036 Y56.213 F1000
G3 X-131.697 Y55.548 I0.002 J-0.663
X-131.032 Y54.887 I0.663 J0.002
G1 X-121.065 Y54.92
G3 X-121.07 Y56.245 I-0.003 J0.663
G1 X-121.398 Y56.244
X-131.036 Y56.213 Z0.1 F600
G3 X-131.697 Y55.548 Z0.078 I0.002 J-0.663
X-131.032 Y54.887 Z0.057 I0.663 J0.002
G1 X-128.295 Y54.896 Z0
X-121.065 Y54.92 F1000
G3 X-121.07 Y56.245 I-0.003 J0.663
G1 X-131.036 Y56.213
G3 X-131.697 Y55.548 I0.002 J-0.663
X-131.032 Y54.887 I0.663 J0.002
G1 X-128.295 Y54.896
G0 Z20.1
X-121.398 Y6.244
Z10.35
G1 Z10.3 F30
X-131.036 Y6.212 Z10.1 F600
G3 X-131.696 Y5.548 Z10.078 I0.002 J-0.662
X-131.032 Y4.887 Z10.057 I0.662 J0.002
G1 X-121.065 Y4.92 Z9.85
G3 X-121.07 Y6.245 Z9.807 I-0.003 J0.662
G1 X-131.036 Y6.212 Z9.6
G3 X-131.696 Y5.548 I0.002 J-0.662 F1000
X-131.032 Y4.887 I0.662 J0.002
G1 X-121.065 Y4.92
G3 X-121.07 Y6.245 I-0.003 J0.662
G1 X-131.036 Y6.212
G3 X-131.696 Y5.548 Z9.578 I0.002 J-0.662 F600
X-131.032 Y4.887 Z9.557 I0.662 J0.002
G1 X-121.065 Y4.92 Z9.35
G3 X-121.07 Y6.245 Z9.307 I-0.003 J0.662
G1 X-131.036 Y6.212 Z9.1
G3 X-131.696 Y5.548 I0.002 J-0.662 F1000
X-131.032 Y4.887 I0.662 J0.002
G1 X-121.065 Y4.92
G3 X-121.07 Y6.245 I-0.003 J0.662
G1 X-131.036 Y6.212
G3 X-131.696 Y5.548 Z9.078 I0.002 J-0.662 F600
X-131.032 Y4.887 Z9.057 I0.662 J0.002
G1 X-121.065 Y4.92 Z8.85
G3 X-121.07 Y6.245 Z8.807 I-0.003 J0.662
G1 X-131.036 Y6.212 Z8.6
G3 X-131.696 Y5.548 I0.002 J-0.662 F1000
X-131.032 Y4.887 I0.662 J0.002
G1 X-121.065 Y4.92
G3 X-121.07 Y6.245 I-0.003 J0.662
G1 X-131.036 Y6.212
G3 X-131.696 Y5.548 Z8.578 I0.002 J-0.662 F600
X-131.032 Y4.887 Z8.557 I0.662 J0.002
G1 X-121.065 Y4.92 Z8.35
G3 X-121.07 Y6.245 Z8.307 I-0.003 J0.662
G1 X-131.036 Y6.212 Z8.1
G3 X-131.696 Y5.548 I0.002 J-0.662 F1000
X-131.032 Y4.887 I0.662 J0.002
G1 X-121.065 Y4.92
G3 X-121.07 Y6.245 I-0.003 J0.662
G1 X-131.036 Y6.212
G3 X-131.696 Y5.548 Z8.078 I0.002 J-0.662 F600
X-131.032 Y4.887 Z8.057 I0.662 J0.002
G1 X-121.065 Y4.92 Z7.85
G3 X-121.07 Y6.245 Z7.807 I-0.003 J0.662
G1 X-131.036 Y6.212 Z7.6
G3 X-131.696 Y5.548 I0.002 J-0.662 F1000
X-131.032 Y4.887 I0.662 J0.002
G1 X-121.065 Y4.92
G3 X-121.07 Y6.245 I-0.003 J0.662
G1 X-131.036 Y6.212
G3 X-131.696 Y5.548 Z7.578 I0.002 J-0.662 F600
X-131.032 Y4.887 Z7.557 I0.662 J0.002
G1 X-121.065 Y4.92 Z7.35
G3 X-121.07 Y6.245 Z7.307 I-0.003 J0.662
G1 X-131.036 Y6.212 Z7.1
G3 X-131.696 Y5.548 I0.002 J-0.662 F1000
X-131.032 Y4.887 I0.662 J0.002
G1 X-121.065 Y4.92
G3 X-121.07 Y6.245 I-0.003 J0.662
G1 X-131.036 Y6.212
G3 X-131.696 Y5.548 Z7.078 I0.002 J-0.662 F600
X-131.032 Y4.887 Z7.057 I0.662 J0.002
G1 X-121.065 Y4.92 Z6.85
G3 X-121.07 Y6.245 Z6.807 I-0.003 J0.662
G1 X-131.036 Y6.212 Z6.6
G3 X-131.696 Y5.548 I0.002 J-0.662 F1000
X-131.032 Y4.887 I0.662 J0.002
G1 X-121.065 Y4.92
G3 X-121.07 Y6.245 I-0.003 J0.662
G1 X-131.036 Y6.212
G3 X-131.696 Y5.548 Z6.578 I0.002 J-0.662 F600
X-131.032 Y4.887 Z6.557 I0.662 J0.002
G1 X-121.065 Y4.92 Z6.35
G3 X-121.07 Y6.245 Z6.307 I-0.003 J0.662
G1 X-131.036 Y6.212 Z6.1
G3 X-131.696 Y5.548 I0.002 J-0.662 F1000
X-131.032 Y4.887 I0.662 J0.002
G1 X-121.065 Y4.92
G3 X-121.07 Y6.245 I-0.003 J0.662
G1 X-131.036 Y6.212
G3 X-131.696 Y5.548 Z6.078 I0.002 J-0.662 F600
X-131.032 Y4.887 Z6.057 I0.662 J0.002
G1 X-121.065 Y4.92 Z5.85
G3 X-121.07 Y6.245 Z5.807 I-0.003 J0.662
G1 X-131.036 Y6.212 Z5.6
G3 X-131.696 Y5.548 I0.002 J-0.662 F1000
X-131.032 Y4.887 I0.662 J0.002
G1 X-121.065 Y4.92
G3 X-121.07 Y6.245 I-0.003 J0.662
G1 X-131.036 Y6.212
G3 X-131.696 Y5.548 Z5.578 I0.002 J-0.662 F600
X-131.032 Y4.887 Z5.557 I0.662 J0.002
G1 X-121.065 Y4.92 Z5.35
G3 X-121.07 Y6.245 Z5.307 I-0.003 J0.662
G1 X-131.036 Y6.212 Z5.1
G3 X-131.696 Y5.548 I0.002 J-0.662 F1000
X-131.032 Y4.887 I0.662 J0.002
G1 X-121.065 Y4.92
G3 X-121.07 Y6.245 I-0.003 J0.662
G1 X-131.036 Y6.212
G3 X-131.696 Y5.548 Z5.078 I0.002 J-0.662 F600
X-131.032 Y4.887 Z5.057 I0.662 J0.002
G1 X-121.065 Y4.92 Z4.85
G3 X-121.07 Y6.245 Z4.807 I-0.003 J0.662
G1 X-131.036 Y6.212 Z4.6
G3 X-131.696 Y5.548 I0.002 J-0.662 F1000
X-131.032 Y4.887 I0.662 J0.002
G1 X-121.065 Y4.92
G3 X-121.07 Y6.245 I-0.003 J0.662
G1 X-131.036 Y6.212
G3 X-131.696 Y5.548 Z4.578 I0.002 J-0.662 F600
X-131.032 Y4.887 Z4.557 I0.662 J0.002
G1 X-121.065 Y4.92 Z4.35
G3 X-121.07 Y6.245 Z4.307 I-0.003 J0.662
G1 X-131.036 Y6.212 Z4.1
G3 X-131.696 Y5.548 I0.002 J-0.662 F1000
X-131.032 Y4.887 I0.662 J0.002
G1 X-121.065 Y4.92
G3 X-121.07 Y6.245 I-0.003 J0.662
G1 X-131.036 Y6.212
G3 X-131.696 Y5.548 Z4.078 I0.002 J-0.662 F600
X-131.032 Y4.887 Z4.057 I0.662 J0.002
G1 X-121.065 Y4.92 Z3.85
G3 X-121.07 Y6.245 Z3.807 I-0.003 J0.662
G1 X-131.036 Y6.212 Z3.6
G3 X-131.696 Y5.548 I0.002 J-0.662 F1000
X-131.032 Y4.887 I0.662 J0.002
G1 X-121.065 Y4.92
G3 X-121.07 Y6.245 I-0.003 J0.662
G1 X-131.036 Y6.212
G3 X-131.696 Y5.548 Z3.578 I0.002 J-0.662 F600
X-131.032 Y4.887 Z3.557 I0.662 J0.002
G1 X-121.065 Y4.92 Z3.35
G3 X-121.07 Y6.245 Z3.307 I-0.003 J0.662
G1 X-131.036 Y6.212 Z3.1
G3 X-131.696 Y5.548 I0.002 J-0.662 F1000
X-131.032 Y4.887 I0.662 J0.002
G1 X-121.065 Y4.92
G3 X-121.07 Y6.245 I-0.003 J0.662
G1 X-131.036 Y6.212
G3 X-131.696 Y5.548 Z3.078 I0.002 J-0.662 F600
X-131.032 Y4.887 Z3.057 I0.662 J0.002
G1 X-121.065 Y4.92 Z2.85
G3 X-121.07 Y6.245 Z2.807 I-0.003 J0.662
G1 X-131.036 Y6.212 Z2.6
G3 X-131.696 Y5.548 I0.002 J-0.662 F1000
X-131.032 Y4.887 I0.662 J0.002
G1 X-121.065 Y4.92
G3 X-121.07 Y6.245 I-0.003 J0.662
G1 X-131.036 Y6.212
G3 X-131.696 Y5.548 Z2.578 I0.002 J-0.662 F600
X-131.032 Y4.887 Z2.557 I0.662 J0.002
G1 X-121.065 Y4.92 Z2.35
G3 X-121.07 Y6.245 Z2.307 I-0.003 J0.662
G1 X-131.036 Y6.212 Z2.1
G3 X-131.696 Y5.548 I0.002 J-0.662 F1000
X-131.032 Y4.887 I0.662 J0.002
G1 X-121.065 Y4.92
G3 X-121.07 Y6.245 I-0.003 J0.662
G1 X-131.036 Y6.212
G3 X-131.696 Y5.548 Z2.078 I0.002 J-0.662 F600
X-131.032 Y4.887 Z2.057 I0.662 J0.002
G1 X-121.065 Y4.92 Z1.85
G3 X-121.07 Y6.245 Z1.807 I-0.003 J0.662
G1 X-131.036 Y6.212 Z1.6
G3 X-131.696 Y5.548 I0.002 J-0.662 F1000
X-131.032 Y4.887 I0.662 J0.002
G1 X-121.065 Y4.92
G3 X-121.07 Y6.245 I-0.003 J0.662
G1 X-131.036 Y6.212
G3 X-131.696 Y5.548 Z1.578 I0.002 J-0.662 F600
X-131.032 Y4.887 Z1.557 I0.662 J0.002
G1 X-121.065 Y4.92 Z1.35
G3 X-121.07 Y6.245 Z1.307 I-0.003 J0.662
G1 X-131.036 Y6.212 Z1.1
G3 X-131.696 Y5.548 I0.002 J-0.662 F1000
X-131.032 Y4.887 I0.662 J0.002
G1 X-121.065 Y4.92
G3 X-121.07 Y6.245 I-0.003 J0.662
G1 X-131.036 Y6.212
G3 X-131.696 Y5.548 Z1.078 I0.002 J-0.662 F600
X-131.032 Y4.887 Z1.057 I0.662 J0.002
G1 X-121.065 Y4.92 Z0.85
G3 X-121.07 Y6.245 Z0.807 I-0.003 J0.662
G1 X-131.036 Y6.212 Z0.6
G3 X-131.696 Y5.548 I0.002 J-0.662 F1000
X-131.032 Y4.887 I0.662 J0.002
G1 X-121.065 Y4.92
G3 X-121.07 Y6.245 I-0.003 J0.662
G1 X-131.036 Y6.212
G3 X-131.696 Y5.548 Z0.578 I0.002 J-0.662 F600
X-131.032 Y4.887 Z0.557 I0.662 J0.002
G1 X-121.065 Y4.92 Z0.35
G3 X-121.07 Y6.245 Z0.307 I-0.003 J0.662
G1 X-121.398 Y6.244 Z0.3
X-131.036 Y6.212 F1000
G3 X-131.696 Y5.548 I0.002 J-0.662
X-131.032 Y4.887 I0.662 J0.002
G1 X-121.065 Y4.92
G3 X-121.07 Y6.245 I-0.003 J0.662
G1 X-121.398 Y6.244
X-131.036 Y6.212 Z0.1 F600
G3 X-131.696 Y5.548 Z0.078 I0.002 J-0.662
X-131.032 Y4.887 Z0.057 I0.662 J0.002
G1 X-128.295 Y4.896 Z0
X-121.065 Y4.92 F1000
G3 X-121.07 Y6.245 I-0.003 J0.662
G1 X-131.036 Y6.212
G3 X-131.696 Y5.548 I0.002 J-0.662
X-131.032 Y4.887 I0.662 J0.002
G1 X-128.295 Y4.896
G0 Z20.1
X-98.584 Y4.887
Z10.35
G1 Z10.3 F30
X-91 Z10.143 F600
G3 X-91 Y6.213 Z10.1 I0 J0.663
G1 X-101 Z9.893
G3 X-101 Y4.887 Z9.85 I0 J-0.662
G1 X-91 Z9.643
G3 X-91 Y6.213 Z9.6 I0 J0.663
G1 X-101 F1000
G3 X-101 Y4.887 I0 J-0.662
G1 X-91
G3 X-91 Y6.213 I0 J0.663
G1 X-101 Z9.393 F600
G3 X-101 Y4.887 Z9.35 I0 J-0.662
G1 X-91 Z9.143
G3 X-91 Y6.213 Z9.1 I0 J0.663
G1 X-101 F1000
G3 X-101 Y4.887 I0 J-0.662
G1 X-91
G3 X-91 Y6.213 I0 J0.663
G1 X-101 Z8.893 F600
G3 X-101 Y4.887 Z8.85 I0 J-0.662
G1 X-91 Z8.643
G3 X-91 Y6.213 Z8.6 I0 J0.663
G1 X-101 F1000
G3 X-101 Y4.887 I0 J-0.662
G1 X-91
G3 X-91 Y6.213 I0 J0.663
G1 X-101 Z8.393 F600
G3 X-101 Y4.887 Z8.35 I0 J-0.662
G1 X-91 Z8.143
G3 X-91 Y6.213 Z8.1 I0 J0.663
G1 X-101 F1000
G3 X-101 Y4.887 I0 J-0.662
G1 X-91
G3 X-91 Y6.213 I0 J0.663
G1 X-101 Z7.893 F600
G3 X-101 Y4.887 Z7.85 I0 J-0.662
G1 X-91 Z7.643
G3 X-91 Y6.213 Z7.6 I0 J0.663
G1 X-101 F1000
G3 X-101 Y4.887 I0 J-0.662
G1 X-91
G3 X-91 Y6.213 I0 J0.663
G1 X-101 Z7.393 F600
G3 X-101 Y4.887 Z7.35 I0 J-0.662
G1 X-91 Z7.143
G3 X-91 Y6.213 Z7.1 I0 J0.663
G1 X-101 F1000
G3 X-101 Y4.887 I0 J-0.662
G1 X-91
G3 X-91 Y6.213 I0 J0.663
G1 X-101 Z6.893 F600
G3 X-101 Y4.887 Z6.85 I0 J-0.662
G1 X-91 Z6.643
G3 X-91 Y6.213 Z6.6 I0 J0.663
G1 X-101 F1000
G3 X-101 Y4.887 I0 J-0.662
G1 X-91
G3 X-91 Y6.213 I0 J0.663
G1 X-101 Z6.393 F600
G3 X-101 Y4.887 Z6.35 I0 J-0.662
G1 X-91 Z6.143
G3 X-91 Y6.213 Z6.1 I0 J0.663
G1 X-101 F1000
G3 X-101 Y4.887 I0 J-0.662
G1 X-91
G3 X-91 Y6.213 I0 J0.663
G1 X-101 Z5.893 F600
G3 X-101 Y4.887 Z5.85 I0 J-0.662
G1 X-91 Z5.643
G3 X-91 Y6.213 Z5.6 I0 J0.663
G1 X-101 F1000
G3 X-101 Y4.887 I0 J-0.662
G1 X-91
G3 X-91 Y6.213 I0 J0.663
G1 X-101 Z5.393 F600
G3 X-101 Y4.887 Z5.35 I0 J-0.662
G1 X-91 Z5.143
G3 X-91 Y6.213 Z5.1 I0 J0.663
G1 X-101 F1000
G3 X-101 Y4.887 I0 J-0.662
G1 X-91
G3 X-91 Y6.213 I0 J0.663
G1 X-101 Z4.893 F600
G3 X-101 Y4.887 Z4.85 I0 J-0.662
G1 X-91 Z4.643
G3 X-91 Y6.213 Z4.6 I0 J0.663
G1 X-101 F1000
G3 X-101 Y4.887 I0 J-0.662
G1 X-91
G3 X-91 Y6.213 I0 J0.663
G1 X-101 Z4.393 F600
G3 X-101 Y4.887 Z4.35 I0 J-0.662
G1 X-91 Z4.143
G3 X-91 Y6.213 Z4.1 I0 J0.663
G1 X-101 F1000
G3 X-101 Y4.887 I0 J-0.662
G1 X-91
G3 X-91 Y6.213 I0 J0.663
G1 X-101 Z3.893 F600
G3 X-101 Y4.887 Z3.85 I0 J-0.662
G1 X-91 Z3.643
G3 X-91 Y6.213 Z3.6 I0 J0.663
G1 X-101 F1000
G3 X-101 Y4.887 I0 J-0.662
G1 X-91
G3 X-91 Y6.213 I0 J0.663
G1 X-101 Z3.393 F600
G3 X-101 Y4.887 Z3.35 I0 J-0.662
G1 X-91 Z3.143
G3 X-91 Y6.213 Z3.1 I0 J0.663
G1 X-101 F1000
G3 X-101 Y4.887 I0 J-0.662
G1 X-91
G3 X-91 Y6.213 I0 J0.663
G1 X-101 Z2.893 F600
G3 X-101 Y4.887 Z2.85 I0 J-0.662
G1 X-91 Z2.643
G3 X-91 Y6.213 Z2.6 I0 J0.663
G1 X-101 F1000
G3 X-101 Y4.887 I0 J-0.662
G1 X-91
G3 X-91 Y6.213 I0 J0.663
G1 X-101 Z2.393 F600
G3 X-101 Y4.887 Z2.35 I0 J-0.662
G1 X-91 Z2.143
G3 X-91 Y6.213 Z2.1 I0 J0.663
G1 X-101 F1000
G3 X-101 Y4.887 I0 J-0.662
G1 X-91
G3 X-91 Y6.213 I0 J0.663
G1 X-101 Z1.893 F600
G3 X-101 Y4.887 Z1.85 I0 J-0.662
G1 X-91 Z1.643
G3 X-91 Y6.213 Z1.6 I0 J0.663
G1 X-101 F1000
G3 X-101 Y4.887 I0 J-0.662
G1 X-91
G3 X-91 Y6.213 I0 J0.663
G1 X-101 Z1.393 F600
G3 X-101 Y4.887 Z1.35 I0 J-0.662
G1 X-91 Z1.143
G3 X-91 Y6.213 Z1.1 I0 J0.663
G1 X-101 F1000
G3 X-101 Y4.887 I0 J-0.662
G1 X-91
G3 X-91 Y6.213 I0 J0.663
G1 X-101 Z0.893 F600
G3 X-101 Y4.887 Z0.85 I0 J-0.662
G1 X-91 Z0.643
G3 X-91 Y6.213 Z0.6 I0 J0.663
G1 X-101 F1000
G3 X-101 Y4.887 I0 J-0.662
G1 X-91
G3 X-91 Y6.213 I0 J0.663
G1 X-101 Z0.393 F600
G3 X-101 Y4.887 Z0.35 I0 J-0.662
G1 X-98.584 Z0.3
X-91 F1000
G3 X-91 Y6.213 I0 J0.663
G1 X-101
G3 X-101 Y4.887 I0 J-0.662
G1 X-98.584
X-91 Z0.143 F600
G3 X-91 Y6.213 Z0.1 I0 J0.663
G1 X-95.833 Z0
X-101 F1000
G3 X-101 Y4.887 I0 J-0.662
G1 X-91
G3 X-91 Y6.213 I0 J0.663
G1 X-95.833
G0 Z20.1
X-68.584 Y4.887
Z10.35
G1 Z10.3 F30
X-61 Z10.143 F600
G3 X-61 Y6.213 Z10.1 I0 J0.663
G1 X-71 Z9.893
G3 X-71 Y4.887 Z9.85 I0 J-0.662
G1 X-61 Z9.643
G3 X-61 Y6.213 Z9.6 I0 J0.663
G1 X-71 F1000
G3 X-71 Y4.887 I0 J-0.662
G1 X-61
G3 X-61 Y6.213 I0 J0.663
G1 X-71 Z9.393 F600
G3 X-71 Y4.887 Z9.35 I0 J-0.662
G1 X-61 Z9.143
G3 X-61 Y6.213 Z9.1 I0 J0.663
G1 X-71 F1000
G3 X-71 Y4.887 I0 J-0.662
G1 X-61
G3 X-61 Y6.213 I0 J0.663
G1 X-71 Z8.893 F600
G3 X-71 Y4.887 Z8.85 I0 J-0.662
G1 X-61 Z8.643
G3 X-61 Y6.213 Z8.6 I0 J0.663
G1 X-71 F1000
G3 X-71 Y4.887 I0 J-0.662
G1 X-61
G3 X-61 Y6.213 I0 J0.663
G1 X-71 Z8.393 F600
G3 X-71 Y4.887 Z8.35 I0 J-0.662
G1 X-61 Z8.143
G3 X-61 Y6.213 Z8.1 I0 J0.663
G1 X-71 F1000
G3 X-71 Y4.887 I0 J-0.662
G1 X-61
G3 X-61 Y6.213 I0 J0.663
G1 X-71 Z7.893 F600
G3 X-71 Y4.887 Z7.85 I0 J-0.662
G1 X-61 Z7.643
G3 X-61 Y6.213 Z7.6 I0 J0.663
G1 X-71 F1000
G3 X-71 Y4.887 I0 J-0.662
G1 X-61
G3 X-61 Y6.213 I0 J0.663
G1 X-71 Z7.393 F600
G3 X-71 Y4.887 Z7.35 I0 J-0.662
G1 X-61 Z7.143
G3 X-61 Y6.213 Z7.1 I0 J0.663
G1 X-71 F1000
G3 X-71 Y4.887 I0 J-0.662
G1 X-61
G3 X-61 Y6.213 I0 J0.663
G1 X-71 Z6.893 F600
G3 X-71 Y4.887 Z6.85 I0 J-0.662
G1 X-61 Z6.643
G3 X-61 Y6.213 Z6.6 I0 J0.663
G1 X-71 F1000
G3 X-71 Y4.887 I0 J-0.662
G1 X-61
G3 X-61 Y6.213 I0 J0.663
G1 X-71 Z6.393 F600
G3 X-71 Y4.887 Z6.35 I0 J-0.662
G1 X-61 Z6.143
G3 X-61 Y6.213 Z6.1 I0 J0.663
G1 X-71 F1000
G3 X-71 Y4.887 I0 J-0.662
G1 X-61
G3 X-61 Y6.213 I0 J0.663
G1 X-71 Z5.893 F600
G3 X-71 Y4.887 Z5.85 I0 J-0.662
G1 X-61 Z5.643
G3 X-61 Y6.213 Z5.6 I0 J0.663
G1 X-71 F1000
G3 X-71 Y4.887 I0 J-0.662
G1 X-61
G3 X-61 Y6.213 I0 J0.663
G1 X-71 Z5.393 F600
G3 X-71 Y4.887 Z5.35 I0 J-0.662
G1 X-61 Z5.143
G3 X-61 Y6.213 Z5.1 I0 J0.663
G1 X-71 F1000
G3 X-71 Y4.887 I0 J-0.662
G1 X-61
G3 X-61 Y6.213 I0 J0.663
G1 X-71 Z4.893 F600
G3 X-71 Y4.887 Z4.85 I0 J-0.662
G1 X-61 Z4.643
G3 X-61 Y6.213 Z4.6 I0 J0.663
G1 X-71 F1000
G3 X-71 Y4.887 I0 J-0.662
G1 X-61
G3 X-61 Y6.213 I0 J0.663
G1 X-71 Z4.393 F600
G3 X-71 Y4.887 Z4.35 I0 J-0.662
G1 X-61 Z4.143
G3 X-61 Y6.213 Z4.1 I0 J0.663
G1 X-71 F1000
G3 X-71 Y4.887 I0 J-0.662
G1 X-61
G3 X-61 Y6.213 I0 J0.663
G1 X-71 Z3.893 F600
G3 X-71 Y4.887 Z3.85 I0 J-0.662
G1 X-61 Z3.643
G3 X-61 Y6.213 Z3.6 I0 J0.663
G1 X-71 F1000
G3 X-71 Y4.887 I0 J-0.662
G1 X-61
G3 X-61 Y6.213 I0 J0.663
G1 X-71 Z3.393 F600
G3 X-71 Y4.887 Z3.35 I0 J-0.662
G1 X-61 Z3.143
G3 X-61 Y6.213 Z3.1 I0 J0.663
G1 X-71 F1000
G3 X-71 Y4.887 I0 J-0.662
G1 X-61
G3 X-61 Y6.213 I0 J0.663
G1 X-71 Z2.893 F600
G3 X-71 Y4.887 Z2.85 I0 J-0.662
G1 X-61 Z2.643
G3 X-61 Y6.213 Z2.6 I0 J0.663
G1 X-71 F1000
G3 X-71 Y4.887 I0 J-0.662
G1 X-61
G3 X-61 Y6.213 I0 J0.663
G1 X-71 Z2.393 F600
G3 X-71 Y4.887 Z2.35 I0 J-0.662
G1 X-61 Z2.143
G3 X-61 Y6.213 Z2.1 I0 J0.663
G1 X-71 F1000
G3 X-71 Y4.887 I0 J-0.662
G1 X-61
G3 X-61 Y6.213 I0 J0.663
G1 X-71 Z1.893 F600
G3 X-71 Y4.887 Z1.85 I0 J-0.662
G1 X-61 Z1.643
G3 X-61 Y6.213 Z1.6 I0 J0.663
G1 X-71 F1000
G3 X-71 Y4.887 I0 J-0.662
G1 X-61
G3 X-61 Y6.213 I0 J0.663
G1 X-71 Z1.393 F600
G3 X-71 Y4.887 Z1.35 I0 J-0.662
G1 X-61 Z1.143
G3 X-61 Y6.213 Z1.1 I0 J0.663
G1 X-71 F1000
G3 X-71 Y4.887 I0 J-0.662
G1 X-61
G3 X-61 Y6.213 I0 J0.663
G1 X-71 Z0.893 F600
G3 X-71 Y4.887 Z0.85 I0 J-0.662
G1 X-61 Z0.643
G3 X-61 Y6.213 Z0.6 I0 J0.663
G1 X-71 F1000
G3 X-71 Y4.887 I0 J-0.662
G1 X-61
G3 X-61 Y6.213 I0 J0.663
G1 X-71 Z0.393 F600
G3 X-71 Y4.887 Z0.35 I0 J-0.662
G1 X-68.584 Z0.3
X-61 F1000
G3 X-61 Y6.213 I0 J0.663
G1 X-71
G3 X-71 Y4.887 I0 J-0.662
G1 X-68.584
X-61 Z0.143 F600
G3 X-61 Y6.213 Z0.1 I0 J0.663
G1 X-65.833 Z0
X-71 F1000
G3 X-71 Y4.887 I0 J-0.662
G1 X-61
G3 X-61 Y6.213 I0 J0.663
G1 X-65.833
G0 Z20.1
X-28.584 Y4.887
Z10.35
G1 Z10.3 F30
X-21 Z10.143 F600
G3 X-21 Y6.213 Z10.1 I0 J0.663
G1 X-31 Z9.893
G3 X-31 Y4.887 Z9.85 I0 J-0.662
G1 X-21 Z9.643
G3 X-21 Y6.213 Z9.6 I0 J0.663
G1 X-31 F1000
G3 X-31 Y4.887 I0 J-0.662
G1 X-21
G3 X-21 Y6.213 I0 J0.663
G1 X-31 Z9.393 F600
G3 X-31 Y4.887 Z9.35 I0 J-0.662
G1 X-21 Z9.143
G3 X-21 Y6.213 Z9.1 I0 J0.663
G1 X-31 F1000
G3 X-31 Y4.887 I0 J-0.662
G1 X-21
G3 X-21 Y6.213 I0 J0.663
G1 X-31 Z8.893 F600
G3 X-31 Y4.887 Z8.85 I0 J-0.662
G1 X-21 Z8.643
G3 X-21 Y6.213 Z8.6 I0 J0.663
G1 X-31 F1000
G3 X-31 Y4.887 I0 J-0.662
G1 X-21
G3 X-21 Y6.213 I0 J0.663
G1 X-31 Z8.393 F600
G3 X-31 Y4.887 Z8.35 I0 J-0.662
G1 X-21 Z8.143
G3 X-21 Y6.213 Z8.1 I0 J0.663
G1 X-31 F1000
G3 X-31 Y4.887 I0 J-0.662
G1 X-21
G3 X-21 Y6.213 I0 J0.663
G1 X-31 Z7.893 F600
G3 X-31 Y4.887 Z7.85 I0 J-0.662
G1 X-21 Z7.643
G3 X-21 Y6.213 Z7.6 I0 J0.663
G1 X-31 F1000
G3 X-31 Y4.887 I0 J-0.662
G1 X-21
G3 X-21 Y6.213 I0 J0.663
G1 X-31 Z7.393 F600
G3 X-31 Y4.887 Z7.35 I0 J-0.662
G1 X-21 Z7.143
G3 X-21 Y6.213 Z7.1 I0 J0.663
G1 X-31 F1000
G3 X-31 Y4.887 I0 J-0.662
G1 X-21
G3 X-21 Y6.213 I0 J0.663
G1 X-31 Z6.893 F600
G3 X-31 Y4.887 Z6.85 I0 J-0.662
G1 X-21 Z6.643
G3 X-21 Y6.213 Z6.6 I0 J0.663
G1 X-31 F1000
G3 X-31 Y4.887 I0 J-0.662
G1 X-21
G3 X-21 Y6.213 I0 J0.663
G1 X-31 Z6.393 F600
G3 X-31 Y4.887 Z6.35 I0 J-0.662
G1 X-21 Z6.143
G3 X-21 Y6.213 Z6.1 I0 J0.663
G1 X-31 F1000
G3 X-31 Y4.887 I0 J-0.662
G1 X-21
G3 X-21 Y6.213 I0 J0.663
G1 X-31 Z5.893 F600
G3 X-31 Y4.887 Z5.85 I0 J-0.662
G1 X-21 Z5.643
G3 X-21 Y6.213 Z5.6 I0 J0.663
G1 X-31 F1000
G3 X-31 Y4.887 I0 J-0.662
G1 X-21
G3 X-21 Y6.213 I0 J0.663
G1 X-31 Z5.393 F600
G3 X-31 Y4.887 Z5.35 I0 J-0.662
G1 X-21 Z5.143
G3 X-21 Y6.213 Z5.1 I0 J0.663
G1 X-31 F1000
G3 X-31 Y4.887 I0 J-0.662
G1 X-21
G3 X-21 Y6.213 I0 J0.663
G1 X-31 Z4.893 F600
G3 X-31 Y4.887 Z4.85 I0 J-0.662
G1 X-21 Z4.643
G3 X-21 Y6.213 Z4.6 I0 J0.663
G1 X-31 F1000
G3 X-31 Y4.887 I0 J-0.662
G1 X-21
G3 X-21 Y6.213 I0 J0.663
G1 X-31 Z4.393 F600
G3 X-31 Y4.887 Z4.35 I0 J-0.662
G1 X-21 Z4.143
G3 X-21 Y6.213 Z4.1 I0 J0.663
G1 X-31 F1000
G3 X-31 Y4.887 I0 J-0.662
G1 X-21
G3 X-21 Y6.213 I0 J0.663
G1 X-31 Z3.893 F600
G3 X-31 Y4.887 Z3.85 I0 J-0.662
G1 X-21 Z3.643
G3 X-21 Y6.213 Z3.6 I0 J0.663
G1 X-31 F1000
G3 X-31 Y4.887 I0 J-0.662
G1 X-21
G3 X-21 Y6.213 I0 J0.663
G1 X-31 Z3.393 F600
G3 X-31 Y4.887 Z3.35 I0 J-0.662
G1 X-21 Z3.143
G3 X-21 Y6.213 Z3.1 I0 J0.663
G1 X-31 F1000
G3 X-31 Y4.887 I0 J-0.662
G1 X-21
G3 X-21 Y6.213 I0 J0.663
G1 X-31 Z2.893 F600
G3 X-31 Y4.887 Z2.85 I0 J-0.662
G1 X-21 Z2.643
G3 X-21 Y6.213 Z2.6 I0 J0.663
G1 X-31 F1000
G3 X-31 Y4.887 I0 J-0.662
G1 X-21
G3 X-21 Y6.213 I0 J0.663
G1 X-31 Z2.393 F600
G3 X-31 Y4.887 Z2.35 I0 J-0.662
G1 X-21 Z2.143
G3 X-21 Y6.213 Z2.1 I0 J0.663
G1 X-31 F1000
G3 X-31 Y4.887 I0 J-0.662
G1 X-21
G3 X-21 Y6.213 I0 J0.663
G1 X-31 Z1.893 F600
G3 X-31 Y4.887 Z1.85 I0 J-0.662
G1 X-21 Z1.643
G3 X-21 Y6.213 Z1.6 I0 J0.663
G1 X-31 F1000
G3 X-31 Y4.887 I0 J-0.662
G1 X-21
G3 X-21 Y6.213 I0 J0.663
G1 X-31 Z1.393 F600
G3 X-31 Y4.887 Z1.35 I0 J-0.662
G1 X-21 Z1.143
G3 X-21 Y6.213 Z1.1 I0 J0.663
G1 X-31 F1000
G3 X-31 Y4.887 I0 J-0.662
G1 X-21
G3 X-21 Y6.213 I0 J0.663
G1 X-31 Z0.893 F600
G3 X-31 Y4.887 Z0.85 I0 J-0.662
G1 X-21 Z0.643
G3 X-21 Y6.213 Z0.6 I0 J0.663
G1 X-31 F1000
G3 X-31 Y4.887 I0 J-0.662
G1 X-21
G3 X-21 Y6.213 I0 J0.663
G1 X-31 Z0.393 F600
G3 X-31 Y4.887 Z0.35 I0 J-0.662
G1 X-28.584 Z0.3
X-21 F1000
G3 X-21 Y6.213 I0 J0.663
G1 X-31
G3 X-31 Y4.887 I0 J-0.662
G1 X-28.584
X-21 Z0.143 F600
G3 X-21 Y6.213 Z0.1 I0 J0.663
G1 X-25.833 Z0
X-31 F1000
G3 X-31 Y4.887 I0 J-0.662
G1 X-21
G3 X-21 Y6.213 I0 J0.663
G1 X-25.833
G0 Z20.1
X-28.584 Y54.888
Z10.35
G1 Z10.3 F30
X-21 Z10.143 F600
G3 X-21 Y56.213 Z10.1 I0 J0.662
G1 X-31 Z9.893
G3 X-31 Y54.888 Z9.85 I0 J-0.663
G1 X-21 Z9.643
G3 X-21 Y56.213 Z9.6 I0 J0.662
G1 X-31 F1000
G3 X-31 Y54.888 I0 J-0.663
G1 X-21
G3 X-21 Y56.213 I0 J0.662
G1 X-31 Z9.393 F600
G3 X-31 Y54.888 Z9.35 I0 J-0.663
G1 X-21 Z9.143
G3 X-21 Y56.213 Z9.1 I0 J0.662
G1 X-31 F1000
G3 X-31 Y54.888 I0 J-0.663
G1 X-21
G3 X-21 Y56.213 I0 J0.662
G1 X-31 Z8.893 F600
G3 X-31 Y54.888 Z8.85 I0 J-0.663
G1 X-21 Z8.643
G3 X-21 Y56.213 Z8.6 I0 J0.662
G1 X-31 F1000
G3 X-31 Y54.888 I0 J-0.663
G1 X-21
G3 X-21 Y56.213 I0 J0.662
G1 X-31 Z8.393 F600
G3 X-31 Y54.888 Z8.35 I0 J-0.663
G1 X-21 Z8.143
G3 X-21 Y56.213 Z8.1 I0 J0.662
G1 X-31 F1000
G3 X-31 Y54.888 I0 J-0.663
G1 X-21
G3 X-21 Y56.213 I0 J0.662
G1 X-31 Z7.893 F600
G3 X-31 Y54.888 Z7.85 I0 J-0.663
G1 X-21 Z7.643
G3 X-21 Y56.213 Z7.6 I0 J0.662
G1 X-31 F1000
G3 X-31 Y54.888 I0 J-0.663
G1 X-21
G3 X-21 Y56.213 I0 J0.662
G1 X-31 Z7.393 F600
G3 X-31 Y54.888 Z7.35 I0 J-0.663
G1 X-21 Z7.143
G3 X-21 Y56.213 Z7.1 I0 J0.662
G1 X-31 F1000
G3 X-31 Y54.888 I0 J-0.663
G1 X-21
G3 X-21 Y56.213 I0 J0.662
G1 X-31 Z6.893 F600
G3 X-31 Y54.888 Z6.85 I0 J-0.663
G1 X-21 Z6.643
G3 X-21 Y56.213 Z6.6 I0 J0.662
G1 X-31 F1000
G3 X-31 Y54.888 I0 J-0.663
G1 X-21
G3 X-21 Y56.213 I0 J0.662
G1 X-31 Z6.393 F600
G3 X-31 Y54.888 Z6.35 I0 J-0.663
G1 X-21 Z6.143
G3 X-21 Y56.213 Z6.1 I0 J0.662
G1 X-31 F1000
G3 X-31 Y54.888 I0 J-0.663
G1 X-21
G3 X-21 Y56.213 I0 J0.662
G1 X-31 Z5.893 F600
G3 X-31 Y54.888 Z5.85 I0 J-0.663
G1 X-21 Z5.643
G3 X-21 Y56.213 Z5.6 I0 J0.662
G1 X-31 F1000
G3 X-31 Y54.888 I0 J-0.663
G1 X-21
G3 X-21 Y56.213 I0 J0.662
G1 X-31 Z5.393 F600
G3 X-31 Y54.888 Z5.35 I0 J-0.663
G1 X-21 Z5.143
G3 X-21 Y56.213 Z5.1 I0 J0.662
G1 X-31 F1000
G3 X-31 Y54.888 I0 J-0.663
G1 X-21
G3 X-21 Y56.213 I0 J0.662
G1 X-31 Z4.893 F600
G3 X-31 Y54.888 Z4.85 I0 J-0.663
G1 X-21 Z4.643
G3 X-21 Y56.213 Z4.6 I0 J0.662
G1 X-31 F1000
G3 X-31 Y54.888 I0 J-0.663
G1 X-21
G3 X-21 Y56.213 I0 J0.662
G1 X-31 Z4.393 F600
G3 X-31 Y54.888 Z4.35 I0 J-0.663
G1 X-21 Z4.143
G3 X-21 Y56.213 Z4.1 I0 J0.662
G1 X-31 F1000
G3 X-31 Y54.888 I0 J-0.663
G1 X-21
G3 X-21 Y56.213 I0 J0.662
G1 X-31 Z3.893 F600
G3 X-31 Y54.888 Z3.85 I0 J-0.663
G1 X-21 Z3.643
G3 X-21 Y56.213 Z3.6 I0 J0.662
G1 X-31 F1000
G3 X-31 Y54.888 I0 J-0.663
G1 X-21
G3 X-21 Y56.213 I0 J0.662
G1 X-31 Z3.393 F600
G3 X-31 Y54.888 Z3.35 I0 J-0.663
G1 X-21 Z3.143
G3 X-21 Y56.213 Z3.1 I0 J0.662
G1 X-31 F1000
G3 X-31 Y54.888 I0 J-0.663
G1 X-21
G3 X-21 Y56.213 I0 J0.662
G1 X-31 Z2.893 F600
G3 X-31 Y54.888 Z2.85 I0 J-0.663
G1 X-21 Z2.643
G3 X-21 Y56.213 Z2.6 I0 J0.662
G1 X-31 F1000
G3 X-31 Y54.888 I0 J-0.663
G1 X-21
G3 X-21 Y56.213 I0 J0.662
G1 X-31 Z2.393 F600
G3 X-31 Y54.888 Z2.35 I0 J-0.663
G1 X-21 Z2.143
G3 X-21 Y56.213 Z2.1 I0 J0.662
G1 X-31 F1000
G3 X-31 Y54.888 I0 J-0.663
G1 X-21
G3 X-21 Y56.213 I0 J0.662
G1 X-31 Z1.893 F600
G3 X-31 Y54.888 Z1.85 I0 J-0.663
G1 X-21 Z1.643
G3 X-21 Y56.213 Z1.6 I0 J0.662
G1 X-31 F1000
G3 X-31 Y54.888 I0 J-0.663
G1 X-21
G3 X-21 Y56.213 I0 J0.662
G1 X-31 Z1.393 F600
G3 X-31 Y54.888 Z1.35 I0 J-0.663
G1 X-21 Z1.143
G3 X-21 Y56.213 Z1.1 I0 J0.662
G1 X-31 F1000
G3 X-31 Y54.888 I0 J-0.663
G1 X-21
G3 X-21 Y56.213 I0 J0.662
G1 X-31 Z0.893 F600
G3 X-31 Y54.888 Z0.85 I0 J-0.663
G1 X-21 Z0.643
G3 X-21 Y56.213 Z0.6 I0 J0.662
G1 X-31 F1000
G3 X-31 Y54.888 I0 J-0.663
G1 X-21
G3 X-21 Y56.213 I0 J0.662
G1 X-31 Z0.393 F600
G3 X-31 Y54.888 Z0.35 I0 J-0.663
G1 X-28.584 Z0.3
X-21 F1000
G3 X-21 Y56.213 I0 J0.662
G1 X-31
G3 X-31 Y54.888 I0 J-0.663
G1 X-28.584
X-21 Z0.143 F600
G3 X-21 Y56.213 Z0.1 I0 J0.662
G1 X-25.833 Z0
X-31 F1000
G3 X-31 Y54.888 I0 J-0.663
G1 X-21
G3 X-21 Y56.213 I0 J0.662
G1 X-25.833
G0 Z30.1
G28 G91 Z0
G90
G28 G91 X0 Y0
G90
M5
M30
