(adap2)
(T6 D=3.175 CR=0 - ZMIN=0 - flat end mill)
G90 G94
G17
G21
G28 G91 Z0
G90

(Adaptive1 6)
T6
(18 Flat-45 degree helix)
S18000 M3
G17 G90 G94
G54
G0 X-72.361 Y-3.538
Z26
G0 Z16
Z6.135
G1 Z5.818 F600
X-72.357 Y-3.531 Z5.747
X-72.345 Y-3.511 Z5.68
X-72.326 Y-3.478 Z5.62
X-72.3 Y-3.435 Z5.569
X-72.269 Y-3.383 Z5.531
X-72.235 Y-3.325 Z5.508
X-72.199 Y-3.265 Z5.5
G3 X-71.707 Y-1.589 I-3.024 J1.798
G1 Y-1.439 F1000
X-71.709 Y-1.401
X-71.802 Y-1.284
X-71.911 Y-1.181
X-72.03 Y-1.09
X-72.178 Y-0.994
X-72.369 Y-0.893
X-72.618 Y-0.786
X-72.949 Y-0.673
X-73.412 Y-0.556
X-74.065 Y-0.446
X-74.724 Y-0.384
X-75.386 Y-0.349
X-76.048 Y-0.329
X-76.71 Y-0.317
X-77.373 Y-0.31
X-78.035 Y-0.307
X-79.36 Y-0.303
X-82.672 Y-0.302
X-101.551
X-101.712 Y-0.262
X-102.011 Y-0.121
X-102.263 Y0.095
X-102.676 Y0.613
X-102.932 Y1.224
X-103.086 Y1.868
X-103.176 Y2.524
X-103.229 Y3.185
X-103.26 Y3.846
X-103.278 Y4.509
X-103.288 Y5.171
X-103.294 Y5.833
X-103.297 Y6.496
X-103.3 Y7.821
X-103.302 Y11.133
Y19.082
Y69.425
Y70.585
X-103.265 Y70.746
X-103.121 Y71.044
X-102.677 Y71.535
X-102.092 Y71.846
X-101.456 Y72.034
X-100.804 Y72.146
X-100.144 Y72.212
X-99.483 Y72.25
X-98.821 Y72.272
X-98.159 Y72.284
X-97.496 Y72.292
X-96.834 Y72.296
X-96.172 Y72.298
X-94.847 Y72.301
X-89.547 Y72.302
X-72.448
X-72.219 Y72.338
X-72.012 Y72.443
X-71.848 Y72.607
X-71.743 Y72.814
X-71.707 Y73.042
X-71.779 Y73.233 Z5.582 F600
X-72.048 Y73.353 Z5.7
X-72.275 Y73.454
X-76.895 Y75.508 F1000
X-78.099 Y75.6
X-100.22 Y75.536
X-102.327 Y75.218
X-103.681 Y74.745
X-104.759 Y74.09
X-105.637 Y73.156
X-106.205 Y72.135
X-106.57 Y70.932
X-106.552 Y4.307
X-106.412 Y1.75
X-106.032 Y0.246
X-105.883 Y-0.205
G3 X-105.637 Y-0.806 I2.418 J0.637
G1 X-104.506 Y-2.311
X-103.38 Y-3.09
X-102.327 Y-3.479
X-100.972 Y-3.617
X-73.284 Y-2.966
G3 X-71.929 Y-2.195 I-0.005 J1.583
G1 X-71.928 Y-2.192
X-71.905 Y-2.153
X-71.849 Y-2.042 F600
X-71.802 Y-1.927
X-71.779 Y-1.859 Z5.671
X-71.707 Y-1.439 Z5.5
Y-0.988 F1000
X-71.714 Y-0.838
X-71.777 Y-0.702
X-71.856 Y-0.574
X-71.946 Y-0.454
X-72.058 Y-0.329
X-72.192 Y-0.203
X-72.351 Y-0.075
X-72.562 Y0.068
X-72.803 Y0.205
X-73.105 Y0.346
X-73.484 Y0.487
X-73.987 Y0.629
X-74.637 Y0.757
X-75.295 Y0.837
X-75.955 Y0.888
X-76.617 Y0.919
X-77.279 Y0.938
X-77.941 Y0.95
X-78.604 Y0.957
X-79.266 Y0.962
X-79.929 Y0.964
X-81.253 Y0.967
X-85.228 Y0.968
X-99.801
X-100.13 Y1.006
X-100.438 Y1.129
X-100.71 Y1.317
X-101.18 Y1.784
X-101.497 Y2.366
X-101.701 Y2.996
X-101.804 Y3.515
X-101.841 Y3.643
X-101.901 Y3.761
X-101.981 Y3.868
X-102.105 Y4.006
X-102.176 Y4.097
X-102.215 Y4.156
X-102.298 Y4.307
X-102.531 Y4.758
X-102.76 Y5.209
X-102.835 Y5.359
X-102.896 Y5.51
X-102.928 Y5.599
X-102.943 Y5.66
X-103 Y5.961
X-103.028 Y6.111
X-103.123 Y6.713
X-103.169 Y7.014
X-103.179 Y7.164
X-103.186 Y7.465
X-103.188 Y7.615
Y32.431
X-103.186 Y32.581
X-103.179 Y32.731
X-103.16 Y32.882
X-103.131 Y33.032
X-103.01 Y33.483
X-102.963 Y33.634
X-102.928 Y33.731
X-102.904 Y33.784
X-102.831 Y33.935
X-102.778 Y34.021
X-102.699 Y34.149
X-102.596 Y34.353
X-102.488 Y34.619
X-102.374 Y34.977
X-102.256 Y35.488
X-102.159 Y36.143
X-102.104 Y36.803
X-102.073 Y37.465
X-102.055 Y38.127
X-102.045 Y38.789
X-102.039 Y39.452
X-102.036 Y40.114
X-102.033 Y41.439
X-102.032 Y44.751
Y54.324
X-102.057 Y54.515
X-102.13 Y54.693
X-102.247 Y54.846
X-102.39 Y54.99
X-102.477 Y55.081
X-102.628 Y55.252
X-102.66 Y55.291
X-102.778 Y55.467
X-102.846 Y55.591
X-102.92 Y55.742
X-102.989 Y55.892
X-103.047 Y56.043
X-103.079 Y56.139
X-103.094 Y56.193
X-103.145 Y56.494
X-103.168 Y56.644
X-103.187 Y57.095
X-103.188 Y64.465
X-103.186 Y64.615
X-103.158 Y65.066
X-103.079 Y65.568
X-103.016 Y65.969
X-102.99 Y66.119
X-102.964 Y66.27
X-102.92 Y66.42
X-102.862 Y66.57
X-102.717 Y66.871
X-102.643 Y67.022
X-102.533 Y67.267
X-102.422 Y67.582
X-102.305 Y68.019
X-102.187 Y68.67
X-102.153 Y69
X-102.057 Y69.317
X-101.89 Y69.603
X-101.455 Y70.102
X-100.887 Y70.444
X-100.263 Y70.666
X-99.616 Y70.807
X-98.959 Y70.895
X-98.299 Y70.949
X-97.638 Y70.982
X-96.975 Y71.002
X-96.313 Y71.014
X-95.651 Y71.021
X-94.988 Y71.025
X-94.326 Y71.028
X-93.001 Y71.03
X-89.027 Y71.032
X-73.791
X-73.216 Y71.037
X-72.904 Y71.065
X-72.621 Y71.114
X-72.412 Y71.167
X-72.198 Y71.241
X-72.151 Y71.261
X-71.97 Y71.374
X-71.828 Y71.534
X-71.738 Y71.728
X-71.707 Y71.94
X-71.782 Y72.135 Z5.584 F600
X-72.038 Y72.271 Z5.7
X-72.257 Y72.388
X-75.39 Y74.062 F1000
G3 X-76.594 Y74.33 I-1.129 J-2.231
G1 X-97.511 Y74.273
X-100.521 Y73.997
X-102.176 Y73.481
X-102.327 Y73.409
X-102.477 Y73.338
X-103.831 Y72.368
X-104.132 Y72.058
G3 X-104.772 Y70.932 I1.779 J-1.756
G1 X-105.549 Y68.225
G3 X-105.038 Y66.57 I1.521 J-0.436
G1 X-105.035 Y66.568
G3 X-103.144 Y66.476 I1.008 J1.22
G1 X-103.043 Y66.549 F600
X-102.949 Y66.63
G3 X-102.738 Y66.871 Z5.571 I-1.078 J1.158
G1 X-102.643 Y67.022 Z5.5
X-102.413 Y67.473 F1000
X-102.151 Y67.943
X-101.725 Y68.4
X-101.273 Y68.851
X-101.143 Y68.977
X-100.972 Y69.127
X-100.822 Y69.225
X-100.739 Y69.277
X-99.768 Y69.772
X-99.618 Y69.845
X-99.539 Y69.879
X-99.467 Y69.907
X-99.317 Y69.953
X-98.865 Y70.032
X-98.414 Y70.103
X-98.113 Y70.148
X-97.889 Y70.18
X-97.812 Y70.183
X-97.361 Y70.188
X-75.39 Y70.187
X-74.939 Y70.157
X-74.788 Y70.135
X-74.187 Y70.04
X-73.606 Y69.978
X-73.265 Y69.969
X-72.955 Y69.985
X-72.695 Y70.02
X-72.461 Y70.071
X-72.273 Y70.128
X-72.176 Y70.166
X-71.985 Y70.277
X-71.835 Y70.439
X-71.74 Y70.638
X-71.707 Y70.856
G3 X-72.035 Y71.162 Z5.7 I-0.317 J-0.011 F600
G1 X-72.096 Y71.154
X-72.278 Y71.111
X-74.198 Y70.661 F1000
X-74.254 Y70.642
X-74.305 Y70.614
X-74.352 Y70.575 F600
X-74.391 Y70.526
X-74.42 Y70.472
X-74.438 Y70.412
G3 X-74.187 Y70.04 Z5.5 I0.312 J-0.06
G1 X-74.036 Y70.016 F1000
X-73.886 Y69.991
X-73.735 Y69.964
X-73.585 Y69.922
X-73.459 Y69.879
X-73.434 Y69.868
X-73.284 Y69.799
X-72.91 Y69.609
X-72.773 Y69.547
X-72.629 Y69.504
X-72.574 Y69.494
X-72.359 Y69.489
X-72.153 Y69.545
X-71.97 Y69.658
X-71.828 Y69.818
X-71.738 Y70.012
X-71.707 Y70.224
G3 X-72.035 Y70.531 Z5.7 I-0.317 J-0.011 F600
G1 X-72.096 Y70.523
X-72.154 Y70.503
X-72.268 Y70.452
X-72.846 Y70.194 F1000
X-72.886 Y70.176 F600
X-72.944 Y70.142
X-72.995 Y70.096
X-73.034 Y70.04
G3 X-72.91 Y69.609 Z5.5 I0.278 J-0.154
G1 X-72.315 Y69.305 F1000
X-72.285 Y69.29
X-72.261 Y69.277
X-72.125 Y69.213
X-71.966 Y69.239
X-71.83 Y69.325
X-71.739 Y69.457
X-71.707 Y69.615
G3 X-71.917 Y69.933 I-0.366 J-0.013 F600
X-72.261 Y69.277 I-0.157 J-0.336
G1 X-72.155 Y69.222 F1000
X-72.117 Y69.209
X-72.08 Y69.202
X-72.042 Y69.199
X-72.005 Y69.2
X-71.967 Y69.207
X-71.929 Y69.217
X-71.904 Y69.228
X-71.878 Y69.241
X-71.827 Y69.277
X-71.803 Y69.299
X-71.779 Y69.325
X-71.76 Y69.351
X-71.744 Y69.376
X-71.732 Y69.402
X-71.722 Y69.428
X-71.713 Y69.465
X-71.708 Y69.503
X-71.707 Y69.578
Y71.94
X-71.782 Y72.135 Z5.584 F600
X-72.059 Y72.221 Z5.7
X-72.23 Y72.274
X-72.299 Y72.282
X-81.861 Y73.486 F1000
X-98.414 Y73.453
X-100.671 Y72.981
X-102.778 Y71.894
X-104.024 Y70.781
X-105.035 Y69.556
X-106.002 Y67.623
X-106.286 Y66.42
X-106.495 Y64.465
X-105.63 Y34.987
G3 X-103.346 Y33.547 I1.582 J-0.021
G1 X-103.237 Y33.607 F600
X-103.133 Y33.674
G3 X-102.778 Y34.021 Z5.5 I-0.914 J1.292
G1 X-102.734 Y34.085 F1000
X-102.628 Y34.218
X-102.467 Y34.386
X-102.176 Y34.675
X-102.026 Y34.804
X-101.912 Y34.902
X-101.807 Y35.01
X-101.705 Y35.136
X-101.632 Y35.241
X-101.56 Y35.372
X-101.515 Y35.514
X-101.5 Y35.662
G3 X-101.828 Y35.969 Z5.7 I-0.317 J-0.011 F600
G1 X-101.89 Y35.961
X-101.948 Y35.941
X-102.002 Y35.91
X-102.049 Y35.869
X-102.082 Y35.827 F1000
X-102.47 Y35.241
X-102.5 Y35.184
X-102.518 Y35.122
X-102.523 Y35.061 F600
X-102.516 Y34.999
X-102.497 Y34.94
X-102.467 Y34.886
G3 X-102.026 Y34.804 Z5.5 I0.262 J0.18
G1 X-101.981 Y34.837 F1000
X-101.875 Y34.908
X-101.725 Y34.99
X-101.687 Y35.008
X-101.649 Y35.032
X-101.612 Y35.064
X-101.574 Y35.104
X-101.549 Y35.138
X-101.529 Y35.175
X-101.514 Y35.213
X-101.505 Y35.251
X-101.501 Y35.288
X-101.5 Y36.19
Y53.937
X-101.501 Y54.088
X-101.506 Y54.125
X-101.516 Y54.163
X-101.531 Y54.2
X-101.553 Y54.238
X-101.574 Y54.267
X-101.603 Y54.3
X-101.64 Y54.333
X-102.176 Y54.783
X-102.241 Y54.839
X-102.247 Y54.846
X-102.477 Y54.931 Z5.599 F600
X-102.688 Y54.839 Z5.691
X-102.693 Y54.817 Z5.7
X-102.747 Y54.575
X-103.567 Y50.929 F1000
X-106.492 Y32.882
X-106.446 Y6.563
X-106.077 Y4.608
X-104.506 Y0.998
G3 X-104.283 Y0.55 I2.338 J0.886
G1 X-103.38 Y-0.7
X-102.257 Y-1.632
X-101.123 Y-2.119
X-100.069 Y-2.324
X-73.284 Y-2.515
G3 X-71.929 Y-1.743 I-0.005 J1.583
G1 X-71.928 Y-1.741
X-71.905 Y-1.702
X-71.849 Y-1.591 F600
X-71.802 Y-1.476
X-71.779 Y-1.408 Z5.671
X-71.707 Y-0.988 Z5.5
Y-0.31 F1000
X-71.714 Y-0.16
X-71.747 Y-0.014
X-71.797 Y0.128
X-71.862 Y0.263
X-71.939 Y0.393
X-72.034 Y0.527
X-72.159 Y0.676
X-72.3 Y0.819
X-72.489 Y0.981
X-72.699 Y1.136
X-72.969 Y1.302
X-73.292 Y1.467
X-73.694 Y1.632
X-74.187 Y1.79
X-74.476 Y1.858
X-74.571 Y1.874
X-74.666 Y1.878
X-74.761 Y1.869
G3 X-75.012 Y1.497 Z5.7 I0.061 J-0.312 F600
G1 X-74.995 Y1.438
X-74.967 Y1.384
X-74.928 Y1.336
X-74.882 Y1.296
X-74.879 Y1.295
X-72.26 Y-0.522 F1000
X-72.205 Y-0.56 F600
X-72.152 Y-0.589
X-72.095 Y-0.608
X-72.035 Y-0.616
G3 X-71.707 Y-0.31 Z5.5 I0.011 J0.317
G1 Y0.63 F1000
X-71.714 Y0.779
X-71.742 Y0.927
X-71.787 Y1.07
X-71.844 Y1.208
X-71.917 Y1.347
X-72.013 Y1.5
X-72.127 Y1.652
X-72.279 Y1.824
X-72.448 Y1.988
X-72.56 Y2.08
X-72.739 Y2.189
X-72.941 Y2.243
X-73.151 Y2.238
X-73.351 Y2.175
G3 X-73.485 Y1.747 Z5.7 I0.147 J-0.281 F600
G1 X-73.462 Y1.71
X-73.435 Y1.676
X-73.324 Y1.559
X-72.255 Y0.423 F1000
X-72.209 Y0.382 F600
X-72.155 Y0.351
X-72.096 Y0.331
X-72.035 Y0.323
G3 X-71.707 Y0.63 Z5.5 I0.011 J0.317
G1 Y1.682 F1000
X-71.714 Y1.832
X-71.744 Y1.979
X-71.758 Y2.022
X-71.853 Y2.211
X-71.997 Y2.366
X-72.18 Y2.474
X-72.385 Y2.526
X-72.597 Y2.517
X-72.797 Y2.449
G3 X-72.921 Y2.017 Z5.7 I0.154 J-0.278 F600
G1 X-72.884 Y1.964
X-72.837 Y1.92
X-72.743 Y1.847
X-72.258 Y1.473 F1000
X-72.218 Y1.442 F600
X-72.162 Y1.407
X-72.1 Y1.385
X-72.035 Y1.376
G3 X-71.707 Y1.682 Z5.5 I0.011 J0.317
G1 Y2.321 F1000
Y2.352
Y2.397
X-71.716 Y2.547
X-71.747 Y2.613
X-71.767 Y2.649
X-71.79 Y2.683
X-71.816 Y2.714
X-71.851 Y2.73 F600
X-71.888 Y2.731
X-71.923 Y2.717
X-71.949 Y2.689
X-71.961 Y2.654
X-71.958 Y2.616
X-71.884 Y2.373
X-71.867 Y2.341
X-71.839 Y2.319
X-71.804 Y2.309
X-71.768 Y2.314
X-71.737 Y2.332
X-71.715 Y2.362
X-71.707 Y2.397
X-71.708 Y2.502 F1000
X-71.714 Y2.54
X-71.725 Y2.577
X-71.74 Y2.615
X-71.763 Y2.652
X-71.779 Y2.674
X-71.816 Y2.714
X-71.854 Y2.745
X-71.892 Y2.768
X-71.929 Y2.784
X-71.967 Y2.795
X-72.005 Y2.8
X-72.042 Y2.802
X-72.08 Y2.799
X-72.117 Y2.791
X-72.155 Y2.779
X-72.398 Y2.652
X-72.988 Y2.352
X-73.133 Y2.28
X-73.434 Y2.135
X-73.585 Y2.078
X-73.674 Y2.051
X-73.735 Y2.036
X-73.886 Y2.009
X-74.036 Y1.984
X-74.788 Y1.865
X-74.939 Y1.841
X-75.39 Y1.813
X-97.361
X-97.812 Y1.817
X-97.963 Y1.829
X-98.113 Y1.849
X-98.865 Y1.968
X-99.317 Y2.047
X-99.467 Y2.095
X-99.618 Y2.157
X-99.768 Y2.228
X-100.671 Y2.688
X-100.822 Y2.771
X-100.874 Y2.803
X-100.972 Y2.874
X-101.068 Y2.953
X-101.123 Y3.003
X-101.228 Y3.104
X-101.875 Y3.751
X-101.981 Y3.868
X-102.209 Y3.964 Z5.599 F600
X-102.428 Y3.843 Z5.7
X-102.477 Y3.817
X-102.476 Y3.624
X-102.475 Y3.404 F1000
X-101.672 Y0.246
G3 X-99.919 Y-1.408 I2.38 J0.767
G1 X-78.099 Y-3.624
X-74.488 Y-3.986 Z5.2
G3 X-72.383 Y-3.213 I0.282 J2.484
G1 X-72.381 Y-3.211
G3 X-71.842 Y-2.318 I-1.824 J1.709
X-71.766 Y-2.049 I-2.363 J0.816 F600
X-71.707 Y-1.589 Z5 I-2.439 J0.547
G1 Y-1.439 F1000
X-71.709 Y-1.401
X-71.802 Y-1.284
X-71.911 Y-1.181
X-72.03 Y-1.09
X-72.178 Y-0.994
X-72.369 Y-0.893
X-72.618 Y-0.786
X-72.949 Y-0.673
X-73.412 Y-0.556
X-74.065 Y-0.446
X-74.724 Y-0.384
X-75.386 Y-0.349
X-76.048 Y-0.329
X-76.71 Y-0.317
X-77.373 Y-0.31
X-78.035 Y-0.307
X-79.36 Y-0.303
X-82.672 Y-0.302
X-101.551
X-101.712 Y-0.262
X-102.011 Y-0.121
X-102.263 Y0.095
X-102.676 Y0.613
X-102.932 Y1.224
X-103.086 Y1.868
X-103.176 Y2.524
X-103.229 Y3.185
X-103.26 Y3.846
X-103.278 Y4.509
X-103.288 Y5.171
X-103.294 Y5.833
X-103.297 Y6.496
X-103.3 Y7.821
X-103.302 Y11.133
Y19.082
Y69.425
Y70.585
X-103.265 Y70.746
X-103.121 Y71.044
X-102.677 Y71.535
X-102.092 Y71.846
X-101.456 Y72.034
X-100.804 Y72.146
X-100.144 Y72.212
X-99.483 Y72.25
X-98.821 Y72.272
X-98.159 Y72.284
X-97.496 Y72.292
X-96.834 Y72.296
X-96.172 Y72.298
X-94.847 Y72.301
X-89.547 Y72.302
X-72.448
X-72.219 Y72.338
X-72.012 Y72.443
X-71.848 Y72.607
X-71.743 Y72.814
X-71.707 Y73.042
X-71.779 Y73.233 Z5.082 F600
X-72.048 Y73.353 Z5.2
X-72.275 Y73.454
X-76.895 Y75.508 F1000
X-78.099 Y75.6
X-100.22 Y75.536
X-102.327 Y75.218
X-103.681 Y74.745
X-104.759 Y74.09
X-105.637 Y73.156
X-106.205 Y72.135
X-106.57 Y70.932
X-106.552 Y4.307
X-106.412 Y1.75
X-106.032 Y0.246
X-105.883 Y-0.205
G3 X-105.637 Y-0.806 I2.418 J0.637
G1 X-104.506 Y-2.311
X-103.38 Y-3.09
X-102.327 Y-3.479
X-100.972 Y-3.617
X-73.284 Y-2.966
G3 X-71.929 Y-2.195 I-0.005 J1.583
G1 X-71.928 Y-2.192
X-71.905 Y-2.153
X-71.849 Y-2.042 F600
X-71.802 Y-1.927
X-71.779 Y-1.859 Z5.171
X-71.707 Y-1.439 Z5
Y-0.988 F1000
X-71.714 Y-0.838
X-71.777 Y-0.702
X-71.856 Y-0.574
X-71.946 Y-0.454
X-72.058 Y-0.329
X-72.192 Y-0.203
X-72.351 Y-0.075
X-72.562 Y0.068
X-72.803 Y0.205
X-73.105 Y0.346
X-73.484 Y0.487
X-73.987 Y0.629
X-74.637 Y0.757
X-75.295 Y0.837
X-75.955 Y0.888
X-76.617 Y0.919
X-77.279 Y0.938
X-77.941 Y0.95
X-78.604 Y0.957
X-79.266 Y0.962
X-79.929 Y0.964
X-81.253 Y0.967
X-85.228 Y0.968
X-99.801
X-100.13 Y1.006
X-100.438 Y1.129
X-100.71 Y1.317
X-101.18 Y1.784
X-101.497 Y2.366
X-101.701 Y2.996
X-101.804 Y3.515
X-101.841 Y3.643
X-101.901 Y3.761
X-101.981 Y3.868
X-102.105 Y4.006
X-102.176 Y4.097
X-102.215 Y4.156
X-102.298 Y4.307
X-102.531 Y4.758
X-102.76 Y5.209
X-102.835 Y5.359
X-102.896 Y5.51
X-102.928 Y5.599
X-102.943 Y5.66
X-103 Y5.961
X-103.028 Y6.111
X-103.123 Y6.713
X-103.169 Y7.014
X-103.179 Y7.164
X-103.186 Y7.465
X-103.188 Y7.615
Y32.431
X-103.186 Y32.581
X-103.179 Y32.731
X-103.16 Y32.882
X-103.131 Y33.032
X-103.01 Y33.483
X-102.963 Y33.634
X-102.928 Y33.731
X-102.904 Y33.784
X-102.831 Y33.935
X-102.778 Y34.021
X-102.699 Y34.149
X-102.596 Y34.353
X-102.488 Y34.619
X-102.374 Y34.977
X-102.256 Y35.488
X-102.159 Y36.143
X-102.104 Y36.803
X-102.073 Y37.465
X-102.055 Y38.127
X-102.045 Y38.789
X-102.039 Y39.452
X-102.036 Y40.114
X-102.033 Y41.439
X-102.032 Y44.751
Y54.324
X-102.057 Y54.515
X-102.13 Y54.693
X-102.247 Y54.846
X-102.39 Y54.99
X-102.477 Y55.081
X-102.628 Y55.252
X-102.66 Y55.291
X-102.778 Y55.467
X-102.846 Y55.591
X-102.92 Y55.742
X-102.989 Y55.892
X-103.047 Y56.043
X-103.079 Y56.139
X-103.094 Y56.193
X-103.145 Y56.494
X-103.168 Y56.644
X-103.187 Y57.095
X-103.188 Y64.465
X-103.186 Y64.615
X-103.158 Y65.066
X-103.079 Y65.568
X-103.016 Y65.969
X-102.99 Y66.119
X-102.964 Y66.27
X-102.92 Y66.42
X-102.862 Y66.57
X-102.717 Y66.871
X-102.643 Y67.022
X-102.533 Y67.267
X-102.422 Y67.582
X-102.305 Y68.019
X-102.187 Y68.67
X-102.153 Y69
X-102.057 Y69.317
X-101.89 Y69.603
X-101.455 Y70.102
X-100.887 Y70.444
X-100.263 Y70.666
X-99.616 Y70.807
X-98.959 Y70.895
X-98.299 Y70.949
X-97.638 Y70.982
X-96.975 Y71.002
X-96.313 Y71.014
X-95.651 Y71.021
X-94.988 Y71.025
X-94.326 Y71.028
X-93.001 Y71.03
X-89.027 Y71.032
X-73.791
X-73.216 Y71.037
X-72.904 Y71.065
X-72.621 Y71.114
X-72.412 Y71.167
X-72.198 Y71.241
X-72.151 Y71.261
X-71.97 Y71.374
X-71.828 Y71.534
X-71.738 Y71.728
X-71.707 Y71.94
X-71.782 Y72.135 Z5.084 F600
X-72.038 Y72.271 Z5.2
X-72.257 Y72.388
X-75.39 Y74.062 F1000
G3 X-76.594 Y74.33 I-1.129 J-2.231
G1 X-97.511 Y74.273
X-100.521 Y73.997
X-102.176 Y73.481
X-102.327 Y73.409
X-102.477 Y73.338
X-103.831 Y72.368
X-104.132 Y72.058
G3 X-104.772 Y70.932 I1.779 J-1.756
G1 X-105.549 Y68.225
G3 X-105.038 Y66.57 I1.521 J-0.436
G1 X-105.035 Y66.568
G3 X-103.144 Y66.476 I1.008 J1.22
G1 X-103.043 Y66.549 F600
X-102.949 Y66.63
G3 X-102.738 Y66.871 Z5.071 I-1.078 J1.158
G1 X-102.643 Y67.022 Z5
X-102.413 Y67.473 F1000
X-102.151 Y67.943
X-101.725 Y68.4
X-101.273 Y68.851
X-101.143 Y68.977
X-100.972 Y69.127
X-100.822 Y69.225
X-100.739 Y69.277
X-99.768 Y69.772
X-99.618 Y69.845
X-99.539 Y69.879
X-99.467 Y69.907
X-99.317 Y69.953
X-98.865 Y70.032
X-98.414 Y70.103
X-98.113 Y70.148
X-97.889 Y70.18
X-97.812 Y70.183
X-97.361 Y70.188
X-75.39 Y70.187
X-74.939 Y70.157
X-74.788 Y70.135
X-74.187 Y70.04
X-73.606 Y69.978
X-73.265 Y69.969
X-72.955 Y69.985
X-72.695 Y70.02
X-72.461 Y70.071
X-72.273 Y70.128
X-72.176 Y70.166
X-71.985 Y70.277
X-71.835 Y70.439
X-71.74 Y70.638
X-71.707 Y70.856
G3 X-72.035 Y71.162 Z5.2 I-0.317 J-0.011 F600
G1 X-72.096 Y71.154
X-72.278 Y71.111
X-74.198 Y70.661 F1000
X-74.254 Y70.642
X-74.305 Y70.614
X-74.352 Y70.575 F600
X-74.391 Y70.526
X-74.42 Y70.472
X-74.438 Y70.412
G3 X-74.187 Y70.04 Z5 I0.312 J-0.06
G1 X-74.036 Y70.016 F1000
X-73.886 Y69.991
X-73.735 Y69.964
X-73.585 Y69.922
X-73.459 Y69.879
X-73.434 Y69.868
X-73.284 Y69.799
X-72.91 Y69.609
X-72.773 Y69.547
X-72.629 Y69.504
X-72.574 Y69.494
X-72.359 Y69.489
X-72.153 Y69.545
X-71.97 Y69.658
X-71.828 Y69.818
X-71.738 Y70.012
X-71.707 Y70.224
G3 X-72.035 Y70.531 Z5.2 I-0.317 J-0.011 F600
G1 X-72.096 Y70.523
X-72.154 Y70.503
X-72.268 Y70.452
X-72.846 Y70.194 F1000
X-72.886 Y70.176 F600
X-72.944 Y70.142
X-72.995 Y70.096
X-73.034 Y70.04
G3 X-72.91 Y69.609 Z5 I0.278 J-0.154
G1 X-72.315 Y69.305 F1000
X-72.285 Y69.29
X-72.261 Y69.277
X-72.125 Y69.213
X-71.966 Y69.239
X-71.83 Y69.325
X-71.739 Y69.457
X-71.707 Y69.615
G3 X-71.917 Y69.933 I-0.366 J-0.013 F600
X-72.261 Y69.277 I-0.157 J-0.336
G1 X-72.155 Y69.222 F1000
X-72.117 Y69.209
X-72.08 Y69.202
X-72.042 Y69.199
X-72.005 Y69.2
X-71.967 Y69.207
X-71.929 Y69.217
X-71.904 Y69.228
X-71.878 Y69.241
X-71.827 Y69.277
X-71.803 Y69.299
X-71.779 Y69.325
X-71.76 Y69.351
X-71.744 Y69.376
X-71.732 Y69.402
X-71.722 Y69.428
X-71.713 Y69.465
X-71.708 Y69.503
X-71.707 Y69.578
Y71.94
X-71.782 Y72.135 Z5.084 F600
X-72.059 Y72.221 Z5.2
X-72.23 Y72.274
X-72.299 Y72.282
X-81.861 Y73.486 F1000
X-98.414 Y73.453
X-100.671 Y72.981
X-102.778 Y71.894
X-104.024 Y70.781
X-105.035 Y69.556
X-106.002 Y67.623
X-106.286 Y66.42
X-106.495 Y64.465
X-105.63 Y34.987
G3 X-103.346 Y33.547 I1.582 J-0.021
G1 X-103.237 Y33.607 F600
X-103.133 Y33.674
G3 X-102.778 Y34.021 Z5 I-0.914 J1.292
G1 X-102.734 Y34.085 F1000
X-102.628 Y34.218
X-102.467 Y34.386
X-102.176 Y34.675
X-102.026 Y34.804
X-101.912 Y34.902
X-101.807 Y35.01
X-101.705 Y35.136
X-101.632 Y35.241
X-101.56 Y35.372
X-101.515 Y35.514
X-101.5 Y35.662
G3 X-101.828 Y35.969 Z5.2 I-0.317 J-0.011 F600
G1 X-101.89 Y35.961
X-101.948 Y35.941
X-102.002 Y35.91
X-102.049 Y35.869
X-102.082 Y35.827 F1000
X-102.47 Y35.241
X-102.5 Y35.184
X-102.518 Y35.122
X-102.523 Y35.061 F600
X-102.516 Y34.999
X-102.497 Y34.94
X-102.467 Y34.886
G3 X-102.026 Y34.804 Z5 I0.262 J0.18
G1 X-101.981 Y34.837 F1000
X-101.875 Y34.908
X-101.725 Y34.99
X-101.687 Y35.008
X-101.649 Y35.032
X-101.612 Y35.064
X-101.574 Y35.104
X-101.549 Y35.138
X-101.529 Y35.175
X-101.514 Y35.213
X-101.505 Y35.251
X-101.501 Y35.288
X-101.5 Y36.19
Y53.937
X-101.501 Y54.088
X-101.506 Y54.125
X-101.516 Y54.163
X-101.531 Y54.2
X-101.553 Y54.238
X-101.574 Y54.267
X-101.603 Y54.3
X-101.64 Y54.333
X-102.176 Y54.783
X-102.241 Y54.839
X-102.247 Y54.846
X-102.477 Y54.931 Z5.099 F600
X-102.688 Y54.839 Z5.191
X-102.693 Y54.817 Z5.2
X-102.747 Y54.575
X-103.567 Y50.929 F1000
X-106.492 Y32.882
X-106.446 Y6.563
X-106.077 Y4.608
X-104.506 Y0.998
G3 X-104.283 Y0.55 I2.338 J0.886
G1 X-103.38 Y-0.7
X-102.257 Y-1.632
X-101.123 Y-2.119
X-100.069 Y-2.324
X-73.284 Y-2.515
G3 X-71.929 Y-1.743 I-0.005 J1.583
G1 X-71.928 Y-1.741
X-71.905 Y-1.702
X-71.849 Y-1.591 F600
X-71.802 Y-1.476
X-71.779 Y-1.408 Z5.171
X-71.707 Y-0.988 Z5
Y-0.31 F1000
X-71.714 Y-0.16
X-71.747 Y-0.014
X-71.797 Y0.128
X-71.862 Y0.263
X-71.939 Y0.393
X-72.034 Y0.527
X-72.159 Y0.676
X-72.3 Y0.819
X-72.489 Y0.981
X-72.699 Y1.136
X-72.969 Y1.302
X-73.292 Y1.467
X-73.694 Y1.632
X-74.187 Y1.79
X-74.476 Y1.858
X-74.571 Y1.874
X-74.666 Y1.878
X-74.761 Y1.869
G3 X-75.012 Y1.497 Z5.2 I0.061 J-0.312 F600
G1 X-74.995 Y1.438
X-74.967 Y1.384
X-74.928 Y1.336
X-74.882 Y1.296
X-74.879 Y1.295
X-72.26 Y-0.522 F1000
X-72.205 Y-0.56 F600
X-72.152 Y-0.589
X-72.095 Y-0.608
X-72.035 Y-0.616
G3 X-71.707 Y-0.31 Z5 I0.011 J0.317
G1 Y0.63 F1000
X-71.714 Y0.779
X-71.742 Y0.927
X-71.787 Y1.07
X-71.844 Y1.208
X-71.917 Y1.347
X-72.013 Y1.5
X-72.127 Y1.652
X-72.279 Y1.824
X-72.448 Y1.988
X-72.56 Y2.08
X-72.739 Y2.189
X-72.941 Y2.243
X-73.151 Y2.238
X-73.351 Y2.175
G3 X-73.485 Y1.747 Z5.2 I0.147 J-0.281 F600
G1 X-73.462 Y1.71
X-73.435 Y1.676
X-73.324 Y1.559
X-72.255 Y0.423 F1000
X-72.209 Y0.382 F600
X-72.155 Y0.351
X-72.096 Y0.331
X-72.035 Y0.323
G3 X-71.707 Y0.63 Z5 I0.011 J0.317
G1 Y1.682 F1000
X-71.714 Y1.832
X-71.744 Y1.979
X-71.758 Y2.022
X-71.853 Y2.211
X-71.997 Y2.366
X-72.18 Y2.474
X-72.385 Y2.526
X-72.597 Y2.517
X-72.797 Y2.449
G3 X-72.921 Y2.017 Z5.2 I0.154 J-0.278 F600
G1 X-72.884 Y1.964
X-72.837 Y1.92
X-72.743 Y1.847
X-72.258 Y1.473 F1000
X-72.218 Y1.442 F600
X-72.162 Y1.407
X-72.1 Y1.385
X-72.035 Y1.376
G3 X-71.707 Y1.682 Z5 I0.011 J0.317
G1 Y2.321 F1000
Y2.352
Y2.397
X-71.716 Y2.547
X-71.747 Y2.613
X-71.767 Y2.649
X-71.79 Y2.683
X-71.816 Y2.714
X-71.851 Y2.73 F600
X-71.888 Y2.731
X-71.923 Y2.717
X-71.949 Y2.689
X-71.961 Y2.654
X-71.958 Y2.616
X-71.884 Y2.373
X-71.867 Y2.341
X-71.839 Y2.319
X-71.804 Y2.309
X-71.768 Y2.314
X-71.737 Y2.332
X-71.715 Y2.362
X-71.707 Y2.397
X-71.708 Y2.502 F1000
X-71.714 Y2.54
X-71.725 Y2.577
X-71.74 Y2.615
X-71.763 Y2.652
X-71.779 Y2.674
X-71.816 Y2.714
X-71.854 Y2.745
X-71.892 Y2.768
X-71.929 Y2.784
X-71.967 Y2.795
X-72.005 Y2.8
X-72.042 Y2.802
X-72.08 Y2.799
X-72.117 Y2.791
X-72.155 Y2.779
X-72.398 Y2.652
X-72.988 Y2.352
X-73.133 Y2.28
X-73.434 Y2.135
X-73.585 Y2.078
X-73.674 Y2.051
X-73.735 Y2.036
X-73.886 Y2.009
X-74.036 Y1.984
X-74.788 Y1.865
X-74.939 Y1.841
X-75.39 Y1.813
X-97.361
X-97.812 Y1.817
X-97.963 Y1.829
X-98.113 Y1.849
X-98.865 Y1.968
X-99.317 Y2.047
X-99.467 Y2.095
X-99.618 Y2.157
X-99.768 Y2.228
X-100.671 Y2.688
X-100.822 Y2.771
X-100.874 Y2.803
X-100.972 Y2.874
X-101.068 Y2.953
X-101.123 Y3.003
X-101.228 Y3.104
X-101.875 Y3.751
X-101.981 Y3.868
X-102.209 Y3.964 Z5.099 F600
X-102.428 Y3.843 Z5.2
X-102.477 Y3.817
X-102.476 Y3.624
X-102.475 Y3.404 F1000
X-101.672 Y0.246
G3 X-99.919 Y-1.408 I2.38 J0.767
G1 X-78.099 Y-3.624
X-74.488 Y-3.986 Z4.7
G3 X-72.383 Y-3.213 I0.282 J2.484
G1 X-72.381 Y-3.211
G3 X-71.842 Y-2.318 I-1.824 J1.709
X-71.766 Y-2.049 I-2.363 J0.816 F600
X-71.707 Y-1.589 Z4.5 I-2.439 J0.547
G1 Y-1.439 F1000
X-71.709 Y-1.401
X-71.802 Y-1.284
X-71.911 Y-1.181
X-72.03 Y-1.09
X-72.178 Y-0.994
X-72.369 Y-0.893
X-72.618 Y-0.786
X-72.949 Y-0.673
X-73.412 Y-0.556
X-74.065 Y-0.446
X-74.724 Y-0.384
X-75.386 Y-0.349
X-76.048 Y-0.329
X-76.71 Y-0.317
X-77.373 Y-0.31
X-78.035 Y-0.307
X-79.36 Y-0.303
X-82.672 Y-0.302
X-101.551
X-101.712 Y-0.262
X-102.011 Y-0.121
X-102.263 Y0.095
X-102.676 Y0.613
X-102.932 Y1.224
X-103.086 Y1.868
X-103.176 Y2.524
X-103.229 Y3.185
X-103.26 Y3.846
X-103.278 Y4.509
X-103.288 Y5.171
X-103.294 Y5.833
X-103.297 Y6.496
X-103.3 Y7.821
X-103.302 Y11.133
Y19.082
Y69.425
Y70.585
X-103.265 Y70.746
X-103.121 Y71.044
X-102.677 Y71.535
X-102.092 Y71.846
X-101.456 Y72.034
X-100.804 Y72.146
X-100.144 Y72.212
X-99.483 Y72.25
X-98.821 Y72.272
X-98.159 Y72.284
X-97.496 Y72.292
X-96.834 Y72.296
X-96.172 Y72.298
X-94.847 Y72.301
X-89.547 Y72.302
X-72.448
X-72.219 Y72.338
X-72.012 Y72.443
X-71.848 Y72.607
X-71.743 Y72.814
X-71.707 Y73.042
X-71.779 Y73.233 Z4.582 F600
X-72.048 Y73.353 Z4.7
X-72.275 Y73.454
X-76.895 Y75.508 F1000
X-78.099 Y75.6
X-100.22 Y75.536
X-102.327 Y75.218
X-103.681 Y74.745
X-104.759 Y74.09
X-105.637 Y73.156
X-106.205 Y72.135
X-106.57 Y70.932
X-106.552 Y4.307
X-106.412 Y1.75
X-106.032 Y0.246
X-105.883 Y-0.205
G3 X-105.637 Y-0.806 I2.418 J0.637
G1 X-104.506 Y-2.311
X-103.38 Y-3.09
X-102.327 Y-3.479
X-100.972 Y-3.617
X-73.284 Y-2.966
G3 X-71.929 Y-2.195 I-0.005 J1.583
G1 X-71.928 Y-2.192
X-71.905 Y-2.153
X-71.849 Y-2.042 F600
X-71.802 Y-1.927
X-71.779 Y-1.859 Z4.671
X-71.707 Y-1.439 Z4.5
Y-0.988 F1000
X-71.714 Y-0.838
X-71.777 Y-0.702
X-71.856 Y-0.574
X-71.946 Y-0.454
X-72.058 Y-0.329
X-72.192 Y-0.203
X-72.351 Y-0.075
X-72.562 Y0.068
X-72.803 Y0.205
X-73.105 Y0.346
X-73.484 Y0.487
X-73.987 Y0.629
X-74.637 Y0.757
X-75.295 Y0.837
X-75.955 Y0.888
X-76.617 Y0.919
X-77.279 Y0.938
X-77.941 Y0.95
X-78.604 Y0.957
X-79.266 Y0.962
X-79.929 Y0.964
X-81.253 Y0.967
X-85.228 Y0.968
X-99.801
X-100.13 Y1.006
X-100.438 Y1.129
X-100.71 Y1.317
X-101.18 Y1.784
X-101.497 Y2.366
X-101.701 Y2.996
X-101.804 Y3.515
X-101.841 Y3.643
X-101.901 Y3.761
X-101.981 Y3.868
X-102.105 Y4.006
X-102.176 Y4.097
X-102.215 Y4.156
X-102.298 Y4.307
X-102.531 Y4.758
X-102.76 Y5.209
X-102.835 Y5.359
X-102.896 Y5.51
X-102.928 Y5.599
X-102.943 Y5.66
X-103 Y5.961
X-103.028 Y6.111
X-103.123 Y6.713
X-103.169 Y7.014
X-103.179 Y7.164
X-103.186 Y7.465
X-103.188 Y7.615
Y32.431
X-103.186 Y32.581
X-103.179 Y32.731
X-103.16 Y32.882
X-103.131 Y33.032
X-103.01 Y33.483
X-102.963 Y33.634
X-102.928 Y33.731
X-102.904 Y33.784
X-102.831 Y33.935
X-102.778 Y34.021
X-102.699 Y34.149
X-102.596 Y34.353
X-102.488 Y34.619
X-102.374 Y34.977
X-102.256 Y35.488
X-102.159 Y36.143
X-102.104 Y36.803
X-102.073 Y37.465
X-102.055 Y38.127
X-102.045 Y38.789
X-102.039 Y39.452
X-102.036 Y40.114
X-102.033 Y41.439
X-102.032 Y44.751
Y54.324
X-102.057 Y54.515
X-102.13 Y54.693
X-102.247 Y54.846
X-102.39 Y54.99
X-102.477 Y55.081
X-102.628 Y55.252
X-102.66 Y55.291
X-102.778 Y55.467
X-102.846 Y55.591
X-102.92 Y55.742
X-102.989 Y55.892
X-103.047 Y56.043
X-103.079 Y56.139
X-103.094 Y56.193
X-103.145 Y56.494
X-103.168 Y56.644
X-103.187 Y57.095
X-103.188 Y64.465
X-103.186 Y64.615
X-103.158 Y65.066
X-103.079 Y65.568
X-103.016 Y65.969
X-102.99 Y66.119
X-102.964 Y66.27
X-102.92 Y66.42
X-102.862 Y66.57
X-102.717 Y66.871
X-102.643 Y67.022
X-102.533 Y67.267
X-102.422 Y67.582
X-102.305 Y68.019
X-102.187 Y68.67
X-102.153 Y69
X-102.057 Y69.317
X-101.89 Y69.603
X-101.455 Y70.102
X-100.887 Y70.444
X-100.263 Y70.666
X-99.616 Y70.807
X-98.959 Y70.895
X-98.299 Y70.949
X-97.638 Y70.982
X-96.975 Y71.002
X-96.313 Y71.014
X-95.651 Y71.021
X-94.988 Y71.025
X-94.326 Y71.028
X-93.001 Y71.03
X-89.027 Y71.032
X-73.791
X-73.216 Y71.037
X-72.904 Y71.065
X-72.621 Y71.114
X-72.412 Y71.167
X-72.198 Y71.241
X-72.151 Y71.261
X-71.97 Y71.374
X-71.828 Y71.534
X-71.738 Y71.728
X-71.707 Y71.94
X-71.782 Y72.135 Z4.584 F600
X-72.038 Y72.271 Z4.7
X-72.257 Y72.388
X-75.39 Y74.062 F1000
G3 X-76.594 Y74.33 I-1.129 J-2.231
G1 X-97.511 Y74.273
X-100.521 Y73.997
X-102.176 Y73.481
X-102.327 Y73.409
X-102.477 Y73.338
X-103.831 Y72.368
X-104.132 Y72.058
G3 X-104.772 Y70.932 I1.779 J-1.756
G1 X-105.549 Y68.225
G3 X-105.038 Y66.57 I1.521 J-0.436
G1 X-105.035 Y66.568
G3 X-103.144 Y66.476 I1.008 J1.22
G1 X-103.043 Y66.549 F600
X-102.949 Y66.63
G3 X-102.738 Y66.871 Z4.571 I-1.078 J1.158
G1 X-102.643 Y67.022 Z4.5
X-102.413 Y67.473 F1000
X-102.151 Y67.943
X-101.725 Y68.4
X-101.273 Y68.851
X-101.143 Y68.977
X-100.972 Y69.127
X-100.822 Y69.225
X-100.739 Y69.277
X-99.768 Y69.772
X-99.618 Y69.845
X-99.539 Y69.879
X-99.467 Y69.907
X-99.317 Y69.953
X-98.865 Y70.032
X-98.414 Y70.103
X-98.113 Y70.148
X-97.889 Y70.18
X-97.812 Y70.183
X-97.361 Y70.188
X-75.39 Y70.187
X-74.939 Y70.157
X-74.788 Y70.135
X-74.187 Y70.04
X-73.606 Y69.978
X-73.265 Y69.969
X-72.955 Y69.985
X-72.695 Y70.02
X-72.461 Y70.071
X-72.273 Y70.128
X-72.176 Y70.166
X-71.985 Y70.277
X-71.835 Y70.439
X-71.74 Y70.638
X-71.707 Y70.856
G3 X-72.035 Y71.162 Z4.7 I-0.317 J-0.011 F600
G1 X-72.096 Y71.154
X-72.278 Y71.111
X-74.198 Y70.661 F1000
X-74.254 Y70.642
X-74.305 Y70.614
X-74.352 Y70.575 F600
X-74.391 Y70.526
X-74.42 Y70.472
X-74.438 Y70.412
G3 X-74.187 Y70.04 Z4.5 I0.312 J-0.06
G1 X-74.036 Y70.016 F1000
X-73.886 Y69.991
X-73.735 Y69.964
X-73.585 Y69.922
X-73.459 Y69.879
X-73.434 Y69.868
X-73.284 Y69.799
X-72.91 Y69.609
X-72.773 Y69.547
X-72.629 Y69.504
X-72.574 Y69.494
X-72.359 Y69.489
X-72.153 Y69.545
X-71.97 Y69.658
X-71.828 Y69.818
X-71.738 Y70.012
X-71.707 Y70.224
G3 X-72.035 Y70.531 Z4.7 I-0.317 J-0.011 F600
G1 X-72.096 Y70.523
X-72.154 Y70.503
X-72.268 Y70.452
X-72.846 Y70.194 F1000
X-72.886 Y70.176 F600
X-72.944 Y70.142
X-72.995 Y70.096
X-73.034 Y70.04
G3 X-72.91 Y69.609 Z4.5 I0.278 J-0.154
G1 X-72.315 Y69.305 F1000
X-72.285 Y69.29
X-72.261 Y69.277
X-72.125 Y69.213
X-71.966 Y69.239
X-71.83 Y69.325
X-71.739 Y69.457
X-71.707 Y69.615
G3 X-71.917 Y69.933 I-0.366 J-0.013 F600
X-72.261 Y69.277 I-0.157 J-0.336
G1 X-72.155 Y69.222 F1000
X-72.117 Y69.209
X-72.08 Y69.202
X-72.042 Y69.199
X-72.005 Y69.2
X-71.967 Y69.207
X-71.929 Y69.217
X-71.904 Y69.228
X-71.878 Y69.241
X-71.827 Y69.277
X-71.803 Y69.299
X-71.779 Y69.325
X-71.76 Y69.351
X-71.744 Y69.376
X-71.732 Y69.402
X-71.722 Y69.428
X-71.713 Y69.465
X-71.708 Y69.503
X-71.707 Y69.578
Y71.94
X-71.782 Y72.135 Z4.584 F600
X-72.059 Y72.221 Z4.7
X-72.23 Y72.274
X-72.299 Y72.282
X-81.861 Y73.486 F1000
X-98.414 Y73.453
X-100.671 Y72.981
X-102.778 Y71.894
X-104.024 Y70.781
X-105.035 Y69.556
X-106.002 Y67.623
X-106.286 Y66.42
X-106.495 Y64.465
X-105.63 Y34.987
G3 X-103.346 Y33.547 I1.582 J-0.021
G1 X-103.237 Y33.607 F600
X-103.133 Y33.674
G3 X-102.778 Y34.021 Z4.5 I-0.914 J1.292
G1 X-102.734 Y34.085 F1000
X-102.628 Y34.218
X-102.467 Y34.386
X-102.176 Y34.675
X-102.026 Y34.804
X-101.912 Y34.902
X-101.807 Y35.01
X-101.705 Y35.136
X-101.632 Y35.241
X-101.56 Y35.372
X-101.515 Y35.514
X-101.5 Y35.662
G3 X-101.828 Y35.969 Z4.7 I-0.317 J-0.011 F600
G1 X-101.89 Y35.961
X-101.948 Y35.941
X-102.002 Y35.91
X-102.049 Y35.869
X-102.082 Y35.827 F1000
X-102.47 Y35.241
X-102.5 Y35.184
X-102.518 Y35.122
X-102.523 Y35.061 F600
X-102.516 Y34.999
X-102.497 Y34.94
X-102.467 Y34.886
G3 X-102.026 Y34.804 Z4.5 I0.262 J0.18
G1 X-101.981 Y34.837 F1000
X-101.875 Y34.908
X-101.725 Y34.99
X-101.687 Y35.008
X-101.649 Y35.032
X-101.612 Y35.064
X-101.574 Y35.104
X-101.549 Y35.138
X-101.529 Y35.175
X-101.514 Y35.213
X-101.505 Y35.251
X-101.501 Y35.288
X-101.5 Y36.19
Y53.937
X-101.501 Y54.088
X-101.506 Y54.125
X-101.516 Y54.163
X-101.531 Y54.2
X-101.553 Y54.238
X-101.574 Y54.267
X-101.603 Y54.3
X-101.64 Y54.333
X-102.176 Y54.783
X-102.241 Y54.839
X-102.247 Y54.846
X-102.477 Y54.931 Z4.599 F600
X-102.688 Y54.839 Z4.691
X-102.693 Y54.817 Z4.7
X-102.747 Y54.575
X-103.567 Y50.929 F1000
X-106.492 Y32.882
X-106.446 Y6.563
X-106.077 Y4.608
X-104.506 Y0.998
G3 X-104.283 Y0.55 I2.338 J0.886
G1 X-103.38 Y-0.7
X-102.257 Y-1.632
X-101.123 Y-2.119
X-100.069 Y-2.324
X-73.284 Y-2.515
G3 X-71.929 Y-1.743 I-0.005 J1.583
G1 X-71.928 Y-1.741
X-71.905 Y-1.702
X-71.849 Y-1.591 F600
X-71.802 Y-1.476
X-71.779 Y-1.408 Z4.671
X-71.707 Y-0.988 Z4.5
Y-0.31 F1000
X-71.714 Y-0.16
X-71.747 Y-0.014
X-71.797 Y0.128
X-71.862 Y0.263
X-71.939 Y0.393
X-72.034 Y0.527
X-72.159 Y0.676
X-72.3 Y0.819
X-72.489 Y0.981
X-72.699 Y1.136
X-72.969 Y1.302
X-73.292 Y1.467
X-73.694 Y1.632
X-74.187 Y1.79
X-74.476 Y1.858
X-74.571 Y1.874
X-74.666 Y1.878
X-74.761 Y1.869
G3 X-75.012 Y1.497 Z4.7 I0.061 J-0.312 F600
G1 X-74.995 Y1.438
X-74.967 Y1.384
X-74.928 Y1.336
X-74.882 Y1.296
X-74.879 Y1.295
X-72.26 Y-0.522 F1000
X-72.205 Y-0.56 F600
X-72.152 Y-0.589
X-72.095 Y-0.608
X-72.035 Y-0.616
G3 X-71.707 Y-0.31 Z4.5 I0.011 J0.317
G1 Y0.63 F1000
X-71.714 Y0.779
X-71.742 Y0.927
X-71.787 Y1.07
X-71.844 Y1.208
X-71.917 Y1.347
X-72.013 Y1.5
X-72.127 Y1.652
X-72.279 Y1.824
X-72.448 Y1.988
X-72.56 Y2.08
X-72.739 Y2.189
X-72.941 Y2.243
X-73.151 Y2.238
X-73.351 Y2.175
G3 X-73.485 Y1.747 Z4.7 I0.147 J-0.281 F600
G1 X-73.462 Y1.71
X-73.435 Y1.676
X-73.324 Y1.559
X-72.255 Y0.423 F1000
X-72.209 Y0.382 F600
X-72.155 Y0.351
X-72.096 Y0.331
X-72.035 Y0.323
G3 X-71.707 Y0.63 Z4.5 I0.011 J0.317
G1 Y1.682 F1000
X-71.714 Y1.832
X-71.744 Y1.979
X-71.758 Y2.022
X-71.853 Y2.211
X-71.997 Y2.366
X-72.18 Y2.474
X-72.385 Y2.526
X-72.597 Y2.517
X-72.797 Y2.449
G3 X-72.921 Y2.017 Z4.7 I0.154 J-0.278 F600
G1 X-72.884 Y1.964
X-72.837 Y1.92
X-72.743 Y1.847
X-72.258 Y1.473 F1000
X-72.218 Y1.442 F600
X-72.162 Y1.407
X-72.1 Y1.385
X-72.035 Y1.376
G3 X-71.707 Y1.682 Z4.5 I0.011 J0.317
G1 Y2.321 F1000
Y2.352
Y2.397
X-71.716 Y2.547
X-71.747 Y2.613
X-71.767 Y2.649
X-71.79 Y2.683
X-71.816 Y2.714
X-71.851 Y2.73 F600
X-71.888 Y2.731
X-71.923 Y2.717
X-71.949 Y2.689
X-71.961 Y2.654
X-71.958 Y2.616
X-71.884 Y2.373
X-71.867 Y2.341
X-71.839 Y2.319
X-71.804 Y2.309
X-71.768 Y2.314
X-71.737 Y2.332
X-71.715 Y2.362
X-71.707 Y2.397
X-71.708 Y2.502 F1000
X-71.714 Y2.54
X-71.725 Y2.577
X-71.74 Y2.615
X-71.763 Y2.652
X-71.779 Y2.674
X-71.816 Y2.714
X-71.854 Y2.745
X-71.892 Y2.768
X-71.929 Y2.784
X-71.967 Y2.795
X-72.005 Y2.8
X-72.042 Y2.802
X-72.08 Y2.799
X-72.117 Y2.791
X-72.155 Y2.779
X-72.398 Y2.652
X-72.988 Y2.352
X-73.133 Y2.28
X-73.434 Y2.135
X-73.585 Y2.078
X-73.674 Y2.051
X-73.735 Y2.036
X-73.886 Y2.009
X-74.036 Y1.984
X-74.788 Y1.865
X-74.939 Y1.841
X-75.39 Y1.813
X-97.361
X-97.812 Y1.817
X-97.963 Y1.829
X-98.113 Y1.849
X-98.865 Y1.968
X-99.317 Y2.047
X-99.467 Y2.095
X-99.618 Y2.157
X-99.768 Y2.228
X-100.671 Y2.688
X-100.822 Y2.771
X-100.874 Y2.803
X-100.972 Y2.874
X-101.068 Y2.953
X-101.123 Y3.003
X-101.228 Y3.104
X-101.875 Y3.751
X-101.981 Y3.868
X-102.209 Y3.964 Z4.599 F600
X-102.428 Y3.843 Z4.7
X-102.477 Y3.817
X-102.476 Y3.624
X-102.475 Y3.404 F1000
X-101.672 Y0.246
G3 X-99.919 Y-1.408 I2.38 J0.767
G1 X-78.099 Y-3.624
X-74.488 Y-3.986 Z4.2
G3 X-72.383 Y-3.213 I0.282 J2.484
G1 X-72.381 Y-3.211
G3 X-71.842 Y-2.318 I-1.824 J1.709
X-71.766 Y-2.049 I-2.363 J0.816 F600
X-71.707 Y-1.589 Z4 I-2.439 J0.547
G1 Y-1.439 F1000
X-71.709 Y-1.401
X-71.802 Y-1.284
X-71.911 Y-1.181
X-72.03 Y-1.09
X-72.178 Y-0.994
X-72.369 Y-0.893
X-72.618 Y-0.786
X-72.949 Y-0.673
X-73.412 Y-0.556
X-74.065 Y-0.446
X-74.724 Y-0.384
X-75.386 Y-0.349
X-76.048 Y-0.329
X-76.71 Y-0.317
X-77.373 Y-0.31
X-78.035 Y-0.307
X-79.36 Y-0.303
X-82.672 Y-0.302
X-101.551
X-101.712 Y-0.262
X-102.011 Y-0.121
X-102.263 Y0.095
X-102.676 Y0.613
X-102.932 Y1.224
X-103.086 Y1.868
X-103.176 Y2.524
X-103.229 Y3.185
X-103.26 Y3.846
X-103.278 Y4.509
X-103.288 Y5.171
X-103.294 Y5.833
X-103.297 Y6.496
X-103.3 Y7.821
X-103.302 Y11.133
Y19.082
Y69.425
Y70.585
X-103.265 Y70.746
X-103.121 Y71.044
X-102.677 Y71.535
X-102.092 Y71.846
X-101.456 Y72.034
X-100.804 Y72.146
X-100.144 Y72.212
X-99.483 Y72.25
X-98.821 Y72.272
X-98.159 Y72.284
X-97.496 Y72.292
X-96.834 Y72.296
X-96.172 Y72.298
X-94.847 Y72.301
X-89.547 Y72.302
X-72.448
X-72.219 Y72.338
X-72.012 Y72.443
X-71.848 Y72.607
X-71.743 Y72.814
X-71.707 Y73.042
X-71.779 Y73.233 Z4.082 F600
X-72.048 Y73.353 Z4.2
X-72.275 Y73.454
X-76.895 Y75.508 F1000
X-78.099 Y75.6
X-100.22 Y75.536
X-102.327 Y75.218
X-103.681 Y74.745
X-104.759 Y74.09
X-105.637 Y73.156
X-106.205 Y72.135
X-106.57 Y70.932
X-106.552 Y4.307
X-106.412 Y1.75
X-106.032 Y0.246
X-105.883 Y-0.205
G3 X-105.637 Y-0.806 I2.418 J0.637
G1 X-104.506 Y-2.311
X-103.38 Y-3.09
X-102.327 Y-3.479
X-100.972 Y-3.617
X-73.284 Y-2.966
G3 X-71.929 Y-2.195 I-0.005 J1.583
G1 X-71.928 Y-2.192
X-71.905 Y-2.153
X-71.849 Y-2.042 F600
X-71.802 Y-1.927
X-71.779 Y-1.859 Z4.171
X-71.707 Y-1.439 Z4
Y-0.988 F1000
X-71.714 Y-0.838
X-71.777 Y-0.702
X-71.856 Y-0.574
X-71.946 Y-0.454
X-72.058 Y-0.329
X-72.192 Y-0.203
X-72.351 Y-0.075
X-72.562 Y0.068
X-72.803 Y0.205
X-73.105 Y0.346
X-73.484 Y0.487
X-73.987 Y0.629
X-74.637 Y0.757
X-75.295 Y0.837
X-75.955 Y0.888
X-76.617 Y0.919
X-77.279 Y0.938
X-77.941 Y0.95
X-78.604 Y0.957
X-79.266 Y0.962
X-79.929 Y0.964
X-81.253 Y0.967
X-85.228 Y0.968
X-99.801
X-100.13 Y1.006
X-100.438 Y1.129
X-100.71 Y1.317
X-101.18 Y1.784
X-101.497 Y2.366
X-101.701 Y2.996
X-101.804 Y3.515
X-101.841 Y3.643
X-101.901 Y3.761
X-101.981 Y3.868
X-102.105 Y4.006
X-102.176 Y4.097
X-102.215 Y4.156
X-102.298 Y4.307
X-102.531 Y4.758
X-102.76 Y5.209
X-102.835 Y5.359
X-102.896 Y5.51
X-102.928 Y5.599
X-102.943 Y5.66
X-103 Y5.961
X-103.028 Y6.111
X-103.123 Y6.713
X-103.169 Y7.014
X-103.179 Y7.164
X-103.186 Y7.465
X-103.188 Y7.615
Y32.431
X-103.186 Y32.581
X-103.179 Y32.731
X-103.16 Y32.882
X-103.131 Y33.032
X-103.01 Y33.483
X-102.963 Y33.634
X-102.928 Y33.731
X-102.904 Y33.784
X-102.831 Y33.935
X-102.778 Y34.021
X-102.699 Y34.149
X-102.596 Y34.353
X-102.488 Y34.619
X-102.374 Y34.977
X-102.256 Y35.488
X-102.159 Y36.143
X-102.104 Y36.803
X-102.073 Y37.465
X-102.055 Y38.127
X-102.045 Y38.789
X-102.039 Y39.452
X-102.036 Y40.114
X-102.033 Y41.439
X-102.032 Y44.751
Y54.324
X-102.057 Y54.515
X-102.13 Y54.693
X-102.247 Y54.846
X-102.39 Y54.99
X-102.477 Y55.081
X-102.628 Y55.252
X-102.66 Y55.291
X-102.778 Y55.467
X-102.846 Y55.591
X-102.92 Y55.742
X-102.989 Y55.892
X-103.047 Y56.043
X-103.079 Y56.139
X-103.094 Y56.193
X-103.145 Y56.494
X-103.168 Y56.644
X-103.187 Y57.095
X-103.188 Y64.465
X-103.186 Y64.615
X-103.158 Y65.066
X-103.079 Y65.568
X-103.016 Y65.969
X-102.99 Y66.119
X-102.964 Y66.27
X-102.92 Y66.42
X-102.862 Y66.57
X-102.717 Y66.871
X-102.643 Y67.022
X-102.533 Y67.267
X-102.422 Y67.582
X-102.305 Y68.019
X-102.187 Y68.67
X-102.153 Y69
X-102.057 Y69.317
X-101.89 Y69.603
X-101.455 Y70.102
X-100.887 Y70.444
X-100.263 Y70.666
X-99.616 Y70.807
X-98.959 Y70.895
X-98.299 Y70.949
X-97.638 Y70.982
X-96.975 Y71.002
X-96.313 Y71.014
X-95.651 Y71.021
X-94.988 Y71.025
X-94.326 Y71.028
X-93.001 Y71.03
X-89.027 Y71.032
X-73.791
X-73.216 Y71.037
X-72.904 Y71.065
X-72.621 Y71.114
X-72.412 Y71.167
X-72.198 Y71.241
X-72.151 Y71.261
X-71.97 Y71.374
X-71.828 Y71.534
X-71.738 Y71.728
X-71.707 Y71.94
X-71.782 Y72.135 Z4.084 F600
X-72.038 Y72.271 Z4.2
X-72.257 Y72.388
X-75.39 Y74.062 F1000
G3 X-76.594 Y74.33 I-1.129 J-2.231
G1 X-97.511 Y74.273
X-100.521 Y73.997
X-102.176 Y73.481
X-102.327 Y73.409
X-102.477 Y73.338
X-103.831 Y72.368
X-104.132 Y72.058
G3 X-104.772 Y70.932 I1.779 J-1.756
G1 X-105.549 Y68.225
G3 X-105.038 Y66.57 I1.521 J-0.436
G1 X-105.035 Y66.568
G3 X-103.144 Y66.476 I1.008 J1.22
G1 X-103.043 Y66.549 F600
X-102.949 Y66.63
G3 X-102.738 Y66.871 Z4.071 I-1.078 J1.158
G1 X-102.643 Y67.022 Z4
X-102.413 Y67.473 F1000
X-102.151 Y67.943
X-101.725 Y68.4
X-101.273 Y68.851
X-101.143 Y68.977
X-100.972 Y69.127
X-100.822 Y69.225
X-100.739 Y69.277
X-99.768 Y69.772
X-99.618 Y69.845
X-99.539 Y69.879
X-99.467 Y69.907
X-99.317 Y69.953
X-98.865 Y70.032
X-98.414 Y70.103
X-98.113 Y70.148
X-97.889 Y70.18
X-97.812 Y70.183
X-97.361 Y70.188
X-75.39 Y70.187
X-74.939 Y70.157
X-74.788 Y70.135
X-74.187 Y70.04
X-73.606 Y69.978
X-73.265 Y69.969
X-72.955 Y69.985
X-72.695 Y70.02
X-72.461 Y70.071
X-72.273 Y70.128
X-72.176 Y70.166
X-71.985 Y70.277
X-71.835 Y70.439
X-71.74 Y70.638
X-71.707 Y70.856
G3 X-72.035 Y71.162 Z4.2 I-0.317 J-0.011 F600
G1 X-72.096 Y71.154
X-72.278 Y71.111
X-74.198 Y70.661 F1000
X-74.254 Y70.642
X-74.305 Y70.614
X-74.352 Y70.575 F600
X-74.391 Y70.526
X-74.42 Y70.472
X-74.438 Y70.412
G3 X-74.187 Y70.04 Z4 I0.312 J-0.06
G1 X-74.036 Y70.016 F1000
X-73.886 Y69.991
X-73.735 Y69.964
X-73.585 Y69.922
X-73.459 Y69.879
X-73.434 Y69.868
X-73.284 Y69.799
X-72.91 Y69.609
X-72.773 Y69.547
X-72.629 Y69.504
X-72.574 Y69.494
X-72.359 Y69.489
X-72.153 Y69.545
X-71.97 Y69.658
X-71.828 Y69.818
X-71.738 Y70.012
X-71.707 Y70.224
G3 X-72.035 Y70.531 Z4.2 I-0.317 J-0.011 F600
G1 X-72.096 Y70.523
X-72.154 Y70.503
X-72.268 Y70.452
X-72.846 Y70.194 F1000
X-72.886 Y70.176 F600
X-72.944 Y70.142
X-72.995 Y70.096
X-73.034 Y70.04
G3 X-72.91 Y69.609 Z4 I0.278 J-0.154
G1 X-72.315 Y69.305 F1000
X-72.285 Y69.29
X-72.261 Y69.277
X-72.125 Y69.213
X-71.966 Y69.239
X-71.83 Y69.325
X-71.739 Y69.457
X-71.707 Y69.615
G3 X-71.917 Y69.933 I-0.366 J-0.013 F600
X-72.261 Y69.277 I-0.157 J-0.336
G1 X-72.155 Y69.222 F1000
X-72.117 Y69.209
X-72.08 Y69.202
X-72.042 Y69.199
X-72.005 Y69.2
X-71.967 Y69.207
X-71.929 Y69.217
X-71.904 Y69.228
X-71.878 Y69.241
X-71.827 Y69.277
X-71.803 Y69.299
X-71.779 Y69.325
X-71.76 Y69.351
X-71.744 Y69.376
X-71.732 Y69.402
X-71.722 Y69.428
X-71.713 Y69.465
X-71.708 Y69.503
X-71.707 Y69.578
Y71.94
X-71.782 Y72.135 Z4.084 F600
X-72.059 Y72.221 Z4.2
X-72.23 Y72.274
X-72.299 Y72.282
X-81.861 Y73.486 F1000
X-98.414 Y73.453
X-100.671 Y72.981
X-102.778 Y71.894
X-104.024 Y70.781
X-105.035 Y69.556
X-106.002 Y67.623
X-106.286 Y66.42
X-106.495 Y64.465
X-105.63 Y34.987
G3 X-103.346 Y33.547 I1.582 J-0.021
G1 X-103.237 Y33.607 F600
X-103.133 Y33.674
G3 X-102.778 Y34.021 Z4 I-0.914 J1.292
G1 X-102.734 Y34.085 F1000
X-102.628 Y34.218
X-102.467 Y34.386
X-102.176 Y34.675
X-102.026 Y34.804
X-101.912 Y34.902
X-101.807 Y35.01
X-101.705 Y35.136
X-101.632 Y35.241
X-101.56 Y35.372
X-101.515 Y35.514
X-101.5 Y35.662
G3 X-101.828 Y35.969 Z4.2 I-0.317 J-0.011 F600
G1 X-101.89 Y35.961
X-101.948 Y35.941
X-102.002 Y35.91
X-102.049 Y35.869
X-102.082 Y35.827 F1000
X-102.47 Y35.241
X-102.5 Y35.184
X-102.518 Y35.122
X-102.523 Y35.061 F600
X-102.516 Y34.999
X-102.497 Y34.94
X-102.467 Y34.886
G3 X-102.026 Y34.804 Z4 I0.262 J0.18
G1 X-101.981 Y34.837 F1000
X-101.875 Y34.908
X-101.725 Y34.99
X-101.687 Y35.008
X-101.649 Y35.032
X-101.612 Y35.064
X-101.574 Y35.104
X-101.549 Y35.138
X-101.529 Y35.175
X-101.514 Y35.213
X-101.505 Y35.251
X-101.501 Y35.288
X-101.5 Y36.19
Y53.937
X-101.501 Y54.088
X-101.506 Y54.125
X-101.516 Y54.163
X-101.531 Y54.2
X-101.553 Y54.238
X-101.574 Y54.267
X-101.603 Y54.3
X-101.64 Y54.333
X-102.176 Y54.783
X-102.241 Y54.839
X-102.247 Y54.846
X-102.477 Y54.931 Z4.099 F600
X-102.688 Y54.839 Z4.191
X-102.693 Y54.817 Z4.2
X-102.747 Y54.575
X-103.567 Y50.929 F1000
X-106.492 Y32.882
X-106.446 Y6.563
X-106.077 Y4.608
X-104.506 Y0.998
G3 X-104.283 Y0.55 I2.338 J0.886
G1 X-103.38 Y-0.7
X-102.257 Y-1.632
X-101.123 Y-2.119
X-100.069 Y-2.324
X-73.284 Y-2.515
G3 X-71.929 Y-1.743 I-0.005 J1.583
G1 X-71.928 Y-1.741
X-71.905 Y-1.702
X-71.849 Y-1.591 F600
X-71.802 Y-1.476
X-71.779 Y-1.408 Z4.171
X-71.707 Y-0.988 Z4
Y-0.31 F1000
X-71.714 Y-0.16
X-71.747 Y-0.014
X-71.797 Y0.128
X-71.862 Y0.263
X-71.939 Y0.393
X-72.034 Y0.527
X-72.159 Y0.676
X-72.3 Y0.819
X-72.489 Y0.981
X-72.699 Y1.136
X-72.969 Y1.302
X-73.292 Y1.467
X-73.694 Y1.632
X-74.187 Y1.79
X-74.476 Y1.858
X-74.571 Y1.874
X-74.666 Y1.878
X-74.761 Y1.869
G3 X-75.012 Y1.497 Z4.2 I0.061 J-0.312 F600
G1 X-74.995 Y1.438
X-74.967 Y1.384
X-74.928 Y1.336
X-74.882 Y1.296
X-74.879 Y1.295
X-72.26 Y-0.522 F1000
X-72.205 Y-0.56 F600
X-72.152 Y-0.589
X-72.095 Y-0.608
X-72.035 Y-0.616
G3 X-71.707 Y-0.31 Z4 I0.011 J0.317
G1 Y0.63 F1000
X-71.714 Y0.779
X-71.742 Y0.927
X-71.787 Y1.07
X-71.844 Y1.208
X-71.917 Y1.347
X-72.013 Y1.5
X-72.127 Y1.652
X-72.279 Y1.824
X-72.448 Y1.988
X-72.56 Y2.08
X-72.739 Y2.189
X-72.941 Y2.243
X-73.151 Y2.238
X-73.351 Y2.175
G3 X-73.485 Y1.747 Z4.2 I0.147 J-0.281 F600
G1 X-73.462 Y1.71
X-73.435 Y1.676
X-73.324 Y1.559
X-72.255 Y0.423 F1000
X-72.209 Y0.382 F600
X-72.155 Y0.351
X-72.096 Y0.331
X-72.035 Y0.323
G3 X-71.707 Y0.63 Z4 I0.011 J0.317
G1 Y1.682 F1000
X-71.714 Y1.832
X-71.744 Y1.979
X-71.758 Y2.022
X-71.853 Y2.211
X-71.997 Y2.366
X-72.18 Y2.474
X-72.385 Y2.526
X-72.597 Y2.517
X-72.797 Y2.449
G3 X-72.921 Y2.017 Z4.2 I0.154 J-0.278 F600
G1 X-72.884 Y1.964
X-72.837 Y1.92
X-72.743 Y1.847
X-72.258 Y1.473 F1000
X-72.218 Y1.442 F600
X-72.162 Y1.407
X-72.1 Y1.385
X-72.035 Y1.376
G3 X-71.707 Y1.682 Z4 I0.011 J0.317
G1 Y2.321 F1000
Y2.352
Y2.397
X-71.716 Y2.547
X-71.747 Y2.613
X-71.767 Y2.649
X-71.79 Y2.683
X-71.816 Y2.714
X-71.851 Y2.73 F600
X-71.888 Y2.731
X-71.923 Y2.717
X-71.949 Y2.689
X-71.961 Y2.654
X-71.958 Y2.616
X-71.884 Y2.373
X-71.867 Y2.341
X-71.839 Y2.319
X-71.804 Y2.309
X-71.768 Y2.314
X-71.737 Y2.332
X-71.715 Y2.362
X-71.707 Y2.397
X-71.708 Y2.502 F1000
X-71.714 Y2.54
X-71.725 Y2.577
X-71.74 Y2.615
X-71.763 Y2.652
X-71.779 Y2.674
X-71.816 Y2.714
X-71.854 Y2.745
X-71.892 Y2.768
X-71.929 Y2.784
X-71.967 Y2.795
X-72.005 Y2.8
X-72.042 Y2.802
X-72.08 Y2.799
X-72.117 Y2.791
X-72.155 Y2.779
X-72.398 Y2.652
X-72.988 Y2.352
X-73.133 Y2.28
X-73.434 Y2.135
X-73.585 Y2.078
X-73.674 Y2.051
X-73.735 Y2.036
X-73.886 Y2.009
X-74.036 Y1.984
X-74.788 Y1.865
X-74.939 Y1.841
X-75.39 Y1.813
X-97.361
X-97.812 Y1.817
X-97.963 Y1.829
X-98.113 Y1.849
X-98.865 Y1.968
X-99.317 Y2.047
X-99.467 Y2.095
X-99.618 Y2.157
X-99.768 Y2.228
X-100.671 Y2.688
X-100.822 Y2.771
X-100.874 Y2.803
X-100.972 Y2.874
X-101.068 Y2.953
X-101.123 Y3.003
X-101.228 Y3.104
X-101.875 Y3.751
X-101.981 Y3.868
X-102.209 Y3.964 Z4.099 F600
X-102.428 Y3.843 Z4.2
X-102.477 Y3.817
X-102.476 Y3.624
X-102.475 Y3.404 F1000
X-101.672 Y0.246
G3 X-99.919 Y-1.408 I2.38 J0.767
G1 X-78.099 Y-3.624
X-74.488 Y-3.986 Z3.7
G3 X-72.383 Y-3.213 I0.282 J2.484
G1 X-72.381 Y-3.211
G3 X-71.842 Y-2.318 I-1.824 J1.709
X-71.766 Y-2.049 I-2.363 J0.816 F600
X-71.707 Y-1.589 Z3.5 I-2.439 J0.547
G1 Y-1.439 F1000
X-71.709 Y-1.401
X-71.802 Y-1.284
X-71.911 Y-1.181
X-72.03 Y-1.09
X-72.178 Y-0.994
X-72.369 Y-0.893
X-72.618 Y-0.786
X-72.949 Y-0.673
X-73.412 Y-0.556
X-74.065 Y-0.446
X-74.724 Y-0.384
X-75.386 Y-0.349
X-76.048 Y-0.329
X-76.71 Y-0.317
X-77.373 Y-0.31
X-78.035 Y-0.307
X-79.36 Y-0.303
X-82.672 Y-0.302
X-101.551
X-101.712 Y-0.262
X-102.011 Y-0.121
X-102.263 Y0.095
X-102.676 Y0.613
X-102.932 Y1.224
X-103.086 Y1.868
X-103.176 Y2.524
X-103.229 Y3.185
X-103.26 Y3.846
X-103.278 Y4.509
X-103.288 Y5.171
X-103.294 Y5.833
X-103.297 Y6.496
X-103.3 Y7.821
X-103.302 Y11.133
Y19.082
Y69.425
Y70.585
X-103.265 Y70.746
X-103.121 Y71.044
X-102.677 Y71.535
X-102.092 Y71.846
X-101.456 Y72.034
X-100.804 Y72.146
X-100.144 Y72.212
X-99.483 Y72.25
X-98.821 Y72.272
X-98.159 Y72.284
X-97.496 Y72.292
X-96.834 Y72.296
X-96.172 Y72.298
X-94.847 Y72.301
X-89.547 Y72.302
X-72.448
X-72.219 Y72.338
X-72.012 Y72.443
X-71.848 Y72.607
X-71.743 Y72.814
X-71.707 Y73.042
X-71.779 Y73.233 Z3.582 F600
X-72.048 Y73.353 Z3.7
X-72.275 Y73.454
X-76.895 Y75.508 F1000
X-78.099 Y75.6
X-100.22 Y75.536
X-102.327 Y75.218
X-103.681 Y74.745
X-104.759 Y74.09
X-105.637 Y73.156
X-106.205 Y72.135
X-106.57 Y70.932
X-106.552 Y4.307
X-106.412 Y1.75
X-106.032 Y0.246
X-105.883 Y-0.205
G3 X-105.637 Y-0.806 I2.418 J0.637
G1 X-104.506 Y-2.311
X-103.38 Y-3.09
X-102.327 Y-3.479
X-100.972 Y-3.617
X-73.284 Y-2.966
G3 X-71.929 Y-2.195 I-0.005 J1.583
G1 X-71.928 Y-2.192
X-71.905 Y-2.153
X-71.849 Y-2.042 F600
X-71.802 Y-1.927
X-71.779 Y-1.859 Z3.671
X-71.707 Y-1.439 Z3.5
Y-0.988 F1000
X-71.714 Y-0.838
X-71.777 Y-0.702
X-71.856 Y-0.574
X-71.946 Y-0.454
X-72.058 Y-0.329
X-72.192 Y-0.203
X-72.351 Y-0.075
X-72.562 Y0.068
X-72.803 Y0.205
X-73.105 Y0.346
X-73.484 Y0.487
X-73.987 Y0.629
X-74.637 Y0.757
X-75.295 Y0.837
X-75.955 Y0.888
X-76.617 Y0.919
X-77.279 Y0.938
X-77.941 Y0.95
X-78.604 Y0.957
X-79.266 Y0.962
X-79.929 Y0.964
X-81.253 Y0.967
X-85.228 Y0.968
X-99.801
X-100.13 Y1.006
X-100.438 Y1.129
X-100.71 Y1.317
X-101.18 Y1.784
X-101.497 Y2.366
X-101.701 Y2.996
X-101.804 Y3.515
X-101.841 Y3.643
X-101.901 Y3.761
X-101.981 Y3.868
X-102.105 Y4.006
X-102.176 Y4.097
X-102.215 Y4.156
X-102.298 Y4.307
X-102.531 Y4.758
X-102.76 Y5.209
X-102.835 Y5.359
X-102.896 Y5.51
X-102.928 Y5.599
X-102.943 Y5.66
X-103 Y5.961
X-103.028 Y6.111
X-103.123 Y6.713
X-103.169 Y7.014
X-103.179 Y7.164
X-103.186 Y7.465
X-103.188 Y7.615
Y32.431
X-103.186 Y32.581
X-103.179 Y32.731
X-103.16 Y32.882
X-103.131 Y33.032
X-103.01 Y33.483
X-102.963 Y33.634
X-102.928 Y33.731
X-102.904 Y33.784
X-102.831 Y33.935
X-102.778 Y34.021
X-102.699 Y34.149
X-102.596 Y34.353
X-102.488 Y34.619
X-102.374 Y34.977
X-102.256 Y35.488
X-102.159 Y36.143
X-102.104 Y36.803
X-102.073 Y37.465
X-102.055 Y38.127
X-102.045 Y38.789
X-102.039 Y39.452
X-102.036 Y40.114
X-102.033 Y41.439
X-102.032 Y44.751
Y54.324
X-102.057 Y54.515
X-102.13 Y54.693
X-102.247 Y54.846
X-102.39 Y54.99
X-102.477 Y55.081
X-102.628 Y55.252
X-102.66 Y55.291
X-102.778 Y55.467
X-102.846 Y55.591
X-102.92 Y55.742
X-102.989 Y55.892
X-103.047 Y56.043
X-103.079 Y56.139
X-103.094 Y56.193
X-103.145 Y56.494
X-103.168 Y56.644
X-103.187 Y57.095
X-103.188 Y64.465
X-103.186 Y64.615
X-103.158 Y65.066
X-103.079 Y65.568
X-103.016 Y65.969
X-102.99 Y66.119
X-102.964 Y66.27
X-102.92 Y66.42
X-102.862 Y66.57
X-102.717 Y66.871
X-102.643 Y67.022
X-102.533 Y67.267
X-102.422 Y67.582
X-102.305 Y68.019
X-102.187 Y68.67
X-102.153 Y69
X-102.057 Y69.317
X-101.89 Y69.603
X-101.455 Y70.102
X-100.887 Y70.444
X-100.263 Y70.666
X-99.616 Y70.807
X-98.959 Y70.895
X-98.299 Y70.949
X-97.638 Y70.982
X-96.975 Y71.002
X-96.313 Y71.014
X-95.651 Y71.021
X-94.988 Y71.025
X-94.326 Y71.028
X-93.001 Y71.03
X-89.027 Y71.032
X-73.791
X-73.216 Y71.037
X-72.904 Y71.065
X-72.621 Y71.114
X-72.412 Y71.167
X-72.198 Y71.241
X-72.151 Y71.261
X-71.97 Y71.374
X-71.828 Y71.534
X-71.738 Y71.728
X-71.707 Y71.94
X-71.782 Y72.135 Z3.584 F600
X-72.038 Y72.271 Z3.7
X-72.257 Y72.388
X-75.39 Y74.062 F1000
G3 X-76.594 Y74.33 I-1.129 J-2.231
G1 X-97.511 Y74.273
X-100.521 Y73.997
X-102.176 Y73.481
X-102.327 Y73.409
X-102.477 Y73.338
X-103.831 Y72.368
X-104.132 Y72.058
G3 X-104.772 Y70.932 I1.779 J-1.756
G1 X-105.549 Y68.225
G3 X-105.038 Y66.57 I1.521 J-0.436
G1 X-105.035 Y66.568
G3 X-103.144 Y66.476 I1.008 J1.22
G1 X-103.043 Y66.549 F600
X-102.949 Y66.63
G3 X-102.738 Y66.871 Z3.571 I-1.078 J1.158
G1 X-102.643 Y67.022 Z3.5
X-102.413 Y67.473 F1000
X-102.151 Y67.943
X-101.725 Y68.4
X-101.273 Y68.851
X-101.143 Y68.977
X-100.972 Y69.127
X-100.822 Y69.225
X-100.739 Y69.277
X-99.768 Y69.772
X-99.618 Y69.845
X-99.539 Y69.879
X-99.467 Y69.907
X-99.317 Y69.953
X-98.865 Y70.032
X-98.414 Y70.103
X-98.113 Y70.148
X-97.889 Y70.18
X-97.812 Y70.183
X-97.361 Y70.188
X-75.39 Y70.187
X-74.939 Y70.157
X-74.788 Y70.135
X-74.187 Y70.04
X-73.606 Y69.978
X-73.265 Y69.969
X-72.955 Y69.985
X-72.695 Y70.02
X-72.461 Y70.071
X-72.273 Y70.128
X-72.176 Y70.166
X-71.985 Y70.277
X-71.835 Y70.439
X-71.74 Y70.638
X-71.707 Y70.856
G3 X-72.035 Y71.162 Z3.7 I-0.317 J-0.011 F600
G1 X-72.096 Y71.154
X-72.278 Y71.111
X-74.198 Y70.661 F1000
X-74.254 Y70.642
X-74.305 Y70.614
X-74.352 Y70.575 F600
X-74.391 Y70.526
X-74.42 Y70.472
X-74.438 Y70.412
G3 X-74.187 Y70.04 Z3.5 I0.312 J-0.06
G1 X-74.036 Y70.016 F1000
X-73.886 Y69.991
X-73.735 Y69.964
X-73.585 Y69.922
X-73.459 Y69.879
X-73.434 Y69.868
X-73.284 Y69.799
X-72.91 Y69.609
X-72.773 Y69.547
X-72.629 Y69.504
X-72.574 Y69.494
X-72.359 Y69.489
X-72.153 Y69.545
X-71.97 Y69.658
X-71.828 Y69.818
X-71.738 Y70.012
X-71.707 Y70.224
G3 X-72.035 Y70.531 Z3.7 I-0.317 J-0.011 F600
G1 X-72.096 Y70.523
X-72.154 Y70.503
X-72.268 Y70.452
X-72.846 Y70.194 F1000
X-72.886 Y70.176 F600
X-72.944 Y70.142
X-72.995 Y70.096
X-73.034 Y70.04
G3 X-72.91 Y69.609 Z3.5 I0.278 J-0.154
G1 X-72.315 Y69.305 F1000
X-72.285 Y69.29
X-72.261 Y69.277
X-72.125 Y69.213
X-71.966 Y69.239
X-71.83 Y69.325
X-71.739 Y69.457
X-71.707 Y69.615
G3 X-71.917 Y69.933 I-0.366 J-0.013 F600
X-72.261 Y69.277 I-0.157 J-0.336
G1 X-72.155 Y69.222 F1000
X-72.117 Y69.209
X-72.08 Y69.202
X-72.042 Y69.199
X-72.005 Y69.2
X-71.967 Y69.207
X-71.929 Y69.217
X-71.904 Y69.228
X-71.878 Y69.241
X-71.827 Y69.277
X-71.803 Y69.299
X-71.779 Y69.325
X-71.76 Y69.351
X-71.744 Y69.376
X-71.732 Y69.402
X-71.722 Y69.428
X-71.713 Y69.465
X-71.708 Y69.503
X-71.707 Y69.578
Y71.94
X-71.782 Y72.135 Z3.584 F600
X-72.059 Y72.221 Z3.7
X-72.23 Y72.274
X-72.299 Y72.282
X-81.861 Y73.486 F1000
X-98.414 Y73.453
X-100.671 Y72.981
X-102.778 Y71.894
X-104.024 Y70.781
X-105.035 Y69.556
X-106.002 Y67.623
X-106.286 Y66.42
X-106.495 Y64.465
X-105.63 Y34.987
G3 X-103.346 Y33.547 I1.582 J-0.021
G1 X-103.237 Y33.607 F600
X-103.133 Y33.674
G3 X-102.778 Y34.021 Z3.5 I-0.914 J1.292
G1 X-102.734 Y34.085 F1000
X-102.628 Y34.218
X-102.467 Y34.386
X-102.176 Y34.675
X-102.026 Y34.804
X-101.912 Y34.902
X-101.807 Y35.01
X-101.705 Y35.136
X-101.632 Y35.241
X-101.56 Y35.372
X-101.515 Y35.514
X-101.5 Y35.662
G3 X-101.828 Y35.969 Z3.7 I-0.317 J-0.011 F600
G1 X-101.89 Y35.961
X-101.948 Y35.941
X-102.002 Y35.91
X-102.049 Y35.869
X-102.082 Y35.827 F1000
X-102.47 Y35.241
X-102.5 Y35.184
X-102.518 Y35.122
X-102.523 Y35.061 F600
X-102.516 Y34.999
X-102.497 Y34.94
X-102.467 Y34.886
G3 X-102.026 Y34.804 Z3.5 I0.262 J0.18
G1 X-101.981 Y34.837 F1000
X-101.875 Y34.908
X-101.725 Y34.99
X-101.687 Y35.008
X-101.649 Y35.032
X-101.612 Y35.064
X-101.574 Y35.104
X-101.549 Y35.138
X-101.529 Y35.175
X-101.514 Y35.213
X-101.505 Y35.251
X-101.501 Y35.288
X-101.5 Y36.19
Y53.937
X-101.501 Y54.088
X-101.506 Y54.125
X-101.516 Y54.163
X-101.531 Y54.2
X-101.553 Y54.238
X-101.574 Y54.267
X-101.603 Y54.3
X-101.64 Y54.333
X-102.176 Y54.783
X-102.241 Y54.839
X-102.247 Y54.846
X-102.477 Y54.931 Z3.599 F600
X-102.688 Y54.839 Z3.691
X-102.693 Y54.817 Z3.7
X-102.747 Y54.575
X-103.567 Y50.929 F1000
X-106.492 Y32.882
X-106.446 Y6.563
X-106.077 Y4.608
X-104.506 Y0.998
G3 X-104.283 Y0.55 I2.338 J0.886
G1 X-103.38 Y-0.7
X-102.257 Y-1.632
X-101.123 Y-2.119
X-100.069 Y-2.324
X-73.284 Y-2.515
G3 X-71.929 Y-1.743 I-0.005 J1.583
G1 X-71.928 Y-1.741
X-71.905 Y-1.702
X-71.849 Y-1.591 F600
X-71.802 Y-1.476
X-71.779 Y-1.408 Z3.671
X-71.707 Y-0.988 Z3.5
Y-0.31 F1000
X-71.714 Y-0.16
X-71.747 Y-0.014
X-71.797 Y0.128
X-71.862 Y0.263
X-71.939 Y0.393
X-72.034 Y0.527
X-72.159 Y0.676
X-72.3 Y0.819
X-72.489 Y0.981
X-72.699 Y1.136
X-72.969 Y1.302
X-73.292 Y1.467
X-73.694 Y1.632
X-74.187 Y1.79
X-74.476 Y1.858
X-74.571 Y1.874
X-74.666 Y1.878
X-74.761 Y1.869
G3 X-75.012 Y1.497 Z3.7 I0.061 J-0.312 F600
G1 X-74.995 Y1.438
X-74.967 Y1.384
X-74.928 Y1.336
X-74.882 Y1.296
X-74.879 Y1.295
X-72.26 Y-0.522 F1000
X-72.205 Y-0.56 F600
X-72.152 Y-0.589
X-72.095 Y-0.608
X-72.035 Y-0.616
G3 X-71.707 Y-0.31 Z3.5 I0.011 J0.317
G1 Y0.63 F1000
X-71.714 Y0.779
X-71.742 Y0.927
X-71.787 Y1.07
X-71.844 Y1.208
X-71.917 Y1.347
X-72.013 Y1.5
X-72.127 Y1.652
X-72.279 Y1.824
X-72.448 Y1.988
X-72.56 Y2.08
X-72.739 Y2.189
X-72.941 Y2.243
X-73.151 Y2.238
X-73.351 Y2.175
G3 X-73.485 Y1.747 Z3.7 I0.147 J-0.281 F600
G1 X-73.462 Y1.71
X-73.435 Y1.676
X-73.324 Y1.559
X-72.255 Y0.423 F1000
X-72.209 Y0.382 F600
X-72.155 Y0.351
X-72.096 Y0.331
X-72.035 Y0.323
G3 X-71.707 Y0.63 Z3.5 I0.011 J0.317
G1 Y1.682 F1000
X-71.714 Y1.832
X-71.744 Y1.979
X-71.758 Y2.022
X-71.853 Y2.211
X-71.997 Y2.366
X-72.18 Y2.474
X-72.385 Y2.526
X-72.597 Y2.517
X-72.797 Y2.449
G3 X-72.921 Y2.017 Z3.7 I0.154 J-0.278 F600
G1 X-72.884 Y1.964
X-72.837 Y1.92
X-72.743 Y1.847
X-72.258 Y1.473 F1000
X-72.218 Y1.442 F600
X-72.162 Y1.407
X-72.1 Y1.385
X-72.035 Y1.376
G3 X-71.707 Y1.682 Z3.5 I0.011 J0.317
G1 Y2.321 F1000
Y2.352
Y2.397
X-71.716 Y2.547
X-71.747 Y2.613
X-71.767 Y2.649
X-71.79 Y2.683
X-71.816 Y2.714
X-71.851 Y2.73 F600
X-71.888 Y2.731
X-71.923 Y2.717
X-71.949 Y2.689
X-71.961 Y2.654
X-71.958 Y2.616
X-71.884 Y2.373
X-71.867 Y2.341
X-71.839 Y2.319
X-71.804 Y2.309
X-71.768 Y2.314
X-71.737 Y2.332
X-71.715 Y2.362
X-71.707 Y2.397
X-71.708 Y2.502 F1000
X-71.714 Y2.54
X-71.725 Y2.577
X-71.74 Y2.615
X-71.763 Y2.652
X-71.779 Y2.674
X-71.816 Y2.714
X-71.854 Y2.745
X-71.892 Y2.768
X-71.929 Y2.784
X-71.967 Y2.795
X-72.005 Y2.8
X-72.042 Y2.802
X-72.08 Y2.799
X-72.117 Y2.791
X-72.155 Y2.779
X-72.398 Y2.652
X-72.988 Y2.352
X-73.133 Y2.28
X-73.434 Y2.135
X-73.585 Y2.078
X-73.674 Y2.051
X-73.735 Y2.036
X-73.886 Y2.009
X-74.036 Y1.984
X-74.788 Y1.865
X-74.939 Y1.841
X-75.39 Y1.813
X-97.361
X-97.812 Y1.817
X-97.963 Y1.829
X-98.113 Y1.849
X-98.865 Y1.968
X-99.317 Y2.047
X-99.467 Y2.095
X-99.618 Y2.157
X-99.768 Y2.228
X-100.671 Y2.688
X-100.822 Y2.771
X-100.874 Y2.803
X-100.972 Y2.874
X-101.068 Y2.953
X-101.123 Y3.003
X-101.228 Y3.104
X-101.875 Y3.751
X-101.981 Y3.868
X-102.209 Y3.964 Z3.599 F600
X-102.428 Y3.843 Z3.7
X-102.477 Y3.817
X-102.476 Y3.624
X-102.475 Y3.404 F1000
X-101.672 Y0.246
G3 X-99.919 Y-1.408 I2.38 J0.767
G1 X-78.099 Y-3.624
X-74.488 Y-3.986 Z3.2
G3 X-72.383 Y-3.213 I0.282 J2.484
G1 X-72.381 Y-3.211
G3 X-71.842 Y-2.318 I-1.824 J1.709
X-71.766 Y-2.049 I-2.363 J0.816 F600
X-71.707 Y-1.589 Z3 I-2.439 J0.547
G1 Y-1.439 F1000
X-71.709 Y-1.401
X-71.802 Y-1.284
X-71.911 Y-1.181
X-72.03 Y-1.09
X-72.178 Y-0.994
X-72.369 Y-0.893
X-72.618 Y-0.786
X-72.949 Y-0.673
X-73.412 Y-0.556
X-74.065 Y-0.446
X-74.724 Y-0.384
X-75.386 Y-0.349
X-76.048 Y-0.329
X-76.71 Y-0.317
X-77.373 Y-0.31
X-78.035 Y-0.307
X-79.36 Y-0.303
X-82.672 Y-0.302
X-101.551
X-101.712 Y-0.262
X-102.011 Y-0.121
X-102.263 Y0.095
X-102.676 Y0.613
X-102.932 Y1.224
X-103.086 Y1.868
X-103.176 Y2.524
X-103.229 Y3.185
X-103.26 Y3.846
X-103.278 Y4.509
X-103.288 Y5.171
X-103.294 Y5.833
X-103.297 Y6.496
X-103.3 Y7.821
X-103.302 Y11.133
Y19.082
Y69.425
Y70.585
X-103.265 Y70.746
X-103.121 Y71.044
X-102.677 Y71.535
X-102.092 Y71.846
X-101.456 Y72.034
X-100.804 Y72.146
X-100.144 Y72.212
X-99.483 Y72.25
X-98.821 Y72.272
X-98.159 Y72.284
X-97.496 Y72.292
X-96.834 Y72.296
X-96.172 Y72.298
X-94.847 Y72.301
X-89.547 Y72.302
X-72.448
X-72.219 Y72.338
X-72.012 Y72.443
X-71.848 Y72.607
X-71.743 Y72.814
X-71.707 Y73.042
X-71.779 Y73.233 Z3.082 F600
X-72.048 Y73.353 Z3.2
X-72.275 Y73.454
X-76.895 Y75.508 F1000
X-78.099 Y75.6
X-100.22 Y75.536
X-102.327 Y75.218
X-103.681 Y74.745
X-104.759 Y74.09
X-105.637 Y73.156
X-106.205 Y72.135
X-106.57 Y70.932
X-106.552 Y4.307
X-106.412 Y1.75
X-106.032 Y0.246
X-105.883 Y-0.205
G3 X-105.637 Y-0.806 I2.418 J0.637
G1 X-104.506 Y-2.311
X-103.38 Y-3.09
X-102.327 Y-3.479
X-100.972 Y-3.617
X-73.284 Y-2.966
G3 X-71.929 Y-2.195 I-0.005 J1.583
G1 X-71.928 Y-2.192
X-71.905 Y-2.153
X-71.849 Y-2.042 F600
X-71.802 Y-1.927
X-71.779 Y-1.859 Z3.171
X-71.707 Y-1.439 Z3
Y-0.988 F1000
X-71.714 Y-0.838
X-71.777 Y-0.702
X-71.856 Y-0.574
X-71.946 Y-0.454
X-72.058 Y-0.329
X-72.192 Y-0.203
X-72.351 Y-0.075
X-72.562 Y0.068
X-72.803 Y0.205
X-73.105 Y0.346
X-73.484 Y0.487
X-73.987 Y0.629
X-74.637 Y0.757
X-75.295 Y0.837
X-75.955 Y0.888
X-76.617 Y0.919
X-77.279 Y0.938
X-77.941 Y0.95
X-78.604 Y0.957
X-79.266 Y0.962
X-79.929 Y0.964
X-81.253 Y0.967
X-85.228 Y0.968
X-99.801
X-100.13 Y1.006
X-100.438 Y1.129
X-100.71 Y1.317
X-101.18 Y1.784
X-101.497 Y2.366
X-101.701 Y2.996
X-101.804 Y3.515
X-101.841 Y3.643
X-101.901 Y3.761
X-101.981 Y3.868
X-102.105 Y4.006
X-102.176 Y4.097
X-102.215 Y4.156
X-102.298 Y4.307
X-102.531 Y4.758
X-102.76 Y5.209
X-102.835 Y5.359
X-102.896 Y5.51
X-102.928 Y5.599
X-102.943 Y5.66
X-103 Y5.961
X-103.028 Y6.111
X-103.123 Y6.713
X-103.169 Y7.014
X-103.179 Y7.164
X-103.186 Y7.465
X-103.188 Y7.615
Y32.431
X-103.186 Y32.581
X-103.179 Y32.731
X-103.16 Y32.882
X-103.131 Y33.032
X-103.01 Y33.483
X-102.963 Y33.634
X-102.928 Y33.731
X-102.904 Y33.784
X-102.831 Y33.935
X-102.778 Y34.021
X-102.699 Y34.149
X-102.596 Y34.353
X-102.488 Y34.619
X-102.374 Y34.977
X-102.256 Y35.488
X-102.159 Y36.143
X-102.104 Y36.803
X-102.073 Y37.465
X-102.055 Y38.127
X-102.045 Y38.789
X-102.039 Y39.452
X-102.036 Y40.114
X-102.033 Y41.439
X-102.032 Y44.751
Y54.324
X-102.057 Y54.515
X-102.13 Y54.693
X-102.247 Y54.846
X-102.39 Y54.99
X-102.477 Y55.081
X-102.628 Y55.252
X-102.66 Y55.291
X-102.778 Y55.467
X-102.846 Y55.591
X-102.92 Y55.742
X-102.989 Y55.892
X-103.047 Y56.043
X-103.079 Y56.139
X-103.094 Y56.193
X-103.145 Y56.494
X-103.168 Y56.644
X-103.187 Y57.095
X-103.188 Y64.465
X-103.186 Y64.615
X-103.158 Y65.066
X-103.079 Y65.568
X-103.016 Y65.969
X-102.99 Y66.119
X-102.964 Y66.27
X-102.92 Y66.42
X-102.862 Y66.57
X-102.717 Y66.871
X-102.643 Y67.022
X-102.533 Y67.267
X-102.422 Y67.582
X-102.305 Y68.019
X-102.187 Y68.67
X-102.153 Y69
X-102.057 Y69.317
X-101.89 Y69.603
X-101.455 Y70.102
X-100.887 Y70.444
X-100.263 Y70.666
X-99.616 Y70.807
X-98.959 Y70.895
X-98.299 Y70.949
X-97.638 Y70.982
X-96.975 Y71.002
X-96.313 Y71.014
X-95.651 Y71.021
X-94.988 Y71.025
X-94.326 Y71.028
X-93.001 Y71.03
X-89.027 Y71.032
X-73.791
X-73.216 Y71.037
X-72.904 Y71.065
X-72.621 Y71.114
X-72.412 Y71.167
X-72.198 Y71.241
X-72.151 Y71.261
X-71.97 Y71.374
X-71.828 Y71.534
X-71.738 Y71.728
X-71.707 Y71.94
X-71.782 Y72.135 Z3.084 F600
X-72.038 Y72.271 Z3.2
X-72.257 Y72.388
X-75.39 Y74.062 F1000
G3 X-76.594 Y74.33 I-1.129 J-2.231
G1 X-97.511 Y74.273
X-100.521 Y73.997
X-102.176 Y73.481
X-102.327 Y73.409
X-102.477 Y73.338
X-103.831 Y72.368
X-104.132 Y72.058
G3 X-104.772 Y70.932 I1.779 J-1.756
G1 X-105.549 Y68.225
G3 X-105.038 Y66.57 I1.521 J-0.436
G1 X-105.035 Y66.568
G3 X-103.144 Y66.476 I1.008 J1.22
G1 X-103.043 Y66.549 F600
X-102.949 Y66.63
G3 X-102.738 Y66.871 Z3.071 I-1.078 J1.158
G1 X-102.643 Y67.022 Z3
X-102.413 Y67.473 F1000
X-102.151 Y67.943
X-101.725 Y68.4
X-101.273 Y68.851
X-101.143 Y68.977
X-100.972 Y69.127
X-100.822 Y69.225
X-100.739 Y69.277
X-99.768 Y69.772
X-99.618 Y69.845
X-99.539 Y69.879
X-99.467 Y69.907
X-99.317 Y69.953
X-98.865 Y70.032
X-98.414 Y70.103
X-98.113 Y70.148
X-97.889 Y70.18
X-97.812 Y70.183
X-97.361 Y70.188
X-75.39 Y70.187
X-74.939 Y70.157
X-74.788 Y70.135
X-74.187 Y70.04
X-73.606 Y69.978
X-73.265 Y69.969
X-72.955 Y69.985
X-72.695 Y70.02
X-72.461 Y70.071
X-72.273 Y70.128
X-72.176 Y70.166
X-71.985 Y70.277
X-71.835 Y70.439
X-71.74 Y70.638
X-71.707 Y70.856
G3 X-72.035 Y71.162 Z3.2 I-0.317 J-0.011 F600
G1 X-72.096 Y71.154
X-72.278 Y71.111
X-74.198 Y70.661 F1000
X-74.254 Y70.642
X-74.305 Y70.614
X-74.352 Y70.575 F600
X-74.391 Y70.526
X-74.42 Y70.472
X-74.438 Y70.412
G3 X-74.187 Y70.04 Z3 I0.312 J-0.06
G1 X-74.036 Y70.016 F1000
X-73.886 Y69.991
X-73.735 Y69.964
X-73.585 Y69.922
X-73.459 Y69.879
X-73.434 Y69.868
X-73.284 Y69.799
X-72.91 Y69.609
X-72.773 Y69.547
X-72.629 Y69.504
X-72.574 Y69.494
X-72.359 Y69.489
X-72.153 Y69.545
X-71.97 Y69.658
X-71.828 Y69.818
X-71.738 Y70.012
X-71.707 Y70.224
G3 X-72.035 Y70.531 Z3.2 I-0.317 J-0.011 F600
G1 X-72.096 Y70.523
X-72.154 Y70.503
X-72.268 Y70.452
X-72.846 Y70.194 F1000
X-72.886 Y70.176 F600
X-72.944 Y70.142
X-72.995 Y70.096
X-73.034 Y70.04
G3 X-72.91 Y69.609 Z3 I0.278 J-0.154
G1 X-72.315 Y69.305 F1000
X-72.285 Y69.29
X-72.261 Y69.277
X-72.125 Y69.213
X-71.966 Y69.239
X-71.83 Y69.325
X-71.739 Y69.457
X-71.707 Y69.615
G3 X-71.917 Y69.933 I-0.366 J-0.013 F600
X-72.261 Y69.277 I-0.157 J-0.336
G1 X-72.155 Y69.222 F1000
X-72.117 Y69.209
X-72.08 Y69.202
X-72.042 Y69.199
X-72.005 Y69.2
X-71.967 Y69.207
X-71.929 Y69.217
X-71.904 Y69.228
X-71.878 Y69.241
X-71.827 Y69.277
X-71.803 Y69.299
X-71.779 Y69.325
X-71.76 Y69.351
X-71.744 Y69.376
X-71.732 Y69.402
X-71.722 Y69.428
X-71.713 Y69.465
X-71.708 Y69.503
X-71.707 Y69.578
Y71.94
X-71.782 Y72.135 Z3.084 F600
X-72.059 Y72.221 Z3.2
X-72.23 Y72.274
X-72.299 Y72.282
X-81.861 Y73.486 F1000
X-98.414 Y73.453
X-100.671 Y72.981
X-102.778 Y71.894
X-104.024 Y70.781
X-105.035 Y69.556
X-106.002 Y67.623
X-106.286 Y66.42
X-106.495 Y64.465
X-105.63 Y34.987
G3 X-103.346 Y33.547 I1.582 J-0.021
G1 X-103.237 Y33.607 F600
X-103.133 Y33.674
G3 X-102.778 Y34.021 Z3 I-0.914 J1.292
G1 X-102.734 Y34.085 F1000
X-102.628 Y34.218
X-102.467 Y34.386
X-102.176 Y34.675
X-102.026 Y34.804
X-101.912 Y34.902
X-101.807 Y35.01
X-101.705 Y35.136
X-101.632 Y35.241
X-101.56 Y35.372
X-101.515 Y35.514
X-101.5 Y35.662
G3 X-101.828 Y35.969 Z3.2 I-0.317 J-0.011 F600
G1 X-101.89 Y35.961
X-101.948 Y35.941
X-102.002 Y35.91
X-102.049 Y35.869
X-102.082 Y35.827 F1000
X-102.47 Y35.241
X-102.5 Y35.184
X-102.518 Y35.122
X-102.523 Y35.061 F600
X-102.516 Y34.999
X-102.497 Y34.94
X-102.467 Y34.886
G3 X-102.026 Y34.804 Z3 I0.262 J0.18
G1 X-101.981 Y34.837 F1000
X-101.875 Y34.908
X-101.725 Y34.99
X-101.687 Y35.008
X-101.649 Y35.032
X-101.612 Y35.064
X-101.574 Y35.104
X-101.549 Y35.138
X-101.529 Y35.175
X-101.514 Y35.213
X-101.505 Y35.251
X-101.501 Y35.288
X-101.5 Y36.19
Y53.937
X-101.501 Y54.088
X-101.506 Y54.125
X-101.516 Y54.163
X-101.531 Y54.2
X-101.553 Y54.238
X-101.574 Y54.267
X-101.603 Y54.3
X-101.64 Y54.333
X-102.176 Y54.783
X-102.241 Y54.839
X-102.247 Y54.846
X-102.477 Y54.931 Z3.099 F600
X-102.688 Y54.839 Z3.191
X-102.693 Y54.817 Z3.2
X-102.747 Y54.575
X-103.567 Y50.929 F1000
X-106.492 Y32.882
X-106.446 Y6.563
X-106.077 Y4.608
X-104.506 Y0.998
G3 X-104.283 Y0.55 I2.338 J0.886
G1 X-103.38 Y-0.7
X-102.257 Y-1.632
X-101.123 Y-2.119
X-100.069 Y-2.324
X-73.284 Y-2.515
G3 X-71.929 Y-1.743 I-0.005 J1.583
G1 X-71.928 Y-1.741
X-71.905 Y-1.702
X-71.849 Y-1.591 F600
X-71.802 Y-1.476
X-71.779 Y-1.408 Z3.171
X-71.707 Y-0.988 Z3
Y-0.31 F1000
X-71.714 Y-0.16
X-71.747 Y-0.014
X-71.797 Y0.128
X-71.862 Y0.263
X-71.939 Y0.393
X-72.034 Y0.527
X-72.159 Y0.676
X-72.3 Y0.819
X-72.489 Y0.981
X-72.699 Y1.136
X-72.969 Y1.302
X-73.292 Y1.467
X-73.694 Y1.632
X-74.187 Y1.79
X-74.476 Y1.858
X-74.571 Y1.874
X-74.666 Y1.878
X-74.761 Y1.869
G3 X-75.012 Y1.497 Z3.2 I0.061 J-0.312 F600
G1 X-74.995 Y1.438
X-74.967 Y1.384
X-74.928 Y1.336
X-74.882 Y1.296
X-74.879 Y1.295
X-72.26 Y-0.522 F1000
X-72.205 Y-0.56 F600
X-72.152 Y-0.589
X-72.095 Y-0.608
X-72.035 Y-0.616
G3 X-71.707 Y-0.31 Z3 I0.011 J0.317
G1 Y0.63 F1000
X-71.714 Y0.779
X-71.742 Y0.927
X-71.787 Y1.07
X-71.844 Y1.208
X-71.917 Y1.347
X-72.013 Y1.5
X-72.127 Y1.652
X-72.279 Y1.824
X-72.448 Y1.988
X-72.56 Y2.08
X-72.739 Y2.189
X-72.941 Y2.243
X-73.151 Y2.238
X-73.351 Y2.175
G3 X-73.485 Y1.747 Z3.2 I0.147 J-0.281 F600
G1 X-73.462 Y1.71
X-73.435 Y1.676
X-73.324 Y1.559
X-72.255 Y0.423 F1000
X-72.209 Y0.382 F600
X-72.155 Y0.351
X-72.096 Y0.331
X-72.035 Y0.323
G3 X-71.707 Y0.63 Z3 I0.011 J0.317
G1 Y1.682 F1000
X-71.714 Y1.832
X-71.744 Y1.979
X-71.758 Y2.022
X-71.853 Y2.211
X-71.997 Y2.366
X-72.18 Y2.474
X-72.385 Y2.526
X-72.597 Y2.517
X-72.797 Y2.449
G3 X-72.921 Y2.017 Z3.2 I0.154 J-0.278 F600
G1 X-72.884 Y1.964
X-72.837 Y1.92
X-72.743 Y1.847
X-72.258 Y1.473 F1000
X-72.218 Y1.442 F600
X-72.162 Y1.407
X-72.1 Y1.385
X-72.035 Y1.376
G3 X-71.707 Y1.682 Z3 I0.011 J0.317
G1 Y2.321 F1000
Y2.352
Y2.397
X-71.716 Y2.547
X-71.747 Y2.613
X-71.767 Y2.649
X-71.79 Y2.683
X-71.816 Y2.714
X-71.851 Y2.73 F600
X-71.888 Y2.731
X-71.923 Y2.717
X-71.949 Y2.689
X-71.961 Y2.654
X-71.958 Y2.616
X-71.884 Y2.373
X-71.867 Y2.341
X-71.839 Y2.319
X-71.804 Y2.309
X-71.768 Y2.314
X-71.737 Y2.332
X-71.715 Y2.362
X-71.707 Y2.397
X-71.708 Y2.502 F1000
X-71.714 Y2.54
X-71.725 Y2.577
X-71.74 Y2.615
X-71.763 Y2.652
X-71.779 Y2.674
X-71.816 Y2.714
X-71.854 Y2.745
X-71.892 Y2.768
X-71.929 Y2.784
X-71.967 Y2.795
X-72.005 Y2.8
X-72.042 Y2.802
X-72.08 Y2.799
X-72.117 Y2.791
X-72.155 Y2.779
X-72.398 Y2.652
X-72.988 Y2.352
X-73.133 Y2.28
X-73.434 Y2.135
X-73.585 Y2.078
X-73.674 Y2.051
X-73.735 Y2.036
X-73.886 Y2.009
X-74.036 Y1.984
X-74.788 Y1.865
X-74.939 Y1.841
X-75.39 Y1.813
X-97.361
X-97.812 Y1.817
X-97.963 Y1.829
X-98.113 Y1.849
X-98.865 Y1.968
X-99.317 Y2.047
X-99.467 Y2.095
X-99.618 Y2.157
X-99.768 Y2.228
X-100.671 Y2.688
X-100.822 Y2.771
X-100.874 Y2.803
X-100.972 Y2.874
X-101.068 Y2.953
X-101.123 Y3.003
X-101.228 Y3.104
X-101.875 Y3.751
X-101.981 Y3.868
X-102.209 Y3.964 Z3.099 F600
X-102.428 Y3.843 Z3.2
X-102.477 Y3.817
X-102.476 Y3.624
X-102.475 Y3.404 F1000
X-101.672 Y0.246
G3 X-99.919 Y-1.408 I2.38 J0.767
G1 X-78.099 Y-3.624
X-74.488 Y-3.986 Z2.7
G3 X-72.383 Y-3.213 I0.282 J2.484
G1 X-72.381 Y-3.211
G3 X-71.842 Y-2.318 I-1.824 J1.709
X-71.766 Y-2.049 I-2.363 J0.816 F600
X-71.707 Y-1.589 Z2.5 I-2.439 J0.547
G1 Y-1.439 F1000
X-71.709 Y-1.401
X-71.802 Y-1.284
X-71.911 Y-1.181
X-72.03 Y-1.09
X-72.178 Y-0.994
X-72.369 Y-0.893
X-72.618 Y-0.786
X-72.949 Y-0.673
X-73.412 Y-0.556
X-74.065 Y-0.446
X-74.724 Y-0.384
X-75.386 Y-0.349
X-76.048 Y-0.329
X-76.71 Y-0.317
X-77.373 Y-0.31
X-78.035 Y-0.307
X-79.36 Y-0.303
X-82.672 Y-0.302
X-101.551
X-101.712 Y-0.262
X-102.011 Y-0.121
X-102.263 Y0.095
X-102.676 Y0.613
X-102.932 Y1.224
X-103.086 Y1.868
X-103.176 Y2.524
X-103.229 Y3.185
X-103.26 Y3.846
X-103.278 Y4.509
X-103.288 Y5.171
X-103.294 Y5.833
X-103.297 Y6.496
X-103.3 Y7.821
X-103.302 Y11.133
Y19.082
Y69.425
Y70.585
X-103.265 Y70.746
X-103.121 Y71.044
X-102.677 Y71.535
X-102.092 Y71.846
X-101.456 Y72.034
X-100.804 Y72.146
X-100.144 Y72.212
X-99.483 Y72.25
X-98.821 Y72.272
X-98.159 Y72.284
X-97.496 Y72.292
X-96.834 Y72.296
X-96.172 Y72.298
X-94.847 Y72.301
X-89.547 Y72.302
X-72.448
X-72.219 Y72.338
X-72.012 Y72.443
X-71.848 Y72.607
X-71.743 Y72.814
X-71.707 Y73.042
X-71.779 Y73.233 Z2.582 F600
X-72.048 Y73.353 Z2.7
X-72.275 Y73.454
X-76.895 Y75.508 F1000
X-78.099 Y75.6
X-100.22 Y75.536
X-102.327 Y75.218
X-103.681 Y74.745
X-104.759 Y74.09
X-105.637 Y73.156
X-106.205 Y72.135
X-106.57 Y70.932
X-106.552 Y4.307
X-106.412 Y1.75
X-106.032 Y0.246
X-105.883 Y-0.205
G3 X-105.637 Y-0.806 I2.418 J0.637
G1 X-104.506 Y-2.311
X-103.38 Y-3.09
X-102.327 Y-3.479
X-100.972 Y-3.617
X-73.284 Y-2.966
G3 X-71.929 Y-2.195 I-0.005 J1.583
G1 X-71.928 Y-2.192
X-71.905 Y-2.153
X-71.849 Y-2.042 F600
X-71.802 Y-1.927
X-71.779 Y-1.859 Z2.671
X-71.707 Y-1.439 Z2.5
Y-0.988 F1000
X-71.714 Y-0.838
X-71.777 Y-0.702
X-71.856 Y-0.574
X-71.946 Y-0.454
X-72.058 Y-0.329
X-72.192 Y-0.203
X-72.351 Y-0.075
X-72.562 Y0.068
X-72.803 Y0.205
X-73.105 Y0.346
X-73.484 Y0.487
X-73.987 Y0.629
X-74.637 Y0.757
X-75.295 Y0.837
X-75.955 Y0.888
X-76.617 Y0.919
X-77.279 Y0.938
X-77.941 Y0.95
X-78.604 Y0.957
X-79.266 Y0.962
X-79.929 Y0.964
X-81.253 Y0.967
X-85.228 Y0.968
X-99.801
X-100.13 Y1.006
X-100.438 Y1.129
X-100.71 Y1.317
X-101.18 Y1.784
X-101.497 Y2.366
X-101.701 Y2.996
X-101.804 Y3.515
X-101.841 Y3.643
X-101.901 Y3.761
X-101.981 Y3.868
X-102.105 Y4.006
X-102.176 Y4.097
X-102.215 Y4.156
X-102.298 Y4.307
X-102.531 Y4.758
X-102.76 Y5.209
X-102.835 Y5.359
X-102.896 Y5.51
X-102.928 Y5.599
X-102.943 Y5.66
X-103 Y5.961
X-103.028 Y6.111
X-103.123 Y6.713
X-103.169 Y7.014
X-103.179 Y7.164
X-103.186 Y7.465
X-103.188 Y7.615
Y64.465
X-103.186 Y64.615
X-103.158 Y65.066
X-103.079 Y65.568
X-103.016 Y65.969
X-102.99 Y66.119
X-102.964 Y66.27
X-102.92 Y66.42
X-102.862 Y66.57
X-102.717 Y66.871
X-102.643 Y67.022
X-102.533 Y67.267
X-102.422 Y67.582
X-102.305 Y68.019
X-102.187 Y68.67
X-102.153 Y69
X-102.057 Y69.317
X-101.89 Y69.603
X-101.455 Y70.102
X-100.887 Y70.444
X-100.263 Y70.666
X-99.616 Y70.807
X-98.959 Y70.895
X-98.299 Y70.949
X-97.638 Y70.982
X-96.975 Y71.002
X-96.313 Y71.014
X-95.651 Y71.021
X-94.988 Y71.025
X-94.326 Y71.028
X-93.001 Y71.03
X-89.027 Y71.032
X-73.791
X-73.216 Y71.037
X-72.904 Y71.065
X-72.621 Y71.114
X-72.412 Y71.167
X-72.198 Y71.241
X-72.151 Y71.261
X-71.97 Y71.374
X-71.828 Y71.534
X-71.738 Y71.728
X-71.707 Y71.94
X-71.782 Y72.135 Z2.584 F600
X-72.038 Y72.271 Z2.7
X-72.257 Y72.388
X-75.39 Y74.062 F1000
G3 X-76.594 Y74.33 I-1.129 J-2.231
G1 X-97.511 Y74.273
X-100.521 Y73.997
X-102.176 Y73.481
X-102.327 Y73.409
X-102.477 Y73.338
X-103.831 Y72.368
X-104.132 Y72.058
G3 X-104.772 Y70.932 I1.779 J-1.756
G1 X-105.549 Y68.225
G3 X-105.038 Y66.57 I1.521 J-0.436
G1 X-105.035 Y66.568
G3 X-103.144 Y66.476 I1.008 J1.22
G1 X-103.043 Y66.549 F600
X-102.949 Y66.63
G3 X-102.738 Y66.871 Z2.571 I-1.078 J1.158
G1 X-102.643 Y67.022 Z2.5
X-102.413 Y67.473 F1000
X-102.151 Y67.943
X-101.725 Y68.4
X-101.273 Y68.851
X-101.143 Y68.977
X-100.972 Y69.127
X-100.822 Y69.225
X-100.739 Y69.277
X-99.768 Y69.772
X-99.618 Y69.845
X-99.539 Y69.879
X-99.467 Y69.907
X-99.317 Y69.953
X-98.865 Y70.032
X-98.414 Y70.103
X-98.113 Y70.148
X-97.889 Y70.18
X-97.812 Y70.183
X-97.361 Y70.188
X-75.39 Y70.187
X-74.939 Y70.157
X-74.788 Y70.135
X-74.187 Y70.04
X-73.606 Y69.978
X-73.265 Y69.969
X-72.955 Y69.985
X-72.695 Y70.02
X-72.461 Y70.071
X-72.273 Y70.128
X-72.176 Y70.166
X-71.985 Y70.277
X-71.835 Y70.439
X-71.74 Y70.638
X-71.707 Y70.856
G3 X-72.035 Y71.162 Z2.7 I-0.317 J-0.011 F600
G1 X-72.096 Y71.154
X-72.278 Y71.111
X-74.198 Y70.661 F1000
X-74.254 Y70.642
X-74.305 Y70.614
X-74.352 Y70.575 F600
X-74.391 Y70.526
X-74.42 Y70.472
X-74.438 Y70.412
G3 X-74.187 Y70.04 Z2.5 I0.312 J-0.06
G1 X-74.036 Y70.016 F1000
X-73.886 Y69.991
X-73.735 Y69.964
X-73.585 Y69.922
X-73.459 Y69.879
X-73.434 Y69.868
X-73.284 Y69.799
X-72.91 Y69.609
X-72.773 Y69.547
X-72.629 Y69.504
X-72.574 Y69.494
X-72.359 Y69.489
X-72.153 Y69.545
X-71.97 Y69.658
X-71.828 Y69.818
X-71.738 Y70.012
X-71.707 Y70.224
G3 X-72.035 Y70.531 Z2.7 I-0.317 J-0.011 F600
G1 X-72.096 Y70.523
X-72.154 Y70.503
X-72.268 Y70.452
X-72.846 Y70.194 F1000
X-72.886 Y70.176 F600
X-72.944 Y70.142
X-72.995 Y70.096
X-73.034 Y70.04
G3 X-72.91 Y69.609 Z2.5 I0.278 J-0.154
G1 X-72.315 Y69.305 F1000
X-72.285 Y69.29
X-72.261 Y69.277
X-72.125 Y69.213
X-71.966 Y69.239
X-71.83 Y69.325
X-71.739 Y69.457
X-71.707 Y69.615
G3 X-71.917 Y69.933 I-0.366 J-0.013 F600
X-72.261 Y69.277 I-0.157 J-0.336
G1 X-72.155 Y69.222 F1000
X-72.117 Y69.209
X-72.08 Y69.202
X-72.042 Y69.199
X-72.005 Y69.2
X-71.967 Y69.207
X-71.929 Y69.217
X-71.904 Y69.228
X-71.878 Y69.241
X-71.827 Y69.277
X-71.803 Y69.299
X-71.779 Y69.325
X-71.76 Y69.351
X-71.744 Y69.376
X-71.732 Y69.402
X-71.722 Y69.428
X-71.713 Y69.465
X-71.708 Y69.503
X-71.707 Y69.578
Y71.94
X-71.782 Y72.135 Z2.584 F600
X-72.053 Y72.239 Z2.7
X-72.08 Y72.249
X-72.299 Y72.26
X-97.21 Y73.496 F1000
X-97.357
X-98.865 Y73.376
X-100.671 Y72.981
X-102.778 Y71.894
X-103.861 Y70.932
X-104.924 Y69.729
X-105.938 Y67.762
X-106.264 Y66.57
X-106.504 Y64.465
X-106.447 Y6.563
X-106.077 Y4.608
X-104.506 Y0.998
G3 X-104.283 Y0.55 I2.338 J0.886
G1 X-103.38 Y-0.7
X-102.257 Y-1.632
X-101.123 Y-2.119
X-100.069 Y-2.324
X-73.284 Y-2.515
G3 X-71.929 Y-1.743 I-0.005 J1.583
G1 X-71.928 Y-1.741
X-71.905 Y-1.702
X-71.849 Y-1.591 F600
X-71.802 Y-1.476
X-71.779 Y-1.408 Z2.671
X-71.707 Y-0.988 Z2.5
Y-0.31 F1000
X-71.714 Y-0.16
X-71.747 Y-0.014
X-71.797 Y0.128
X-71.862 Y0.263
X-71.939 Y0.393
X-72.034 Y0.527
X-72.159 Y0.676
X-72.3 Y0.819
X-72.489 Y0.981
X-72.699 Y1.136
X-72.969 Y1.302
X-73.292 Y1.467
X-73.694 Y1.632
X-74.187 Y1.79
X-74.476 Y1.858
X-74.571 Y1.874
X-74.666 Y1.878
X-74.761 Y1.869
G3 X-75.012 Y1.497 Z2.7 I0.061 J-0.312 F600
G1 X-74.995 Y1.438
X-74.967 Y1.384
X-74.928 Y1.336
X-74.882 Y1.296
X-74.879 Y1.295
X-72.26 Y-0.522 F1000
X-72.205 Y-0.56 F600
X-72.152 Y-0.589
X-72.095 Y-0.608
X-72.035 Y-0.616
G3 X-71.707 Y-0.31 Z2.5 I0.011 J0.317
G1 Y0.63 F1000
X-71.714 Y0.779
X-71.742 Y0.927
X-71.787 Y1.07
X-71.844 Y1.208
X-71.917 Y1.347
X-72.013 Y1.5
X-72.127 Y1.652
X-72.279 Y1.824
X-72.448 Y1.988
X-72.56 Y2.08
X-72.739 Y2.189
X-72.941 Y2.243
X-73.151 Y2.238
X-73.351 Y2.175
G3 X-73.485 Y1.747 Z2.7 I0.147 J-0.281 F600
G1 X-73.462 Y1.71
X-73.435 Y1.676
X-73.324 Y1.559
X-72.255 Y0.423 F1000
X-72.209 Y0.382 F600
X-72.155 Y0.351
X-72.096 Y0.331
X-72.035 Y0.323
G3 X-71.707 Y0.63 Z2.5 I0.011 J0.317
G1 Y1.682 F1000
X-71.714 Y1.832
X-71.744 Y1.979
X-71.758 Y2.022
X-71.853 Y2.211
X-71.997 Y2.366
X-72.18 Y2.474
X-72.385 Y2.526
X-72.597 Y2.517
X-72.797 Y2.449
G3 X-72.921 Y2.017 Z2.7 I0.154 J-0.278 F600
G1 X-72.884 Y1.964
X-72.837 Y1.92
X-72.743 Y1.847
X-72.258 Y1.473 F1000
X-72.218 Y1.442 F600
X-72.162 Y1.407
X-72.1 Y1.385
X-72.035 Y1.376
G3 X-71.707 Y1.682 Z2.5 I0.011 J0.317
G1 Y2.321 F1000
Y2.352
Y2.397
X-71.716 Y2.547
X-71.747 Y2.613
X-71.767 Y2.649
X-71.79 Y2.683
X-71.816 Y2.714
X-71.851 Y2.73 F600
X-71.888 Y2.731
X-71.923 Y2.717
X-71.949 Y2.689
X-71.961 Y2.654
X-71.958 Y2.616
X-71.884 Y2.373
X-71.867 Y2.341
X-71.839 Y2.319
X-71.804 Y2.309
X-71.768 Y2.314
X-71.737 Y2.332
X-71.715 Y2.362
X-71.707 Y2.397
X-71.708 Y2.502 F1000
X-71.714 Y2.54
X-71.725 Y2.577
X-71.74 Y2.615
X-71.763 Y2.652
X-71.779 Y2.674
X-71.816 Y2.714
X-71.854 Y2.745
X-71.892 Y2.768
X-71.929 Y2.784
X-71.967 Y2.795
X-72.005 Y2.8
X-72.042 Y2.802
X-72.08 Y2.799
X-72.117 Y2.791
X-72.155 Y2.779
X-72.398 Y2.652
X-72.988 Y2.352
X-73.133 Y2.28
X-73.434 Y2.135
X-73.585 Y2.078
X-73.674 Y2.051
X-73.735 Y2.036
X-73.886 Y2.009
X-74.036 Y1.984
X-74.788 Y1.865
X-74.939 Y1.841
X-75.39 Y1.813
X-97.361
X-97.812 Y1.817
X-97.963 Y1.829
X-98.113 Y1.849
X-98.865 Y1.968
X-99.317 Y2.047
X-99.467 Y2.095
X-99.618 Y2.157
X-99.768 Y2.228
X-100.671 Y2.688
X-100.822 Y2.771
X-100.874 Y2.803
X-100.972 Y2.874
X-101.068 Y2.953
X-101.123 Y3.003
X-101.228 Y3.104
X-101.875 Y3.751
X-101.981 Y3.868
X-102.209 Y3.964 Z2.599 F600
X-102.428 Y3.843 Z2.7
X-102.477 Y3.817
X-102.476 Y3.624
X-102.475 Y3.404 F1000
X-101.672 Y0.246
G3 X-99.919 Y-1.408 I2.38 J0.767
G1 X-78.099 Y-3.624
X-74.488 Y-3.986 Z2.2
G3 X-72.383 Y-3.213 I0.282 J2.484
G1 X-72.381 Y-3.211
G3 X-71.842 Y-2.318 I-1.824 J1.709
X-71.766 Y-2.049 I-2.363 J0.816 F600
X-71.707 Y-1.589 Z2 I-2.439 J0.547
G1 Y-1.439 F1000
X-71.709 Y-1.401
X-71.802 Y-1.284
X-71.911 Y-1.181
X-72.03 Y-1.09
X-72.178 Y-0.994
X-72.369 Y-0.893
X-72.618 Y-0.786
X-72.949 Y-0.673
X-73.412 Y-0.556
X-74.065 Y-0.446
X-74.724 Y-0.384
X-75.386 Y-0.349
X-76.048 Y-0.329
X-76.71 Y-0.317
X-77.373 Y-0.31
X-78.035 Y-0.307
X-79.36 Y-0.303
X-82.672 Y-0.302
X-101.551
X-101.712 Y-0.262
X-102.011 Y-0.121
X-102.263 Y0.095
X-102.676 Y0.613
X-102.932 Y1.224
X-103.086 Y1.868
X-103.176 Y2.524
X-103.229 Y3.185
X-103.26 Y3.846
X-103.278 Y4.509
X-103.288 Y5.171
X-103.294 Y5.833
X-103.297 Y6.496
X-103.3 Y7.821
X-103.302 Y11.133
Y19.082
Y69.425
Y70.585
X-103.265 Y70.746
X-103.121 Y71.044
X-102.677 Y71.535
X-102.092 Y71.846
X-101.456 Y72.034
X-100.804 Y72.146
X-100.144 Y72.212
X-99.483 Y72.25
X-98.821 Y72.272
X-98.159 Y72.284
X-97.496 Y72.292
X-96.834 Y72.296
X-96.172 Y72.298
X-94.847 Y72.301
X-89.547 Y72.302
X-72.448
X-72.219 Y72.338
X-72.012 Y72.443
X-71.848 Y72.607
X-71.743 Y72.814
X-71.707 Y73.042
X-71.779 Y73.233 Z2.082 F600
X-72.048 Y73.353 Z2.2
X-72.275 Y73.454
X-76.895 Y75.508 F1000
X-78.099 Y75.6
X-100.22 Y75.536
X-102.327 Y75.218
X-103.681 Y74.745
X-104.759 Y74.09
X-105.637 Y73.156
X-106.205 Y72.135
X-106.57 Y70.932
X-106.552 Y4.307
X-106.412 Y1.75
X-106.032 Y0.246
X-105.883 Y-0.205
G3 X-105.637 Y-0.806 I2.418 J0.637
G1 X-104.506 Y-2.311
X-103.38 Y-3.09
X-102.327 Y-3.479
X-100.972 Y-3.617
X-73.284 Y-2.966
G3 X-71.929 Y-2.195 I-0.005 J1.583
G1 X-71.928 Y-2.192
X-71.905 Y-2.153
X-71.849 Y-2.042 F600
X-71.802 Y-1.927
X-71.779 Y-1.859 Z2.171
X-71.707 Y-1.439 Z2
Y-0.988 F1000
X-71.714 Y-0.838
X-71.777 Y-0.702
X-71.856 Y-0.574
X-71.946 Y-0.454
X-72.058 Y-0.329
X-72.192 Y-0.203
X-72.351 Y-0.075
X-72.562 Y0.068
X-72.803 Y0.205
X-73.105 Y0.346
X-73.484 Y0.487
X-73.987 Y0.629
X-74.637 Y0.757
X-75.295 Y0.837
X-75.955 Y0.888
X-76.617 Y0.919
X-77.279 Y0.938
X-77.941 Y0.95
X-78.604 Y0.957
X-79.266 Y0.962
X-79.929 Y0.964
X-81.253 Y0.967
X-85.228 Y0.968
X-99.801
X-100.13 Y1.006
X-100.438 Y1.129
X-100.71 Y1.317
X-101.18 Y1.784
X-101.497 Y2.366
X-101.701 Y2.996
X-101.804 Y3.515
X-101.841 Y3.643
X-101.901 Y3.761
X-101.981 Y3.868
X-102.105 Y4.006
X-102.176 Y4.097
X-102.215 Y4.156
X-102.298 Y4.307
X-102.531 Y4.758
X-102.76 Y5.209
X-102.835 Y5.359
X-102.896 Y5.51
X-102.928 Y5.599
X-102.943 Y5.66
X-103 Y5.961
X-103.028 Y6.111
X-103.123 Y6.713
X-103.169 Y7.014
X-103.179 Y7.164
X-103.186 Y7.465
X-103.188 Y7.615
Y64.465
X-103.186 Y64.615
X-103.158 Y65.066
X-103.079 Y65.568
X-103.016 Y65.969
X-102.99 Y66.119
X-102.964 Y66.27
X-102.92 Y66.42
X-102.862 Y66.57
X-102.717 Y66.871
X-102.643 Y67.022
X-102.533 Y67.267
X-102.422 Y67.582
X-102.305 Y68.019
X-102.187 Y68.67
X-102.153 Y69
X-102.057 Y69.317
X-101.89 Y69.603
X-101.455 Y70.102
X-100.887 Y70.444
X-100.263 Y70.666
X-99.616 Y70.807
X-98.959 Y70.895
X-98.299 Y70.949
X-97.638 Y70.982
X-96.975 Y71.002
X-96.313 Y71.014
X-95.651 Y71.021
X-94.988 Y71.025
X-94.326 Y71.028
X-93.001 Y71.03
X-89.027 Y71.032
X-73.791
X-73.216 Y71.037
X-72.904 Y71.065
X-72.621 Y71.114
X-72.412 Y71.167
X-72.198 Y71.241
X-72.151 Y71.261
X-71.97 Y71.374
X-71.828 Y71.534
X-71.738 Y71.728
X-71.707 Y71.94
X-71.782 Y72.135 Z2.084 F600
X-72.038 Y72.271 Z2.2
X-72.257 Y72.388
X-75.39 Y74.062 F1000
G3 X-76.594 Y74.33 I-1.129 J-2.231
G1 X-97.511 Y74.273
X-100.521 Y73.997
X-102.176 Y73.481
X-102.327 Y73.409
X-102.477 Y73.338
X-103.831 Y72.368
X-104.132 Y72.058
G3 X-104.772 Y70.932 I1.779 J-1.756
G1 X-105.549 Y68.225
G3 X-105.038 Y66.57 I1.521 J-0.436
G1 X-105.035 Y66.568
G3 X-103.144 Y66.476 I1.008 J1.22
G1 X-103.043 Y66.549 F600
X-102.949 Y66.63
G3 X-102.738 Y66.871 Z2.071 I-1.078 J1.158
G1 X-102.643 Y67.022 Z2
X-102.413 Y67.473 F1000
X-102.151 Y67.943
X-101.725 Y68.4
X-101.273 Y68.851
X-101.143 Y68.977
X-100.972 Y69.127
X-100.822 Y69.225
X-100.739 Y69.277
X-99.768 Y69.772
X-99.618 Y69.845
X-99.539 Y69.879
X-99.467 Y69.907
X-99.317 Y69.953
X-98.865 Y70.032
X-98.414 Y70.103
X-98.113 Y70.148
X-97.889 Y70.18
X-97.812 Y70.183
X-97.361 Y70.188
X-75.39 Y70.187
X-74.939 Y70.157
X-74.788 Y70.135
X-74.187 Y70.04
X-73.606 Y69.978
X-73.265 Y69.969
X-72.955 Y69.985
X-72.695 Y70.02
X-72.461 Y70.071
X-72.273 Y70.128
X-72.176 Y70.166
X-71.985 Y70.277
X-71.835 Y70.439
X-71.74 Y70.638
X-71.707 Y70.856
G3 X-72.035 Y71.162 Z2.2 I-0.317 J-0.011 F600
G1 X-72.096 Y71.154
X-72.278 Y71.111
X-74.198 Y70.661 F1000
X-74.254 Y70.642
X-74.305 Y70.614
X-74.352 Y70.575 F600
X-74.391 Y70.526
X-74.42 Y70.472
X-74.438 Y70.412
G3 X-74.187 Y70.04 Z2 I0.312 J-0.06
G1 X-74.036 Y70.016 F1000
X-73.886 Y69.991
X-73.735 Y69.964
X-73.585 Y69.922
X-73.459 Y69.879
X-73.434 Y69.868
X-73.284 Y69.799
X-72.91 Y69.609
X-72.773 Y69.547
X-72.629 Y69.504
X-72.574 Y69.494
X-72.359 Y69.489
X-72.153 Y69.545
X-71.97 Y69.658
X-71.828 Y69.818
X-71.738 Y70.012
X-71.707 Y70.224
G3 X-72.035 Y70.531 Z2.2 I-0.317 J-0.011 F600
G1 X-72.096 Y70.523
X-72.154 Y70.503
X-72.268 Y70.452
X-72.846 Y70.194 F1000
X-72.886 Y70.176 F600
X-72.944 Y70.142
X-72.995 Y70.096
X-73.034 Y70.04
G3 X-72.91 Y69.609 Z2 I0.278 J-0.154
G1 X-72.315 Y69.305 F1000
X-72.285 Y69.29
X-72.261 Y69.277
X-72.125 Y69.213
X-71.966 Y69.239
X-71.83 Y69.325
X-71.739 Y69.457
X-71.707 Y69.615
G3 X-71.917 Y69.933 I-0.366 J-0.013 F600
X-72.261 Y69.277 I-0.157 J-0.336
G1 X-72.155 Y69.222 F1000
X-72.117 Y69.209
X-72.08 Y69.202
X-72.042 Y69.199
X-72.005 Y69.2
X-71.967 Y69.207
X-71.929 Y69.217
X-71.904 Y69.228
X-71.878 Y69.241
X-71.827 Y69.277
X-71.803 Y69.299
X-71.779 Y69.325
X-71.76 Y69.351
X-71.744 Y69.376
X-71.732 Y69.402
X-71.722 Y69.428
X-71.713 Y69.465
X-71.708 Y69.503
X-71.707 Y69.578
Y71.94
X-71.782 Y72.135 Z2.084 F600
X-72.053 Y72.239 Z2.2
X-72.08 Y72.249
X-72.299 Y72.26
X-97.21 Y73.496 F1000
X-97.357
X-98.865 Y73.376
X-100.671 Y72.981
X-102.778 Y71.894
X-103.861 Y70.932
X-104.924 Y69.729
X-105.938 Y67.762
X-106.264 Y66.57
X-106.504 Y64.465
X-106.447 Y6.563
X-106.077 Y4.608
X-104.506 Y0.998
G3 X-104.283 Y0.55 I2.338 J0.886
G1 X-103.38 Y-0.7
X-102.257 Y-1.632
X-101.123 Y-2.119
X-100.069 Y-2.324
X-73.284 Y-2.515
G3 X-71.929 Y-1.743 I-0.005 J1.583
G1 X-71.928 Y-1.741
X-71.905 Y-1.702
X-71.849 Y-1.591 F600
X-71.802 Y-1.476
X-71.779 Y-1.408 Z2.171
X-71.707 Y-0.988 Z2
Y-0.31 F1000
X-71.714 Y-0.16
X-71.747 Y-0.014
X-71.797 Y0.128
X-71.862 Y0.263
X-71.939 Y0.393
X-72.034 Y0.527
X-72.159 Y0.676
X-72.3 Y0.819
X-72.489 Y0.981
X-72.699 Y1.136
X-72.969 Y1.302
X-73.292 Y1.467
X-73.694 Y1.632
X-74.187 Y1.79
X-74.476 Y1.858
X-74.571 Y1.874
X-74.666 Y1.878
X-74.761 Y1.869
G3 X-75.012 Y1.497 Z2.2 I0.061 J-0.312 F600
G1 X-74.995 Y1.438
X-74.967 Y1.384
X-74.928 Y1.336
X-74.882 Y1.296
X-74.879 Y1.295
X-72.26 Y-0.522 F1000
X-72.205 Y-0.56 F600
X-72.152 Y-0.589
X-72.095 Y-0.608
X-72.035 Y-0.616
G3 X-71.707 Y-0.31 Z2 I0.011 J0.317
G1 Y0.63 F1000
X-71.714 Y0.779
X-71.742 Y0.927
X-71.787 Y1.07
X-71.844 Y1.208
X-71.917 Y1.347
X-72.013 Y1.5
X-72.127 Y1.652
X-72.279 Y1.824
X-72.448 Y1.988
X-72.56 Y2.08
X-72.739 Y2.189
X-72.941 Y2.243
X-73.151 Y2.238
X-73.351 Y2.175
G3 X-73.485 Y1.747 Z2.2 I0.147 J-0.281 F600
G1 X-73.462 Y1.71
X-73.435 Y1.676
X-73.324 Y1.559
X-72.255 Y0.423 F1000
X-72.209 Y0.382 F600
X-72.155 Y0.351
X-72.096 Y0.331
X-72.035 Y0.323
G3 X-71.707 Y0.63 Z2 I0.011 J0.317
G1 Y1.682 F1000
X-71.714 Y1.832
X-71.744 Y1.979
X-71.758 Y2.022
X-71.853 Y2.211
X-71.997 Y2.366
X-72.18 Y2.474
X-72.385 Y2.526
X-72.597 Y2.517
X-72.797 Y2.449
G3 X-72.921 Y2.017 Z2.2 I0.154 J-0.278 F600
G1 X-72.884 Y1.964
X-72.837 Y1.92
X-72.743 Y1.847
X-72.258 Y1.473 F1000
X-72.218 Y1.442 F600
X-72.162 Y1.407
X-72.1 Y1.385
X-72.035 Y1.376
G3 X-71.707 Y1.682 Z2 I0.011 J0.317
G1 Y2.321 F1000
Y2.352
Y2.397
X-71.716 Y2.547
X-71.747 Y2.613
X-71.767 Y2.649
X-71.79 Y2.683
X-71.816 Y2.714
X-71.851 Y2.73 F600
X-71.888 Y2.731
X-71.923 Y2.717
X-71.949 Y2.689
X-71.961 Y2.654
X-71.958 Y2.616
X-71.884 Y2.373
X-71.867 Y2.341
X-71.839 Y2.319
X-71.804 Y2.309
X-71.768 Y2.314
X-71.737 Y2.332
X-71.715 Y2.362
X-71.707 Y2.397
X-71.708 Y2.502 F1000
X-71.714 Y2.54
X-71.725 Y2.577
X-71.74 Y2.615
X-71.763 Y2.652
X-71.779 Y2.674
X-71.816 Y2.714
X-71.854 Y2.745
X-71.892 Y2.768
X-71.929 Y2.784
X-71.967 Y2.795
X-72.005 Y2.8
X-72.042 Y2.802
X-72.08 Y2.799
X-72.117 Y2.791
X-72.155 Y2.779
X-72.398 Y2.652
X-72.988 Y2.352
X-73.133 Y2.28
X-73.434 Y2.135
X-73.585 Y2.078
X-73.674 Y2.051
X-73.735 Y2.036
X-73.886 Y2.009
X-74.036 Y1.984
X-74.788 Y1.865
X-74.939 Y1.841
X-75.39 Y1.813
X-97.361
X-97.812 Y1.817
X-97.963 Y1.829
X-98.113 Y1.849
X-98.865 Y1.968
X-99.317 Y2.047
X-99.467 Y2.095
X-99.618 Y2.157
X-99.768 Y2.228
X-100.671 Y2.688
X-100.822 Y2.771
X-100.874 Y2.803
X-100.972 Y2.874
X-101.068 Y2.953
X-101.123 Y3.003
X-101.228 Y3.104
X-101.875 Y3.751
X-101.981 Y3.868
X-102.209 Y3.964 Z2.099 F600
X-102.428 Y3.843 Z2.2
X-102.477 Y3.817
X-102.476 Y3.624
X-102.475 Y3.404 F1000
X-101.672 Y0.246
G3 X-99.919 Y-1.408 I2.38 J0.767
G1 X-78.099 Y-3.624
X-74.488 Y-3.986 Z1.7
G3 X-72.383 Y-3.213 I0.282 J2.484
G1 X-72.381 Y-3.211
G3 X-71.842 Y-2.318 I-1.824 J1.709
X-71.766 Y-2.049 I-2.363 J0.816 F600
X-71.707 Y-1.589 Z1.5 I-2.439 J0.547
G1 Y-1.439 F1000
X-71.709 Y-1.401
X-71.802 Y-1.284
X-71.911 Y-1.181
X-72.03 Y-1.09
X-72.178 Y-0.994
X-72.369 Y-0.893
X-72.618 Y-0.786
X-72.949 Y-0.673
X-73.412 Y-0.556
X-74.065 Y-0.446
X-74.724 Y-0.384
X-75.386 Y-0.349
X-76.048 Y-0.329
X-76.71 Y-0.317
X-77.373 Y-0.31
X-78.035 Y-0.307
X-79.36 Y-0.303
X-82.672 Y-0.302
X-101.551
X-101.712 Y-0.262
X-102.011 Y-0.121
X-102.263 Y0.095
X-102.676 Y0.613
X-102.932 Y1.224
X-103.086 Y1.868
X-103.176 Y2.524
X-103.229 Y3.185
X-103.26 Y3.846
X-103.278 Y4.509
X-103.288 Y5.171
X-103.294 Y5.833
X-103.297 Y6.496
X-103.3 Y7.821
X-103.302 Y11.133
Y19.082
Y69.425
Y70.585
X-103.265 Y70.746
X-103.121 Y71.044
X-102.677 Y71.535
X-102.092 Y71.846
X-101.456 Y72.034
X-100.804 Y72.146
X-100.144 Y72.212
X-99.483 Y72.25
X-98.821 Y72.272
X-98.159 Y72.284
X-97.496 Y72.292
X-96.834 Y72.296
X-96.172 Y72.298
X-94.847 Y72.301
X-89.547 Y72.302
X-72.448
X-72.219 Y72.338
X-72.012 Y72.443
X-71.848 Y72.607
X-71.743 Y72.814
X-71.707 Y73.042
X-71.779 Y73.233 Z1.582 F600
X-72.048 Y73.353 Z1.7
X-72.275 Y73.454
X-76.895 Y75.508 F1000
X-78.099 Y75.6
X-100.22 Y75.536
X-102.327 Y75.218
X-103.681 Y74.745
X-104.759 Y74.09
X-105.637 Y73.156
X-106.205 Y72.135
X-106.57 Y70.932
X-106.552 Y4.307
X-106.412 Y1.75
X-106.032 Y0.246
X-105.883 Y-0.205
G3 X-105.637 Y-0.806 I2.418 J0.637
G1 X-104.506 Y-2.311
X-103.38 Y-3.09
X-102.327 Y-3.479
X-100.972 Y-3.617
X-73.284 Y-2.966
G3 X-71.929 Y-2.195 I-0.005 J1.583
G1 X-71.928 Y-2.192
X-71.905 Y-2.153
X-71.849 Y-2.042 F600
X-71.802 Y-1.927
X-71.779 Y-1.859 Z1.671
X-71.707 Y-1.439 Z1.5
Y-0.988 F1000
X-71.714 Y-0.838
X-71.777 Y-0.702
X-71.856 Y-0.574
X-71.946 Y-0.454
X-72.058 Y-0.329
X-72.192 Y-0.203
X-72.351 Y-0.075
X-72.562 Y0.068
X-72.803 Y0.205
X-73.105 Y0.346
X-73.484 Y0.487
X-73.987 Y0.629
X-74.637 Y0.757
X-75.295 Y0.837
X-75.955 Y0.888
X-76.617 Y0.919
X-77.279 Y0.938
X-77.941 Y0.95
X-78.604 Y0.957
X-79.266 Y0.962
X-79.929 Y0.964
X-81.253 Y0.967
X-85.228 Y0.968
X-99.801
X-100.13 Y1.006
X-100.438 Y1.129
X-100.71 Y1.317
X-101.18 Y1.784
X-101.497 Y2.366
X-101.701 Y2.996
X-101.804 Y3.515
X-101.841 Y3.643
X-101.901 Y3.761
X-101.981 Y3.868
X-102.105 Y4.006
X-102.176 Y4.097
X-102.215 Y4.156
X-102.298 Y4.307
X-102.531 Y4.758
X-102.76 Y5.209
X-102.835 Y5.359
X-102.896 Y5.51
X-102.928 Y5.599
X-102.943 Y5.66
X-103 Y5.961
X-103.028 Y6.111
X-103.123 Y6.713
X-103.169 Y7.014
X-103.179 Y7.164
X-103.186 Y7.465
X-103.188 Y7.615
Y64.465
X-103.186 Y64.615
X-103.158 Y65.066
X-103.079 Y65.568
X-103.016 Y65.969
X-102.99 Y66.119
X-102.964 Y66.27
X-102.92 Y66.42
X-102.862 Y66.57
X-102.717 Y66.871
X-102.643 Y67.022
X-102.533 Y67.267
X-102.422 Y67.582
X-102.305 Y68.019
X-102.187 Y68.67
X-102.153 Y69
X-102.057 Y69.317
X-101.89 Y69.603
X-101.455 Y70.102
X-100.887 Y70.444
X-100.263 Y70.666
X-99.616 Y70.807
X-98.959 Y70.895
X-98.299 Y70.949
X-97.638 Y70.982
X-96.975 Y71.002
X-96.313 Y71.014
X-95.651 Y71.021
X-94.988 Y71.025
X-94.326 Y71.028
X-93.001 Y71.03
X-89.027 Y71.032
X-73.791
X-73.216 Y71.037
X-72.904 Y71.065
X-72.621 Y71.114
X-72.412 Y71.167
X-72.198 Y71.241
X-72.151 Y71.261
X-71.97 Y71.374
X-71.828 Y71.534
X-71.738 Y71.728
X-71.707 Y71.94
X-71.782 Y72.135 Z1.584 F600
X-72.038 Y72.271 Z1.7
X-72.257 Y72.388
X-75.39 Y74.062 F1000
G3 X-76.594 Y74.33 I-1.129 J-2.231
G1 X-97.511 Y74.273
X-100.521 Y73.997
X-102.176 Y73.481
X-102.327 Y73.409
X-102.477 Y73.338
X-103.831 Y72.368
X-104.132 Y72.058
G3 X-104.772 Y70.932 I1.779 J-1.756
G1 X-105.549 Y68.225
G3 X-105.038 Y66.57 I1.521 J-0.436
G1 X-105.035 Y66.568
G3 X-103.144 Y66.476 I1.008 J1.22
G1 X-103.043 Y66.549 F600
X-102.949 Y66.63
G3 X-102.738 Y66.871 Z1.571 I-1.078 J1.158
G1 X-102.643 Y67.022 Z1.5
X-102.413 Y67.473 F1000
X-102.151 Y67.943
X-101.725 Y68.4
X-101.273 Y68.851
X-101.143 Y68.977
X-100.972 Y69.127
X-100.822 Y69.225
X-100.739 Y69.277
X-99.768 Y69.772
X-99.618 Y69.845
X-99.539 Y69.879
X-99.467 Y69.907
X-99.317 Y69.953
X-98.865 Y70.032
X-98.414 Y70.103
X-98.113 Y70.148
X-97.889 Y70.18
X-97.812 Y70.183
X-97.361 Y70.188
X-75.39 Y70.187
X-74.939 Y70.157
X-74.788 Y70.135
X-74.187 Y70.04
X-73.606 Y69.978
X-73.265 Y69.969
X-72.955 Y69.985
X-72.695 Y70.02
X-72.461 Y70.071
X-72.273 Y70.128
X-72.176 Y70.166
X-71.985 Y70.277
X-71.835 Y70.439
X-71.74 Y70.638
X-71.707 Y70.856
G3 X-72.035 Y71.162 Z1.7 I-0.317 J-0.011 F600
G1 X-72.096 Y71.154
X-72.278 Y71.111
X-74.198 Y70.661 F1000
X-74.254 Y70.642
X-74.305 Y70.614
X-74.352 Y70.575 F600
X-74.391 Y70.526
X-74.42 Y70.472
X-74.438 Y70.412
G3 X-74.187 Y70.04 Z1.5 I0.312 J-0.06
G1 X-74.036 Y70.016 F1000
X-73.886 Y69.991
X-73.735 Y69.964
X-73.585 Y69.922
X-73.459 Y69.879
X-73.434 Y69.868
X-73.284 Y69.799
X-72.91 Y69.609
X-72.773 Y69.547
X-72.629 Y69.504
X-72.574 Y69.494
X-72.359 Y69.489
X-72.153 Y69.545
X-71.97 Y69.658
X-71.828 Y69.818
X-71.738 Y70.012
X-71.707 Y70.224
G3 X-72.035 Y70.531 Z1.7 I-0.317 J-0.011 F600
G1 X-72.096 Y70.523
X-72.154 Y70.503
X-72.268 Y70.452
X-72.846 Y70.194 F1000
X-72.886 Y70.176 F600
X-72.944 Y70.142
X-72.995 Y70.096
X-73.034 Y70.04
G3 X-72.91 Y69.609 Z1.5 I0.278 J-0.154
G1 X-72.315 Y69.305 F1000
X-72.285 Y69.29
X-72.261 Y69.277
X-72.125 Y69.213
X-71.966 Y69.239
X-71.83 Y69.325
X-71.739 Y69.457
X-71.707 Y69.615
G3 X-71.917 Y69.933 I-0.366 J-0.013 F600
X-72.261 Y69.277 I-0.157 J-0.336
G1 X-72.155 Y69.222 F1000
X-72.117 Y69.209
X-72.08 Y69.202
X-72.042 Y69.199
X-72.005 Y69.2
X-71.967 Y69.207
X-71.929 Y69.217
X-71.904 Y69.228
X-71.878 Y69.241
X-71.827 Y69.277
X-71.803 Y69.299
X-71.779 Y69.325
X-71.76 Y69.351
X-71.744 Y69.376
X-71.732 Y69.402
X-71.722 Y69.428
X-71.713 Y69.465
X-71.708 Y69.503
X-71.707 Y69.578
Y71.94
X-71.782 Y72.135 Z1.584 F600
X-72.053 Y72.239 Z1.7
X-72.08 Y72.249
X-72.299 Y72.26
X-97.21 Y73.496 F1000
X-97.357
X-98.865 Y73.376
X-100.671 Y72.981
X-102.778 Y71.894
X-103.861 Y70.932
X-104.924 Y69.729
X-105.938 Y67.762
X-106.264 Y66.57
X-106.504 Y64.465
X-106.447 Y6.563
X-106.077 Y4.608
X-104.506 Y0.998
G3 X-104.283 Y0.55 I2.338 J0.886
G1 X-103.38 Y-0.7
X-102.257 Y-1.632
X-101.123 Y-2.119
X-100.069 Y-2.324
X-73.284 Y-2.515
G3 X-71.929 Y-1.743 I-0.005 J1.583
G1 X-71.928 Y-1.741
X-71.905 Y-1.702
X-71.849 Y-1.591 F600
X-71.802 Y-1.476
X-71.779 Y-1.408 Z1.671
X-71.707 Y-0.988 Z1.5
Y-0.31 F1000
X-71.714 Y-0.16
X-71.747 Y-0.014
X-71.797 Y0.128
X-71.862 Y0.263
X-71.939 Y0.393
X-72.034 Y0.527
X-72.159 Y0.676
X-72.3 Y0.819
X-72.489 Y0.981
X-72.699 Y1.136
X-72.969 Y1.302
X-73.292 Y1.467
X-73.694 Y1.632
X-74.187 Y1.79
X-74.476 Y1.858
X-74.571 Y1.874
X-74.666 Y1.878
X-74.761 Y1.869
G3 X-75.012 Y1.497 Z1.7 I0.061 J-0.312 F600
G1 X-74.995 Y1.438
X-74.967 Y1.384
X-74.928 Y1.336
X-74.882 Y1.296
X-74.879 Y1.295
X-72.26 Y-0.522 F1000
X-72.205 Y-0.56 F600
X-72.152 Y-0.589
X-72.095 Y-0.608
X-72.035 Y-0.616
G3 X-71.707 Y-0.31 Z1.5 I0.011 J0.317
G1 Y0.63 F1000
X-71.714 Y0.779
X-71.742 Y0.927
X-71.787 Y1.07
X-71.844 Y1.208
X-71.917 Y1.347
X-72.013 Y1.5
X-72.127 Y1.652
X-72.279 Y1.824
X-72.448 Y1.988
X-72.56 Y2.08
X-72.739 Y2.189
X-72.941 Y2.243
X-73.151 Y2.238
X-73.351 Y2.175
G3 X-73.485 Y1.747 Z1.7 I0.147 J-0.281 F600
G1 X-73.462 Y1.71
X-73.435 Y1.676
X-73.324 Y1.559
X-72.255 Y0.423 F1000
X-72.209 Y0.382 F600
X-72.155 Y0.351
X-72.096 Y0.331
X-72.035 Y0.323
G3 X-71.707 Y0.63 Z1.5 I0.011 J0.317
G1 Y1.682 F1000
X-71.714 Y1.832
X-71.744 Y1.979
X-71.758 Y2.022
X-71.853 Y2.211
X-71.997 Y2.366
X-72.18 Y2.474
X-72.385 Y2.526
X-72.597 Y2.517
X-72.797 Y2.449
G3 X-72.921 Y2.017 Z1.7 I0.154 J-0.278 F600
G1 X-72.884 Y1.964
X-72.837 Y1.92
X-72.743 Y1.847
X-72.258 Y1.473 F1000
X-72.218 Y1.442 F600
X-72.162 Y1.407
X-72.1 Y1.385
X-72.035 Y1.376
G3 X-71.707 Y1.682 Z1.5 I0.011 J0.317
G1 Y2.321 F1000
Y2.352
Y2.397
X-71.716 Y2.547
X-71.747 Y2.613
X-71.767 Y2.649
X-71.79 Y2.683
X-71.816 Y2.714
X-71.851 Y2.73 F600
X-71.888 Y2.731
X-71.923 Y2.717
X-71.949 Y2.689
X-71.961 Y2.654
X-71.958 Y2.616
X-71.884 Y2.373
X-71.867 Y2.341
X-71.839 Y2.319
X-71.804 Y2.309
X-71.768 Y2.314
X-71.737 Y2.332
X-71.715 Y2.362
X-71.707 Y2.397
X-71.708 Y2.502 F1000
X-71.714 Y2.54
X-71.725 Y2.577
X-71.74 Y2.615
X-71.763 Y2.652
X-71.779 Y2.674
X-71.816 Y2.714
X-71.854 Y2.745
X-71.892 Y2.768
X-71.929 Y2.784
X-71.967 Y2.795
X-72.005 Y2.8
X-72.042 Y2.802
X-72.08 Y2.799
X-72.117 Y2.791
X-72.155 Y2.779
X-72.398 Y2.652
X-72.988 Y2.352
X-73.133 Y2.28
X-73.434 Y2.135
X-73.585 Y2.078
X-73.674 Y2.051
X-73.735 Y2.036
X-73.886 Y2.009
X-74.036 Y1.984
X-74.788 Y1.865
X-74.939 Y1.841
X-75.39 Y1.813
X-97.361
X-97.812 Y1.817
X-97.963 Y1.829
X-98.113 Y1.849
X-98.865 Y1.968
X-99.317 Y2.047
X-99.467 Y2.095
X-99.618 Y2.157
X-99.768 Y2.228
X-100.671 Y2.688
X-100.822 Y2.771
X-100.874 Y2.803
X-100.972 Y2.874
X-101.068 Y2.953
X-101.123 Y3.003
X-101.228 Y3.104
X-101.875 Y3.751
X-101.981 Y3.868
X-102.209 Y3.964 Z1.599 F600
X-102.428 Y3.843 Z1.7
X-102.477 Y3.817
X-102.476 Y3.624
X-102.475 Y3.404 F1000
X-101.672 Y0.246
G3 X-99.919 Y-1.408 I2.38 J0.767
G1 X-78.099 Y-3.624
X-74.488 Y-3.986 Z1.2
G3 X-72.383 Y-3.213 I0.282 J2.484
G1 X-72.381 Y-3.211
G3 X-71.842 Y-2.318 I-1.824 J1.709
X-71.766 Y-2.049 I-2.363 J0.816 F600
X-71.707 Y-1.589 Z1 I-2.439 J0.547
G1 Y-1.439 F1000
X-71.709 Y-1.401
X-71.802 Y-1.284
X-71.911 Y-1.181
X-72.03 Y-1.09
X-72.178 Y-0.994
X-72.369 Y-0.893
X-72.618 Y-0.786
X-72.949 Y-0.673
X-73.412 Y-0.556
X-74.065 Y-0.446
X-74.724 Y-0.384
X-75.386 Y-0.349
X-76.048 Y-0.329
X-76.71 Y-0.317
X-77.373 Y-0.31
X-78.035 Y-0.307
X-79.36 Y-0.303
X-82.672 Y-0.302
X-101.551
X-101.712 Y-0.262
X-102.011 Y-0.121
X-102.263 Y0.095
X-102.676 Y0.613
X-102.932 Y1.224
X-103.086 Y1.868
X-103.176 Y2.524
X-103.229 Y3.185
X-103.26 Y3.846
X-103.278 Y4.509
X-103.288 Y5.171
X-103.294 Y5.833
X-103.297 Y6.496
X-103.3 Y7.821
X-103.302 Y11.133
Y19.082
Y69.425
Y70.585
X-103.265 Y70.746
X-103.121 Y71.044
X-102.677 Y71.535
X-102.092 Y71.846
X-101.456 Y72.034
X-100.804 Y72.146
X-100.144 Y72.212
X-99.483 Y72.25
X-98.821 Y72.272
X-98.159 Y72.284
X-97.496 Y72.292
X-96.834 Y72.296
X-96.172 Y72.298
X-94.847 Y72.301
X-89.547 Y72.302
X-72.448
X-72.219 Y72.338
X-72.012 Y72.443
X-71.848 Y72.607
X-71.743 Y72.814
X-71.707 Y73.042
X-71.779 Y73.233 Z1.082 F600
X-72.048 Y73.353 Z1.2
X-72.275 Y73.454
X-76.895 Y75.508 F1000
X-78.099 Y75.6
X-100.22 Y75.536
X-102.327 Y75.218
X-103.681 Y74.745
X-104.759 Y74.09
X-105.637 Y73.156
X-106.205 Y72.135
X-106.57 Y70.932
X-106.552 Y4.307
X-106.412 Y1.75
X-106.032 Y0.246
X-105.883 Y-0.205
G3 X-105.637 Y-0.806 I2.418 J0.637
G1 X-104.506 Y-2.311
X-103.38 Y-3.09
X-102.327 Y-3.479
X-100.972 Y-3.617
X-73.284 Y-2.966
G3 X-71.929 Y-2.195 I-0.005 J1.583
G1 X-71.928 Y-2.192
X-71.905 Y-2.153
X-71.849 Y-2.042 F600
X-71.802 Y-1.927
X-71.779 Y-1.859 Z1.171
X-71.707 Y-1.439 Z1
Y-0.988 F1000
X-71.714 Y-0.838
X-71.777 Y-0.702
X-71.856 Y-0.574
X-71.946 Y-0.454
X-72.058 Y-0.329
X-72.192 Y-0.203
X-72.351 Y-0.075
X-72.562 Y0.068
X-72.803 Y0.205
X-73.105 Y0.346
X-73.484 Y0.487
X-73.987 Y0.629
X-74.637 Y0.757
X-75.295 Y0.837
X-75.955 Y0.888
X-76.617 Y0.919
X-77.279 Y0.938
X-77.941 Y0.95
X-78.604 Y0.957
X-79.266 Y0.962
X-79.929 Y0.964
X-81.253 Y0.967
X-85.228 Y0.968
X-99.801
X-100.13 Y1.006
X-100.438 Y1.129
X-100.71 Y1.317
X-101.18 Y1.784
X-101.497 Y2.366
X-101.701 Y2.996
X-101.804 Y3.515
X-101.841 Y3.643
X-101.901 Y3.761
X-101.981 Y3.868
X-102.105 Y4.006
X-102.176 Y4.097
X-102.215 Y4.156
X-102.298 Y4.307
X-102.531 Y4.758
X-102.76 Y5.209
X-102.835 Y5.359
X-102.896 Y5.51
X-102.928 Y5.599
X-102.943 Y5.66
X-103 Y5.961
X-103.028 Y6.111
X-103.123 Y6.713
X-103.169 Y7.014
X-103.179 Y7.164
X-103.186 Y7.465
X-103.188 Y7.615
Y64.465
X-103.186 Y64.615
X-103.158 Y65.066
X-103.079 Y65.568
X-103.016 Y65.969
X-102.99 Y66.119
X-102.964 Y66.27
X-102.92 Y66.42
X-102.862 Y66.57
X-102.717 Y66.871
X-102.643 Y67.022
X-102.533 Y67.267
X-102.422 Y67.582
X-102.305 Y68.019
X-102.187 Y68.67
X-102.153 Y69
X-102.057 Y69.317
X-101.89 Y69.603
X-101.455 Y70.102
X-100.887 Y70.444
X-100.263 Y70.666
X-99.616 Y70.807
X-98.959 Y70.895
X-98.299 Y70.949
X-97.638 Y70.982
X-96.975 Y71.002
X-96.313 Y71.014
X-95.651 Y71.021
X-94.988 Y71.025
X-94.326 Y71.028
X-93.001 Y71.03
X-89.027 Y71.032
X-73.791
X-73.216 Y71.037
X-72.904 Y71.065
X-72.621 Y71.114
X-72.412 Y71.167
X-72.198 Y71.241
X-72.151 Y71.261
X-71.97 Y71.374
X-71.828 Y71.534
X-71.738 Y71.728
X-71.707 Y71.94
X-71.782 Y72.135 Z1.084 F600
X-72.038 Y72.271 Z1.2
X-72.257 Y72.388
X-75.39 Y74.062 F1000
G3 X-76.594 Y74.33 I-1.129 J-2.231
G1 X-97.511 Y74.273
X-100.521 Y73.997
X-102.176 Y73.481
X-102.327 Y73.409
X-102.477 Y73.338
X-103.831 Y72.368
X-104.132 Y72.058
G3 X-104.772 Y70.932 I1.779 J-1.756
G1 X-105.549 Y68.225
G3 X-105.038 Y66.57 I1.521 J-0.436
G1 X-105.035 Y66.568
G3 X-103.144 Y66.476 I1.008 J1.22
G1 X-103.043 Y66.549 F600
X-102.949 Y66.63
G3 X-102.738 Y66.871 Z1.071 I-1.078 J1.158
G1 X-102.643 Y67.022 Z1
X-102.413 Y67.473 F1000
X-102.151 Y67.943
X-101.725 Y68.4
X-101.273 Y68.851
X-101.143 Y68.977
X-100.972 Y69.127
X-100.822 Y69.225
X-100.739 Y69.277
X-99.768 Y69.772
X-99.618 Y69.845
X-99.539 Y69.879
X-99.467 Y69.907
X-99.317 Y69.953
X-98.865 Y70.032
X-98.414 Y70.103
X-98.113 Y70.148
X-97.889 Y70.18
X-97.812 Y70.183
X-97.361 Y70.188
X-75.39 Y70.187
X-74.939 Y70.157
X-74.788 Y70.135
X-74.187 Y70.04
X-73.606 Y69.978
X-73.265 Y69.969
X-72.955 Y69.985
X-72.695 Y70.02
X-72.461 Y70.071
X-72.273 Y70.128
X-72.176 Y70.166
X-71.985 Y70.277
X-71.835 Y70.439
X-71.74 Y70.638
X-71.707 Y70.856
G3 X-72.035 Y71.162 Z1.2 I-0.317 J-0.011 F600
G1 X-72.096 Y71.154
X-72.278 Y71.111
X-74.198 Y70.661 F1000
X-74.254 Y70.642
X-74.305 Y70.614
X-74.352 Y70.575 F600
X-74.391 Y70.526
X-74.42 Y70.472
X-74.438 Y70.412
G3 X-74.187 Y70.04 Z1 I0.312 J-0.06
G1 X-74.036 Y70.016 F1000
X-73.886 Y69.991
X-73.735 Y69.964
X-73.585 Y69.922
X-73.459 Y69.879
X-73.434 Y69.868
X-73.284 Y69.799
X-72.91 Y69.609
X-72.773 Y69.547
X-72.629 Y69.504
X-72.574 Y69.494
X-72.359 Y69.489
X-72.153 Y69.545
X-71.97 Y69.658
X-71.828 Y69.818
X-71.738 Y70.012
X-71.707 Y70.224
G3 X-72.035 Y70.531 Z1.2 I-0.317 J-0.011 F600
G1 X-72.096 Y70.523
X-72.154 Y70.503
X-72.268 Y70.452
X-72.846 Y70.194 F1000
X-72.886 Y70.176 F600
X-72.944 Y70.142
X-72.995 Y70.096
X-73.034 Y70.04
G3 X-72.91 Y69.609 Z1 I0.278 J-0.154
G1 X-72.315 Y69.305 F1000
X-72.285 Y69.29
X-72.261 Y69.277
X-72.125 Y69.213
X-71.966 Y69.239
X-71.83 Y69.325
X-71.739 Y69.457
X-71.707 Y69.615
G3 X-71.917 Y69.933 I-0.366 J-0.013 F600
X-72.261 Y69.277 I-0.157 J-0.336
G1 X-72.155 Y69.222 F1000
X-72.117 Y69.209
X-72.08 Y69.202
X-72.042 Y69.199
X-72.005 Y69.2
X-71.967 Y69.207
X-71.929 Y69.217
X-71.904 Y69.228
X-71.878 Y69.241
X-71.827 Y69.277
X-71.803 Y69.299
X-71.779 Y69.325
X-71.76 Y69.351
X-71.744 Y69.376
X-71.732 Y69.402
X-71.722 Y69.428
X-71.713 Y69.465
X-71.708 Y69.503
X-71.707 Y69.578
Y71.94
X-71.782 Y72.135 Z1.084 F600
X-72.053 Y72.239 Z1.2
X-72.08 Y72.249
X-72.299 Y72.26
X-97.21 Y73.496 F1000
X-97.357
X-98.865 Y73.376
X-100.671 Y72.981
X-102.778 Y71.894
X-103.861 Y70.932
X-104.924 Y69.729
X-105.938 Y67.762
X-106.264 Y66.57
X-106.504 Y64.465
X-106.447 Y6.563
X-106.077 Y4.608
X-104.506 Y0.998
G3 X-104.283 Y0.55 I2.338 J0.886
G1 X-103.38 Y-0.7
X-102.257 Y-1.632
X-101.123 Y-2.119
X-100.069 Y-2.324
X-73.284 Y-2.515
G3 X-71.929 Y-1.743 I-0.005 J1.583
G1 X-71.928 Y-1.741
X-71.905 Y-1.702
X-71.849 Y-1.591 F600
X-71.802 Y-1.476
X-71.779 Y-1.408 Z1.171
X-71.707 Y-0.988 Z1
Y-0.31 F1000
X-71.714 Y-0.16
X-71.747 Y-0.014
X-71.797 Y0.128
X-71.862 Y0.263
X-71.939 Y0.393
X-72.034 Y0.527
X-72.159 Y0.676
X-72.3 Y0.819
X-72.489 Y0.981
X-72.699 Y1.136
X-72.969 Y1.302
X-73.292 Y1.467
X-73.694 Y1.632
X-74.187 Y1.79
X-74.476 Y1.858
X-74.571 Y1.874
X-74.666 Y1.878
X-74.761 Y1.869
G3 X-75.012 Y1.497 Z1.2 I0.061 J-0.312 F600
G1 X-74.995 Y1.438
X-74.967 Y1.384
X-74.928 Y1.336
X-74.882 Y1.296
X-74.879 Y1.295
X-72.26 Y-0.522 F1000
X-72.205 Y-0.56 F600
X-72.152 Y-0.589
X-72.095 Y-0.608
X-72.035 Y-0.616
G3 X-71.707 Y-0.31 Z1 I0.011 J0.317
G1 Y0.63 F1000
X-71.714 Y0.779
X-71.742 Y0.927
X-71.787 Y1.07
X-71.844 Y1.208
X-71.917 Y1.347
X-72.013 Y1.5
X-72.127 Y1.652
X-72.279 Y1.824
X-72.448 Y1.988
X-72.56 Y2.08
X-72.739 Y2.189
X-72.941 Y2.243
X-73.151 Y2.238
X-73.351 Y2.175
G3 X-73.485 Y1.747 Z1.2 I0.147 J-0.281 F600
G1 X-73.462 Y1.71
X-73.435 Y1.676
X-73.324 Y1.559
X-72.255 Y0.423 F1000
X-72.209 Y0.382 F600
X-72.155 Y0.351
X-72.096 Y0.331
X-72.035 Y0.323
G3 X-71.707 Y0.63 Z1 I0.011 J0.317
