(adap1)
(T6 D=3.175 CR=0 - ZMIN=0 - flat end mill)
G90 G94
G17
G21
G28 G91 Z0
G90

(Adaptive1 5)
T6
(18 Flat-45 degree helix)
S18000 M3
G17 G90 G94
G54
G0 X-87.422 Y36.44
Z26
G0 Z16
Z6.3
G3 X-86.793 Y35.022 Z6.238 I0.922 J-0.439 F600
X-85.49 Y35.862 Z6.177 I0.292 J0.977
X-86.521 Y37.018 Z6.115 I-1.01 J0.137
X-87.502 Y35.822 Z6.054 I0.021 J-1.018
X-86.171 Y35.038 Z5.992 I1.001 J0.177
X-85.602 Y36.473 Z5.931 I-0.329 J0.961
X-87.106 Y36.813 Z5.869 I-0.897 J-0.473
X-87.21 Y35.276 Z5.808 I0.606 J-0.813
X-85.677 Y35.411 Z5.746 I0.709 J0.723
X-86.047 Y36.903 Z5.685 I-0.823 J0.588
X-87.462 Y36.308 Z5.623 I-0.453 J-0.903
X-86.657 Y35.003 Z5.562 I0.961 J-0.308
X-85.493 Y35.999 Z5.5 I0.156 J0.996
X-87.509 Y35.999 I-1.008 J0
X-85.493 Y35.999 I1.008 J0
G1 X-85.456 Y36.66 F1000
X-85.457 Y36.743
X-85.477 Y36.892
X-85.527 Y37.033
X-85.6 Y37.164
X-85.692 Y37.283
X-85.8 Y37.387
X-85.92 Y37.477
X-86.05 Y37.551
X-86.189 Y37.609
X-86.333 Y37.652
X-86.48 Y37.679
X-86.63 Y37.69
X-86.78 Y37.686
X-86.928 Y37.667
X-87.075 Y37.635
X-87.217 Y37.588
X-87.355 Y37.528
X-87.486 Y37.456
X-87.611 Y37.372
X-87.727 Y37.277
X-87.834 Y37.173
X-87.932 Y37.059
X-88.02 Y36.937
X-88.096 Y36.808
X-88.161 Y36.673
X-88.214 Y36.532
X-88.255 Y36.388
X-88.284 Y36.241
X-88.3 Y36.092
X-88.303 Y35.942
X-88.293 Y35.792
X-88.271 Y35.644
X-88.237 Y35.498
X-88.19 Y35.355
X-88.132 Y35.217
X-88.062 Y35.084
X-87.982 Y34.957
X-87.891 Y34.838
X-87.791 Y34.727
X-87.681 Y34.624
X-87.564 Y34.531
X-87.439 Y34.447
X-87.308 Y34.375
X-87.171 Y34.314
X-87.029 Y34.264
X-86.884 Y34.226
X-86.736 Y34.2
X-86.587 Y34.186
X-86.437 Y34.185
X-86.288 Y34.197
X-86.139 Y34.22
X-85.994 Y34.256
X-85.852 Y34.304
X-85.714 Y34.363
X-85.581 Y34.434
X-85.455 Y34.515
X-85.336 Y34.606
X-85.225 Y34.707
X-85.123 Y34.817
X-85.026 Y34.939
X-84.919 Y35.1
X-84.803 Y35.308
X-84.703 Y35.529
X-84.628 Y35.738
X-84.574 Y35.933
X-84.538 Y36.124
X-84.52 Y36.3
X-84.515 Y36.481
X-84.524 Y36.649
X-84.547 Y36.819
X-84.583 Y36.983
X-84.631 Y37.139
X-84.693 Y37.297
X-84.766 Y37.445
X-84.85 Y37.586
X-84.949 Y37.725
X-85.058 Y37.855
X-85.175 Y37.974
X-85.307 Y38.088
X-85.449 Y38.192
X-85.598 Y38.283
X-85.754 Y38.363
X-85.922 Y38.432
X-86.097 Y38.488
X-86.277 Y38.531
X-86.46 Y38.558
X-86.647 Y38.571
X-86.838 Y38.569
X-87.031 Y38.552
X-87.224 Y38.518
X-87.415 Y38.469
X-87.602 Y38.405
X-87.784 Y38.325
X-87.962 Y38.23
X-88.132 Y38.119
X-88.296 Y37.994
X-88.449 Y37.856
X-88.593 Y37.704
X-88.724 Y37.54
X-88.842 Y37.366
X-88.946 Y37.183
X-89.036 Y36.99
X-89.109 Y36.791
X-89.167 Y36.586
X-89.209 Y36.376
X-89.233 Y36.162
X-89.24 Y35.947
X-89.23 Y35.73
X-89.203 Y35.515
X-89.158 Y35.302
X-89.096 Y35.092
X-89.017 Y34.888
X-88.922 Y34.691
X-88.811 Y34.501
X-88.685 Y34.321
X-88.545 Y34.151
X-88.392 Y33.993
X-88.226 Y33.848
X-88.05 Y33.716
X-87.863 Y33.599
X-87.667 Y33.497
X-87.463 Y33.411
X-87.253 Y33.342
X-87.039 Y33.29
X-86.82 Y33.255
X-86.6 Y33.238
X-86.379
X-86.158 Y33.256
X-85.94 Y33.292
X-85.725 Y33.346
X-85.515 Y33.416
X-85.311 Y33.503
X-85.114 Y33.607
X-84.918 Y33.731
X-84.722 Y33.879
X-84.53 Y34.049
X-84.349 Y34.238
X-84.18 Y34.445
X-84.027 Y34.667
X-83.892 Y34.901
X-83.777 Y35.143
X-83.683 Y35.391
X-83.609 Y35.643
X-83.557 Y35.898
X-83.526 Y36.153
X-83.515 Y36.408
X-83.525 Y36.661
X-83.555 Y36.911
X-83.604 Y37.158
X-83.674 Y37.399
X-83.762 Y37.633
X-83.869 Y37.86
X-83.994 Y38.078
X-84.136 Y38.286
X-84.295 Y38.482
X-84.47 Y38.665
X-84.661 Y38.835
X-84.865 Y38.99
X-85.083 Y39.129
X-85.312 Y39.251
X-85.552 Y39.354
X-85.801 Y39.439
X-86.058 Y39.503
X-86.321 Y39.548
X-86.589 Y39.571
X-86.86 Y39.572
X-87.132 Y39.552
X-87.403 Y39.51
X-87.672 Y39.445
X-87.936 Y39.359
X-88.195 Y39.251
X-88.446 Y39.121
X-88.687 Y38.971
X-88.917 Y38.801
X-89.133 Y38.612
X-89.335 Y38.405
X-89.52 Y38.182
X-89.687 Y37.944
X-89.835 Y37.693
X-89.963 Y37.429
X-90.07 Y37.155
X-90.155 Y36.872
X-90.217 Y36.583
X-90.255 Y36.288
X-90.27 Y35.991
X-90.261 Y35.692
X-90.228 Y35.395
X-90.171 Y35.1
X-90.091 Y34.811
X-89.987 Y34.528
X-89.861 Y34.255
X-89.713 Y33.991
X-89.544 Y33.741
X-89.355 Y33.504
X-89.148 Y33.283
X-88.923 Y33.08
X-88.683 Y32.894
X-88.429 Y32.729
X-88.162 Y32.585
X-87.884 Y32.462
X-87.597 Y32.362
X-87.302 Y32.285
X-87.003 Y32.232
X-86.7 Y32.204
X-86.395 Y32.199
X-86.092 Y32.22
X-85.79 Y32.264
X-85.491 Y32.333
X-85.194 Y32.427
X-84.901 Y32.547
X-84.613 Y32.693
X-84.333 Y32.864
X-84.064 Y33.06
X-83.809 Y33.279
X-83.569 Y33.52
X-83.348 Y33.782
X-83.148 Y34.062
X-82.97 Y34.358
X-82.817 Y34.667
X-82.69 Y34.987
X-82.588 Y35.316
X-82.514 Y35.65
X-82.467 Y35.988
X-82.447 Y36.328
X-82.455 Y36.667
X-82.489 Y37.004
X-82.551 Y37.337
X-82.639 Y37.663
X-82.752 Y37.981
X-82.892 Y38.29
X-83.055 Y38.586
X-83.242 Y38.869
X-83.452 Y39.136
X-83.683 Y39.387
X-83.934 Y39.619
X-84.205 Y39.831
X-84.492 Y40.021
X-84.795 Y40.188
X-85.112 Y40.331
X-85.441 Y40.449
X-85.78 Y40.54
X-86.127 Y40.604
X-86.48 Y40.64
X-86.836 Y40.648
X-87.195 Y40.627
X-87.552 Y40.578
X-87.906 Y40.499
X-88.254 Y40.391
X-88.595 Y40.255
X-88.925 Y40.092
X-89.243 Y39.902
X-89.545 Y39.685
X-89.83 Y39.444
X-90.096 Y39.181
X-90.341 Y38.895
X-90.563 Y38.59
X-90.761 Y38.267
X-90.932 Y37.928
X-91.076 Y37.575
X-91.192 Y37.211
X-91.278 Y36.838
X-91.334 Y36.458
X-91.36 Y36.074
X-91.355 Y35.688
X-91.318 Y35.304
X-91.251 Y34.922
X-91.153 Y34.547
X-91.025 Y34.181
X-90.868 Y33.825
X-90.683 Y33.482
X-90.471 Y33.156
X-90.233 Y32.847
X-89.97 Y32.558
X-89.685 Y32.29
X-89.38 Y32.047
X-89.055 Y31.828
X-88.714 Y31.636
X-88.358 Y31.472
X-87.991 Y31.337
X-87.613 Y31.232
X-87.228 Y31.158
X-86.838 Y31.114
X-86.445 Y31.102
X-86.051 Y31.122
X-85.658 Y31.174
X-85.266 Y31.257
X-84.879 Y31.373
X-84.498 Y31.522
X-84.127 Y31.702
X-83.768 Y31.913
X-83.425 Y32.154
X-83.099 Y32.425
X-82.794 Y32.722
X-82.512 Y33.045
X-82.257 Y33.39
X-82.029 Y33.756
X-81.832 Y34.139
X-81.666 Y34.536
X-81.532 Y34.946
X-81.431 Y35.364
X-81.365 Y35.789
X-81.333 Y36.217
X-81.336 Y36.646
X-81.372 Y37.073
X-81.443 Y37.496
X-81.548 Y37.911
X-81.686 Y38.317
X-81.855 Y38.71
X-82.057 Y39.089
X-82.288 Y39.452
X-82.548 Y39.795
X-82.835 Y40.117
X-83.148 Y40.415
X-83.485 Y40.688
X-83.844 Y40.934
X-84.222 Y41.151
X-84.619 Y41.338
X-85.03 Y41.493
X-85.454 Y41.615
X-85.888 Y41.702
X-86.33 Y41.755
X-86.777 Y41.772
X-87.225 Y41.754
X-87.672 Y41.699
X-88.116 Y41.608
X-88.552 Y41.481
X-88.979 Y41.319
X-89.393 Y41.122
X-89.791 Y40.892
X-90.171 Y40.63
X-90.53 Y40.337
X-90.865 Y40.015
X-91.174 Y39.666
X-91.456 Y39.293
X-91.707 Y38.897
X-91.926 Y38.481
X-92.111 Y38.047
X-92.262 Y37.599
X-92.376 Y37.14
X-92.453 Y36.671
X-92.492 Y36.197
X-92.493 Y35.721
X-92.456 Y35.245
X-92.381 Y34.773
X-92.268 Y34.308
X-92.118 Y33.853
X-91.931 Y33.411
X-91.71 Y32.985
X-91.454 Y32.577
X-91.167 Y32.192
X-90.849 Y31.83
X-90.503 Y31.494
X-90.131 Y31.187
X-89.735 Y30.911
X-89.319 Y30.668
X-88.884 Y30.458
X-88.433 Y30.285
X-87.969 Y30.147
X-87.496 Y30.048
X-87.016 Y29.986
X-86.531 Y29.964
X-86.043 Y29.98
X-85.556 Y30.036
X-85.072 Y30.131
X-84.594 Y30.265
X-84.125 Y30.439
X-83.668 Y30.652
X-83.226 Y30.902
X-82.803 Y31.189
X-82.403 Y31.51
X-82.027 Y31.865
X-81.68 Y32.25
X-81.364 Y32.662
X-81.082 Y33.1
X-80.835 Y33.56
X-80.626 Y34.038
X-80.455 Y34.531
X-80.325 Y35.037
X-80.236 Y35.551
X-80.189 Y36.07
X-80.183 Y36.591
X-80.22 Y37.111
X-80.297 Y37.626
X-80.416 Y38.133
X-80.576 Y38.63
X-80.774 Y39.112
X-81.011 Y39.577
X-81.285 Y40.021
X-81.594 Y40.444
X-81.937 Y40.84
X-82.311 Y41.209
X-82.714 Y41.547
X-83.144 Y41.853
X-83.522 Y42.078
X-83.553 Y42.094
X-83.999 Y42.318
X-84.073 Y42.354
X-84.148 Y42.376
X-85.351 Y42.699
X-85.427 Y42.717
X-85.652 Y42.73
X-86.705 Y42.791
X-86.856 Y42.801
X-87.31 Y42.811
X-87.737 Y42.787
X-88.191 Y42.723
X-88.663 Y42.619
X-89.142 Y42.471
X-89.62 Y42.281
X-90.089 Y42.049
X-90.545 Y41.776
X-90.983 Y41.463
X-91.399 Y41.112
X-91.79 Y40.725
X-92.151 Y40.304
X-92.479 Y39.853
X-92.772 Y39.375
X-93.026 Y38.874
X-93.239 Y38.352
X-93.411 Y37.813
X-93.539 Y37.261
X-93.622 Y36.699
X-93.66 Y36.131
X-93.652 Y35.561
X-93.599 Y34.993
X-93.558 Y34.76
X-93.522 Y34.628
X-93.463 Y34.506
X-93.382 Y34.396
X-93.325 Y34.332
X-93.227 Y34.195
X-93.128 Y34.044
X-93.024 Y33.866
X-92.867 Y33.593
X-92.261 Y32.389
X-92.241 Y32.352
X-92.214 Y32.314
X-91.411 Y31.295
X-91.369 Y31.253
X-90.403 Y30.434
X-90.359 Y30.399
X-90.316 Y30.372
X-89.188 Y29.753
X-89.15 Y29.736
X-89.113 Y29.723
X-87.909 Y29.349
X-87.834 Y29.331
X-87.458 Y29.293
X-86.555 Y29.202
X-86.48 Y29.198
X-85.201 Y29.327
X-85.126 Y29.339
X-84.75 Y29.455
X-83.997 Y29.689
X-83.847 Y29.737
X-83.668 Y29.832
X-82.794 Y30.312
X-82.643 Y30.398
X-82.597 Y30.434
X-81.709 Y31.186
X-81.59 Y31.293
X-80.782 Y32.319
X-80.739 Y32.389
X-80.133 Y33.593
X-80.055 Y33.743
X-79.965 Y33.894
X-79.871 Y34.044
X-79.774 Y34.195
X-79.659 Y34.372
X-79.529 Y34.612
X-79.412 Y34.877
X-79.297 Y35.207
X-79.206 Y35.553
X-79.134 Y35.964
X-79.09 Y36.427
X-79.082 Y36.911
X-79.085 Y36.944
X-79.128 Y37.155
X-79.227 Y37.346
X-79.373 Y37.504
X-79.556 Y37.655
X-79.634 Y37.729
X-79.705 Y37.805
X-79.785 Y37.908
X-79.819 Y37.956
X-80.019 Y38.257
X-80.086 Y38.363
X-80.112 Y38.407
X-80.838 Y39.764
X-80.86 Y39.801
X-80.888 Y39.838
X-81.702 Y40.814
X-81.741 Y40.859
X-81.891 Y40.983
X-82.816 Y41.717
X-82.848 Y41.738
X-83.103 Y41.867
X-83.553 Y42.094
X-83.62 Y42.116 Z5.528 F600
X-84.039 Y42.205 Z5.7
X-84.281 Y42.256
X-86.125 Y42.648 F1000
X-86.368 Y42.699 F600
X-86.824 Y42.796 Z5.513
X-86.856 Y42.801 Z5.5
X-87.157 Y42.823 F1000
X-87.307 Y42.835
X-87.458 Y42.861
X-87.608 Y42.899
X-87.679 Y42.92
X-87.759 Y42.946
X-88.059 Y43.058
X-88.087 Y43.071
X-88.155 Y43.107
X-88.29 Y43.172
X-88.432 Y43.22
X-88.586 Y43.257
X-88.771 Y43.285
X-88.964 Y43.3
X-89.202 Y43.298
X-89.454 Y43.276
X-89.752 Y43.225
X-90.065 Y43.146
X-90.432 Y43.021
X-90.798 Y42.862
X-91.199 Y42.649
X-91.625 Y42.376
X-92.059 Y42.046
X-92.48 Y41.669
X-92.88 Y41.249
X-93.261 Y40.777
X-93.614 Y40.261
X-93.931 Y39.706
X-94.206 Y39.121
X-94.435 Y38.51
X-94.615 Y37.879
X-94.744 Y37.232
X-94.822 Y36.575
X-94.846 Y35.934
X-94.837 Y35.737
X-94.798 Y35.532
X-94.703 Y35.347
X-94.559 Y35.197
X-94.378 Y35.094
X-94.228 Y35.028
X-94.077 Y34.945
X-93.927 Y34.842
X-93.551 Y34.572
X-93.513 Y34.54
X-93.47 Y34.496
X-93.382 Y34.396
G3 X-92.933 Y34.385 Z5.7 I0.23 J0.219 F600
G1 X-92.904 Y34.418
X-92.879 Y34.454
X-92.797 Y34.592
X-88.167 Y42.459 F1000
X-88.042 Y42.673 F600
X-88.041
G3 X-88.155 Y43.107 Z5.5 I-0.274 J0.161
G1 X-88.21 Y43.137 F1000
X-88.36 Y43.232
X-88.511 Y43.334
X-88.564 Y43.372
X-88.661 Y43.443
X-88.879 Y43.626
X-88.999 Y43.717
X-89.13 Y43.789
X-89.268 Y43.848
X-89.411 Y43.893
X-89.578 Y43.932
X-89.758 Y43.959
X-89.972 Y43.973
X-90.196 Y43.97
X-90.463 Y43.945
X-90.74 Y43.897
X-91.062 Y43.813
X-91.407 Y43.693
X-91.775 Y43.531
X-92.185 Y43.309
X-92.609 Y43.034
X-93.025 Y42.714
X-93.458 Y42.322
X-93.89 Y41.862
X-94.304 Y41.344
X-94.674 Y40.795
X-95.003 Y40.22
X-95.288 Y39.622
X-95.529 Y39.005
X-95.723 Y38.371
X-95.87 Y37.726
X-95.972 Y37.071
X-96.006 Y36.647
Y36.358
X-95.985 Y36.092
X-95.95 Y35.875
X-95.942 Y35.843
X-95.852 Y35.631
X-95.702 Y35.456
X-95.505 Y35.335
X-95.281 Y35.282
X-95.131 Y35.27
X-94.98 Y35.241
X-94.83 Y35.209
X-94.529 Y35.139
X-94.386 Y35.097
X-94.378 Y35.094
G3 X-94.006 Y35.221 Z5.67 I0.105 J0.299 F600
G1 X-93.966 Y35.284 Z5.7
X-93.831 Y35.492
X-88.987 Y42.967 F1000
X-88.852 Y43.176 F600
X-88.825 Y43.217 Z5.68
G3 X-88.879 Y43.626 Z5.5 I-0.266 J0.173
G1 X-89.714 Y44.327 F1000
X-89.834 Y44.417
X-89.965 Y44.491
X-90.102 Y44.55
X-90.245 Y44.598
X-90.413 Y44.64
X-90.598 Y44.67
X-90.809 Y44.687
X-91.041
X-91.304 Y44.666
X-91.589 Y44.621
X-91.919 Y44.54
X-92.251 Y44.43
X-92.632 Y44.269
X-93.041 Y44.055
X-93.448 Y43.799
X-93.895 Y43.465
X-94.361 Y43.055
X-94.821 Y42.579
X-95.242 Y42.067
X-95.624 Y41.525
X-95.965 Y40.958
X-96.266 Y40.368
X-96.527 Y39.759
X-96.748 Y39.134
X-96.928 Y38.497
X-97.068 Y37.85
X-97.14 Y37.324
X-97.164 Y36.891
X-97.157 Y36.58
X-97.128 Y36.308
X-97.089 Y36.099
X-97.029 Y35.88
X-96.992 Y35.777
X-96.884 Y35.579
X-96.721 Y35.422
X-96.518 Y35.322
X-96.295 Y35.287
X-95.432
X-95.281 Y35.282
G3 X-95.011 Y35.43 Z5.629 I0.001 J0.317 F600
G1 X-94.917 Y35.58 Z5.7
X-94.784 Y35.79
X-89.819 Y43.666 F1000
X-89.687 Y43.876 F600
X-89.658 Y43.922 Z5.678
G3 X-89.714 Y44.327 Z5.5 I-0.269 J0.169
G1 X-90.548 Y45.026 F1000
X-90.668 Y45.117
X-90.796 Y45.194
X-90.933 Y45.257
X-91.074 Y45.308
X-91.237 Y45.352
X-91.419 Y45.386
X-91.625 Y45.408
X-91.856 Y45.414
X-92.113 Y45.399
X-92.398 Y45.36
X-92.72 Y45.29
X-93.048 Y45.189
X-93.434 Y45.037
X-93.832 Y44.84
X-94.258 Y44.586
X-94.728 Y44.252
X-95.211 Y43.846
X-95.683 Y43.381
X-96.116 Y42.88
X-96.511 Y42.348
X-96.869 Y41.79
X-97.19 Y41.211
X-97.475 Y40.613
X-97.724 Y39.999
X-97.937 Y39.372
X-98.113 Y38.733
X-98.243 Y38.088
X-98.308 Y37.55
X-98.326 Y37.099
X-98.31 Y36.702
X-98.273 Y36.397
X-98.218 Y36.129
X-98.159 Y35.925
X-98.078 Y35.711
X-97.963 Y35.537
X-97.804 Y35.402
X-97.614 Y35.317
X-97.408 Y35.287
X-96.295
G3 X-96.034 Y35.441 Z5.626 I-0.011 J0.317 F600
G1 X-95.94 Y35.598 Z5.7
X-95.811 Y35.81
X-90.648 Y44.362 F1000
X-90.52 Y44.575 F600
X-90.489 Y44.626 Z5.676
G3 X-90.548 Y45.026 Z5.5 I-0.272 J0.164
G1 X-91.445 Y45.779 F1000
X-91.564 Y45.869
X-91.695 Y45.942
X-91.833 Y46.002
X-91.979 Y46.052
X-92.152 Y46.095
X-92.337 Y46.126
X-92.561 Y46.145
X-92.793 Y46.146
X-93.069 Y46.126
X-93.358 Y46.08
X-93.687 Y46.001
X-94.051 Y45.882
X-94.433 Y45.722
X-94.874 Y45.494
X-95.331 Y45.209
X-95.797 Y44.864
X-96.289 Y44.434
X-96.752 Y43.959
X-97.178 Y43.452
X-97.57 Y42.918
X-97.927 Y42.361
X-98.252 Y41.783
X-98.543 Y41.188
X-98.801 Y40.578
X-99.025 Y39.955
X-99.212 Y39.319
X-99.36 Y38.673
X-99.456 Y38.049
X-99.496 Y37.511
X-99.492 Y37.025
X-99.456 Y36.613
X-99.406 Y36.315
X-99.337 Y36.042
X-99.267 Y35.838
X-99.222 Y35.734
X-99.109 Y35.551
X-98.949 Y35.409
X-98.754 Y35.319
X-98.542 Y35.287
X-97.408
G3 X-97.145 Y35.446 Z5.629 I-0.011 J0.317 F600
G1 X-97.055 Y35.599 Z5.7
X-96.931 Y35.814
X-91.54 Y45.112 F1000
X-91.415 Y45.327 F600
X-91.382 Y45.383 Z5.674
G3 X-91.445 Y45.779 Z5.5 I-0.275 J0.159
G1 X-92.272 Y46.473 F1000
X-92.392 Y46.563
X-92.519 Y46.643
X-92.653 Y46.709
X-92.795 Y46.763
X-92.952 Y46.809
X-93.14 Y46.848
X-93.338 Y46.872
X-93.577 Y46.883
X-93.824 Y46.873
X-94.123 Y46.838
X-94.431 Y46.776
X-94.788 Y46.674
X-95.18 Y46.527
X-95.582 Y46.338
X-96.044 Y46.075
X-96.534 Y45.739
X-97.025 Y45.342
X-97.505 Y44.886
X-97.95 Y44.395
X-98.361 Y43.876
X-98.74 Y43.333
X-99.088 Y42.769
X-99.405 Y42.187
X-99.692 Y41.59
X-99.947 Y40.979
X-100.171 Y40.355
X-100.361 Y39.721
X-100.513 Y39.076
X-100.622 Y38.423
X-100.676 Y37.808
X-100.68 Y37.262
X-100.646 Y36.792
X-100.591 Y36.435
X-100.518 Y36.127
X-100.446 Y35.904
X-100.38 Y35.744
X-100.268 Y35.558
X-100.107 Y35.412
X-99.91 Y35.319
X-99.695 Y35.287
X-98.542
G3 X-98.278 Y35.447 Z5.63 I-0.011 J0.317 F600
G1 X-98.191 Y35.6 Z5.7
X-98.068 Y35.815
X-92.365 Y45.805 F1000
X-92.242 Y46.021 F600
X-92.209 Y46.08 Z5.673
G3 X-92.272 Y46.473 Z5.5 I-0.276 J0.157
G1 X-93.175 Y47.23 F1000
X-93.294 Y47.321
X-93.417 Y47.407
X-93.549 Y47.479
X-93.687 Y47.538
X-93.829 Y47.586
X-93.974 Y47.623
X-94.122 Y47.651
X-94.271 Y47.669
X-94.42 Y47.679
X-94.57 Y47.68
X-94.72 Y47.675
X-94.87 Y47.663
X-95.018 Y47.644
X-95.166 Y47.619
X-95.313 Y47.589
X-95.459 Y47.554
X-95.604 Y47.513
X-95.746 Y47.468
X-95.888 Y47.418
X-96.028 Y47.365
X-96.167 Y47.307
X-96.304 Y47.246
X-96.439 Y47.181
X-96.573 Y47.113
X-96.705 Y47.042
X-96.835 Y46.968
X-96.964 Y46.891
X-97.091 Y46.811
X-97.216 Y46.728
X-97.34 Y46.644
X-97.462 Y46.556
X-97.582 Y46.466
X-97.7 Y46.374
X-97.816 Y46.279
X-97.932 Y46.183
X-98.045 Y46.085
X-98.156 Y45.985
X-98.266 Y45.883
X-98.374 Y45.779
X-98.481 Y45.673
X-98.586 Y45.566
X-98.689 Y45.457
X-98.791 Y45.347
X-98.891 Y45.235
X-98.99 Y45.122
X-99.087 Y45.008
X-99.182 Y44.892
X-99.276 Y44.775
X-99.368 Y44.657
X-99.459 Y44.537
X-99.548 Y44.416
X-99.635 Y44.295
X-99.721 Y44.172
X-99.806 Y44.048
X-99.889 Y43.923
X-99.971 Y43.797
X-100.05 Y43.67
X-100.129 Y43.542
X-100.206 Y43.414
X-100.282 Y43.284
X-100.356 Y43.154
X-100.428 Y43.022
X-100.499 Y42.89
X-100.569 Y42.757
X-100.637 Y42.624
X-100.704 Y42.489
X-100.769 Y42.354
X-100.832 Y42.218
X-100.895 Y42.082
X-100.955 Y41.945
X-101.014 Y41.807
X-101.072 Y41.668
X-101.128 Y41.529
X-101.183 Y41.39
X-101.236 Y41.249
X-101.287 Y41.108
X-101.337 Y40.967
X-101.385 Y40.825
X-101.432 Y40.682
X-101.476 Y40.539
X-101.519 Y40.395
X-101.56 Y40.251
X-101.6 Y40.106
X-101.638 Y39.961
X-101.673 Y39.815
X-101.707 Y39.669
X-101.739 Y39.523
X-101.768 Y39.376
X-101.796 Y39.228
X-101.822 Y39.08
X-101.845 Y38.932
X-101.866 Y38.784
X-101.885 Y38.635
X-101.902 Y38.486
X-101.915 Y38.336
X-101.927 Y38.187
X-101.936 Y38.037
X-101.942 Y37.887
X-101.945 Y37.737
X-101.946 Y37.587
X-101.943 Y37.437
X-101.938 Y37.287
X-101.929 Y37.138
X-101.916 Y36.988
X-101.9 Y36.839
X-101.881 Y36.69
X-101.857 Y36.542
X-101.829 Y36.395
X-101.795 Y36.249
X-101.756 Y36.104
X-101.712 Y35.961
X-101.661 Y35.82
X-101.602 Y35.681
X-101.594 Y35.664
X-101.459 Y35.47
X-101.27 Y35.329
X-101.046 Y35.254
X-100.81
X-100.697 Y35.272
X-100.547 Y35.285
X-100.396 Y35.287
X-99.695
G3 X-99.429 Y35.451 Z5.631 I-0.011 J0.317 F600
G1 X-99.346 Y35.601 Z5.7
X-99.225 Y35.818
X-93.265 Y46.561 F1000
X-93.144 Y46.778 F600
X-93.11 Y46.84 Z5.671
G3 X-93.175 Y47.23 Z5.5 I-0.278 J0.154
G1 X-94.134 Y48.035 F1000
X-94.253 Y48.126
X-94.383 Y48.201
X-94.519 Y48.264
X-94.666 Y48.316
X-94.833 Y48.361
X-95.024 Y48.396
X-95.241 Y48.418
X-95.481 Y48.423
X-95.753 Y48.407
X-96.057 Y48.364
X-96.391 Y48.289
X-96.762 Y48.174
X-97.17 Y48.011
X-97.617 Y47.789
X-98.099 Y47.499
X-98.619 Y47.127
X-99.124 Y46.699
X-99.598 Y46.235
X-100.041 Y45.743
X-100.454 Y45.226
X-100.84 Y44.687
X-101.197 Y44.129
X-101.362 Y43.842
X-101.718 Y43.187
X-102.005 Y42.59
X-102.07 Y42.438
X-102.133 Y42.284
G3 X-101.944 Y41.877 Z5.7 I0.298 J-0.11 F600
G1 X-101.884 Y41.861
X-101.823 Y41.858
X-101.761 Y41.866
X-101.703 Y41.886
X-101.644 Y41.921 F1000
X-94.305 Y47.433
X-94.156 Y47.545 F600
X-94.11 Y47.587
G3 X-94.134 Y48.035 Z5.5 I-0.236 J0.212
G1 X-94.98 Y48.745 F1000
X-95.101 Y48.837
X-95.228 Y48.918
X-95.362 Y48.985
X-95.502 Y49.04
X-95.661 Y49.088
X-95.85 Y49.128
X-96.05 Y49.155
X-96.293 Y49.168
X-96.545 Y49.161
X-96.849 Y49.128
X-97.165 Y49.068
X-97.533 Y48.966
X-97.937 Y48.819
X-98.365 Y48.623
X-98.852 Y48.35
X-99.376 Y48
X-99.895 Y47.588
X-100.382 Y47.139
X-100.838 Y46.659
X-101.266 Y46.153
X-101.415 Y45.954
X-101.807 Y45.42
X-101.898 Y45.281
G3 X-101.789 Y44.846 Z5.7 I0.272 J-0.163 F600
G1 X-101.733 Y44.819
X-101.673 Y44.804
X-101.611 Y44.801
X-101.549 Y44.81
X-101.512 Y44.821 F1000
X-101.477 Y44.837
X-95.165 Y48.165
X-95.045 Y48.228 F600
X-94.997 Y48.259
X-94.957 Y48.297
G3 X-94.98 Y48.745 Z5.5 I-0.236 J0.212
G1 X-95.883 Y49.503 F1000
X-96.002 Y49.593
X-96.124 Y49.682
X-96.254 Y49.756
X-96.39 Y49.819
X-96.532 Y49.869
X-96.676 Y49.909
X-96.823 Y49.939
X-96.972 Y49.959
X-97.121 Y49.972
X-97.271 Y49.976
X-97.421 Y49.973
X-97.571 Y49.964
X-97.72 Y49.948
X-97.868 Y49.926
X-98.016 Y49.898
X-98.162 Y49.865
X-98.307 Y49.828
X-98.451 Y49.785
X-98.594 Y49.738
X-98.735 Y49.687
X-98.875 Y49.633
X-99.013 Y49.575
X-99.149 Y49.513
X-99.285 Y49.448
X-99.418 Y49.38
X-99.55 Y49.309
X-99.681 Y49.235
X-99.81 Y49.158
X-99.937 Y49.078
X-100.063 Y48.997
X-100.187 Y48.913
X-100.31 Y48.826
X-100.43 Y48.737
X-100.55 Y48.647
X-100.668 Y48.554
X-100.784 Y48.459
X-100.899 Y48.363
X-101.012 Y48.264
X-101.124 Y48.164
X-101.234 Y48.063
X-101.343 Y47.96
X-101.45 Y47.855
X-101.556 Y47.748
X-101.66 Y47.64
X-101.763 Y47.531
X-101.819 Y47.47
G3 X-101.784 Y47.023 Z5.7 I0.241 J-0.206 F600
G1 X-101.734 Y46.987
X-101.677 Y46.962
X-101.616 Y46.949
X-101.555 Y46.947
X-101.511 Y46.953 F1000
X-101.469 Y46.965
X-96.074 Y48.937
X-95.986 Y48.969 F600
X-95.939 Y48.99
X-95.897 Y49.019
X-95.859 Y49.055
G3 X-95.883 Y49.503 Z5.5 I-0.236 J0.212
G1 X-96.823 Y50.292 F1000
X-96.956 Y50.392
X-97.076 Y50.482
X-97.206 Y50.558
X-97.342 Y50.621
X-97.483 Y50.672
X-97.627 Y50.713
X-97.774 Y50.744
X-97.922 Y50.765
X-98.072 Y50.778
X-98.222 Y50.783
X-98.372 Y50.781
X-98.521 Y50.771
X-98.671 Y50.756
X-98.819 Y50.734
X-98.967 Y50.707
X-99.113 Y50.675
X-99.258 Y50.638
X-99.402 Y50.596
X-99.545 Y50.549
X-99.686 Y50.499
X-99.826 Y50.445
X-99.965 Y50.387
X-100.102 Y50.326
X-100.237 Y50.262
X-100.371 Y50.194
X-100.503 Y50.123
X-100.634 Y50.05
X-100.763 Y49.974
X-100.891 Y49.895
X-101.017 Y49.814
X-101.142 Y49.731
X-101.265 Y49.645
X-101.387 Y49.557
X-101.507 Y49.468
X-101.626 Y49.376
X-101.755 Y49.272
X-101.904 Y49.2
X-102.065 Y49.163
X-102.231 Y49.162
X-102.393 Y49.199
X-102.542 Y49.27
X-102.606 Y49.321
X-102.725 Y49.378
X-102.857 Y49.377
X-102.976 Y49.32
X-103.058 Y49.217
X-103.088 Y49.088
G3 X-102.759 Y48.782 Z5.7 I0.317 J0.011 F600
G1 X-102.718 Y48.786
X-102.514 Y48.82
X-97.017 Y49.737 F1000
X-96.983 Y49.743 F600
X-96.915 Y49.762
X-96.853 Y49.796
X-96.799 Y49.844
G3 X-96.823 Y50.292 Z5.5 I-0.236 J0.212
G1 X-97.839 Y51.144 F1000
X-97.958 Y51.234
X-98.088 Y51.31
X-98.225 Y51.372
X-98.375 Y51.425
X-98.546 Y51.471
X-98.742 Y51.507
X-98.962 Y51.53
X-99.212 Y51.535
X-99.492 Y51.518
X-99.805 Y51.474
X-100.157 Y51.396
X-100.548 Y51.275
X-101.163 Y51.029
X-101.323 Y50.989
X-101.485 Y50.953
X-101.651 Y50.955
X-101.812 Y50.992
X-102.109 Y51.138
X-102.542 Y51.571
X-102.669 Y51.649
X-102.818 Y51.661
X-102.956 Y51.603
X-103.053 Y51.49
X-103.088 Y51.345
G3 X-102.8 Y51.04 Z5.684 I0.317 J0.011 F600
G1 X-102.759 Y51.036 Z5.7
X-102.512 Y51.012
X-98.081 Y50.592 F1000
X-98.033 Y50.591
X-97.972 Y50.6 F600
X-97.914 Y50.622
X-97.861 Y50.654
X-97.815 Y50.696
G3 X-97.839 Y51.144 Z5.5 I-0.236 J0.212
G1 X-98.741 Y51.901 F1000
X-98.861 Y51.992
X-98.991 Y52.067
X-99.128 Y52.128
X-99.277 Y52.181
X-99.451 Y52.228
X-99.651 Y52.265
X-100.311 Y52.331
X-100.959 Y52.466
X-101.48 Y52.618
X-101.804 Y52.685
X-102.09 Y52.853
X-102.565 Y53.314
X-102.643 Y53.408
X-102.753 Y53.46
X-102.875 Y53.458
X-102.985 Y53.404
X-103.061 Y53.309
X-103.088 Y53.19
G3 X-102.889 Y52.906 Z5.647 I0.317 J0.011 F600
G1 X-102.766 Y52.857 Z5.7
X-102.536 Y52.764
X-99.072 Y51.371 F1000
X-99.005 Y51.352
X-98.936 Y51.348
X-98.875 Y51.358 F600
X-98.816 Y51.379
X-98.763 Y51.411
X-98.718 Y51.453
G3 X-98.741 Y51.901 Z5.5 I-0.236 J0.212
G1 X-99.871 Y52.849 F1000
X-100.399 Y53.249
X-100.925 Y53.652
X-101.247 Y53.897
X-101.46 Y54.033
X-101.647 Y54.133
X-101.951 Y54.265
X-102.147 Y54.373
X-102.367 Y54.413
X-102.588 Y54.383
X-102.789 Y54.285
X-102.949 Y54.128
X-103.052 Y53.93
X-103.088 Y53.709
G3 X-102.891 Y53.427 Z5.646 I0.317 J0.011 F600
G1 X-102.766 Y53.375 Z5.7
X-102.537 Y53.281
X-100.204 Y52.32 F1000
X-100.136 Y52.3
X-100.066 Y52.296
X-100.004 Y52.306 F600
X-99.946 Y52.327
X-99.893 Y52.359
X-99.847 Y52.401
G3 X-99.871 Y52.849 Z5.5 I-0.236 J0.212
G1 X-102.051 Y54.679 F1000
X-102.202 Y54.811
X-102.354 Y54.955
X-102.503 Y55.109
X-102.54 Y55.149
X-102.578 Y55.179
X-102.616 Y55.201
X-102.653 Y55.216
X-102.691 Y55.227
X-102.728 Y55.232
X-102.766 Y55.233
X-102.804 Y55.23
X-103.036 Y54.993 Z5.633 F600
Y54.826 Z5.7
X-103.037 Y54.578
X-103.085 Y37.229 F1000
X-103.086 Y36.98 F600
X-103.088 Y36.482 Z5.5
Y34.571 F1000
X-103.087 Y34.533
X-103.08 Y34.502
X-102.921 Y34.458
X-102.729 Y34.432
X-102.538 Y34.456
X-102.359 Y34.529
X-102.205 Y34.646
G3 X-102.29 Y35.054 Z5.696 I-0.185 J0.174 F600
G1 X-102.299 Y35.058 Z5.7
X-102.378 Y35.083
X-102.459 Y35.097
X-102.542 Y35.099
X-102.601 Y35.093 F1000
X-102.66 Y35.081
X-102.738 Y35.055 F600
X-102.812 Y35.017
X-102.879 Y34.969
G3 X-103.087 Y34.533 Z5.5 I0.364 J-0.441
G1 X-103.081 Y34.496 F1000
X-103.071 Y34.458
X-103.056 Y34.42
X-103.035 Y34.383
X-103.005 Y34.345
X-102.954 Y34.296
X-102.916 Y34.271
X-102.879 Y34.252
X-102.841 Y34.239
X-102.804 Y34.231
X-102.766 Y34.228
X-102.728 Y34.229
X-102.691 Y34.234
X-102.653 Y34.245
X-102.617 Y34.26
X-102.58 Y34.281
X-102.544 Y34.309
X-102.202 Y34.649
X-102.051 Y34.78
X-102.03 Y34.796
X-101.901 Y34.889
X-101.804 Y34.947
X-101.75 Y34.977
X-101.6 Y35.039
X-101.45 Y35.091
X-101.299 Y35.133
X-100.848 Y35.248
X-100.81 Y35.254
X-100.462 Y35.611 Z5.7 F600
X-100.288 Y35.789
X-100.082 Y36 F1000
X-98.658 Y37.655
G2 X-96.635 Y38.586 I1.948 J-1.567
G1 X-94.529 Y38.52
X-93.175 Y38.172
X-81.685 Y33.743
G3 X-80.357 Y33.738 I0.67 J1.434
G1 X-80.246 Y33.794 F600
X-80.14 Y33.859
G3 X-79.785 Y34.182 Z5.507 I-0.875 J1.319
G1 X-79.774 Y34.195 Z5.5
X-79.664 Y34.345 F1000
X-79.634 Y34.381
X-79.533 Y34.496
X-79.484 Y34.536
X-79.141 Y34.796
X-79.032 Y34.87
X-78.912 Y34.959
X-78.802 Y35.061
X-78.701 Y35.176
X-78.6 Y35.31
X-78.501 Y35.467
X-78.398 Y35.665
X-78.317 Y35.854
X-78.254 Y36.042
X-78.207 Y36.233
X-78.199 Y36.282
X-78.194 Y36.486
X-78.245 Y36.683
X-78.347 Y36.859
X-78.494 Y37
X-78.673 Y37.096
G3 X-79.074 Y36.895 Z5.7 I-0.1 J-0.301 F600
G1 X-79.08 Y36.874
X-79.137 Y36.655
X-79.507 Y35.22 F1000
X-79.508 Y35.212
X-79.516 Y35.151 F600
X-79.512 Y35.089
X-79.496 Y35.029
X-79.469 Y34.973
G3 X-79.032 Y34.87 Z5.5 I0.27 J0.167
G1 X-78.882 Y34.97 F1000
X-78.732 Y35.047
X-78.609 Y35.097
X-78.581 Y35.107
X-78.431 Y35.155
X-78.385 Y35.165
X-78.241 Y35.205
X-78.108 Y35.275
X-77.985 Y35.361
X-77.874 Y35.462
X-77.774 Y35.574
X-77.688 Y35.697
X-77.616 Y35.828
X-77.558 Y35.967
X-77.541 Y36.026
X-77.51 Y36.232
X-77.539 Y36.439
X-77.623 Y36.63
X-77.757 Y36.789
X-77.931 Y36.906
X-78.13 Y36.969
G3 X-78.481 Y36.726 Z5.688 I-0.042 J-0.315 F600
G1 X-78.488 Y36.696 Z5.7
X-78.544 Y36.454
X-78.727 Y35.663 F1000
X-78.753 Y35.549 F600
X-78.761 Y35.484
X-78.756 Y35.418
G3 X-78.385 Y35.165 Z5.5 I0.312 J0.059
G1 X-78.28 Y35.189 F1000
X-78.13 Y35.217
X-77.829 Y35.271
X-77.746 Y35.277
X-77.597 Y35.295
X-77.457 Y35.347
X-77.328 Y35.424
X-77.212 Y35.519
X-77.112 Y35.631
X-77.029 Y35.756
X-76.962 Y35.891
X-76.946 Y35.939
X-76.908 Y36.168
X-76.943 Y36.397
X-77.047 Y36.605
X-77.21 Y36.77
X-77.416 Y36.877
X-77.645 Y36.914
G3 X-77.951 Y36.635 Z5.681 I0.01 J-0.317 F600
G1 X-77.957 Y36.588 Z5.7
X-77.987 Y36.341
X-78.049 Y35.829 F1000
X-78.073 Y35.632 F600
X-78.075 Y35.582
G3 X-77.746 Y35.277 Z5.5 I0.317 J0.012
G1 X-77.678 Y35.282 F1000
X-77.377 Y35.286
X-77.182 Y35.287
X-77.032 Y35.295
X-76.887 Y35.336
X-76.755 Y35.406
X-76.635 Y35.496
X-76.533 Y35.606
X-76.447 Y35.729
X-76.38 Y35.863
X-76.332 Y36.005
X-76.328 Y36.025
X-76.317 Y36.243
X-76.37 Y36.454
X-76.481 Y36.641
X-76.643 Y36.787
X-76.839 Y36.881
X-77.055 Y36.912
X-77.528 Y36.914
X-77.678
X-77.829 Y36.922
X-78.13 Y36.969
X-78.28 Y36.994
X-78.545 Y37.053
X-78.581 Y37.062
X-78.732 Y37.118
X-78.882 Y37.188
X-78.913 Y37.204
X-79.15 Y37.354
X-79.373 Y37.504
G3 X-79.811 Y37.403 Z5.7 I-0.168 J-0.269 F600
G1 X-79.838 Y37.348
X-79.854 Y37.288
X-79.859 Y37.226
X-79.851 Y37.165
X-79.832 Y37.108 F1000
X-79.804 Y37.057
X-79.766 Y37.011
X-79.721 Y36.973
X-77.817 Y35.664
X-77.613 Y35.524 F600
X-77.35 Y35.343 Z5.572
X-77.298 Y35.314 Z5.548
X-77.241 Y35.295 Z5.524
X-77.182 Y35.287 Z5.5
X-76.58 F1000
X-76.43 Y35.295
X-76.286 Y35.338
X-76.153 Y35.407
X-76.035 Y35.5
X-75.933 Y35.609
X-75.849 Y35.734
X-75.782 Y35.868
X-75.735 Y36.011
X-75.731 Y36.034
X-75.722 Y36.25
X-75.776 Y36.459
X-75.888 Y36.644
X-76.049 Y36.789
X-76.245 Y36.881
X-76.459 Y36.912
X-77.055
G3 X-77.361 Y36.584 Z5.7 I0.011 J-0.317 F600
G1 X-77.352 Y36.52
X-77.33 Y36.458
X-77.279 Y36.352
X-77.028 Y35.829 F1000
X-76.921 Y35.605 F600
X-76.855 Y35.467 Z5.639
G3 X-76.58 Y35.287 Z5.5 I0.286 J0.137
G1 X-76.324 F1000
X-76.174 Y35.289
X-76.023 Y35.316
X-75.873 Y35.346
X-75.827 Y35.356
X-75.796 Y35.363
X-75.721 Y35.388
X-75.655 Y35.418
X-75.592 Y35.454
G3 X-75.511 Y35.895 Z5.7 I-0.18 J0.262 F600
G1 X-75.55 Y35.942
X-75.599 Y35.981
X-75.654 Y36.01
X-75.713 Y36.027
X-75.78 Y36.033 F1000
X-75.846 Y36.024
X-75.909 Y36.002
X-75.993 Y35.962
X-76.041 Y35.933
X-76.084 Y35.896
X-76.119 Y35.852
X-76.149 Y35.798 F600
X-76.167 Y35.738
X-76.173 Y35.677
X-76.167 Y35.615
G3 X-75.796 Y35.363 Z5.5 I0.312 J0.06
G1 X-75.723 Y35.38 F1000
X-75.679 Y35.398
X-75.572 Y35.467
X-75.459 Y35.549
X-75.439 Y35.57
X-75.422 Y35.59
X-75.348 Y35.699
X-75.3 Y35.774
X-75.284 Y35.812
X-75.271 Y35.851
X-75.24 Y36
X-75.229 Y36.075
Y36.113
X-75.231 Y36.15
X-75.261 Y36.301
X-75.271 Y36.35
X-75.29 Y36.401
X-75.315 Y36.451
X-75.422 Y36.609
X-75.439 Y36.63
X-75.459 Y36.65
X-75.497 Y36.683
X-75.6 Y36.752
X-75.661 Y36.792
X-75.723 Y36.82
X-75.873 Y36.854
X-76.117 Y36.903
X-76.174 Y36.911
X-76.432 Y36.912
X-76.459
G3 X-76.765 Y36.615 I0.011 J-0.317 F600
G1 Y36.595 Z5.501
X-76.752 Y36.542 Z5.509
X-76.739 Y36.491 Z5.527
X-76.727 Y36.444 Z5.554
X-76.696 Y36.408 Z5.594
X-76.67 Y36.379 Z5.642
X-76.651 Y36.357 Z5.697
X-76.64 Y36.344 Z5.756
X-76.636 Y36.339 Z5.817
G0 X-87.422 Y36.439
Z5.8
G3 X-86.793 Y35.021 Z5.738 I0.922 J-0.439 F600
X-85.49 Y35.861 Z5.677 I0.292 J0.977
X-86.521 Y37.017 Z5.615 I-1.01 J0.137
X-87.502 Y35.822 Z5.554 I0.021 J-1.018
X-86.171 Y35.037 Z5.492 I1.001 J0.177
X-85.602 Y36.472 Z5.431 I-0.329 J0.961
X-87.106 Y36.812 Z5.369 I-0.897 J-0.473
X-87.21 Y35.275 Z5.308 I0.606 J-0.813
X-85.677 Y35.41 Z5.246 I0.709 J0.723
X-86.047 Y36.902 Z5.185 I-0.823 J0.588
X-87.462 Y36.307 Z5.123 I-0.453 J-0.903
X-86.657 Y35.002 Z5.062 I0.961 J-0.308
X-85.493 Y35.998 Z5 I0.156 J0.996
X-87.509 Y35.998 I-1.008 J0
X-85.493 Y35.998 I1.008 J0
G1 X-85.456 Y36.66 F1000
X-85.457 Y36.742
X-85.477 Y36.891
X-85.527 Y37.033
X-85.6 Y37.164
X-85.692 Y37.282
X-85.8 Y37.386
X-85.92 Y37.476
X-86.05 Y37.55
X-86.189 Y37.608
X-86.332 Y37.651
X-86.48 Y37.678
X-86.63 Y37.689
X-86.78 Y37.685
X-86.928 Y37.667
X-87.075 Y37.634
X-87.217 Y37.587
X-87.355 Y37.527
X-87.486 Y37.455
X-87.611 Y37.371
X-87.727 Y37.276
X-87.834 Y37.172
X-87.932 Y37.058
X-88.02 Y36.936
X-88.096 Y36.807
X-88.161 Y36.672
X-88.214 Y36.532
X-88.255 Y36.387
X-88.284 Y36.24
X-88.3 Y36.091
X-88.303 Y35.941
X-88.293 Y35.791
X-88.271 Y35.643
X-88.237 Y35.497
X-88.19 Y35.354
X-88.132 Y35.216
X-88.062 Y35.083
X-87.982 Y34.957
X-87.891 Y34.837
X-87.791 Y34.726
X-87.681 Y34.623
X-87.564 Y34.53
X-87.439 Y34.447
X-87.308 Y34.374
X-87.171 Y34.313
X-87.029 Y34.263
X-86.884 Y34.225
X-86.736 Y34.199
X-86.587 Y34.186
X-86.437 Y34.184
X-86.287 Y34.196
X-86.139 Y34.219
X-85.994 Y34.255
X-85.852 Y34.303
X-85.714 Y34.362
X-85.581 Y34.433
X-85.455 Y34.514
X-85.336 Y34.605
X-85.225 Y34.706
X-85.123 Y34.816
X-85.026 Y34.938
X-84.919 Y35.099
X-84.803 Y35.308
X-84.703 Y35.528
X-84.628 Y35.737
X-84.574 Y35.932
X-84.538 Y36.123
X-84.52 Y36.299
X-84.515 Y36.481
X-84.524 Y36.648
X-84.547 Y36.818
X-84.583 Y36.982
X-84.631 Y37.138
X-84.693 Y37.296
X-84.766 Y37.444
X-84.85 Y37.585
X-84.949 Y37.725
X-85.058 Y37.854
X-85.175 Y37.973
X-85.307 Y38.087
X-85.449 Y38.191
X-85.598 Y38.283
X-85.754 Y38.362
X-85.922 Y38.431
X-86.097 Y38.488
X-86.277 Y38.53
X-86.46 Y38.557
X-86.647 Y38.57
X-86.838 Y38.568
X-87.031 Y38.551
X-87.224 Y38.517
X-87.415 Y38.468
X-87.602 Y38.404
X-87.784 Y38.324
X-87.962 Y38.229
X-88.132 Y38.119
X-88.296 Y37.994
X-88.449 Y37.855
X-88.593 Y37.703
X-88.724 Y37.54
X-88.842 Y37.365
X-88.946 Y37.182
X-89.036 Y36.99
X-89.109 Y36.79
X-89.167 Y36.585
X-89.209 Y36.375
X-89.233 Y36.161
X-89.24 Y35.946
X-89.23 Y35.729
X-89.203 Y35.514
X-89.158 Y35.301
X-89.096 Y35.092
X-89.017 Y34.887
X-88.922 Y34.69
X-88.811 Y34.501
X-88.685 Y34.32
X-88.545 Y34.151
X-88.392 Y33.992
X-88.226 Y33.847
X-88.05 Y33.715
X-87.863 Y33.598
X-87.667 Y33.496
X-87.463 Y33.41
X-87.253 Y33.341
X-87.039 Y33.289
X-86.82 Y33.254
X-86.6 Y33.237
X-86.379
X-86.158 Y33.256
X-85.94 Y33.292
X-85.725 Y33.345
X-85.515 Y33.415
X-85.311 Y33.503
X-85.114 Y33.607
X-84.918 Y33.73
X-84.722 Y33.878
X-84.53 Y34.048
X-84.349 Y34.238
X-84.18 Y34.444
X-84.027 Y34.666
X-83.892 Y34.9
X-83.777 Y35.142
X-83.682 Y35.39
X-83.609 Y35.642
X-83.557 Y35.897
X-83.526 Y36.152
X-83.515 Y36.407
X-83.525 Y36.66
X-83.555 Y36.91
X-83.604 Y37.157
X-83.674 Y37.398
X-83.762 Y37.632
X-83.869 Y37.859
X-83.994 Y38.077
X-84.136 Y38.285
X-84.295 Y38.481
X-84.47 Y38.664
X-84.661 Y38.834
X-84.865 Y38.989
X-85.083 Y39.128
X-85.312 Y39.25
X-85.552 Y39.353
X-85.801 Y39.438
X-86.058 Y39.503
X-86.321 Y39.547
X-86.589 Y39.57
X-86.86 Y39.571
X-87.132 Y39.551
X-87.403 Y39.509
X-87.672 Y39.444
X-87.936 Y39.358
X-88.195 Y39.25
X-88.446 Y39.12
X-88.687 Y38.97
X-88.917 Y38.8
X-89.133 Y38.611
X-89.335 Y38.405
X-89.52 Y38.182
X-89.687 Y37.944
X-89.835 Y37.692
X-89.963 Y37.428
X-90.07 Y37.154
X-90.155 Y36.871
X-90.217 Y36.582
X-90.255 Y36.287
X-90.27 Y35.99
X-90.261 Y35.691
X-90.228 Y35.394
X-90.171 Y35.1
X-90.091 Y34.81
X-89.987 Y34.528
X-89.861 Y34.254
X-89.713 Y33.991
X-89.544 Y33.74
X-89.355 Y33.503
X-89.148 Y33.283
X-88.923 Y33.079
X-88.683 Y32.894
X-88.429 Y32.728
X-88.162 Y32.584
X-87.884 Y32.461
X-87.597 Y32.361
X-87.302 Y32.284
X-87.003 Y32.232
X-86.7 Y32.203
X-86.395 Y32.199
X-86.092 Y32.219
X-85.79 Y32.263
X-85.491 Y32.333
X-85.194 Y32.427
X-84.901 Y32.547
X-84.613 Y32.692
X-84.333 Y32.863
X-84.064 Y33.059
X-83.809 Y33.278
X-83.569 Y33.519
X-83.348 Y33.781
X-83.148 Y34.061
X-82.97 Y34.357
X-82.817 Y34.666
X-82.69 Y34.986
X-82.588 Y35.315
X-82.514 Y35.649
X-82.467 Y35.987
X-82.447 Y36.327
X-82.455 Y36.666
X-82.489 Y37.003
X-82.551 Y37.336
X-82.639 Y37.662
X-82.752 Y37.981
X-82.892 Y38.289
X-83.055 Y38.585
X-83.242 Y38.868
X-83.452 Y39.136
X-83.683 Y39.386
X-83.934 Y39.618
X-84.205 Y39.83
X-84.492 Y40.02
X-84.795 Y40.187
X-85.112 Y40.33
X-85.441 Y40.448
X-85.78 Y40.539
X-86.127 Y40.603
X-86.48 Y40.64
X-86.836 Y40.647
X-87.195 Y40.627
X-87.552 Y40.577
X-87.906 Y40.498
X-88.254 Y40.391
X-88.595 Y40.255
X-88.925 Y40.091
X-89.243 Y39.901
X-89.545 Y39.685
X-89.83 Y39.444
X-90.096 Y39.18
X-90.341 Y38.894
X-90.563 Y38.589
X-90.761 Y38.266
X-90.932 Y37.927
X-91.076 Y37.574
X-91.192 Y37.21
X-91.278 Y36.837
X-91.334 Y36.457
X-91.36 Y36.073
X-91.355 Y35.688
X-91.318 Y35.303
X-91.251 Y34.922
X-91.153 Y34.546
X-91.025 Y34.18
X-90.868 Y33.824
X-90.683 Y33.482
X-90.471 Y33.155
X-90.233 Y32.846
X-89.97 Y32.557
X-89.685 Y32.29
X-89.38 Y32.046
X-89.055 Y31.827
X-88.714 Y31.635
X-88.358 Y31.471
X-87.991 Y31.336
X-87.613 Y31.231
X-87.228 Y31.157
X-86.838 Y31.113
X-86.445 Y31.102
X-86.051 Y31.121
X-85.658 Y31.173
X-85.266 Y31.257
X-84.879 Y31.373
X-84.498 Y31.521
X-84.127 Y31.701
X-83.768 Y31.912
X-83.425 Y32.154
X-83.099 Y32.424
X-82.794 Y32.721
X-82.512 Y33.044
X-82.257 Y33.389
X-82.029 Y33.755
X-81.832 Y34.138
X-81.666 Y34.535
X-81.532 Y34.945
X-81.431 Y35.363
X-81.365 Y35.788
X-81.333 Y36.216
X-81.336 Y36.645
X-81.372 Y37.072
X-81.443 Y37.495
X-81.548 Y37.91
X-81.686 Y38.316
X-81.855 Y38.709
X-82.057 Y39.089
X-82.288 Y39.451
X-82.548 Y39.794
X-82.835 Y40.116
X-83.148 Y40.414
X-83.485 Y40.687
X-83.844 Y40.933
X-84.222 Y41.151
X-84.619 Y41.337
X-85.03 Y41.492
X-85.454 Y41.614
X-85.888 Y41.702
X-86.33 Y41.754
X-86.777 Y41.772
X-87.225 Y41.753
X-87.672 Y41.698
X-88.116 Y41.607
X-88.552 Y41.48
X-88.979 Y41.318
X-89.392 Y41.121
X-89.791 Y40.891
X-90.171 Y40.629
X-90.53 Y40.336
X-90.865 Y40.014
X-91.174 Y39.666
X-91.456 Y39.292
X-91.707 Y38.896
X-91.926 Y38.48
X-92.111 Y38.046
X-92.262 Y37.599
X-92.376 Y37.139
X-92.453 Y36.671
X-92.492 Y36.197
X-92.493 Y35.72
X-92.456 Y35.244
X-92.381 Y34.773
X-92.268 Y34.307
X-92.118 Y33.852
X-91.931 Y33.41
X-91.71 Y32.984
X-91.454 Y32.577
X-91.167 Y32.191
X-90.849 Y31.829
X-90.503 Y31.493
X-90.131 Y31.187
X-89.735 Y30.911
X-89.319 Y30.667
X-88.884 Y30.458
X-88.433 Y30.284
X-87.969 Y30.147
X-87.496 Y30.047
X-87.016 Y29.985
X-86.531 Y29.963
X-86.043 Y29.979
X-85.556 Y30.035
X-85.072 Y30.13
X-84.594 Y30.265
X-84.125 Y30.438
X-83.668 Y30.651
X-83.226 Y30.901
X-82.803 Y31.188
X-82.403 Y31.51
X-82.027 Y31.864
X-81.68 Y32.249
X-81.364 Y32.662
X-81.082 Y33.099
X-80.835 Y33.559
X-80.626 Y34.037
X-80.455 Y34.53
X-80.325 Y35.036
X-80.236 Y35.55
X-80.189 Y36.069
X-80.183 Y36.59
X-80.22 Y37.11
X-80.297 Y37.625
X-80.416 Y38.133
X-80.576 Y38.629
X-80.774 Y39.111
X-81.011 Y39.576
X-81.285 Y40.021
X-81.594 Y40.443
X-81.937 Y40.839
X-82.311 Y41.208
X-82.714 Y41.546
X-83.144 Y41.852
X-83.531 Y42.082
X-83.562 Y42.098
X-83.847 Y42.242
X-84.001 Y42.318
X-84.074 Y42.354
X-84.148 Y42.376
X-85.201 Y42.659
X-85.351 Y42.699
X-85.502 Y42.72
X-85.652 Y42.73
X-86.705 Y42.791
X-86.856 Y42.801
X-87.308 Y42.811
X-87.735 Y42.786
X-88.19 Y42.723
X-88.662 Y42.618
X-89.141 Y42.471
X-89.619 Y42.28
X-90.089 Y42.048
X-90.544 Y41.775
X-90.983 Y41.462
X-91.399 Y41.111
X-91.79 Y40.724
X-92.151 Y40.303
X-92.479 Y39.853
X-92.772 Y39.375
X-93.026 Y38.873
X-93.239 Y38.351
X-93.411 Y37.812
X-93.539 Y37.26
X-93.622 Y36.698
X-93.66 Y36.131
X-93.652 Y35.561
X-93.599 Y34.992
X-93.558 Y34.76
X-93.522 Y34.628
X-93.463 Y34.506
X-93.382 Y34.396
X-93.325 Y34.332
X-93.227 Y34.195
X-93.128 Y34.044
X-93.024 Y33.866
X-92.867 Y33.593
X-92.261 Y32.389
X-92.155 Y32.239
X-91.444 Y31.336
X-91.369 Y31.256
X-91.291 Y31.186
X-90.467 Y30.488
X-90.398 Y30.434
X-90.316 Y30.374
X-90.154 Y30.283
X-89.263 Y29.794
X-89.188 Y29.754
X-89.113 Y29.724
X-88.962 Y29.676
X-87.909 Y29.349
X-87.871 Y29.339
X-87.834 Y29.332
X-87.608 Y29.308
X-86.555 Y29.202
X-86.48 Y29.198
X-85.502 Y29.297
X-85.201 Y29.329
X-85.126 Y29.34
X-85.05 Y29.361
X-83.997 Y29.689
X-83.847 Y29.738
X-83.696 Y29.816
X-83.095 Y30.147
X-82.794 Y30.314
X-82.643 Y30.399
X-82.598 Y30.434
X-81.887 Y31.036
X-81.709 Y31.186
X-81.59 Y31.296
X-81.556 Y31.336
X-80.838 Y32.248
X-80.739 Y32.389
X-80.663 Y32.54
X-80.133 Y33.593
X-80.055 Y33.743
X-79.965 Y33.894
X-79.871 Y34.044
X-79.774 Y34.195
X-79.659 Y34.372
X-79.529 Y34.612
X-79.412 Y34.877
X-79.297 Y35.207
X-79.206 Y35.553
X-79.134 Y35.963
X-79.09 Y36.427
X-79.083 Y36.91
X-79.085 Y36.944
X-79.128 Y37.155
X-79.227 Y37.346
X-79.373 Y37.504
X-79.556 Y37.655
X-79.634 Y37.729
X-79.705 Y37.805
X-79.785 Y37.908
X-79.819 Y37.956
X-80.019 Y38.257
X-80.086 Y38.363
X-80.112 Y38.407
X-80.838 Y39.764
X-80.86 Y39.801
X-80.887 Y39.838
X-81.59 Y40.68
X-81.741 Y40.857
X-81.868 Y40.964
X-82.643 Y41.58
X-82.818 Y41.717
X-82.944 Y41.787
X-83.562 Y42.098
X-83.629 Y42.121 Z5.028 F600
X-84.047 Y42.209 Z5.2
X-84.29 Y42.26
X-86.125 Y42.648 F1000
X-86.368 Y42.699 F600
X-86.824 Y42.796 Z5.013
X-86.856 Y42.801 Z5
X-87.157 Y42.823 F1000
X-87.307 Y42.835
X-87.458 Y42.861
X-87.608 Y42.899
X-87.679 Y42.92
X-87.759 Y42.946
X-88.059 Y43.058
X-88.087 Y43.071
X-88.155 Y43.107
X-88.29 Y43.172
X-88.432 Y43.22
X-88.586 Y43.257
X-88.771 Y43.285
X-88.964 Y43.299
X-89.203 Y43.297
X-89.455 Y43.275
X-89.754 Y43.225
X-90.066 Y43.145
X-90.433 Y43.02
X-90.8 Y42.861
X-91.201 Y42.647
X-91.627 Y42.374
X-92.061 Y42.044
X-92.483 Y41.666
X-92.882 Y41.245
X-93.263 Y40.774
X-93.616 Y40.257
X-93.933 Y39.702
X-94.207 Y39.117
X-94.436 Y38.506
X-94.616 Y37.874
X-94.745 Y37.228
X-94.822 Y36.571
X-94.846 Y35.931
X-94.837 Y35.736
X-94.798 Y35.532
X-94.703 Y35.347
X-94.559 Y35.197
X-94.378 Y35.094
X-94.228 Y35.028
X-94.077 Y34.945
X-93.927 Y34.842
X-93.551 Y34.572
X-93.513 Y34.54
X-93.47 Y34.496
X-93.382 Y34.396
G3 X-92.934 Y34.385 Z5.2 I0.23 J0.219 F600
G1 X-92.904 Y34.418
X-92.879 Y34.454
X-92.798 Y34.592
X-88.167 Y42.459 F1000
X-88.042 Y42.672 F600
X-88.041 Y42.673
G3 X-88.155 Y43.107 Z5 I-0.274 J0.161
G1 X-88.21 Y43.137 F1000
X-88.36 Y43.232
X-88.511 Y43.334
X-88.564 Y43.372
X-88.661 Y43.443
X-88.879 Y43.626
X-88.999 Y43.717
X-89.13 Y43.789
X-89.268 Y43.848
X-89.411 Y43.893
X-89.578 Y43.932
X-89.758 Y43.959
X-89.973 Y43.973
X-90.196 Y43.97
X-90.464 Y43.945
X-90.741 Y43.896
X-91.063 Y43.812
X-91.408 Y43.692
X-91.776 Y43.53
X-92.187 Y43.308
X-92.611 Y43.033
X-93.027 Y42.712
X-93.46 Y42.319
X-93.892 Y41.859
X-94.305 Y41.341
X-94.676 Y40.792
X-95.004 Y40.217
X-95.289 Y39.619
X-95.53 Y39.001
X-95.723 Y38.368
X-95.871 Y37.722
X-95.973 Y37.068
X-96.006 Y36.645
Y36.356
X-95.985 Y36.09
X-95.949 Y35.874
X-95.942 Y35.843
X-95.852 Y35.63
X-95.702 Y35.456
X-95.505 Y35.335
X-95.281 Y35.282
X-95.131 Y35.27
X-94.98 Y35.241
X-94.83 Y35.209
X-94.529 Y35.139
X-94.386 Y35.097
X-94.378 Y35.094
G3 X-94.006 Y35.221 Z5.17 I0.105 J0.299 F600
G1 X-93.966 Y35.284 Z5.2
X-93.831 Y35.492
X-88.987 Y42.967 F1000
X-88.852 Y43.176 F600
X-88.825 Y43.217 Z5.18
G3 X-88.879 Y43.626 Z5 I-0.266 J0.173
G1 X-89.714 Y44.327 F1000
X-89.834 Y44.417
X-89.965 Y44.491
X-90.102 Y44.55
X-90.245 Y44.598
X-90.413 Y44.639
X-90.598 Y44.67
X-90.809 Y44.687
X-91.041
X-91.305 Y44.666
X-91.59 Y44.62
X-91.92 Y44.539
X-92.252 Y44.429
X-92.633 Y44.267
X-93.042 Y44.054
X-93.449 Y43.797
X-93.896 Y43.463
X-94.362 Y43.053
X-94.823 Y42.576
X-95.243 Y42.065
X-95.625 Y41.523
X-95.966 Y40.955
X-96.267 Y40.365
X-96.528 Y39.756
X-96.749 Y39.132
X-96.929 Y38.494
X-97.069 Y37.847
X-97.14 Y37.321
X-97.164 Y36.889
X-97.157 Y36.579
X-97.128 Y36.307
X-97.089 Y36.098
X-97.029 Y35.88
X-96.992 Y35.777
X-96.884 Y35.579
X-96.721 Y35.422
X-96.518 Y35.322
X-96.295 Y35.287
X-95.432
X-95.281 Y35.282
G3 X-95.011 Y35.43 Z5.129 I0.001 J0.317 F600
G1 X-94.917 Y35.58 Z5.2
X-94.784 Y35.79
X-89.819 Y43.666 F1000
X-89.687 Y43.876 F600
X-89.658 Y43.922 Z5.178
G3 X-89.714 Y44.327 Z5 I-0.269 J0.169
G1 X-90.548 Y45.026 F1000
X-90.668 Y45.117
X-90.796 Y45.194
X-90.933 Y45.257
X-91.074 Y45.308
X-91.237 Y45.352
X-91.419 Y45.386
X-91.625 Y45.408
X-91.857 Y45.413
X-92.114 Y45.399
X-92.398 Y45.36
X-92.721 Y45.289
X-93.049 Y45.188
X-93.435 Y45.036
X-93.833 Y44.839
X-94.26 Y44.585
X-94.729 Y44.251
X-95.213 Y43.844
X-95.684 Y43.378
X-96.118 Y42.877
X-96.512 Y42.345
X-96.87 Y41.788
X-97.191 Y41.208
X-97.476 Y40.61
X-97.725 Y39.996
X-97.937 Y39.369
X-98.113 Y38.73
X-98.244 Y38.086
X-98.308 Y37.548
X-98.326 Y37.098
X-98.31 Y36.701
X-98.272 Y36.396
X-98.218 Y36.128
X-98.159 Y35.924
X-98.077 Y35.711
X-97.963 Y35.537
X-97.804 Y35.402
X-97.614 Y35.317
X-97.408 Y35.287
X-96.295
G3 X-96.034 Y35.441 Z5.126 I-0.011 J0.317 F600
G1 X-95.94 Y35.598 Z5.2
X-95.811 Y35.81
X-90.648 Y44.362 F1000
X-90.52 Y44.575 F600
X-90.489 Y44.626 Z5.176
G3 X-90.548 Y45.026 Z5 I-0.272 J0.164
G1 X-91.445 Y45.779 F1000
X-91.564 Y45.869
X-91.695 Y45.942
X-91.833 Y46.002
X-91.979 Y46.052
X-92.152 Y46.095
X-92.338 Y46.126
X-92.561 Y46.145
X-92.793 Y46.146
X-93.069 Y46.125
X-93.358 Y46.08
X-93.688 Y46.001
X-94.052 Y45.881
X-94.434 Y45.721
X-94.876 Y45.493
X-95.333 Y45.208
X-95.798 Y44.862
X-96.291 Y44.432
X-96.753 Y43.957
X-97.179 Y43.45
X-97.571 Y42.916
X-97.929 Y42.358
X-98.253 Y41.781
X-98.544 Y41.186
X-98.802 Y40.575
X-99.025 Y39.952
X-99.213 Y39.316
X-99.36 Y38.671
X-99.457 Y38.046
X-99.496 Y37.509
X-99.492 Y37.023
X-99.456 Y36.611
X-99.406 Y36.314
X-99.336 Y36.041
X-99.267 Y35.837
X-99.222 Y35.734
X-99.109 Y35.551
X-98.949 Y35.409
X-98.754 Y35.319
X-98.542 Y35.287
X-97.408
G3 X-97.144 Y35.446 Z5.129 I-0.011 J0.317 F600
G1 X-97.055 Y35.599 Z5.2
X-96.931 Y35.814
X-91.54 Y45.112 F1000
X-91.415 Y45.327 F600
X-91.382 Y45.383 Z5.174
G3 X-91.445 Y45.779 Z5 I-0.275 J0.159
G1 X-92.272 Y46.473 F1000
X-92.392 Y46.563
X-92.519 Y46.643
X-92.654 Y46.709
X-92.795 Y46.763
X-92.952 Y46.809
X-93.14 Y46.848
X-93.339 Y46.872
X-93.577 Y46.882
X-93.824 Y46.873
X-94.124 Y46.838
X-94.432 Y46.776
X-94.789 Y46.673
X-95.181 Y46.526
X-95.584 Y46.337
X-96.045 Y46.073
X-96.536 Y45.738
X-97.027 Y45.34
X-97.507 Y44.884
X-97.951 Y44.393
X-98.362 Y43.873
X-98.741 Y43.33
X-99.089 Y42.766
X-99.406 Y42.185
X-99.693 Y41.587
X-99.948 Y40.976
X-100.172 Y40.353
X-100.362 Y39.718
X-100.513 Y39.073
X-100.622 Y38.42
X-100.676 Y37.806
X-100.68 Y37.26
X-100.646 Y36.79
X-100.591 Y36.434
X-100.518 Y36.126
X-100.446 Y35.903
X-100.379 Y35.744
X-100.267 Y35.558
X-100.106 Y35.412
X-99.91 Y35.319
X-99.695 Y35.287
X-98.542
G3 X-98.278 Y35.447 Z5.13 I-0.011 J0.317 F600
G1 X-98.191 Y35.6 Z5.2
X-98.067 Y35.815
X-92.365 Y45.805 F1000
X-92.242 Y46.021 F600
X-92.209 Y46.08 Z5.173
G3 X-92.272 Y46.473 Z5 I-0.276 J0.157
G1 X-93.175 Y47.23 F1000
X-93.294 Y47.321
X-93.417 Y47.407
X-93.549 Y47.479
X-93.687 Y47.538
X-93.829 Y47.586
X-93.974 Y47.623
X-94.122 Y47.65
X-94.271 Y47.668
X-94.42 Y47.678
X-94.57 Y47.68
X-94.72 Y47.675
X-94.87 Y47.663
X-95.019 Y47.644
X-95.166 Y47.619
X-95.313 Y47.588
X-95.459 Y47.553
X-95.604 Y47.513
X-95.747 Y47.467
X-95.888 Y47.418
X-96.028 Y47.364
X-96.167 Y47.307
X-96.304 Y47.246
X-96.439 Y47.181
X-96.573 Y47.113
X-96.705 Y47.042
X-96.835 Y46.968
X-96.964 Y46.89
X-97.091 Y46.81
X-97.216 Y46.728
X-97.34 Y46.643
X-97.462 Y46.556
X-97.582 Y46.465
X-97.7 Y46.373
X-97.816 Y46.279
X-97.932 Y46.183
X-98.045 Y46.085
X-98.156 Y45.984
X-98.266 Y45.882
X-98.374 Y45.778
X-98.481 Y45.673
X-98.586 Y45.566
X-98.689 Y45.457
X-98.791 Y45.346
X-98.891 Y45.235
X-98.99 Y45.122
X-99.087 Y45.007
X-99.182 Y44.891
X-99.276 Y44.774
X-99.368 Y44.656
X-99.459 Y44.537
X-99.548 Y44.416
X-99.635 Y44.294
X-99.721 Y44.171
X-99.806 Y44.047
X-99.889 Y43.922
X-99.971 Y43.797
X-100.05 Y43.67
X-100.129 Y43.542
X-100.206 Y43.413
X-100.282 Y43.284
X-100.356 Y43.153
X-100.428 Y43.022
X-100.499 Y42.89
X-100.569 Y42.757
X-100.637 Y42.623
X-100.704 Y42.489
X-100.769 Y42.354
X-100.832 Y42.218
X-100.895 Y42.081
X-100.955 Y41.944
X-101.014 Y41.806
X-101.072 Y41.668
X-101.128 Y41.529
X-101.183 Y41.389
X-101.236 Y41.249
X-101.287 Y41.108
X-101.337 Y40.966
X-101.385 Y40.824
X-101.432 Y40.682
X-101.476 Y40.538
X-101.519 Y40.395
X-101.56 Y40.25
X-101.6 Y40.106
X-101.638 Y39.961
X-101.673 Y39.815
X-101.707 Y39.669
X-101.739 Y39.522
X-101.768 Y39.375
X-101.796 Y39.228
X-101.822 Y39.08
X-101.845 Y38.932
X-101.866 Y38.783
X-101.885 Y38.634
X-101.902 Y38.485
X-101.915 Y38.336
X-101.927 Y38.186
X-101.936 Y38.037
X-101.942 Y37.887
X-101.945 Y37.737
X-101.946 Y37.587
X-101.943 Y37.437
X-101.937 Y37.287
X-101.929 Y37.137
X-101.916 Y36.988
X-101.9 Y36.839
X-101.88 Y36.69
X-101.857 Y36.542
X-101.828 Y36.394
X-101.795 Y36.248
X-101.756 Y36.103
X-101.712 Y35.96
X-101.661 Y35.819
X-101.602 Y35.681
X-101.594 Y35.664
X-101.459 Y35.47
X-101.269 Y35.329
X-101.046 Y35.254
X-100.81
X-100.697 Y35.272
X-100.547 Y35.285
X-100.396 Y35.287
X-99.695
G3 X-99.429 Y35.451 Z5.131 I-0.011 J0.317 F600
G1 X-99.345 Y35.601 Z5.2
X-99.225 Y35.818
X-93.265 Y46.561 F1000
X-93.144 Y46.778 F600
X-93.11 Y46.84 Z5.171
G3 X-93.175 Y47.23 Z5 I-0.278 J0.154
G1 X-94.134 Y48.035 F1000
X-94.253 Y48.126
X-94.383 Y48.201
X-94.52 Y48.264
X-94.666 Y48.316
X-94.833 Y48.361
X-95.024 Y48.396
X-95.241 Y48.418
X-95.482 Y48.423
X-95.754 Y48.406
X-96.058 Y48.363
X-96.392 Y48.289
X-96.763 Y48.173
X-97.171 Y48.01
X-97.618 Y47.788
X-98.1 Y47.498
X-98.62 Y47.125
X-99.126 Y46.697
X-99.599 Y46.234
X-100.042 Y45.741
X-100.456 Y45.224
X-100.841 Y44.685
X-101.198 Y44.127
X-101.363 Y43.84
X-101.718 Y43.185
X-102.006 Y42.588
X-102.07 Y42.435
X-102.133 Y42.282
G3 X-101.945 Y41.875 Z5.2 I0.298 J-0.11 F600
G1 X-101.885 Y41.859
X-101.823 Y41.855
X-101.762 Y41.864
X-101.703 Y41.884
X-101.645 Y41.919 F1000
X-94.305 Y47.433
X-94.156 Y47.545 F600
X-94.11 Y47.587
G3 X-94.134 Y48.035 Z5 I-0.236 J0.212
G1 X-94.98 Y48.745 F1000
X-95.101 Y48.837
X-95.227 Y48.917
X-95.361 Y48.984
X-95.502 Y49.039
X-95.661 Y49.087
X-95.849 Y49.128
X-96.05 Y49.155
X-96.293 Y49.168
X-96.545 Y49.161
X-96.849 Y49.128
X-97.165 Y49.068
X-97.533 Y48.966
X-97.936 Y48.819
X-98.365 Y48.623
X-98.852 Y48.35
X-99.376 Y47.999
X-99.895 Y47.587
X-100.382 Y47.138
X-100.838 Y46.658
X-101.266 Y46.152
X-101.415 Y45.954
X-101.807 Y45.42
X-101.898 Y45.281
G3 X-101.789 Y44.845 Z5.2 I0.272 J-0.163 F600
G1 X-101.733 Y44.819
X-101.673 Y44.804
X-101.611 Y44.801
X-101.549 Y44.809
X-101.512 Y44.821 F1000
X-101.477 Y44.837
X-95.165 Y48.165
X-95.045 Y48.228 F600
X-94.997 Y48.259
X-94.957 Y48.297
G3 X-94.98 Y48.745 Z5 I-0.236 J0.212
G1 X-95.883 Y49.503 F1000
X-96.002 Y49.593
X-96.124 Y49.682
X-96.254 Y49.756
X-96.39 Y49.818
X-96.532 Y49.869
X-96.676 Y49.909
X-96.823 Y49.939
X-96.972 Y49.959
X-97.121 Y49.972
X-97.271 Y49.976
X-97.421 Y49.973
X-97.571 Y49.963
X-97.72 Y49.947
X-97.868 Y49.925
X-98.016 Y49.897
X-98.162 Y49.865
X-98.307 Y49.827
X-98.451 Y49.785
X-98.594 Y49.738
X-98.735 Y49.687
X-98.875 Y49.633
X-99.013 Y49.575
X-99.15 Y49.513
X-99.285 Y49.447
X-99.418 Y49.379
X-99.55 Y49.308
X-99.681 Y49.234
X-99.81 Y49.157
X-99.937 Y49.078
X-100.063 Y48.996
X-100.187 Y48.912
X-100.31 Y48.826
X-100.43 Y48.737
X-100.55 Y48.646
X-100.668 Y48.553
X-100.784 Y48.459
X-100.899 Y48.362
X-101.012 Y48.264
X-101.124 Y48.164
X-101.234 Y48.062
X-101.343 Y47.959
X-101.45 Y47.854
X-101.556 Y47.748
X-101.66 Y47.64
X-101.763 Y47.531
X-101.819 Y47.47
G3 X-101.784 Y47.022 Z5.2 I0.241 J-0.206 F600
G1 X-101.734 Y46.987
X-101.677 Y46.962
X-101.616 Y46.948
X-101.555 Y46.947
X-101.511 Y46.953 F1000
X-101.469 Y46.965
X-96.074 Y48.937
X-95.986 Y48.969 F600
X-95.939 Y48.99
X-95.897 Y49.019
X-95.859 Y49.055
G3 X-95.883 Y49.503 Z5 I-0.236 J0.212
G1 X-96.823 Y50.292 F1000
X-96.956 Y50.392
X-97.076 Y50.482
X-97.205 Y50.558
X-97.341 Y50.621
X-97.482 Y50.672
X-97.627 Y50.713
X-97.774 Y50.743
X-97.922 Y50.765
X-98.072 Y50.778
X-98.221 Y50.783
X-98.371 Y50.78
X-98.521 Y50.771
X-98.67 Y50.756
X-98.819 Y50.734
X-98.966 Y50.707
X-99.113 Y50.675
X-99.258 Y50.637
X-99.402 Y50.595
X-99.545 Y50.549
X-99.686 Y50.499
X-99.826 Y50.445
X-99.964 Y50.387
X-100.101 Y50.326
X-100.237 Y50.261
X-100.371 Y50.194
X-100.503 Y50.123
X-100.634 Y50.05
X-100.763 Y49.974
X-100.891 Y49.895
X-101.017 Y49.814
X-101.142 Y49.731
X-101.265 Y49.645
X-101.387 Y49.557
X-101.507 Y49.467
X-101.625 Y49.376
X-101.755 Y49.272
X-101.904 Y49.2
X-102.065 Y49.163
X-102.231 Y49.162
X-102.392 Y49.199
X-102.542 Y49.27
X-102.606 Y49.321
X-102.725 Y49.378
X-102.857
X-102.976 Y49.32
X-103.058 Y49.217
X-103.088 Y49.088
G3 X-102.759 Y48.782 Z5.2 I0.317 J0.011 F600
G1 X-102.718 Y48.786
X-102.514 Y48.82
X-97.017 Y49.737 F1000
X-96.983 Y49.743 F600
X-96.915 Y49.762
X-96.853 Y49.796
X-96.799 Y49.844
G3 X-96.823 Y50.292 Z5 I-0.236 J0.212
G1 X-97.839 Y51.144 F1000
X-97.958 Y51.234
X-98.088 Y51.31
X-98.225 Y51.372
X-98.375 Y51.425
X-98.547 Y51.471
X-98.742 Y51.507
X-98.962 Y51.529
X-99.212 Y51.535
X-99.492 Y51.518
X-99.806 Y51.474
X-100.158 Y51.395
X-100.548 Y51.274
X-101.163 Y51.028
X-101.324 Y50.988
X-101.486 Y50.953
X-101.651 Y50.954
X-101.813 Y50.992
X-102.11 Y51.138
X-102.542 Y51.57
X-102.669 Y51.648
X-102.818 Y51.66
X-102.956 Y51.603
X-103.053 Y51.49
X-103.088 Y51.345
G3 X-102.8 Y51.04 Z5.184 I0.317 J0.011 F600
G1 X-102.759 Y51.036 Z5.2
X-102.512 Y51.012
X-98.081 Y50.592 F1000
X-98.033 Y50.591
X-97.972 Y50.6 F600
X-97.914 Y50.622
X-97.861 Y50.654
X-97.815 Y50.696
G3 X-97.839 Y51.144 Z5 I-0.236 J0.212
G1 X-98.741 Y51.901 F1000
X-98.861 Y51.992
X-98.991 Y52.067
X-99.128 Y52.128
X-99.277 Y52.181
X-99.451 Y52.228
X-99.652 Y52.264
X-100.311 Y52.331
X-100.959 Y52.466
X-101.48 Y52.618
X-101.804 Y52.685
X-102.09 Y52.853
X-102.565 Y53.314
X-102.643 Y53.408
X-102.753 Y53.46
X-102.875 Y53.458
X-102.985 Y53.404
X-103.061 Y53.309
X-103.088 Y53.19
G3 X-102.889 Y52.906 Z5.147 I0.317 J0.011 F600
G1 X-102.766 Y52.857 Z5.2
X-102.536 Y52.764
X-99.072 Y51.371 F1000
X-99.005 Y51.352
X-98.936 Y51.348
X-98.875 Y51.358 F600
X-98.816 Y51.379
X-98.763 Y51.411
X-98.718 Y51.453
G3 X-98.741 Y51.901 Z5 I-0.236 J0.212
G1 X-99.871 Y52.849 F1000
X-100.399 Y53.249
X-100.925 Y53.652
X-101.247 Y53.897
X-101.46 Y54.033
X-101.648 Y54.133
X-101.951 Y54.265
X-102.147 Y54.373
X-102.367 Y54.413
X-102.588 Y54.383
X-102.789 Y54.285
X-102.949 Y54.129
X-103.052 Y53.93
X-103.088 Y53.709
G3 X-102.891 Y53.427 Z5.146 I0.317 J0.011 F600
G1 X-102.766 Y53.376 Z5.2
X-102.537 Y53.281
X-100.204 Y52.32 F1000
X-100.136 Y52.3
X-100.066 Y52.296
X-100.004 Y52.306 F600
X-99.946 Y52.327
X-99.893 Y52.359
X-99.847 Y52.401
G3 X-99.871 Y52.849 Z5 I-0.236 J0.212
G1 X-102.051 Y54.679 F1000
X-102.202 Y54.811
X-102.354 Y54.955
X-102.503 Y55.109
X-102.54 Y55.149
X-102.578 Y55.179
X-102.616 Y55.201
X-102.653 Y55.216
X-102.691 Y55.227
X-102.728 Y55.232
X-102.766 Y55.233
X-102.804 Y55.23
X-103.036 Y54.993 Z5.133 F600
Y54.826 Z5.2
X-103.037 Y54.578
X-103.085 Y37.229 F1000
X-103.086 Y36.98 F600
X-103.088 Y36.482 Z5
Y34.571 F1000
X-103.087 Y34.533
X-103.08 Y34.502
X-102.921 Y34.458
X-102.729 Y34.432
X-102.538 Y34.456
X-102.359 Y34.529
X-102.205 Y34.646
G3 X-102.29 Y35.054 Z5.196 I-0.185 J0.174 F600
G1 X-102.299 Y35.058 Z5.2
X-102.378 Y35.083
X-102.459 Y35.097
X-102.542 Y35.099
X-102.601 Y35.093 F1000
X-102.66 Y35.081
X-102.738 Y35.055 F600
X-102.812 Y35.017
X-102.879 Y34.969
G3 X-103.087 Y34.533 Z5 I0.364 J-0.441
G1 X-103.081 Y34.496 F1000
X-103.071 Y34.458
X-103.056 Y34.42
X-103.035 Y34.383
X-103.005 Y34.345
X-102.954 Y34.296
X-102.916 Y34.271
X-102.879 Y34.252
X-102.841 Y34.239
X-102.804 Y34.231
X-102.766 Y34.228
X-102.728 Y34.229
X-102.691 Y34.234
X-102.653 Y34.245
X-102.617 Y34.26
X-102.58 Y34.281
X-102.544 Y34.309
X-102.202 Y34.649
X-102.051 Y34.78
X-102.03 Y34.796
X-101.901 Y34.889
X-101.804 Y34.947
X-101.75 Y34.977
X-101.6 Y35.039
X-101.45 Y35.091
X-101.299 Y35.133
X-100.848 Y35.248
X-100.81 Y35.254
X-100.462 Y35.611 Z5.2 F600
X-100.288 Y35.789
X-100.082 Y36 F1000
X-98.658 Y37.655
G2 X-96.635 Y38.586 I1.948 J-1.567
G1 X-94.529 Y38.52
X-93.175 Y38.172
X-81.685 Y33.743
G3 X-80.357 Y33.738 I0.67 J1.434
G1 X-80.246 Y33.794 F600
X-80.14 Y33.859
G3 X-79.785 Y34.182 Z5.007 I-0.875 J1.319
G1 X-79.774 Y34.195 Z5
X-79.664 Y34.345 F1000
X-79.634 Y34.381
X-79.533 Y34.496
X-79.484 Y34.536
X-79.141 Y34.796
X-79.032 Y34.87
X-78.912 Y34.959
X-78.802 Y35.061
X-78.701 Y35.176
X-78.6 Y35.31
X-78.501 Y35.467
X-78.398 Y35.665
X-78.317 Y35.854
X-78.254 Y36.042
X-78.207 Y36.233
X-78.199 Y36.282
X-78.194 Y36.486
X-78.245 Y36.683
X-78.347 Y36.859
X-78.494 Y37
X-78.673 Y37.096
G3 X-79.074 Y36.895 Z5.2 I-0.1 J-0.301 F600
G1 X-79.08 Y36.874
X-79.137 Y36.655
X-79.507 Y35.22 F1000
X-79.508 Y35.212
X-79.516 Y35.151 F600
X-79.512 Y35.089
X-79.496 Y35.029
X-79.469 Y34.973
G3 X-79.032 Y34.87 Z5 I0.27 J0.167
G1 X-78.882 Y34.97 F1000
X-78.732 Y35.047
X-78.609 Y35.097
X-78.581 Y35.107
X-78.431 Y35.155
X-78.385 Y35.165
X-78.241 Y35.205
X-78.108 Y35.275
X-77.985 Y35.361
X-77.874 Y35.462
X-77.774 Y35.574
X-77.688 Y35.697
X-77.616 Y35.828
X-77.558 Y35.967
X-77.541 Y36.026
X-77.51 Y36.232
X-77.539 Y36.439
X-77.623 Y36.63
X-77.757 Y36.789
X-77.931 Y36.906
X-78.13 Y36.969
G3 X-78.481 Y36.726 Z5.188 I-0.042 J-0.315 F600
G1 X-78.488 Y36.696 Z5.2
X-78.544 Y36.454
X-78.727 Y35.663 F1000
X-78.753 Y35.549 F600
X-78.761 Y35.484
X-78.756 Y35.418
G3 X-78.385 Y35.165 Z5 I0.312 J0.059
G1 X-78.28 Y35.189 F1000
X-78.13 Y35.217
X-77.829 Y35.271
X-77.746 Y35.277
X-77.597 Y35.295
X-77.457 Y35.347
X-77.328 Y35.424
X-77.212 Y35.519
X-77.112 Y35.631
X-77.029 Y35.756
X-76.962 Y35.891
X-76.946 Y35.939
X-76.908 Y36.168
X-76.943 Y36.397
X-77.047 Y36.605
X-77.21 Y36.77
X-77.416 Y36.877
X-77.645 Y36.914
G3 X-77.951 Y36.635 Z5.181 I0.01 J-0.317 F600
G1 X-77.957 Y36.588 Z5.2
X-77.987 Y36.341
X-78.049 Y35.829 F1000
X-78.073 Y35.632 F600
X-78.075 Y35.582
G3 X-77.746 Y35.277 Z5 I0.317 J0.012
G1 X-77.678 Y35.282 F1000
X-77.377 Y35.286
X-77.182 Y35.287
X-77.032 Y35.295
X-76.887 Y35.336
X-76.755 Y35.406
X-76.635 Y35.496
X-76.533 Y35.606
X-76.447 Y35.729
X-76.38 Y35.863
X-76.333 Y36.005
X-76.328 Y36.025
X-76.317 Y36.243
X-76.37 Y36.454
X-76.482 Y36.641
X-76.643 Y36.787
X-76.839 Y36.881
X-77.055 Y36.912
X-77.528 Y36.914
X-77.678
X-77.829 Y36.922
X-78.13 Y36.969
X-78.28 Y36.994
X-78.545 Y37.053
X-78.581 Y37.062
X-78.732 Y37.118
X-78.882 Y37.188
X-78.913 Y37.204
X-79.15 Y37.354
X-79.373 Y37.504
G3 X-79.811 Y37.403 Z5.2 I-0.168 J-0.269 F600
G1 X-79.838 Y37.348
X-79.854 Y37.288
X-79.859 Y37.226
X-79.851 Y37.165
X-79.832 Y37.108 F1000
X-79.804 Y37.057
X-79.766 Y37.011
X-79.721 Y36.973
X-77.817 Y35.664
X-77.613 Y35.524 F600
X-77.35 Y35.343 Z5.072
X-77.298 Y35.314 Z5.048
X-77.241 Y35.295 Z5.024
X-77.182 Y35.287 Z5
X-76.58 F1000
X-76.43 Y35.295
X-76.286 Y35.338
X-76.153 Y35.407
X-76.035 Y35.5
X-75.933 Y35.609
X-75.849 Y35.734
X-75.782 Y35.868
X-75.735 Y36.011
X-75.731 Y36.034
X-75.722 Y36.25
X-75.776 Y36.459
X-75.888 Y36.644
X-76.049 Y36.789
X-76.245 Y36.881
X-76.459 Y36.912
X-77.055
G3 X-77.361 Y36.584 Z5.2 I0.011 J-0.317 F600
G1 X-77.352 Y36.52
X-77.33 Y36.458
X-77.279 Y36.352
X-77.028 Y35.829 F1000
X-76.921 Y35.605 F600
X-76.855 Y35.467 Z5.139
G3 X-76.58 Y35.287 Z5 I0.286 J0.137
G1 X-76.324 F1000
X-76.174 Y35.289
X-76.023 Y35.316
X-75.873 Y35.346
X-75.827 Y35.356
X-75.796 Y35.363
X-75.721 Y35.388
X-75.655 Y35.418
X-75.592 Y35.454
G3 X-75.511 Y35.895 Z5.2 I-0.18 J0.262 F600
G1 X-75.55 Y35.942
X-75.599 Y35.981
X-75.654 Y36.01
X-75.713 Y36.027
X-75.78 Y36.033 F1000
X-75.846 Y36.024
X-75.909 Y36.002
X-75.993 Y35.962
X-76.041 Y35.933
X-76.084 Y35.896
X-76.119 Y35.852
X-76.149 Y35.798 F600
X-76.167 Y35.738
X-76.173 Y35.677
X-76.167 Y35.615
G3 X-75.796 Y35.363 Z5 I0.312 J0.06
G1 X-75.723 Y35.38 F1000
X-75.679 Y35.398
X-75.572 Y35.467
X-75.459 Y35.549
X-75.439 Y35.57
X-75.422 Y35.59
X-75.348 Y35.699
X-75.3 Y35.774
X-75.284 Y35.812
X-75.271 Y35.851
X-75.24 Y36
X-75.229 Y36.075
Y36.113
X-75.231 Y36.15
X-75.261 Y36.301
X-75.271 Y36.35
X-75.29 Y36.401
X-75.315 Y36.451
X-75.422 Y36.609
X-75.439 Y36.63
X-75.459 Y36.65
X-75.497 Y36.683
X-75.6 Y36.752
X-75.661 Y36.792
X-75.723 Y36.82
X-75.873 Y36.854
X-76.117 Y36.903
X-76.174 Y36.911
X-76.432 Y36.912
X-76.459
G3 X-76.765 Y36.615 I0.011 J-0.317 F600
G1 Y36.595 Z5.001
X-76.752 Y36.542 Z5.009
X-76.739 Y36.491 Z5.027
X-76.727 Y36.444 Z5.054
X-76.696 Y36.408 Z5.094
X-76.67 Y36.379 Z5.142
X-76.651 Y36.357 Z5.197
X-76.64 Y36.344 Z5.256
X-76.636 Y36.339 Z5.317
G0 X-87.422 Y36.439
Z5.3
G3 X-86.793 Y35.021 Z5.238 I0.922 J-0.439 F600
X-85.49 Y35.861 Z5.177 I0.292 J0.977
X-86.521 Y37.017 Z5.115 I-1.01 J0.137
X-87.502 Y35.822 Z5.054 I0.021 J-1.018
X-86.171 Y35.037 Z4.992 I1.001 J0.177
X-85.602 Y36.472 Z4.931 I-0.329 J0.961
X-87.106 Y36.812 Z4.869 I-0.897 J-0.473
X-87.21 Y35.275 Z4.808 I0.606 J-0.813
X-85.677 Y35.41 Z4.746 I0.709 J0.723
X-86.047 Y36.902 Z4.685 I-0.823 J0.588
X-87.462 Y36.307 Z4.623 I-0.453 J-0.903
X-86.657 Y35.002 Z4.562 I0.961 J-0.308
X-85.493 Y35.998 Z4.5 I0.156 J0.996
X-87.509 Y35.998 I-1.008 J0
X-85.493 Y35.998 I1.008 J0
G1 X-85.456 Y36.66 F1000
X-85.457 Y36.742
X-85.477 Y36.891
X-85.527 Y37.033
X-85.6 Y37.164
X-85.692 Y37.282
X-85.8 Y37.386
X-85.92 Y37.476
X-86.05 Y37.55
X-86.189 Y37.608
X-86.332 Y37.651
X-86.48 Y37.678
X-86.63 Y37.689
X-86.78 Y37.685
X-86.928 Y37.667
X-87.075 Y37.634
X-87.217 Y37.587
X-87.355 Y37.527
X-87.486 Y37.455
X-87.611 Y37.371
X-87.727 Y37.276
X-87.834 Y37.172
X-87.932 Y37.058
X-88.02 Y36.936
X-88.096 Y36.807
X-88.161 Y36.672
X-88.214 Y36.532
X-88.255 Y36.387
X-88.284 Y36.24
X-88.3 Y36.091
X-88.303 Y35.941
X-88.293 Y35.791
X-88.271 Y35.643
X-88.237 Y35.497
X-88.19 Y35.354
X-88.132 Y35.216
X-88.062 Y35.083
X-87.982 Y34.957
X-87.891 Y34.837
X-87.791 Y34.726
X-87.681 Y34.623
X-87.564 Y34.53
X-87.439 Y34.447
X-87.308 Y34.374
X-87.171 Y34.313
X-87.029 Y34.263
X-86.884 Y34.225
X-86.736 Y34.199
X-86.587 Y34.186
X-86.437 Y34.184
X-86.287 Y34.196
X-86.139 Y34.219
X-85.994 Y34.255
X-85.852 Y34.303
X-85.714 Y34.362
X-85.581 Y34.433
X-85.455 Y34.514
X-85.336 Y34.605
X-85.225 Y34.706
X-85.123 Y34.816
X-85.026 Y34.938
X-84.919 Y35.099
X-84.803 Y35.308
X-84.703 Y35.528
X-84.628 Y35.737
X-84.574 Y35.932
X-84.538 Y36.123
X-84.52 Y36.299
X-84.515 Y36.481
X-84.524 Y36.648
X-84.547 Y36.818
X-84.583 Y36.982
X-84.631 Y37.138
X-84.693 Y37.296
X-84.766 Y37.444
X-84.85 Y37.585
X-84.949 Y37.725
X-85.058 Y37.854
X-85.175 Y37.973
X-85.307 Y38.087
X-85.449 Y38.191
X-85.598 Y38.283
X-85.754 Y38.362
X-85.922 Y38.431
X-86.097 Y38.488
X-86.277 Y38.53
X-86.46 Y38.557
X-86.647 Y38.57
X-86.838 Y38.568
X-87.031 Y38.551
X-87.224 Y38.517
X-87.415 Y38.468
X-87.602 Y38.404
X-87.784 Y38.324
X-87.962 Y38.229
X-88.132 Y38.119
X-88.296 Y37.994
X-88.449 Y37.855
X-88.593 Y37.703
X-88.724 Y37.54
X-88.842 Y37.365
X-88.946 Y37.182
X-89.036 Y36.99
X-89.109 Y36.79
X-89.167 Y36.585
X-89.209 Y36.375
X-89.233 Y36.161
X-89.24 Y35.946
X-89.23 Y35.729
X-89.203 Y35.514
X-89.158 Y35.301
X-89.096 Y35.092
X-89.017 Y34.887
X-88.922 Y34.69
X-88.811 Y34.501
X-88.685 Y34.32
X-88.545 Y34.151
X-88.392 Y33.992
X-88.226 Y33.847
X-88.05 Y33.715
X-87.863 Y33.598
X-87.667 Y33.496
X-87.463 Y33.41
X-87.253 Y33.341
X-87.039 Y33.289
X-86.82 Y33.254
X-86.6 Y33.237
X-86.379
X-86.158 Y33.256
X-85.94 Y33.292
X-85.725 Y33.345
X-85.515 Y33.415
X-85.311 Y33.503
X-85.114 Y33.607
X-84.918 Y33.73
X-84.722 Y33.878
X-84.53 Y34.048
X-84.349 Y34.238
X-84.18 Y34.444
X-84.027 Y34.666
X-83.892 Y34.9
X-83.777 Y35.142
X-83.682 Y35.39
X-83.609 Y35.642
X-83.557 Y35.897
X-83.526 Y36.152
X-83.515 Y36.407
X-83.525 Y36.66
X-83.555 Y36.91
X-83.604 Y37.157
X-83.674 Y37.398
X-83.762 Y37.632
X-83.869 Y37.859
X-83.994 Y38.077
X-84.136 Y38.285
X-84.295 Y38.481
X-84.47 Y38.664
X-84.661 Y38.834
X-84.865 Y38.989
X-85.083 Y39.128
X-85.312 Y39.25
X-85.552 Y39.353
X-85.801 Y39.438
X-86.058 Y39.503
X-86.321 Y39.547
X-86.589 Y39.57
X-86.86 Y39.571
X-87.132 Y39.551
X-87.403 Y39.509
X-87.672 Y39.444
X-87.936 Y39.358
X-88.195 Y39.25
X-88.446 Y39.12
X-88.687 Y38.97
X-88.917 Y38.8
X-89.133 Y38.611
X-89.335 Y38.405
X-89.52 Y38.182
X-89.687 Y37.944
X-89.835 Y37.692
X-89.963 Y37.428
X-90.07 Y37.154
X-90.155 Y36.871
X-90.217 Y36.582
X-90.255 Y36.287
X-90.27 Y35.99
X-90.261 Y35.691
X-90.228 Y35.394
X-90.171 Y35.1
X-90.091 Y34.81
X-89.987 Y34.528
X-89.861 Y34.254
X-89.713 Y33.991
X-89.544 Y33.74
X-89.355 Y33.503
X-89.148 Y33.283
X-88.923 Y33.079
X-88.683 Y32.894
X-88.429 Y32.728
X-88.162 Y32.584
X-87.884 Y32.461
X-87.597 Y32.361
X-87.302 Y32.284
X-87.003 Y32.232
X-86.7 Y32.203
X-86.395 Y32.199
X-86.092 Y32.219
X-85.79 Y32.263
X-85.491 Y32.333
X-85.194 Y32.427
X-84.901 Y32.547
X-84.613 Y32.692
X-84.333 Y32.863
X-84.064 Y33.059
X-83.809 Y33.278
X-83.569 Y33.519
X-83.348 Y33.781
X-83.148 Y34.061
X-82.97 Y34.357
X-82.817 Y34.666
X-82.69 Y34.986
X-82.588 Y35.315
X-82.514 Y35.649
X-82.467 Y35.987
X-82.447 Y36.327
X-82.455 Y36.666
X-82.489 Y37.003
X-82.551 Y37.336
X-82.639 Y37.662
X-82.752 Y37.981
X-82.892 Y38.289
X-83.055 Y38.585
X-83.242 Y38.868
X-83.452 Y39.136
X-83.683 Y39.386
X-83.934 Y39.618
X-84.205 Y39.83
X-84.492 Y40.02
X-84.795 Y40.187
X-85.112 Y40.33
X-85.441 Y40.448
X-85.78 Y40.539
X-86.127 Y40.603
X-86.48 Y40.64
X-86.836 Y40.647
X-87.195 Y40.627
X-87.552 Y40.577
X-87.906 Y40.498
X-88.254 Y40.391
X-88.595 Y40.255
X-88.925 Y40.091
X-89.243 Y39.901
X-89.545 Y39.685
X-89.83 Y39.444
X-90.096 Y39.18
X-90.341 Y38.894
X-90.563 Y38.589
X-90.761 Y38.266
X-90.932 Y37.927
X-91.076 Y37.574
X-91.192 Y37.21
X-91.278 Y36.837
X-91.334 Y36.457
X-91.36 Y36.073
X-91.355 Y35.688
X-91.318 Y35.303
X-91.251 Y34.922
X-91.153 Y34.546
X-91.025 Y34.18
X-90.868 Y33.824
X-90.683 Y33.482
X-90.471 Y33.155
X-90.233 Y32.846
X-89.97 Y32.557
X-89.685 Y32.29
X-89.38 Y32.046
X-89.055 Y31.827
X-88.714 Y31.635
X-88.358 Y31.471
X-87.991 Y31.336
X-87.613 Y31.231
X-87.228 Y31.157
X-86.838 Y31.113
X-86.445 Y31.102
X-86.051 Y31.121
X-85.658 Y31.173
X-85.266 Y31.257
X-84.879 Y31.373
X-84.498 Y31.521
X-84.127 Y31.701
X-83.768 Y31.912
X-83.425 Y32.154
X-83.099 Y32.424
X-82.794 Y32.721
X-82.512 Y33.044
X-82.257 Y33.389
X-82.029 Y33.755
X-81.832 Y34.138
X-81.666 Y34.535
X-81.532 Y34.945
X-81.431 Y35.363
X-81.365 Y35.788
X-81.333 Y36.216
X-81.336 Y36.645
X-81.372 Y37.072
X-81.443 Y37.495
X-81.548 Y37.91
X-81.686 Y38.316
X-81.855 Y38.709
X-82.057 Y39.089
X-82.288 Y39.451
X-82.548 Y39.794
X-82.835 Y40.116
X-83.148 Y40.414
X-83.485 Y40.687
X-83.844 Y40.933
X-84.222 Y41.151
X-84.619 Y41.337
X-85.03 Y41.492
X-85.454 Y41.614
X-85.888 Y41.702
X-86.33 Y41.754
X-86.777 Y41.772
X-87.225 Y41.753
X-87.672 Y41.698
X-88.116 Y41.607
X-88.552 Y41.48
X-88.979 Y41.318
X-89.392 Y41.121
X-89.791 Y40.891
X-90.171 Y40.629
X-90.53 Y40.336
X-90.865 Y40.014
X-91.174 Y39.666
X-91.456 Y39.292
X-91.707 Y38.896
X-91.926 Y38.48
X-92.111 Y38.046
X-92.262 Y37.599
X-92.376 Y37.139
X-92.453 Y36.671
X-92.492 Y36.197
X-92.493 Y35.72
X-92.456 Y35.244
X-92.381 Y34.773
X-92.268 Y34.307
X-92.118 Y33.852
X-91.931 Y33.41
X-91.71 Y32.984
X-91.454 Y32.577
X-91.167 Y32.191
X-90.849 Y31.829
X-90.503 Y31.493
X-90.131 Y31.187
X-89.735 Y30.911
X-89.319 Y30.667
X-88.884 Y30.458
X-88.433 Y30.284
X-87.969 Y30.147
X-87.496 Y30.047
X-87.016 Y29.985
X-86.531 Y29.963
X-86.043 Y29.979
X-85.556 Y30.035
X-85.072 Y30.13
X-84.594 Y30.265
X-84.125 Y30.438
X-83.668 Y30.651
X-83.226 Y30.901
X-82.803 Y31.188
X-82.403 Y31.51
X-82.027 Y31.864
X-81.68 Y32.249
X-81.364 Y32.662
X-81.082 Y33.099
X-80.835 Y33.559
X-80.626 Y34.037
X-80.455 Y34.53
X-80.325 Y35.036
X-80.236 Y35.55
X-80.189 Y36.069
X-80.183 Y36.59
X-80.22 Y37.11
X-80.297 Y37.625
X-80.416 Y38.133
X-80.576 Y38.629
X-80.774 Y39.111
X-81.011 Y39.576
X-81.285 Y40.021
X-81.594 Y40.443
X-81.937 Y40.839
X-82.311 Y41.208
X-82.714 Y41.546
X-83.144 Y41.852
X-83.531 Y42.082
X-83.562 Y42.098
X-83.847 Y42.241
X-83.997 Y42.31
X-84.148 Y42.368
X-84.298 Y42.417
X-85.201 Y42.659
X-85.351 Y42.695
X-85.502 Y42.718
X-85.652 Y42.73
X-86.705 Y42.791
X-86.856 Y42.801
X-87.308 Y42.811
X-87.735 Y42.786
X-88.19 Y42.723
X-88.662 Y42.618
X-89.141 Y42.471
X-89.619 Y42.28
X-90.089 Y42.048
X-90.544 Y41.775
X-90.983 Y41.462
X-91.399 Y41.111
X-91.79 Y40.724
X-92.151 Y40.303
X-92.479 Y39.853
X-92.772 Y39.375
X-93.026 Y38.873
X-93.239 Y38.351
X-93.411 Y37.812
X-93.539 Y37.26
X-93.622 Y36.698
X-93.66 Y36.131
X-93.652 Y35.561
X-93.599 Y34.992
X-93.558 Y34.76
X-93.522 Y34.628
X-93.463 Y34.506
X-93.382 Y34.396
X-93.325 Y34.332
X-93.227 Y34.195
X-93.128 Y34.044
X-93.024 Y33.866
X-92.867 Y33.593
X-92.413 Y32.69
X-92.336 Y32.54
X-92.256 Y32.389
X-92.122 Y32.2
X-92.037 Y32.089
X-91.67 Y31.623
X-91.56 Y31.487
X-91.369 Y31.27
X-91.287 Y31.186
X-91.068 Y30.998
X-90.467 Y30.488
X-90.388 Y30.434
X-90.316 Y30.385
X-90.166 Y30.29
X-89.263 Y29.794
X-89.188 Y29.755
X-89.113 Y29.728
X-88.962 Y29.677
X-88.661 Y29.583
X-87.909 Y29.349
X-87.871 Y29.34
X-87.834 Y29.334
X-87.307 Y29.277
X-86.555 Y29.202
X-86.48 Y29.198
X-85.803 Y29.266
X-85.201 Y29.33
X-85.126 Y29.34
X-85.05 Y29.361
X-84.298 Y29.595
X-83.997 Y29.691
X-83.847 Y29.741
X-83.809 Y29.756
X-83.772 Y29.775
X-83.121 Y30.133
X-82.794 Y30.318
X-82.643 Y30.404
X-82.603 Y30.434
X-82.493 Y30.522
X-82.041 Y30.905
X-81.889 Y31.036
X-81.59 Y31.301
X-81.559 Y31.336
X-81.438 Y31.487
X-81.082 Y31.938
X-80.965 Y32.089
X-80.838 Y32.255
X-80.75 Y32.389
X-80.666 Y32.54
X-80.587 Y32.69
X-80.133 Y33.593
X-80.055 Y33.743
X-79.965 Y33.894
X-79.871 Y34.044
X-79.774 Y34.195
X-79.659 Y34.372
X-79.529 Y34.612
X-79.412 Y34.877
X-79.297 Y35.207
X-79.206 Y35.553
X-79.134 Y35.963
X-79.09 Y36.427
X-79.083 Y36.91
X-79.085 Y36.944
X-79.128 Y37.155
X-79.227 Y37.346
X-79.373 Y37.504
X-79.556 Y37.655
X-79.634 Y37.729
X-79.705 Y37.805
X-79.785 Y37.908
X-79.819 Y37.956
X-80.019 Y38.257
X-80.086 Y38.363
X-80.112 Y38.407
X-80.838 Y39.763
X-80.86 Y39.8
X-80.887 Y39.837
X-81.451 Y40.513
X-81.706 Y40.814
X-81.741 Y40.855
X-81.868 Y40.964
X-82.643 Y41.579
X-82.823 Y41.717
X-82.883 Y41.756
X-83.562 Y42.098
X-83.629 Y42.121 Z4.528 F600
X-84.047 Y42.209 Z4.7
X-84.29 Y42.26
X-86.125 Y42.648 F1000
X-86.368 Y42.699 F600
X-86.824 Y42.796 Z4.513
X-86.856 Y42.801 Z4.5
X-87.157 Y42.823 F1000
X-87.307 Y42.835
X-87.458 Y42.861
X-87.608 Y42.899
X-87.679 Y42.92
X-87.759 Y42.946
X-88.059 Y43.058
X-88.087 Y43.071
X-88.155 Y43.107
X-88.29 Y43.172
X-88.432 Y43.22
X-88.586 Y43.257
X-88.771 Y43.285
X-88.964 Y43.299
X-89.203 Y43.297
X-89.455 Y43.275
X-89.754 Y43.225
X-90.066 Y43.145
X-90.433 Y43.02
X-90.8 Y42.861
X-91.201 Y42.647
X-91.627 Y42.374
X-92.061 Y42.044
X-92.483 Y41.666
X-92.882 Y41.245
X-93.263 Y40.774
X-93.616 Y40.257
X-93.933 Y39.702
X-94.207 Y39.117
X-94.436 Y38.506
X-94.616 Y37.874
X-94.745 Y37.228
X-94.822 Y36.571
X-94.846 Y35.931
X-94.837 Y35.736
X-94.798 Y35.532
X-94.703 Y35.347
X-94.559 Y35.197
X-94.378 Y35.094
X-94.228 Y35.028
X-94.077 Y34.945
X-93.927 Y34.842
X-93.551 Y34.572
X-93.513 Y34.54
X-93.47 Y34.496
X-93.382 Y34.396
G3 X-92.934 Y34.385 Z4.7 I0.23 J0.219 F600
G1 X-92.904 Y34.418
X-92.879 Y34.454
X-92.798 Y34.592
X-88.167 Y42.459 F1000
X-88.042 Y42.672 F600
X-88.041 Y42.673
G3 X-88.155 Y43.107 Z4.5 I-0.274 J0.161
G1 X-88.21 Y43.137 F1000
X-88.36 Y43.232
X-88.511 Y43.334
X-88.564 Y43.372
X-88.661 Y43.443
X-88.879 Y43.626
X-88.999 Y43.717
X-89.13 Y43.789
X-89.268 Y43.848
X-89.411 Y43.893
X-89.578 Y43.932
X-89.758 Y43.959
X-89.973 Y43.973
X-90.196 Y43.97
X-90.464 Y43.945
X-90.741 Y43.896
X-91.063 Y43.812
X-91.408 Y43.692
X-91.776 Y43.53
X-92.187 Y43.308
X-92.611 Y43.033
X-93.027 Y42.712
X-93.46 Y42.319
X-93.892 Y41.859
X-94.305 Y41.341
X-94.676 Y40.792
X-95.004 Y40.217
X-95.289 Y39.619
X-95.53 Y39.001
X-95.723 Y38.368
X-95.871 Y37.722
X-95.973 Y37.068
X-96.006 Y36.645
Y36.356
X-95.985 Y36.09
X-95.949 Y35.874
X-95.942 Y35.843
X-95.852 Y35.63
X-95.702 Y35.456
X-95.505 Y35.335
X-95.281 Y35.282
X-95.131 Y35.27
X-94.98 Y35.241
X-94.83 Y35.209
X-94.529 Y35.139
X-94.386 Y35.097
X-94.378 Y35.094
G3 X-94.006 Y35.221 Z4.67 I0.105 J0.299 F600
G1 X-93.966 Y35.284 Z4.7
X-93.831 Y35.492
X-88.987 Y42.967 F1000
X-88.852 Y43.176 F600
X-88.825 Y43.217 Z4.68
G3 X-88.879 Y43.626 Z4.5 I-0.266 J0.173
G1 X-89.714 Y44.327 F1000
X-89.834 Y44.417
X-89.965 Y44.491
X-90.102 Y44.55
X-90.245 Y44.598
X-90.413 Y44.639
X-90.598 Y44.67
X-90.809 Y44.687
X-91.041
X-91.305 Y44.666
X-91.59 Y44.62
X-91.92 Y44.539
X-92.252 Y44.429
X-92.633 Y44.267
X-93.042 Y44.054
X-93.449 Y43.797
X-93.896 Y43.463
X-94.362 Y43.053
X-94.823 Y42.576
X-95.243 Y42.065
X-95.625 Y41.523
X-95.966 Y40.955
X-96.267 Y40.365
X-96.528 Y39.756
X-96.749 Y39.132
X-96.929 Y38.494
X-97.069 Y37.847
X-97.14 Y37.321
X-97.164 Y36.889
X-97.157 Y36.579
X-97.128 Y36.307
X-97.089 Y36.098
X-97.029 Y35.88
X-96.992 Y35.777
X-96.884 Y35.579
X-96.721 Y35.422
X-96.518 Y35.322
X-96.295 Y35.287
X-95.432
X-95.281 Y35.282
G3 X-95.011 Y35.43 Z4.629 I0.001 J0.317 F600
G1 X-94.917 Y35.58 Z4.7
X-94.784 Y35.79
X-89.819 Y43.666 F1000
X-89.687 Y43.876 F600
X-89.658 Y43.922 Z4.678
G3 X-89.714 Y44.327 Z4.5 I-0.269 J0.169
G1 X-90.548 Y45.026 F1000
X-90.668 Y45.117
X-90.796 Y45.194
X-90.933 Y45.257
X-91.074 Y45.308
X-91.237 Y45.352
X-91.419 Y45.386
X-91.625 Y45.408
X-91.857 Y45.413
X-92.114 Y45.399
X-92.398 Y45.36
X-92.721 Y45.289
X-93.049 Y45.188
X-93.435 Y45.036
X-93.833 Y44.839
X-94.26 Y44.585
X-94.729 Y44.251
X-95.213 Y43.844
X-95.684 Y43.378
X-96.118 Y42.877
X-96.512 Y42.345
X-96.87 Y41.788
X-97.191 Y41.208
X-97.476 Y40.61
X-97.725 Y39.996
X-97.937 Y39.369
X-98.113 Y38.73
X-98.244 Y38.086
X-98.308 Y37.548
X-98.326 Y37.098
X-98.31 Y36.701
X-98.272 Y36.396
X-98.218 Y36.128
X-98.159 Y35.924
X-98.077 Y35.711
X-97.963 Y35.537
X-97.804 Y35.402
X-97.614 Y35.317
X-97.408 Y35.287
X-96.295
G3 X-96.034 Y35.441 Z4.626 I-0.011 J0.317 F600
G1 X-95.94 Y35.598 Z4.7
X-95.811 Y35.81
X-90.648 Y44.362 F1000
X-90.52 Y44.575 F600
X-90.489 Y44.626 Z4.676
G3 X-90.548 Y45.026 Z4.5 I-0.272 J0.164
G1 X-91.445 Y45.779 F1000
X-91.564 Y45.869
X-91.695 Y45.942
X-91.833 Y46.002
X-91.979 Y46.052
X-92.152 Y46.095
X-92.338 Y46.126
X-92.561 Y46.145
X-92.793 Y46.146
X-93.069 Y46.125
X-93.358 Y46.08
X-93.688 Y46.001
X-94.052 Y45.881
X-94.434 Y45.721
X-94.876 Y45.493
X-95.333 Y45.208
X-95.798 Y44.862
X-96.291 Y44.432
X-96.753 Y43.957
X-97.179 Y43.45
X-97.571 Y42.916
X-97.929 Y42.358
X-98.253 Y41.781
X-98.544 Y41.186
X-98.802 Y40.575
X-99.025 Y39.952
X-99.213 Y39.316
X-99.36 Y38.671
X-99.457 Y38.046
X-99.496 Y37.509
X-99.492 Y37.023
X-99.456 Y36.611
X-99.406 Y36.314
X-99.336 Y36.041
X-99.267 Y35.837
X-99.222 Y35.734
X-99.109 Y35.551
X-98.949 Y35.409
X-98.754 Y35.319
X-98.542 Y35.287
X-97.408
G3 X-97.144 Y35.446 Z4.629 I-0.011 J0.317 F600
G1 X-97.055 Y35.599 Z4.7
X-96.931 Y35.814
X-91.54 Y45.112 F1000
X-91.415 Y45.327 F600
X-91.382 Y45.383 Z4.674
G3 X-91.445 Y45.779 Z4.5 I-0.275 J0.159
G1 X-92.272 Y46.473 F1000
X-92.392 Y46.563
X-92.519 Y46.643
X-92.654 Y46.709
X-92.795 Y46.763
X-92.952 Y46.809
X-93.14 Y46.848
X-93.339 Y46.872
X-93.577 Y46.882
X-93.824 Y46.873
X-94.124 Y46.838
X-94.432 Y46.776
X-94.789 Y46.673
X-95.181 Y46.526
X-95.584 Y46.337
X-96.045 Y46.073
X-96.536 Y45.738
X-97.027 Y45.34
X-97.507 Y44.884
X-97.951 Y44.393
X-98.362 Y43.873
X-98.741 Y43.33
X-99.089 Y42.766
X-99.406 Y42.185
X-99.693 Y41.587
X-99.948 Y40.976
X-100.172 Y40.353
X-100.362 Y39.718
X-100.513 Y39.073
X-100.622 Y38.42
X-100.676 Y37.806
X-100.68 Y37.26
X-100.646 Y36.79
X-100.591 Y36.434
X-100.518 Y36.126
X-100.446 Y35.903
X-100.379 Y35.744
X-100.267 Y35.558
X-100.106 Y35.412
X-99.91 Y35.319
X-99.695 Y35.287
X-98.542
G3 X-98.278 Y35.447 Z4.63 I-0.011 J0.317 F600
G1 X-98.191 Y35.6 Z4.7
X-98.067 Y35.815
X-92.365 Y45.805 F1000
X-92.242 Y46.021 F600
X-92.209 Y46.08 Z4.673
G3 X-92.272 Y46.473 Z4.5 I-0.276 J0.157
G1 X-93.175 Y47.23 F1000
X-93.294 Y47.321
X-93.417 Y47.407
X-93.549 Y47.479
X-93.687 Y47.538
X-93.829 Y47.586
X-93.974 Y47.623
X-94.122 Y47.65
X-94.271 Y47.668
X-94.42 Y47.678
X-94.57 Y47.68
X-94.72 Y47.675
X-94.87 Y47.663
X-95.019 Y47.644
X-95.166 Y47.619
X-95.313 Y47.588
X-95.459 Y47.553
X-95.604 Y47.513
X-95.747 Y47.467
X-95.888 Y47.418
X-96.028 Y47.364
X-96.167 Y47.307
X-96.304 Y47.246
X-96.439 Y47.181
X-96.573 Y47.113
X-96.705 Y47.042
X-96.835 Y46.968
X-96.964 Y46.89
X-97.091 Y46.81
X-97.216 Y46.728
X-97.34 Y46.643
X-97.462 Y46.556
X-97.582 Y46.465
X-97.7 Y46.373
X-97.816 Y46.279
X-97.932 Y46.183
X-98.045 Y46.085
X-98.156 Y45.984
X-98.266 Y45.882
X-98.374 Y45.778
X-98.481 Y45.673
X-98.586 Y45.566
X-98.689 Y45.457
X-98.791 Y45.346
X-98.891 Y45.235
X-98.99 Y45.122
X-99.087 Y45.007
X-99.182 Y44.891
X-99.276 Y44.774
X-99.368 Y44.656
X-99.459 Y44.537
X-99.548 Y44.416
X-99.635 Y44.294
X-99.721 Y44.171
X-99.806 Y44.047
X-99.889 Y43.922
X-99.971 Y43.797
X-100.05 Y43.67
X-100.129 Y43.542
X-100.206 Y43.413
X-100.282 Y43.284
X-100.356 Y43.153
X-100.428 Y43.022
X-100.499 Y42.89
X-100.569 Y42.757
X-100.637 Y42.623
X-100.704 Y42.489
X-100.769 Y42.354
X-100.832 Y42.218
X-100.895 Y42.081
X-100.955 Y41.944
X-101.014 Y41.806
X-101.072 Y41.668
X-101.128 Y41.529
X-101.183 Y41.389
X-101.236 Y41.249
X-101.287 Y41.108
X-101.337 Y40.966
X-101.385 Y40.824
X-101.432 Y40.682
X-101.476 Y40.538
X-101.519 Y40.395
X-101.56 Y40.25
X-101.6 Y40.106
X-101.638 Y39.961
X-101.673 Y39.815
X-101.707 Y39.669
X-101.739 Y39.522
X-101.768 Y39.375
X-101.796 Y39.228
X-101.822 Y39.08
X-101.845 Y38.932
X-101.866 Y38.783
X-101.885 Y38.634
X-101.902 Y38.485
X-101.915 Y38.336
X-101.927 Y38.186
X-101.936 Y38.037
X-101.942 Y37.887
X-101.945 Y37.737
X-101.946 Y37.587
X-101.943 Y37.437
X-101.937 Y37.287
X-101.929 Y37.137
X-101.916 Y36.988
X-101.9 Y36.839
X-101.88 Y36.69
X-101.857 Y36.542
X-101.828 Y36.394
X-101.795 Y36.248
X-101.756 Y36.103
X-101.712 Y35.96
X-101.661 Y35.819
X-101.602 Y35.681
X-101.594 Y35.664
X-101.459 Y35.47
X-101.269 Y35.329
X-101.046 Y35.254
X-100.81
X-100.697 Y35.272
X-100.547 Y35.285
X-100.396 Y35.287
X-99.695
G3 X-99.429 Y35.451 Z4.631 I-0.011 J0.317 F600
G1 X-99.345 Y35.601 Z4.7
X-99.225 Y35.818
X-93.265 Y46.561 F1000
X-93.144 Y46.778 F600
X-93.11 Y46.84 Z4.671
G3 X-93.175 Y47.23 Z4.5 I-0.278 J0.154
G1 X-94.134 Y48.035 F1000
X-94.253 Y48.126
X-94.383 Y48.201
X-94.52 Y48.264
X-94.666 Y48.316
X-94.833 Y48.361
X-95.024 Y48.396
X-95.241 Y48.418
X-95.482 Y48.423
X-95.754 Y48.406
X-96.058 Y48.363
X-96.392 Y48.289
X-96.763 Y48.173
X-97.171 Y48.01
X-97.618 Y47.788
X-98.1 Y47.498
X-98.62 Y47.125
X-99.126 Y46.697
X-99.599 Y46.234
X-100.042 Y45.741
X-100.456 Y45.224
X-100.841 Y44.685
X-101.198 Y44.127
X-101.363 Y43.84
X-101.718 Y43.185
X-102.006 Y42.588
X-102.07 Y42.435
X-102.133 Y42.282
G3 X-101.945 Y41.875 Z4.7 I0.298 J-0.11 F600
G1 X-101.885 Y41.859
X-101.823 Y41.855
X-101.762 Y41.864
X-101.703 Y41.884
X-101.645 Y41.919 F1000
X-94.305 Y47.433
X-94.156 Y47.545 F600
X-94.11 Y47.587
G3 X-94.134 Y48.035 Z4.5 I-0.236 J0.212
G1 X-94.98 Y48.745 F1000
X-95.101 Y48.837
X-95.227 Y48.917
X-95.361 Y48.984
X-95.502 Y49.039
X-95.661 Y49.087
X-95.849 Y49.128
X-96.05 Y49.155
X-96.293 Y49.168
X-96.545 Y49.161
X-96.849 Y49.128
X-97.165 Y49.068
X-97.533 Y48.966
X-97.936 Y48.819
X-98.365 Y48.623
X-98.852 Y48.35
X-99.376 Y47.999
X-99.895 Y47.587
X-100.382 Y47.138
X-100.838 Y46.658
X-101.266 Y46.152
X-101.415 Y45.954
X-101.807 Y45.42
X-101.898 Y45.281
G3 X-101.789 Y44.845 Z4.7 I0.272 J-0.163 F600
G1 X-101.733 Y44.819
X-101.673 Y44.804
X-101.611 Y44.801
X-101.549 Y44.809
X-101.512 Y44.821 F1000
X-101.477 Y44.837
X-95.165 Y48.165
X-95.045 Y48.228 F600
X-94.997 Y48.259
X-94.957 Y48.297
G3 X-94.98 Y48.745 Z4.5 I-0.236 J0.212
G1 X-95.883 Y49.503 F1000
X-96.002 Y49.593
X-96.124 Y49.682
X-96.254 Y49.756
X-96.39 Y49.818
X-96.532 Y49.869
X-96.676 Y49.909
X-96.823 Y49.939
X-96.972 Y49.959
X-97.121 Y49.972
X-97.271 Y49.976
X-97.421 Y49.973
X-97.571 Y49.963
X-97.72 Y49.947
X-97.868 Y49.925
X-98.016 Y49.897
X-98.162 Y49.865
X-98.307 Y49.827
X-98.451 Y49.785
X-98.594 Y49.738
X-98.735 Y49.687
X-98.875 Y49.633
X-99.013 Y49.575
X-99.15 Y49.513
X-99.285 Y49.447
X-99.418 Y49.379
X-99.55 Y49.308
X-99.681 Y49.234
X-99.81 Y49.157
X-99.937 Y49.078
X-100.063 Y48.996
X-100.187 Y48.912
X-100.31 Y48.826
X-100.43 Y48.737
X-100.55 Y48.646
X-100.668 Y48.553
X-100.784 Y48.459
X-100.899 Y48.362
X-101.012 Y48.264
X-101.124 Y48.164
X-101.234 Y48.062
X-101.343 Y47.959
X-101.45 Y47.854
X-101.556 Y47.748
X-101.66 Y47.64
X-101.763 Y47.531
X-101.819 Y47.47
G3 X-101.784 Y47.022 Z4.7 I0.241 J-0.206 F600
G1 X-101.734 Y46.987
X-101.677 Y46.962
X-101.616 Y46.948
X-101.555 Y46.947
X-101.511 Y46.953 F1000
X-101.469 Y46.965
X-96.074 Y48.937
X-95.986 Y48.969 F600
X-95.939 Y48.99
X-95.897 Y49.019
X-95.859 Y49.055
G3 X-95.883 Y49.503 Z4.5 I-0.236 J0.212
G1 X-96.823 Y50.292 F1000
X-96.956 Y50.392
X-97.076 Y50.482
X-97.205 Y50.558
X-97.341 Y50.621
X-97.482 Y50.672
X-97.627 Y50.713
X-97.774 Y50.743
X-97.922 Y50.765
X-98.072 Y50.778
X-98.221 Y50.783
X-98.371 Y50.78
X-98.521 Y50.771
X-98.67 Y50.756
X-98.819 Y50.734
X-98.966 Y50.707
X-99.113 Y50.675
X-99.258 Y50.637
X-99.402 Y50.595
X-99.545 Y50.549
X-99.686 Y50.499
X-99.826 Y50.445
X-99.964 Y50.387
X-100.101 Y50.326
X-100.237 Y50.261
X-100.371 Y50.194
X-100.503 Y50.123
X-100.634 Y50.05
X-100.763 Y49.974
X-100.891 Y49.895
X-101.017 Y49.814
X-101.142 Y49.731
X-101.265 Y49.645
X-101.387 Y49.557
X-101.507 Y49.467
X-101.625 Y49.376
X-101.755 Y49.272
X-101.904 Y49.2
X-102.065 Y49.163
X-102.231 Y49.162
X-102.392 Y49.199
X-102.542 Y49.27
X-102.606 Y49.321
X-102.725 Y49.378
X-102.857
X-102.976 Y49.32
X-103.058 Y49.217
X-103.088 Y49.088
G3 X-102.759 Y48.782 Z4.7 I0.317 J0.011 F600
G1 X-102.718 Y48.786
X-102.514 Y48.82
X-97.017 Y49.737 F1000
X-96.983 Y49.743 F600
X-96.915 Y49.762
X-96.853 Y49.796
X-96.799 Y49.844
G3 X-96.823 Y50.292 Z4.5 I-0.236 J0.212
G1 X-97.839 Y51.144 F1000
X-97.958 Y51.234
X-98.088 Y51.31
X-98.225 Y51.372
X-98.375 Y51.425
X-98.547 Y51.471
X-98.742 Y51.507
X-98.962 Y51.529
X-99.212 Y51.535
X-99.492 Y51.518
X-99.806 Y51.474
X-100.158 Y51.395
X-100.548 Y51.274
X-101.163 Y51.028
X-101.324 Y50.988
X-101.486 Y50.953
X-101.651 Y50.954
X-101.813 Y50.992
X-102.11 Y51.138
X-102.542 Y51.57
X-102.669 Y51.648
X-102.818 Y51.66
X-102.956 Y51.603
X-103.053 Y51.49
X-103.088 Y51.345
G3 X-102.8 Y51.04 Z4.684 I0.317 J0.011 F600
G1 X-102.759 Y51.036 Z4.7
X-102.512 Y51.012
X-98.081 Y50.592 F1000
X-98.033 Y50.591
X-97.972 Y50.6 F600
X-97.914 Y50.622
X-97.861 Y50.654
X-97.815 Y50.696
G3 X-97.839 Y51.144 Z4.5 I-0.236 J0.212
G1 X-98.741 Y51.901 F1000
X-98.861 Y51.992
X-98.991 Y52.067
X-99.128 Y52.128
X-99.277 Y52.181
X-99.451 Y52.228
X-99.652 Y52.264
X-100.311 Y52.331
X-100.959 Y52.466
X-101.48 Y52.618
X-101.804 Y52.685
X-102.09 Y52.853
X-102.565 Y53.314
X-102.643 Y53.408
X-102.753 Y53.46
X-102.875 Y53.458
X-102.985 Y53.404
X-103.061 Y53.309
X-103.088 Y53.19
G3 X-102.889 Y52.906 Z4.647 I0.317 J0.011 F600
G1 X-102.766 Y52.857 Z4.7
X-102.536 Y52.764
X-99.072 Y51.371 F1000
X-99.005 Y51.352
X-98.936 Y51.348
X-98.875 Y51.358 F600
X-98.816 Y51.379
X-98.763 Y51.411
X-98.718 Y51.453
G3 X-98.741 Y51.901 Z4.5 I-0.236 J0.212
G1 X-99.871 Y52.849 F1000
X-100.399 Y53.249
X-100.925 Y53.652
X-101.247 Y53.897
X-101.46 Y54.033
X-101.648 Y54.133
X-101.951 Y54.265
X-102.147 Y54.373
X-102.367 Y54.413
X-102.588 Y54.383
X-102.789 Y54.285
X-102.949 Y54.129
X-103.052 Y53.93
X-103.088 Y53.709
G3 X-102.891 Y53.427 Z4.646 I0.317 J0.011 F600
G1 X-102.766 Y53.376 Z4.7
X-102.537 Y53.281
X-100.204 Y52.32 F1000
X-100.136 Y52.3
X-100.066 Y52.296
X-100.004 Y52.306 F600
X-99.946 Y52.327
X-99.893 Y52.359
X-99.847 Y52.401
G3 X-99.871 Y52.849 Z4.5 I-0.236 J0.212
G1 X-102.051 Y54.679 F1000
X-102.202 Y54.811
X-102.354 Y54.955
X-102.503 Y55.109
X-102.54 Y55.149
X-102.578 Y55.179
X-102.616 Y55.201
X-102.653 Y55.216
X-102.691 Y55.227
X-102.728 Y55.232
X-102.766 Y55.233
X-102.804 Y55.23
X-103.036 Y54.993 Z4.633 F600
Y54.826 Z4.7
X-103.037 Y54.578
X-103.085 Y37.229 F1000
X-103.086 Y36.98 F600
X-103.088 Y36.482 Z4.5
Y34.571 F1000
X-103.087 Y34.533
X-103.08 Y34.502
X-102.921 Y34.458
X-102.729 Y34.432
X-102.538 Y34.456
X-102.359 Y34.529
X-102.205 Y34.646
G3 X-102.29 Y35.054 Z4.696 I-0.185 J0.174 F600
G1 X-102.299 Y35.058 Z4.7
X-102.378 Y35.083
X-102.459 Y35.097
X-102.542 Y35.099
X-102.601 Y35.093 F1000
X-102.66 Y35.081
X-102.738 Y35.055 F600
X-102.812 Y35.017
X-102.879 Y34.969
G3 X-103.087 Y34.533 Z4.5 I0.364 J-0.441
G1 X-103.081 Y34.496 F1000
X-103.071 Y34.458
X-103.056 Y34.42
X-103.035 Y34.383
X-103.005 Y34.345
X-102.954 Y34.296
X-102.916 Y34.271
X-102.879 Y34.252
X-102.841 Y34.239
X-102.804 Y34.231
X-102.766 Y34.228
X-102.728 Y34.229
X-102.691 Y34.234
X-102.653 Y34.245
X-102.617 Y34.26
X-102.58 Y34.281
X-102.544 Y34.309
X-102.202 Y34.649
X-102.051 Y34.78
X-102.03 Y34.796
X-101.901 Y34.889
X-101.804 Y34.947
X-101.75 Y34.977
X-101.6 Y35.039
X-101.45 Y35.091
X-101.299 Y35.133
X-100.848 Y35.248
X-100.81 Y35.254
X-100.462 Y35.611 Z4.7 F600
X-100.288 Y35.789
X-100.082 Y36 F1000
X-98.658 Y37.655
G2 X-96.635 Y38.586 I1.948 J-1.567
G1 X-94.529 Y38.52
X-93.175 Y38.172
X-81.685 Y33.743
G3 X-80.357 Y33.738 I0.67 J1.434
G1 X-80.246 Y33.794 F600
X-80.14 Y33.859
G3 X-79.785 Y34.182 Z4.507 I-0.875 J1.319
G1 X-79.774 Y34.195 Z4.5
X-79.664 Y34.345 F1000
X-79.634 Y34.381
X-79.533 Y34.496
X-79.484 Y34.536
X-79.141 Y34.796
X-79.032 Y34.87
X-78.912 Y34.959
X-78.802 Y35.061
X-78.701 Y35.176
X-78.6 Y35.31
X-78.501 Y35.467
X-78.398 Y35.665
X-78.317 Y35.854
X-78.254 Y36.042
X-78.207 Y36.233
X-78.199 Y36.282
X-78.194 Y36.486
X-78.245 Y36.683
X-78.347 Y36.859
X-78.494 Y37
X-78.673 Y37.096
G3 X-79.074 Y36.895 Z4.7 I-0.1 J-0.301 F600
G1 X-79.08 Y36.874
X-79.137 Y36.655
X-79.507 Y35.22 F1000
X-79.508 Y35.212
X-79.516 Y35.151 F600
X-79.512 Y35.089
X-79.496 Y35.029
X-79.469 Y34.973
G3 X-79.032 Y34.87 Z4.5 I0.27 J0.167
G1 X-78.882 Y34.97 F1000
X-78.732 Y35.047
X-78.609 Y35.097
X-78.581 Y35.107
X-78.431 Y35.155
X-78.385 Y35.165
X-78.241 Y35.205
X-78.108 Y35.275
X-77.985 Y35.361
X-77.874 Y35.462
X-77.774 Y35.574
X-77.688 Y35.697
X-77.616 Y35.828
X-77.558 Y35.967
X-77.541 Y36.026
X-77.51 Y36.232
X-77.539 Y36.439
X-77.623 Y36.63
X-77.757 Y36.789
X-77.931 Y36.906
X-78.13 Y36.969
G3 X-78.481 Y36.726 Z4.688 I-0.042 J-0.315 F600
G1 X-78.488 Y36.696 Z4.7
X-78.544 Y36.454
X-78.727 Y35.663 F1000
X-78.753 Y35.549 F600
X-78.761 Y35.484
X-78.756 Y35.418
G3 X-78.385 Y35.165 Z4.5 I0.312 J0.059
G1 X-78.28 Y35.189 F1000
X-78.13 Y35.217
X-77.829 Y35.271
X-77.746 Y35.277
X-77.597 Y35.295
X-77.457 Y35.347
X-77.328 Y35.424
X-77.212 Y35.519
X-77.112 Y35.631
X-77.029 Y35.756
X-76.962 Y35.891
X-76.946 Y35.939
X-76.908 Y36.168
X-76.943 Y36.397
X-77.047 Y36.605
X-77.21 Y36.77
X-77.416 Y36.877
X-77.645 Y36.914
G3 X-77.951 Y36.635 Z4.681 I0.01 J-0.317 F600
G1 X-77.957 Y36.588 Z4.7
X-77.987 Y36.341
X-78.049 Y35.829 F1000
X-78.073 Y35.632 F600
X-78.075 Y35.582
G3 X-77.746 Y35.277 Z4.5 I0.317 J0.012
G1 X-77.678 Y35.282 F1000
X-77.377 Y35.286
X-77.182 Y35.287
X-77.032 Y35.295
X-76.887 Y35.336
X-76.755 Y35.406
X-76.635 Y35.496
X-76.533 Y35.606
X-76.447 Y35.729
X-76.38 Y35.863
X-76.333 Y36.005
X-76.328 Y36.025
X-76.317 Y36.243
X-76.37 Y36.454
X-76.482 Y36.641
X-76.643 Y36.787
X-76.839 Y36.881
X-77.055 Y36.912
X-77.528 Y36.914
X-77.678
X-77.829 Y36.922
X-78.13 Y36.969
X-78.28 Y36.994
X-78.545 Y37.053
X-78.581 Y37.062
X-78.732 Y37.118
X-78.882 Y37.188
X-78.913 Y37.204
X-79.15 Y37.354
X-79.373 Y37.504
G3 X-79.811 Y37.403 Z4.7 I-0.168 J-0.269 F600
G1 X-79.838 Y37.348
X-79.854 Y37.288
X-79.859 Y37.226
X-79.851 Y37.165
X-79.832 Y37.108 F1000
X-79.804 Y37.057
X-79.766 Y37.011
X-79.721 Y36.973
X-77.817 Y35.664
X-77.613 Y35.524 F600
X-77.35 Y35.343 Z4.572
X-77.298 Y35.314 Z4.548
X-77.241 Y35.295 Z4.524
X-77.182 Y35.287 Z4.5
X-76.58 F1000
X-76.43 Y35.295
X-76.286 Y35.338
X-76.153 Y35.407
X-76.035 Y35.5
X-75.933 Y35.609
X-75.849 Y35.734
X-75.782 Y35.868
X-75.735 Y36.011
X-75.731 Y36.034
X-75.722 Y36.25
X-75.776 Y36.459
X-75.888 Y36.644
X-76.049 Y36.789
X-76.245 Y36.881
X-76.459 Y36.912
X-77.055
G3 X-77.361 Y36.584 Z4.7 I0.011 J-0.317 F600
G1 X-77.352 Y36.52
X-77.33 Y36.458
X-77.279 Y36.352
X-77.028 Y35.829 F1000
X-76.921 Y35.605 F600
X-76.855 Y35.467 Z4.639
G3 X-76.58 Y35.287 Z4.5 I0.286 J0.137
G1 X-76.324 F1000
X-76.174 Y35.289
X-76.023 Y35.316
X-75.873 Y35.346
X-75.827 Y35.356
X-75.796 Y35.363
X-75.721 Y35.388
X-75.655 Y35.418
X-75.592 Y35.454
G3 X-75.511 Y35.895 Z4.7 I-0.18 J0.262 F600
G1 X-75.55 Y35.942
X-75.599 Y35.981
X-75.654 Y36.01
X-75.713 Y36.027
X-75.78 Y36.033 F1000
X-75.846 Y36.024
X-75.909 Y36.002
X-75.993 Y35.962
X-76.041 Y35.933
X-76.084 Y35.896
X-76.119 Y35.852
X-76.149 Y35.798 F600
X-76.167 Y35.738
X-76.173 Y35.677
X-76.167 Y35.615
G3 X-75.796 Y35.363 Z4.5 I0.312 J0.06
G1 X-75.723 Y35.38 F1000
X-75.679 Y35.398
X-75.572 Y35.467
X-75.459 Y35.549
X-75.439 Y35.57
X-75.422 Y35.59
X-75.348 Y35.699
X-75.3 Y35.774
X-75.284 Y35.812
X-75.271 Y35.851
X-75.24 Y36
X-75.229 Y36.075
Y36.113
X-75.231 Y36.15
X-75.261 Y36.301
X-75.271 Y36.35
X-75.29 Y36.401
X-75.315 Y36.451
X-75.422 Y36.609
X-75.439 Y36.63
X-75.459 Y36.65
X-75.497 Y36.683
X-75.6 Y36.752
X-75.661 Y36.792
X-75.723 Y36.82
X-75.873 Y36.854
X-76.117 Y36.903
X-76.174 Y36.911
X-76.432 Y36.912
X-76.459
G3 X-76.765 Y36.615 I0.011 J-0.317 F600
G1 Y36.595 Z4.501
X-76.752 Y36.542 Z4.509
X-76.739 Y36.491 Z4.527
X-76.727 Y36.444 Z4.554
X-76.696 Y36.408 Z4.594
X-76.67 Y36.379 Z4.642
X-76.651 Y36.357 Z4.697
X-76.64 Y36.344 Z4.756
X-76.636 Y36.339 Z4.817
G0 X-87.423 Y36.439
Z4.8
G3 X-86.793 Y35.021 Z4.738 I0.922 J-0.439 F600
X-85.491 Y35.862 Z4.677 I0.292 J0.977
X-86.521 Y37.017 Z4.615 I-1.01 J0.137
X-87.503 Y35.822 Z4.554 I0.021 J-1.018
X-86.172 Y35.038 Z4.492 I1.001 J0.177
X-85.603 Y36.472 Z4.431 I-0.329 J0.961
X-87.107 Y36.813 Z4.369 I-0.897 J-0.473
X-87.21 Y35.276 Z4.308 I0.606 J-0.813
X-85.678 Y35.411 Z4.246 I0.709 J0.723
X-86.047 Y36.902 Z4.185 I-0.823 J0.588
X-87.462 Y36.308 Z4.123 I-0.453 J-0.903
X-86.657 Y35.003 Z4.062 I0.961 J-0.308
X-85.493 Y35.999 Z4 I0.156 J0.996
X-87.51 Y35.999 I-1.008 J0
X-85.493 Y35.999 I1.008 J0
G1 X-85.457 Y36.66 F1000
X-85.458 Y36.743
X-85.478 Y36.892
X-85.527 Y37.033
X-85.6 Y37.164
X-85.692 Y37.283
X-85.8 Y37.387
X-85.921 Y37.476
X-86.051 Y37.551
X-86.189 Y37.609
X-86.333 Y37.651
X-86.481 Y37.678
X-86.63 Y37.69
X-86.78 Y37.686
X-86.929 Y37.667
X-87.075 Y37.634
X-87.218 Y37.588
X-87.355 Y37.528
X-87.487 Y37.456
X-87.611 Y37.372
X-87.727 Y37.277
X-87.835 Y37.172
X-87.933 Y37.059
X-88.02 Y36.937
X-88.097 Y36.808
X-88.162 Y36.672
X-88.215 Y36.532
X-88.256 Y36.388
X-88.284 Y36.241
X-88.3 Y36.091
X-88.303 Y35.942
X-88.294 Y35.792
X-88.272 Y35.643
X-88.237 Y35.497
X-88.191 Y35.355
X-88.132 Y35.217
X-88.063 Y35.084
X-87.982 Y34.957
X-87.891 Y34.838
X-87.791 Y34.726
X-87.682 Y34.624
X-87.564 Y34.53
X-87.439 Y34.447
X-87.308 Y34.375
X-87.171 Y34.313
X-87.03 Y34.263
X-86.885 Y34.225
X-86.737 Y34.2
X-86.588 Y34.186
X-86.438 Y34.185
X-86.288 Y34.196
X-86.14 Y34.22
X-85.994 Y34.256
X-85.852 Y34.304
X-85.714 Y34.363
X-85.582 Y34.433
X-85.456 Y34.515
X-85.337 Y34.606
X-85.226 Y34.707
X-85.123 Y34.816
X-85.027 Y34.939
X-84.92 Y35.1
X-84.804 Y35.308
X-84.703 Y35.529
X-84.628 Y35.737
X-84.575 Y35.933
X-84.539 Y36.123
X-84.52 Y36.3
X-84.516 Y36.481
X-84.525 Y36.648
X-84.548 Y36.819
X-84.584 Y36.983
X-84.631 Y37.139
X-84.694 Y37.296
X-84.767 Y37.445
X-84.851 Y37.586
X-84.95 Y37.725
X-85.058 Y37.855
X-85.176 Y37.974
X-85.307 Y38.087
X-85.449 Y38.191
X-85.598 Y38.283
X-85.755 Y38.363
X-85.922 Y38.432
X-86.098 Y38.488
X-86.278 Y38.53
X-86.46 Y38.558
X-86.647 Y38.571
X-86.838 Y38.569
X-87.032 Y38.551
X-87.225 Y38.518
X-87.416 Y38.469
X-87.603 Y38.404
X-87.785 Y38.325
X-87.962 Y38.229
X-88.133 Y38.119
X-88.296 Y37.994
X-88.45 Y37.855
X-88.593 Y37.704
X-88.724 Y37.54
X-88.843 Y37.366
X-88.947 Y37.182
X-89.036 Y36.99
X-89.11 Y36.791
X-89.168 Y36.585
X-89.209 Y36.375
X-89.233 Y36.162
X-89.241 Y35.946
X-89.231 Y35.73
X-89.203 Y35.515
X-89.158 Y35.301
X-89.096 Y35.092
X-89.017 Y34.888
X-88.922 Y34.691
X-88.812 Y34.501
X-88.686 Y34.321
X-88.546 Y34.151
X-88.393 Y33.993
X-88.227 Y33.847
X-88.05 Y33.716
X-87.863 Y33.599
X-87.667 Y33.497
X-87.464 Y33.411
X-87.254 Y33.342
X-87.039 Y33.289
X-86.821 Y33.255
X-86.6 Y33.237
X-86.379 Y33.238
X-86.159 Y33.256
X-85.94 Y33.292
X-85.725 Y33.346
X-85.515 Y33.416
X-85.312 Y33.503
X-85.114 Y33.607
X-84.919 Y33.731
X-84.723 Y33.878
X-84.531 Y34.049
X-84.349 Y34.238
X-84.18 Y34.445
X-84.027 Y34.667
X-83.892 Y34.9
X-83.777 Y35.142
X-83.683 Y35.391
X-83.61 Y35.643
X-83.557 Y35.897
X-83.526 Y36.153
X-83.515 Y36.408
X-83.525 Y36.661
X-83.555 Y36.911
X-83.605 Y37.158
X-83.674 Y37.399
X-83.762 Y37.633
X-83.869 Y37.86
X-83.994 Y38.078
X-84.137 Y38.285
X-84.296 Y38.481
X-84.471 Y38.665
X-84.661 Y38.835
X-84.866 Y38.99
X-85.083 Y39.129
X-85.312 Y39.25
X-85.552 Y39.354
X-85.801 Y39.438
X-86.058 Y39.503
X-86.322 Y39.547
X-86.59 Y39.571
X-86.861 Y39.572
X-87.132 Y39.552
X-87.403 Y39.509
X-87.672 Y39.445
X-87.937 Y39.359
X-88.195 Y39.25
X-88.446 Y39.121
X-88.688 Y38.971
X-88.917 Y38.801
X-89.134 Y38.612
X-89.335 Y38.405
X-89.52 Y38.182
X-89.688 Y37.944
X-89.836 Y37.692
X-89.964 Y37.429
X-90.071 Y37.155
X-90.155 Y36.872
X-90.217 Y36.582
X-90.256 Y36.288
X-90.271 Y35.99
X-90.262 Y35.692
X-90.228 Y35.395
X-90.172 Y35.1
X-90.091 Y34.811
X-89.987 Y34.528
X-89.861 Y34.254
X-89.713 Y33.991
X-89.544 Y33.741
X-89.356 Y33.504
X-89.148 Y33.283
X-88.924 Y33.079
X-88.684 Y32.894
X-88.429 Y32.729
X-88.162 Y32.584
X-87.884 Y32.462
X-87.597 Y32.362
X-87.303 Y32.285
X-87.003 Y32.232
X-86.7 Y32.203
X-86.396 Y32.199
X-86.092 Y32.219
X-85.79 Y32.264
X-85.491 Y32.333
X-85.195 Y32.427
X-84.901 Y32.547
X-84.613 Y32.693
X-84.333 Y32.864
X-84.064 Y33.059
X-83.809 Y33.279
X-83.57 Y33.52
X-83.349 Y33.782
X-83.148 Y34.062
X-82.971 Y34.358
X-82.818 Y34.667
X-82.69 Y34.987
X-82.589 Y35.315
X-82.514 Y35.65
X-82.467 Y35.988
X-82.448 Y36.328
X-82.455 Y36.667
X-82.49 Y37.004
X-82.551 Y37.337
X-82.639 Y37.663
X-82.753 Y37.981
X-82.892 Y38.289
X-83.056 Y38.586
X-83.243 Y38.869
X-83.452 Y39.136
X-83.684 Y39.387
X-83.935 Y39.619
X-84.205 Y39.83
X-84.492 Y40.02
X-84.795 Y40.188
X-85.112 Y40.331
X-85.441 Y40.448
X-85.78 Y40.54
X-86.127 Y40.604
X-86.48 Y40.64
X-86.837 Y40.648
X-87.195 Y40.627
X-87.552 Y40.577
X-87.906 Y40.499
X-88.255 Y40.391
X-88.595 Y40.255
X-88.926 Y40.092
X-89.243 Y39.901
X-89.546 Y39.685
X-89.831 Y39.444
X-90.097 Y39.18
X-90.342 Y38.895
X-90.564 Y38.59
X-90.761 Y38.267
X-90.933 Y37.928
X-91.077 Y37.575
X-91.192 Y37.211
X-91.279 Y36.838
X-91.335 Y36.458
X-91.36 Y36.074
X-91.355 Y35.688
X-91.319 Y35.303
X-91.251 Y34.922
X-91.154 Y34.547
X-91.026 Y34.18
X-90.869 Y33.825
X-90.684 Y33.482
X-90.471 Y33.155
X-90.233 Y32.847
X-89.971 Y32.557
X-89.686 Y32.29
X-89.38 Y32.046
X-89.056 Y31.828
X-88.715 Y31.636
X-88.359 Y31.472
X-87.991 Y31.337
X-87.613 Y31.232
X-87.229 Y31.157
X-86.839 Y31.114
X-86.446 Y31.102
X-86.052 Y31.122
X-85.658 Y31.173
X-85.267 Y31.257
X-84.879 Y31.373
X-84.499 Y31.521
X-84.128 Y31.701
X-83.769 Y31.913
X-83.425 Y32.154
X-83.099 Y32.425
X-82.794 Y32.722
X-82.513 Y33.045
X-82.257 Y33.39
X-82.03 Y33.755
X-81.832 Y34.138
X-81.666 Y34.536
X-81.532 Y34.945
X-81.432 Y35.364
X-81.366 Y35.789
X-81.334 Y36.217
X-81.336 Y36.646
X-81.373 Y37.073
X-81.444 Y37.495
X-81.548 Y37.911
X-81.686 Y38.316
X-81.856 Y38.71
X-82.057 Y39.089
X-82.288 Y39.451
X-82.548 Y39.795
X-82.836 Y40.116
X-83.148 Y40.415
X-83.485 Y40.688
X-83.844 Y40.934
X-84.223 Y41.151
X-84.619 Y41.338
X-85.03 Y41.493
X-85.455 Y41.614
X-85.889 Y41.702
X-86.331 Y41.755
X-86.777 Y41.772
X-87.225 Y41.753
X-87.673 Y41.699
X-88.116 Y41.608
X-88.552 Y41.481
X-88.979 Y41.319
X-89.393 Y41.122
X-89.791 Y40.892
X-90.171 Y40.63
X-90.53 Y40.337
X-90.865 Y40.015
X-91.175 Y39.666
X-91.456 Y39.293
X-91.707 Y38.897
X-91.926 Y38.48
X-92.112 Y38.047
X-92.262 Y37.599
X-92.376 Y37.139
X-92.453 Y36.671
X-92.493 Y36.197
X-92.494 Y35.721
X-92.457 Y35.245
X-92.382 Y34.773
X-92.268 Y34.308
X-92.118 Y33.853
X-91.932 Y33.411
X-91.71 Y32.985
X-91.455 Y32.577
X-91.167 Y32.191
X-90.85 Y31.829
X-90.504 Y31.494
X-90.132 Y31.187
X-89.736 Y30.911
X-89.319 Y30.668
X-88.884 Y30.458
X-88.433 Y30.284
X-87.97 Y30.147
X-87.497 Y30.047
X-87.016 Y29.986
X-86.531 Y29.963
X-86.044 Y29.98
X-85.557 Y30.035
X-85.073 Y30.131
X-84.594 Y30.265
X-84.125 Y30.439
X-83.668 Y30.652
X-83.227 Y30.902
X-82.804 Y31.189
X-82.403 Y31.51
X-82.028 Y31.865
X-81.681 Y32.249
X-81.365 Y32.662
X-81.082 Y33.1
X-80.835 Y33.559
X-80.626 Y34.037
X-80.456 Y34.531
X-80.326 Y35.036
X-80.237 Y35.55
X-80.189 Y36.07
X-80.184 Y36.591
X-80.22 Y37.111
X-80.298 Y37.626
X-80.417 Y38.133
X-80.576 Y38.629
X-80.775 Y39.111
X-81.012 Y39.576
X-81.286 Y40.021
X-81.595 Y40.443
X-81.937 Y40.84
X-82.311 Y41.209
X-82.714 Y41.547
X-83.145 Y41.852
X-83.528 Y42.08
X-83.559 Y42.097
X-83.701 Y42.168
X-83.847 Y42.238
X-83.997 Y42.307
X-84.148 Y42.367
X-84.298 Y42.417
X-84.9 Y42.578
X-85.201 Y42.655
X-85.351 Y42.683
X-85.803 Y42.739
X-86.705 Y42.791
X-86.856 Y42.801
X-87.31 Y42.811
X-87.737 Y42.786
X-88.192 Y42.723
X-88.663 Y42.619
X-89.142 Y42.471
X-89.62 Y42.281
X-90.089 Y42.049
X-90.545 Y41.776
X-90.983 Y41.463
X-91.4 Y41.111
X-91.791 Y40.724
X-92.152 Y40.304
X-92.48 Y39.853
X-92.772 Y39.375
X-93.026 Y38.874
X-93.24 Y38.352
X-93.411 Y37.813
X-93.539 Y37.261
X-93.622 Y36.699
X-93.66 Y36.131
X-93.653 Y35.561
X-93.599 Y34.993
X-93.558 Y34.76
X-93.523 Y34.629
X-93.463 Y34.506
X-93.383 Y34.397
X-93.325 Y34.332
X-93.227 Y34.195
X-93.128 Y34.044
X-93.024 Y33.866
X-92.867 Y33.593
X-92.413 Y32.69
X-92.334 Y32.54
X-92.249 Y32.389
X-92.122 Y32.201
X-92.037 Y32.089
X-91.67 Y31.623
X-91.56 Y31.487
X-91.369 Y31.276
X-91.28 Y31.186
X-91.068 Y30.998
X-90.467 Y30.488
X-90.386 Y30.434
X-90.316 Y30.388
X-90.166 Y30.294
X-90.015 Y30.208
X-89.263 Y29.794
X-89.188 Y29.757
X-88.962 Y29.68
X-88.494 Y29.531
X-87.909 Y29.349
X-87.759 Y29.328
X-87.307 Y29.279
X-86.705 Y29.217
X-86.555 Y29.202
X-86.48 Y29.198
X-85.803 Y29.267
X-85.201 Y29.332
X-85.126 Y29.341
X-85.05 Y29.361
X-84.298 Y29.595
X-84.148 Y29.644
X-83.847 Y29.745
X-83.772 Y29.775
X-83.245 Y30.064
X-83.095 Y30.149
X-82.643 Y30.409
X-82.608 Y30.434
X-82.493 Y30.522
X-82.041 Y30.905
X-81.89 Y31.036
X-81.59 Y31.308
X-81.565 Y31.336
X-81.44 Y31.487
X-81.289 Y31.675
X-80.988 Y32.058
X-80.838 Y32.263
X-80.756 Y32.389
X-80.667 Y32.54
X-80.587 Y32.69
X-80.133 Y33.593
X-80.055 Y33.743
X-79.965 Y33.894
X-79.871 Y34.044
X-79.774 Y34.195
X-79.66 Y34.371
X-79.53 Y34.611
X-79.413 Y34.876
X-79.297 Y35.206
X-79.207 Y35.552
X-79.134 Y35.963
X-79.09 Y36.427
X-79.083 Y36.91
X-79.085 Y36.945
X-79.128 Y37.155
X-79.227 Y37.347
X-79.373 Y37.504
X-79.556 Y37.655
X-79.634 Y37.729
X-79.705 Y37.805
X-79.785 Y37.908
X-79.819 Y37.956
X-80.019 Y38.257
X-80.086 Y38.363
X-80.112 Y38.407
X-80.838 Y39.762
X-80.86 Y39.8
X-80.887 Y39.837
X-81.452 Y40.513
X-81.741 Y40.853
X-81.772 Y40.886
X-81.804 Y40.914
X-82.493 Y41.46
X-82.643 Y41.577
X-82.827 Y41.717
X-82.886 Y41.757
X-82.944 Y41.787
X-83.559 Y42.097
X-83.626 Y42.119 Z4.028 F600
X-84.045 Y42.208 Z4.2
X-84.288 Y42.259
X-86.125 Y42.648 F1000
X-86.368 Y42.699 F600
X-86.824 Y42.796 Z4.013
X-86.856 Y42.801 Z4
X-87.157 Y42.823 F1000
X-87.307 Y42.835
X-87.458 Y42.861
X-87.608 Y42.899
X-87.679 Y42.92
X-87.759 Y42.946
X-88.059 Y43.058
X-88.087 Y43.071
X-88.155 Y43.107
X-88.29 Y43.172
X-88.432 Y43.22
X-88.586 Y43.257
X-88.771 Y43.285
X-88.964 Y43.3
X-89.202 Y43.298
X-89.454 Y43.276
X-89.752 Y43.225
X-90.065 Y43.146
X-90.432 Y43.021
X-90.799 Y42.862
X-91.199 Y42.649
X-91.625 Y42.376
X-92.059 Y42.046
X-92.48 Y41.669
X-92.88 Y41.249
X-93.261 Y40.777
X-93.615 Y40.261
X-93.931 Y39.706
X-94.206 Y39.121
X-94.435 Y38.51
X-94.615 Y37.879
X-94.745 Y37.232
X-94.822 Y36.575
X-94.846 Y35.935
X-94.838 Y35.737
X-94.799 Y35.533
X-94.703 Y35.348
X-94.559 Y35.197
X-94.378 Y35.094
X-94.228 Y35.028
X-94.077 Y34.945
X-93.927 Y34.842
X-93.551 Y34.572
X-93.513 Y34.54
X-93.47 Y34.496
X-93.383 Y34.397
G3 X-92.934 Y34.386 Z4.2 I0.23 J0.219 F600
G1 X-92.904 Y34.418
X-92.879 Y34.455
X-92.798 Y34.592
X-88.167 Y42.459 F1000
X-88.042 Y42.672 F600
X-88.041 Y42.673
G3 X-88.155 Y43.107 Z4 I-0.274 J0.161
G1 X-88.21 Y43.137 F1000
X-88.36 Y43.232
X-88.511 Y43.334
X-88.564 Y43.372
X-88.661 Y43.443
X-88.879 Y43.626
X-88.999 Y43.717
X-89.13 Y43.789
X-89.268 Y43.848
X-89.411 Y43.893
X-89.578 Y43.932
X-89.758 Y43.959
X-89.972 Y43.973
X-90.196 Y43.97
X-90.463 Y43.945
X-90.74 Y43.897
X-91.062 Y43.813
X-91.407 Y43.693
X-91.775 Y43.531
X-92.186 Y43.309
X-92.609 Y43.034
X-93.025 Y42.714
X-93.458 Y42.322
X-93.891 Y41.862
X-94.304 Y41.344
X-94.675 Y40.795
X-95.003 Y40.22
X-95.288 Y39.622
X-95.529 Y39.005
X-95.723 Y38.372
X-95.871 Y37.726
X-95.973 Y37.071
X-96.007 Y36.647
Y36.358
X-95.985 Y36.092
X-95.95 Y35.876
X-95.942 Y35.844
X-95.853 Y35.631
X-95.702 Y35.456
X-95.505 Y35.335
X-95.281 Y35.282
X-95.131 Y35.27
X-94.98 Y35.241
X-94.83 Y35.209
X-94.529 Y35.139
X-94.386 Y35.097
X-94.378 Y35.094
G3 X-94.006 Y35.221 Z4.17 I0.105 J0.299 F600
G1 X-93.966 Y35.284 Z4.2
X-93.831 Y35.492
X-88.987 Y42.967 F1000
X-88.852 Y43.176 F600
X-88.825 Y43.217 Z4.18
G3 X-88.879 Y43.626 Z4 I-0.266 J0.173
G1 X-89.714 Y44.327 F1000
X-89.834 Y44.417
X-89.965 Y44.491
X-90.102 Y44.55
X-90.245 Y44.598
X-90.413 Y44.64
X-90.598 Y44.67
X-90.809 Y44.687
X-91.041
X-91.304 Y44.666
X-91.589 Y44.621
X-91.919 Y44.54
X-92.251 Y44.43
X-92.631 Y44.269
X-93.041 Y44.055
X-93.448 Y43.799
X-93.895 Y43.465
X-94.361 Y43.055
X-94.821 Y42.579
X-95.242 Y42.067
X-95.624 Y41.526
X-95.965 Y40.958
X-96.266 Y40.368
X-96.527 Y39.759
X-96.748 Y39.135
X-96.929 Y38.497
X-97.069 Y37.85
X-97.141 Y37.324
X-97.165 Y36.891
X-97.157 Y36.581
X-97.128 Y36.309
X-97.089 Y36.099
X-97.03 Y35.881
X-96.992 Y35.777
X-96.884 Y35.579
X-96.721 Y35.422
X-96.519 Y35.322
X-96.295 Y35.287
X-95.432
X-95.281 Y35.282
G3 X-95.011 Y35.43 Z4.129 I0.001 J0.317 F600
G1 X-94.917 Y35.58 Z4.2
X-94.784 Y35.79
X-89.819 Y43.666 F1000
X-89.687 Y43.876 F600
X-89.658 Y43.922 Z4.178
G3 X-89.714 Y44.327 Z4 I-0.269 J0.169
G1 X-90.548 Y45.026 F1000
X-90.668 Y45.117
X-90.796 Y45.194
X-90.932 Y45.257
X-91.074 Y45.308
X-91.237 Y45.352
X-91.419 Y45.387
X-91.625 Y45.408
X-91.856 Y45.414
X-92.113 Y45.4
X-92.398 Y45.361
X-92.72 Y45.29
X-93.048 Y45.189
X-93.433 Y45.037
X-93.832 Y44.841
X-94.258 Y44.586
X-94.728 Y44.253
X-95.211 Y43.846
X-95.683 Y43.381
X-96.116 Y42.88
X-96.511 Y42.348
X-96.869 Y41.791
X-97.19 Y41.211
X-97.475 Y40.613
X-97.724 Y40
X-97.937 Y39.372
X-98.113 Y38.734
X-98.244 Y38.089
X-98.309 Y37.551
X-98.326 Y37.1
X-98.31 Y36.702
X-98.273 Y36.397
X-98.218 Y36.129
X-98.159 Y35.925
X-98.078 Y35.711
X-97.963 Y35.537
X-97.805 Y35.402
X-97.615 Y35.317
X-97.408 Y35.287
X-96.295
G3 X-96.035 Y35.441 Z4.126 I-0.011 J0.317 F600
G1 X-95.94 Y35.598 Z4.2
X-95.812 Y35.81
X-90.648 Y44.362 F1000
X-90.52 Y44.575 F600
X-90.489 Y44.626 Z4.176
G3 X-90.548 Y45.026 Z4 I-0.272 J0.164
G1 X-91.445 Y45.779 F1000
X-91.564 Y45.869
X-91.695 Y45.942
X-91.833 Y46.002
X-91.979 Y46.052
X-92.152 Y46.095
X-92.337 Y46.126
X-92.561 Y46.145
X-92.793 Y46.147
X-93.069 Y46.126
X-93.358 Y46.08
X-93.687 Y46.001
X-94.051 Y45.882
X-94.433 Y45.722
X-94.874 Y45.494
X-95.331 Y45.21
X-95.796 Y44.865
X-96.289 Y44.434
X-96.751 Y43.96
X-97.178 Y43.453
X-97.57 Y42.919
X-97.927 Y42.361
X-98.252 Y41.784
X-98.543 Y41.189
X-98.801 Y40.579
X-99.025 Y39.955
X-99.212 Y39.32
X-99.36 Y38.674
X-99.457 Y38.049
X-99.496 Y37.512
X-99.493 Y37.026
X-99.457 Y36.613
X-99.406 Y36.316
X-99.337 Y36.042
X-99.268 Y35.838
X-99.222 Y35.734
X-99.11 Y35.552
X-98.949 Y35.409
X-98.755 Y35.319
X-98.543 Y35.287
X-97.408
G3 X-97.145 Y35.446 Z4.129 I-0.011 J0.317 F600
G1 X-97.056 Y35.599 Z4.2
X-96.931 Y35.814
X-91.54 Y45.112 F1000
X-91.415 Y45.327 F600
X-91.382 Y45.383 Z4.174
G3 X-91.445 Y45.779 Z4 I-0.275 J0.159
G1 X-92.272 Y46.473 F1000
X-92.392 Y46.563
X-92.519 Y46.643
X-92.653 Y46.709
X-92.795 Y46.763
X-92.952 Y46.809
X-93.14 Y46.848
X-93.338 Y46.872
X-93.576 Y46.883
X-93.824 Y46.874
X-94.122 Y46.838
X-94.431 Y46.776
X-94.788 Y46.674
X-95.18 Y46.528
X-95.582 Y46.339
X-96.043 Y46.075
X-96.534 Y45.74
X-97.025 Y45.343
X-97.505 Y44.887
X-97.949 Y44.396
X-98.361 Y43.876
X-98.74 Y43.333
X-99.088 Y42.77
X-99.405 Y42.188
X-99.692 Y41.591
X-99.947 Y40.98
X-100.171 Y40.356
X-100.361 Y39.722
X-100.513 Y39.077
X-100.622 Y38.424
X-100.676 Y37.809
X-100.681 Y37.263
X-100.647 Y36.792
X-100.592 Y36.436
X-100.519 Y36.128
X-100.446 Y35.904
X-100.38 Y35.744
X-100.268 Y35.558
X-100.107 Y35.412
X-99.911 Y35.319
X-99.696 Y35.287
X-98.543
G3 X-98.278 Y35.447 Z4.13 I-0.011 J0.317 F600
G1 X-98.191 Y35.6 Z4.2
X-98.068 Y35.815
X-92.365 Y45.805 F1000
X-92.242 Y46.021 F600
X-92.209 Y46.08 Z4.173
G3 X-92.272 Y46.473 Z4 I-0.276 J0.157
G1 X-93.175 Y47.23 F1000
X-93.294 Y47.321
