(bore1)
(T6 D=3.175 CR=0 - ZMIN=3 - flat end mill)
G90 G94
G17
G21
G28 G91 Z0
G90

(Bore1 6)
T6
(18 Flat-45 degree helix)
S18000 M3
G17 G90 G94
G54
G0 X-97.653 Y65.244
Z26
G0 Z8
G1 Z6.318 F500
G19 G3 Y65.561 Z6 J0.317 K0
G1 Y65.72
G17 G3 X-97.971 Y66.037 I-0.317 J0
X-97.971 Y64.013 Z5.909 I0 J-1.012
X-97.971 Y66.037 Z5.818 I0 J1.012
X-97.971 Y64.013 Z5.728 I0 J-1.012
X-97.971 Y66.037 Z5.637 I0 J1.012
X-97.971 Y64.013 Z5.546 I0 J-1.012
X-97.971 Y66.037 Z5.455 I0 J1.012
X-97.971 Y64.013 Z5.364 I0 J-1.012
X-97.971 Y66.037 Z5.274 I0 J1.012
X-97.971 Y64.013 Z5.183 I0 J-1.012
X-97.971 Y66.037 Z5.092 I0 J1.012
X-97.971 Y64.013 Z5.001 I0 J-1.012
X-97.971 Y66.037 Z4.91 I0 J1.012
X-97.971 Y64.013 Z4.82 I0 J-1.012
X-97.971 Y66.037 Z4.729 I0 J1.012
X-97.971 Y64.013 Z4.638 I0 J-1.012
X-97.971 Y66.037 Z4.547 I0 J1.012
X-97.971 Y64.013 Z4.457 I0 J-1.012
X-97.971 Y66.037 Z4.366 I0 J1.012
X-97.971 Y64.013 Z4.275 I0 J-1.012
X-97.971 Y66.037 Z4.184 I0 J1.012
X-97.971 Y64.013 Z4.093 I0 J-1.012
X-97.971 Y66.038 Z4.003 I0 J1.012
X-97.971 Y64.013 Z3.912 I0 J-1.012
X-97.971 Y66.038 Z3.821 I0 J1.012
X-97.971 Y64.013 Z3.73 I0 J-1.012
X-97.971 Y66.038 Z3.639 I0 J1.012
X-97.971 Y64.013 Z3.549 I0 J-1.012
X-97.971 Y66.038 Z3.458 I0 J1.012
X-97.971 Y64.013 Z3.367 I0 J-1.012
X-97.971 Y66.038 Z3.276 I0 J1.012
X-97.971 Y64.013 Z3.185 I0 J-1.012
X-97.971 Y66.038 Z3.095 I0 J1.012
X-98.981 Y64.959 Z3.047 I0 J-1.012
X-97.838 Y64.021 Z3 I1.01 J0.066
X-98.103 Y66.029 I-0.133 J1.004
X-97.838 Y64.021 I0.133 J-1.004
X-97.565 Y64.378 I-0.042 J0.315
G1 X-97.586 Y64.535
X-97.595 Y64.605 Z3.008
X-97.604 Y64.672 Z3.031
X-97.612 Y64.731 Z3.069
X-97.618 Y64.781 Z3.12
X-97.623 Y64.819 Z3.18
X-97.626 Y64.842 Z3.247
X-97.627 Y64.85 Z3.318
G0 Z16
X-74.603 Y65.244
Z8
G1 Z6.318 F500
G19 G3 Y65.561 Z6 J0.317 K0
G1 Y65.72
G17 G3 X-74.921 Y66.037 I-0.318 J0
X-74.921 Y64.013 Z5.909 I0 J-1.012
X-74.921 Y66.037 Z5.818 I0 J1.012
X-74.921 Y64.013 Z5.728 I0 J-1.012
X-74.921 Y66.037 Z5.637 I0 J1.012
X-74.921 Y64.013 Z5.546 I0 J-1.012
X-74.921 Y66.037 Z5.455 I0 J1.012
X-74.921 Y64.013 Z5.364 I0 J-1.012
X-74.921 Y66.037 Z5.274 I0 J1.012
X-74.921 Y64.013 Z5.183 I0 J-1.012
X-74.921 Y66.037 Z5.092 I0 J1.012
X-74.921 Y64.013 Z5.001 I0 J-1.012
X-74.921 Y66.037 Z4.91 I0 J1.012
X-74.921 Y64.013 Z4.82 I0 J-1.012
X-74.921 Y66.037 Z4.729 I0 J1.012
X-74.921 Y64.013 Z4.638 I0 J-1.012
X-74.921 Y66.037 Z4.547 I0 J1.012
X-74.921 Y64.013 Z4.457 I0 J-1.012
X-74.921 Y66.037 Z4.366 I0 J1.012
X-74.921 Y64.013 Z4.275 I0 J-1.012
X-74.921 Y66.037 Z4.184 I0 J1.012
X-74.921 Y64.013 Z4.093 I0 J-1.012
X-74.921 Y66.038 Z4.003 I0 J1.012
X-74.921 Y64.013 Z3.912 I0 J-1.012
X-74.921 Y66.038 Z3.821 I0 J1.012
X-74.921 Y64.013 Z3.73 I0 J-1.012
X-74.921 Y66.038 Z3.639 I0 J1.012
X-74.921 Y64.013 Z3.549 I0 J-1.012
X-74.921 Y66.038 Z3.458 I0 J1.012
X-74.921 Y64.013 Z3.367 I0 J-1.012
X-74.921 Y66.038 Z3.276 I0 J1.012
X-74.921 Y64.013 Z3.185 I0 J-1.012
X-74.921 Y66.038 Z3.095 I0 J1.012
X-75.931 Y64.959 Z3.047 I0 J-1.012
X-74.788 Y64.021 Z3 I1.01 J0.066
X-75.053 Y66.029 I-0.133 J1.004
X-74.788 Y64.021 I0.133 J-1.004
X-74.515 Y64.378 I-0.042 J0.315
G1 X-74.536 Y64.535
X-74.545 Y64.605 Z3.008
X-74.554 Y64.672 Z3.031
X-74.562 Y64.731 Z3.069
X-74.568 Y64.781 Z3.12
X-74.573 Y64.819 Z3.18
X-74.576 Y64.842 Z3.247
X-74.577 Y64.85 Z3.318
G0 Z16
X-27.653 Y65.244
Z8
G1 Z6.318 F500
G19 G3 Y65.561 Z6 J0.317 K0
G1 Y65.72
G17 G3 X-27.971 Y66.037 I-0.317 J0
X-27.971 Y64.013 Z5.909 I0 J-1.012
X-27.971 Y66.037 Z5.818 I0 J1.012
X-27.971 Y64.013 Z5.728 I0 J-1.012
X-27.971 Y66.037 Z5.637 I0 J1.012
X-27.971 Y64.013 Z5.546 I0 J-1.012
X-27.971 Y66.037 Z5.455 I0 J1.012
X-27.971 Y64.013 Z5.364 I0 J-1.012
X-27.971 Y66.037 Z5.274 I0 J1.012
X-27.971 Y64.013 Z5.183 I0 J-1.012
X-27.971 Y66.037 Z5.092 I0 J1.012
X-27.971 Y64.013 Z5.001 I0 J-1.012
X-27.971 Y66.037 Z4.91 I0 J1.012
X-27.971 Y64.013 Z4.82 I0 J-1.012
X-27.971 Y66.037 Z4.729 I0 J1.012
X-27.971 Y64.013 Z4.638 I0 J-1.012
X-27.971 Y66.037 Z4.547 I0 J1.012
X-27.971 Y64.013 Z4.457 I0 J-1.012
X-27.971 Y66.037 Z4.366 I0 J1.012
X-27.971 Y64.013 Z4.275 I0 J-1.012
X-27.971 Y66.037 Z4.184 I0 J1.012
X-27.971 Y64.013 Z4.093 I0 J-1.012
X-27.971 Y66.037 Z4.003 I0 J1.012
X-27.971 Y64.013 Z3.912 I0 J-1.012
X-27.971 Y66.037 Z3.821 I0 J1.012
X-27.971 Y64.013 Z3.73 I0 J-1.012
X-27.971 Y66.038 Z3.639 I0 J1.012
X-27.971 Y64.013 Z3.549 I0 J-1.012
X-27.971 Y66.038 Z3.458 I0 J1.012
X-27.971 Y64.013 Z3.367 I0 J-1.012
X-27.971 Y66.038 Z3.276 I0 J1.012
X-27.971 Y64.013 Z3.185 I0 J-1.012
X-27.971 Y66.038 Z3.095 I0 J1.012
X-28.981 Y64.959 Z3.047 I0 J-1.012
X-27.838 Y64.021 Z3 I1.01 J0.066
X-28.103 Y66.029 I-0.133 J1.004
X-27.838 Y64.021 I0.133 J-1.004
X-27.565 Y64.378 I-0.042 J0.315
G1 X-27.586 Y64.535
X-27.595 Y64.605 Z3.008
X-27.604 Y64.672 Z3.031
X-27.612 Y64.731 Z3.069
X-27.618 Y64.781 Z3.12
X-27.623 Y64.819 Z3.18
X-27.626 Y64.842 Z3.247
X-27.627 Y64.85 Z3.318
G0 Z16
X-4.603 Y65.244
Z8
G1 Z6.318 F500
G19 G3 Y65.561 Z6 J0.317 K0
G1 Y65.72
G17 G3 X-4.921 Y66.037 I-0.317 J0
X-4.921 Y64.013 Z5.909 I0 J-1.012
X-4.921 Y66.037 Z5.818 I0 J1.012
X-4.921 Y64.013 Z5.728 I0 J-1.012
X-4.921 Y66.037 Z5.637 I0 J1.012
X-4.921 Y64.013 Z5.546 I0 J-1.012
X-4.921 Y66.037 Z5.455 I0 J1.012
X-4.921 Y64.013 Z5.364 I0 J-1.012
X-4.921 Y66.037 Z5.274 I0 J1.012
X-4.921 Y64.013 Z5.183 I0 J-1.012
X-4.921 Y66.037 Z5.092 I0 J1.012
X-4.921 Y64.013 Z5.001 I0 J-1.012
X-4.921 Y66.037 Z4.91 I0 J1.012
X-4.921 Y64.013 Z4.82 I0 J-1.012
X-4.921 Y66.037 Z4.729 I0 J1.012
X-4.921 Y64.013 Z4.638 I0 J-1.012
X-4.921 Y66.037 Z4.547 I0 J1.012
X-4.921 Y64.013 Z4.457 I0 J-1.012
X-4.921 Y66.037 Z4.366 I0 J1.012
X-4.921 Y64.013 Z4.275 I0 J-1.012
X-4.921 Y66.037 Z4.184 I0 J1.012
X-4.921 Y64.013 Z4.093 I0 J-1.012
X-4.921 Y66.037 Z4.003 I0 J1.012
X-4.921 Y64.013 Z3.912 I0 J-1.012
X-4.921 Y66.038 Z3.821 I0 J1.012
X-4.921 Y64.013 Z3.73 I0 J-1.012
X-4.921 Y66.038 Z3.639 I0 J1.012
X-4.921 Y64.013 Z3.549 I0 J-1.012
X-4.921 Y66.038 Z3.458 I0 J1.012
X-4.921 Y64.013 Z3.367 I0 J-1.012
X-4.921 Y66.038 Z3.276 I0 J1.012
X-4.921 Y64.013 Z3.185 I0 J-1.012
X-4.921 Y66.038 Z3.095 I0 J1.012
X-5.931 Y64.959 Z3.047 I0 J-1.012
X-4.788 Y64.021 Z3 I1.01 J0.066
X-5.053 Y66.029 I-0.133 J1.004
X-4.788 Y64.021 I0.133 J-1.004
X-4.515 Y64.378 I-0.042 J0.315
G1 X-4.536 Y64.535
X-4.545 Y64.605 Z3.008
X-4.554 Y64.672 Z3.031
X-4.562 Y64.731 Z3.069
X-4.568 Y64.781 Z3.12
X-4.573 Y64.819 Z3.18
X-4.576 Y64.842 Z3.247
X-4.577 Y64.85 Z3.318
G0 Z16
X-4.603 Y7.194
Z8
G1 Z6.318 F500
G19 G3 Y7.511 Z6 J0.318 K0
G1 Y7.67
G17 G3 X-4.921 Y7.988 I-0.317 J0
X-4.921 Y5.962 Z5.909 I0 J-1.013
X-4.921 Y7.988 Z5.818 I0 J1.013
X-4.921 Y5.962 Z5.728 I0 J-1.013
X-4.921 Y7.988 Z5.637 I0 J1.013
X-4.921 Y5.962 Z5.546 I0 J-1.013
X-4.921 Y7.988 Z5.455 I0 J1.013
X-4.921 Y5.962 Z5.364 I0 J-1.013
X-4.921 Y7.988 Z5.274 I0 J1.013
X-4.921 Y5.962 Z5.183 I0 J-1.013
X-4.921 Y7.988 Z5.092 I0 J1.013
X-4.921 Y5.962 Z5.001 I0 J-1.013
X-4.921 Y7.987 Z4.91 I0 J1.013
X-4.921 Y5.962 Z4.82 I0 J-1.013
X-4.921 Y7.987 Z4.729 I0 J1.013
X-4.921 Y5.962 Z4.638 I0 J-1.013
X-4.921 Y7.987 Z4.547 I0 J1.013
X-4.921 Y5.962 Z4.457 I0 J-1.012
X-4.921 Y7.987 Z4.366 I0 J1.012
X-4.921 Y5.962 Z4.275 I0 J-1.012
X-4.921 Y7.987 Z4.184 I0 J1.012
X-4.921 Y5.963 Z4.093 I0 J-1.012
X-4.921 Y7.987 Z4.003 I0 J1.012
X-4.921 Y5.963 Z3.912 I0 J-1.012
X-4.921 Y7.987 Z3.821 I0 J1.012
X-4.921 Y5.963 Z3.73 I0 J-1.012
X-4.921 Y7.987 Z3.639 I0 J1.012
X-4.921 Y5.963 Z3.549 I0 J-1.012
X-4.921 Y7.987 Z3.458 I0 J1.012
X-4.921 Y5.963 Z3.367 I0 J-1.012
X-4.921 Y7.987 Z3.276 I0 J1.012
X-4.921 Y5.963 Z3.185 I0 J-1.012
X-4.921 Y7.987 Z3.095 I0 J1.012
X-5.931 Y6.909 Z3.047 I0 J-1.012
X-4.788 Y5.971 Z3 I1.01 J0.066
X-5.053 Y7.979 I-0.133 J1.004
X-4.788 Y5.971 I0.133 J-1.004
X-4.515 Y6.328 I-0.042 J0.315
G1 X-4.536 Y6.485
X-4.545 Y6.555 Z3.008
X-4.554 Y6.622 Z3.031
X-4.562 Y6.681 Z3.069
X-4.568 Y6.731 Z3.12
X-4.573 Y6.769 Z3.18
X-4.576 Y6.792 Z3.247
X-4.577 Y6.8 Z3.318
G0 Z16
X-5.682 Y23.639
Z8
G1 Z6.318 F500
G19 G3 Y23.956 Z6 J0.317 K0
G1 Y24.115
G17 G3 X-6 Y24.433 I-0.318 J0
X-6 Y22.608 Z5.913 I0 J-0.913
X-6 Y24.433 Z5.825 I0 J0.913
X-6 Y22.608 Z5.738 I0 J-0.913
X-6 Y24.433 Z5.651 I0 J0.913
X-6 Y22.608 Z5.563 I0 J-0.913
X-6 Y24.433 Z5.476 I0 J0.913
X-6 Y22.608 Z5.389 I0 J-0.913
X-6 Y24.433 Z5.302 I0 J0.913
X-6 Y22.608 Z5.214 I0 J-0.913
X-6 Y24.433 Z5.127 I0 J0.913
X-6 Y22.608 Z5.04 I0 J-0.913
X-6 Y24.433 Z4.952 I0 J0.913
X-6 Y22.608 Z4.865 I0 J-0.913
X-6 Y24.433 Z4.778 I0 J0.913
X-6 Y22.608 Z4.69 I0 J-0.913
X-6 Y24.433 Z4.603 I0 J0.913
X-6 Y22.608 Z4.516 I0 J-0.913
X-6 Y24.433 Z4.429 I0 J0.913
X-6 Y22.608 Z4.341 I0 J-0.913
X-6 Y24.433 Z4.254 I0 J0.913
X-6 Y22.608 Z4.167 I0 J-0.913
X-6 Y24.433 Z4.079 I0 J0.913
X-6 Y22.608 Z3.992 I0 J-0.913
X-6 Y24.433 Z3.905 I0 J0.913
X-6 Y22.608 Z3.817 I0 J-0.913
X-6 Y24.433 Z3.73 I0 J0.913
X-6 Y22.608 Z3.643 I0 J-0.913
X-6 Y24.433 Z3.556 I0 J0.912
X-6 Y22.608 Z3.468 I0 J-0.912
X-6 Y24.433 Z3.381 I0 J0.912
X-6 Y22.608 Z3.294 I0 J-0.912
X-6 Y24.433 Z3.206 I0 J0.912
X-6 Y22.608 Z3.119 I0 J-0.912
X-6 Y24.433 Z3.032 I0 J0.912
X-6.83 Y23.899 Z3 I0 J-0.912
X-5.17 Y23.141 I0.83 J-0.379
X-6.83 Y23.899 I-0.83 J0.379
X-6.673 Y23.479 I0.289 J-0.132
G1 X-6.529 Y23.413
X-6.465 Y23.383 Z3.008
X-6.403 Y23.355 Z3.031
X-6.349 Y23.33 Z3.069
X-6.303 Y23.309 Z3.12
X-6.269 Y23.294 Z3.18
X-6.247 Y23.284 Z3.247
X-6.24 Y23.281 Z3.318
G0 Z16
X-26.683 Y23.639
Z8
G1 Z6.318 F500
G19 G3 Y23.956 Z6 J0.317 K0
G1 Y24.115
G17 G3 X-27 Y24.433 I-0.317 J0
X-27 Y22.608 Z5.913 I0 J-0.913
X-27 Y24.433 Z5.825 I0 J0.913
X-27 Y22.608 Z5.738 I0 J-0.913
X-27 Y24.433 Z5.651 I0 J0.913
X-27 Y22.608 Z5.563 I0 J-0.913
X-27 Y24.433 Z5.476 I0 J0.913
X-27 Y22.608 Z5.389 I0 J-0.913
X-27 Y24.433 Z5.302 I0 J0.913
X-27 Y22.608 Z5.214 I0 J-0.913
X-27 Y24.433 Z5.127 I0 J0.913
X-27 Y22.608 Z5.04 I0 J-0.913
X-27 Y24.433 Z4.952 I0 J0.913
X-27 Y22.608 Z4.865 I0 J-0.913
X-27 Y24.433 Z4.778 I0 J0.913
X-27 Y22.608 Z4.69 I0 J-0.913
X-27 Y24.433 Z4.603 I0 J0.913
X-27 Y22.608 Z4.516 I0 J-0.913
X-27 Y24.433 Z4.429 I0 J0.913
X-27 Y22.608 Z4.341 I0 J-0.913
X-27 Y24.433 Z4.254 I0 J0.913
X-27 Y22.608 Z4.167 I0 J-0.913
X-27 Y24.433 Z4.079 I0 J0.913
X-27 Y22.608 Z3.992 I0 J-0.913
X-27 Y24.433 Z3.905 I0 J0.913
X-27 Y22.608 Z3.817 I0 J-0.913
X-27 Y24.433 Z3.73 I0 J0.913
X-27 Y22.608 Z3.643 I0 J-0.913
X-27 Y24.433 Z3.556 I0 J0.913
X-27 Y22.608 Z3.468 I0 J-0.913
X-27 Y24.433 Z3.381 I0 J0.913
X-27 Y22.608 Z3.294 I0 J-0.913
X-27 Y24.433 Z3.206 I0 J0.913
X-27 Y22.608 Z3.119 I0 J-0.913
X-27 Y24.433 Z3.032 I0 J0.913
X-27.83 Y23.899 Z3 I0 J-0.913
X-26.17 Y23.141 I0.83 J-0.379
X-27.83 Y23.899 I-0.83 J0.379
X-27.673 Y23.479 I0.289 J-0.132
G1 X-27.529 Y23.413
X-27.465 Y23.383 Z3.008
X-27.403 Y23.355 Z3.031
X-27.349 Y23.33 Z3.069
X-27.303 Y23.309 Z3.12
X-27.269 Y23.294 Z3.18
X-27.247 Y23.284 Z3.247
X-27.24 Y23.281 Z3.318
G0 Z16
X-27.653 Y7.194
Z8
G1 Z6.318 F500
G19 G3 Y7.511 Z6 J0.318 K0
G1 Y7.67
G17 G3 X-27.971 Y7.988 I-0.317 J0
X-27.971 Y5.962 Z5.909 I0 J-1.013
X-27.971 Y7.988 Z5.818 I0 J1.013
X-27.971 Y5.962 Z5.728 I0 J-1.013
X-27.971 Y7.988 Z5.637 I0 J1.013
X-27.971 Y5.962 Z5.546 I0 J-1.013
X-27.971 Y7.988 Z5.455 I0 J1.013
X-27.971 Y5.962 Z5.364 I0 J-1.013
X-27.971 Y7.987 Z5.274 I0 J1.013
X-27.971 Y5.962 Z5.183 I0 J-1.013
X-27.971 Y7.987 Z5.092 I0 J1.013
X-27.971 Y5.962 Z5.001 I0 J-1.013
X-27.971 Y7.987 Z4.91 I0 J1.013
X-27.971 Y5.962 Z4.82 I0 J-1.012
X-27.971 Y7.987 Z4.729 I0 J1.012
X-27.971 Y5.962 Z4.638 I0 J-1.012
X-27.971 Y7.987 Z4.547 I0 J1.012
X-27.971 Y5.963 Z4.457 I0 J-1.012
X-27.971 Y7.987 Z4.366 I0 J1.012
X-27.971 Y5.963 Z4.275 I0 J-1.012
X-27.971 Y7.987 Z4.184 I0 J1.012
X-27.971 Y5.963 Z4.093 I0 J-1.012
X-27.971 Y7.987 Z4.003 I0 J1.012
X-27.971 Y5.963 Z3.912 I0 J-1.012
X-27.971 Y7.987 Z3.821 I0 J1.012
X-27.971 Y5.963 Z3.73 I0 J-1.012
X-27.971 Y7.987 Z3.639 I0 J1.012
X-27.971 Y5.963 Z3.549 I0 J-1.012
X-27.971 Y7.987 Z3.458 I0 J1.012
X-27.971 Y5.963 Z3.367 I0 J-1.012
X-27.971 Y7.987 Z3.276 I0 J1.012
X-27.971 Y5.963 Z3.185 I0 J-1.012
X-27.971 Y7.987 Z3.095 I0 J1.012
X-28.981 Y6.909 Z3.047 I0 J-1.012
X-27.838 Y5.971 Z3 I1.01 J0.066
X-28.103 Y7.979 I-0.133 J1.004
X-27.838 Y5.971 I0.133 J-1.004
X-27.565 Y6.328 I-0.042 J0.315
G1 X-27.586 Y6.485
X-27.595 Y6.555 Z3.008
X-27.604 Y6.622 Z3.031
X-27.612 Y6.681 Z3.069
X-27.618 Y6.731 Z3.12
X-27.623 Y6.769 Z3.18
X-27.626 Y6.792 Z3.247
X-27.627 Y6.8 Z3.318
G0 Z16
X-74.603 Y7.194
Z8
G1 Z6.318 F500
G19 G3 Y7.511 Z6 J0.318 K0
G1 Y7.67
G17 G3 X-74.921 Y7.988 I-0.318 J0
X-74.921 Y5.962 Z5.909 I0 J-1.013
X-74.921 Y7.988 Z5.818 I0 J1.013
X-74.921 Y5.962 Z5.728 I0 J-1.013
X-74.921 Y7.988 Z5.637 I0 J1.013
X-74.921 Y5.962 Z5.546 I0 J-1.013
X-74.921 Y7.988 Z5.455 I0 J1.013
X-74.921 Y5.962 Z5.364 I0 J-1.013
X-74.921 Y7.988 Z5.274 I0 J1.013
X-74.921 Y5.962 Z5.183 I0 J-1.013
X-74.921 Y7.988 Z5.092 I0 J1.013
X-74.921 Y5.962 Z5.001 I0 J-1.013
X-74.921 Y7.987 Z4.91 I0 J1.013
X-74.921 Y5.962 Z4.82 I0 J-1.013
X-74.921 Y7.987 Z4.729 I0 J1.013
X-74.921 Y5.962 Z4.638 I0 J-1.013
X-74.921 Y7.987 Z4.547 I0 J1.013
X-74.921 Y5.962 Z4.457 I0 J-1.013
X-74.921 Y7.987 Z4.366 I0 J1.013
X-74.921 Y5.962 Z4.275 I0 J-1.012
X-74.921 Y7.987 Z4.184 I0 J1.012
X-74.921 Y5.962 Z4.093 I0 J-1.012
X-74.921 Y7.987 Z4.003 I0 J1.012
X-74.921 Y5.963 Z3.912 I0 J-1.012
X-74.921 Y7.987 Z3.821 I0 J1.012
X-74.921 Y5.963 Z3.73 I0 J-1.012
X-74.921 Y7.987 Z3.639 I0 J1.012
X-74.921 Y5.963 Z3.549 I0 J-1.012
X-74.921 Y7.987 Z3.458 I0 J1.012
X-74.921 Y5.963 Z3.367 I0 J-1.012
X-74.921 Y7.987 Z3.276 I0 J1.012
X-74.921 Y5.963 Z3.185 I0 J-1.012
X-74.921 Y7.987 Z3.095 I0 J1.012
X-75.931 Y6.909 Z3.047 I0 J-1.012
X-74.788 Y5.971 Z3 I1.01 J0.066
X-75.053 Y7.979 I-0.133 J1.004
X-74.788 Y5.971 I0.133 J-1.004
X-74.515 Y6.328 I-0.042 J0.315
G1 X-74.536 Y6.485
X-74.545 Y6.555 Z3.008
X-74.554 Y6.622 Z3.031
X-74.562 Y6.681 Z3.069
X-74.568 Y6.731 Z3.12
X-74.573 Y6.769 Z3.18
X-74.576 Y6.792 Z3.247
X-74.577 Y6.8 Z3.318
G0 Z16
X-75.683 Y23.639
Z8
G1 Z6.318 F500
G19 G3 Y23.956 Z6 J0.317 K0
G1 Y24.115
G17 G3 X-76 Y24.433 I-0.317 J0
X-76 Y22.608 Z5.913 I0 J-0.913
X-76 Y24.433 Z5.825 I0 J0.913
X-76 Y22.608 Z5.738 I0 J-0.913
X-76 Y24.433 Z5.651 I0 J0.913
X-76 Y22.608 Z5.563 I0 J-0.913
X-76 Y24.433 Z5.476 I0 J0.913
X-76 Y22.608 Z5.389 I0 J-0.913
X-76 Y24.433 Z5.302 I0 J0.913
X-76 Y22.608 Z5.214 I0 J-0.912
X-76 Y24.433 Z5.127 I0 J0.912
X-76 Y22.608 Z5.04 I0 J-0.912
X-76 Y24.433 Z4.952 I0 J0.912
X-76 Y22.608 Z4.865 I0 J-0.912
X-76 Y24.433 Z4.778 I0 J0.912
X-76 Y22.608 Z4.69 I0 J-0.912
X-76 Y24.432 Z4.603 I0 J0.912
X-76 Y22.608 Z4.516 I0 J-0.912
X-76 Y24.432 Z4.429 I0 J0.912
X-76 Y22.608 Z4.341 I0 J-0.912
X-76 Y24.432 Z4.254 I0 J0.912
X-76 Y22.608 Z4.167 I0 J-0.912
X-76 Y24.432 Z4.079 I0 J0.912
X-76 Y22.608 Z3.992 I0 J-0.912
X-76 Y24.432 Z3.905 I0 J0.912
X-76 Y22.608 Z3.817 I0 J-0.912
X-76 Y24.432 Z3.73 I0 J0.912
X-76 Y22.608 Z3.643 I0 J-0.912
X-76 Y24.432 Z3.556 I0 J0.912
X-76 Y22.608 Z3.468 I0 J-0.912
X-76 Y24.432 Z3.381 I0 J0.912
X-76 Y22.608 Z3.294 I0 J-0.912
X-76 Y24.432 Z3.206 I0 J0.912
X-76 Y22.608 Z3.119 I0 J-0.912
X-76 Y24.432 Z3.032 I0 J0.912
X-76.83 Y23.899 Z3 I0 J-0.912
X-75.17 Y23.141 I0.83 J-0.379
X-76.83 Y23.899 I-0.83 J0.379
X-76.673 Y23.479 I0.289 J-0.132
G1 X-76.529 Y23.413
X-76.465 Y23.383 Z3.008
X-76.403 Y23.355 Z3.031
X-76.349 Y23.33 Z3.069
X-76.303 Y23.309 Z3.12
X-76.269 Y23.294 Z3.18
X-76.247 Y23.284 Z3.247
X-76.24 Y23.281 Z3.318
G0 Z16
X-96.683 Y23.639
Z8
G1 Z6.318 F500
G19 G3 Y23.956 Z6 J0.317 K0
G1 Y24.115
G17 G3 X-97 Y24.433 I-0.317 J0
X-97 Y22.608 Z5.913 I0 J-0.913
X-97 Y24.433 Z5.825 I0 J0.913
X-97 Y22.608 Z5.738 I0 J-0.913
X-97 Y24.433 Z5.651 I0 J0.913
X-97 Y22.608 Z5.563 I0 J-0.913
X-97 Y24.433 Z5.476 I0 J0.913
X-97 Y22.608 Z5.389 I0 J-0.913
X-97 Y24.433 Z5.302 I0 J0.913
X-97 Y22.608 Z5.214 I0 J-0.912
X-97 Y24.433 Z5.127 I0 J0.912
X-97 Y22.608 Z5.04 I0 J-0.912
X-97 Y24.433 Z4.952 I0 J0.912
X-97 Y22.608 Z4.865 I0 J-0.912
X-97 Y24.433 Z4.778 I0 J0.912
X-97 Y22.608 Z4.69 I0 J-0.912
X-97 Y24.432 Z4.603 I0 J0.912
X-97 Y22.608 Z4.516 I0 J-0.912
X-97 Y24.432 Z4.429 I0 J0.912
X-97 Y22.608 Z4.341 I0 J-0.912
X-97 Y24.432 Z4.254 I0 J0.912
X-97 Y22.608 Z4.167 I0 J-0.912
X-97 Y24.432 Z4.079 I0 J0.912
X-97 Y22.608 Z3.992 I0 J-0.912
X-97 Y24.432 Z3.905 I0 J0.912
X-97 Y22.608 Z3.817 I0 J-0.912
X-97 Y24.432 Z3.73 I0 J0.912
X-97 Y22.608 Z3.643 I0 J-0.912
X-97 Y24.432 Z3.556 I0 J0.912
X-97 Y22.608 Z3.468 I0 J-0.912
X-97 Y24.432 Z3.381 I0 J0.912
X-97 Y22.608 Z3.294 I0 J-0.912
X-97 Y24.432 Z3.206 I0 J0.912
X-97 Y22.608 Z3.119 I0 J-0.912
X-97 Y24.432 Z3.032 I0 J0.912
X-97.83 Y23.899 Z3 I0 J-0.912
X-96.17 Y23.141 I0.83 J-0.379
X-97.83 Y23.899 I-0.83 J0.379
X-97.673 Y23.479 I0.289 J-0.132
G1 X-97.529 Y23.413
X-97.465 Y23.383 Z3.008
X-97.403 Y23.355 Z3.031
X-97.349 Y23.33 Z3.069
X-97.303 Y23.309 Z3.12
X-97.269 Y23.294 Z3.18
X-97.247 Y23.284 Z3.247
X-97.24 Y23.281 Z3.318
G0 Z16
X-97.653 Y7.194
Z8
G1 Z6.318 F500
G19 G3 Y7.511 Z6 J0.318 K0
G1 Y7.67
G17 G3 X-97.971 Y7.988 I-0.317 J0
X-97.971 Y5.962 Z5.909 I0 J-1.013
X-97.971 Y7.988 Z5.818 I0 J1.013
X-97.971 Y5.962 Z5.728 I0 J-1.013
X-97.971 Y7.988 Z5.637 I0 J1.013
X-97.971 Y5.962 Z5.546 I0 J-1.013
X-97.971 Y7.988 Z5.455 I0 J1.013
X-97.971 Y5.962 Z5.364 I0 J-1.013
X-97.971 Y7.988 Z5.274 I0 J1.013
X-97.971 Y5.962 Z5.183 I0 J-1.013
X-97.971 Y7.988 Z5.092 I0 J1.013
X-97.971 Y5.962 Z5.001 I0 J-1.013
X-97.971 Y7.987 Z4.91 I0 J1.013
X-97.971 Y5.962 Z4.82 I0 J-1.013
X-97.971 Y7.987 Z4.729 I0 J1.013
X-97.971 Y5.962 Z4.638 I0 J-1.013
X-97.971 Y7.987 Z4.547 I0 J1.013
X-97.971 Y5.962 Z4.457 I0 J-1.013
X-97.971 Y7.987 Z4.366 I0 J1.013
X-97.971 Y5.962 Z4.275 I0 J-1.012
X-97.971 Y7.987 Z4.184 I0 J1.012
X-97.971 Y5.962 Z4.093 I0 J-1.012
X-97.971 Y7.987 Z4.003 I0 J1.012
X-97.971 Y5.963 Z3.912 I0 J-1.012
X-97.971 Y7.987 Z3.821 I0 J1.012
X-97.971 Y5.963 Z3.73 I0 J-1.012
X-97.971 Y7.987 Z3.639 I0 J1.012
X-97.971 Y5.963 Z3.549 I0 J-1.012
X-97.971 Y7.987 Z3.458 I0 J1.012
X-97.971 Y5.963 Z3.367 I0 J-1.012
X-97.971 Y7.987 Z3.276 I0 J1.012
X-97.971 Y5.963 Z3.185 I0 J-1.012
X-97.971 Y7.987 Z3.095 I0 J1.012
X-98.981 Y6.909 Z3.047 I0 J-1.012
X-97.838 Y5.971 Z3 I1.01 J0.066
X-98.103 Y7.979 I-0.133 J1.004
X-97.838 Y5.971 I0.133 J-1.004
X-97.565 Y6.328 I-0.042 J0.315
G1 X-97.586 Y6.485
X-97.595 Y6.555 Z3.008
X-97.604 Y6.622 Z3.031
X-97.612 Y6.681 Z3.069
X-97.618 Y6.731 Z3.12
X-97.623 Y6.769 Z3.18
X-97.626 Y6.792 Z3.247
X-97.627 Y6.8 Z3.318
G0 Z26
G28 G91 Z0
G90
G28 G91 X0 Y0
G90
M5
M30
