(chamfer3)
(T2 D=3 CR=0 TAPER=45deg - ZMIN=2.2 - chamfer mill)
G90 G94
G17
G21
G28 G91 Z0
G90

(2D Chamfer2 6)
T2
S15000 M3
G17 G90 G94
G54
G0 X-32.25 Y34.994
Z26
G0 Z11
G1 Z8 F300
Z2.2
X-31.95
Y54.446 F500
X-32.25 F300
G0 Z16
X-102.25 Y34.994
Z11
G1 Z8 F300
Z2.2
X-101.95
Y54.446 F500
X-102.25 F300
G0 Z26
G28 G91 Z0
G90
G28 G91 X0 Y0
G90
M5
M30
