(chamfer2)
(T2 D=3 CR=0 TAPER=45deg - ZMIN=1.2 - chamfer mill)
G90 G94
G17
G21
G28 G91 Z0
G90

(2D Chamfer2 5)
T2
S15000 M3
G17 G90 G94
G54
G0 X-83.25 Y36
Z24
G0 Z11
G1 Z8 F300
Z1.2
X-82.95
G3 X-90.05 Y36 I-3.55 J0 F500
X-82.95 Y36 I3.55 J0
G1 X-83.25 F300
G0 Z14
X-13.25
Z11
G1 Z8 F300
Z1.2
X-12.95
G3 X-20.05 Y36 I-3.55 J0 F500
X-12.95 Y36 I3.55 J0
G1 X-13.25 F300
G0 Z24
G28 G91 Z0
G90
G28 G91 X0 Y0
G90
M5
M30
