(chamfer1)
(T2 D=3 CR=0 TAPER=45deg - ZMIN=2.2 - chamfer mill)
G90 G94
G17
G21
G28 G91 Z0
G90

(2D Chamfer2 4)
T2
S15000 M3
G17 G90 G94
G54
G0 X-70.75 Y44.743
Z24
G0 Z11
G1 Z8 F300
Z5.2
X-71.05
Y7.25 F500
G2 X-75.25 Y3.05 I-4.2 J0
G1 X-97.75
G2 X-101.95 Y7.25 I0 J4.2
G1 Y32.6
G2 X-100.5 Y34.05 I1.45 J0
G1 X-95.371
G2 X-94.017 Y33.119 I0 J-1.45
G3 X-78.983 Y33.119 I7.517 J2.881
G2 X-77.629 Y34.05 I1.354 J-0.519
G1 X-76
G3 X-76 Y38.15 I0 J2.05
G1 X-77.709
G2 X-79.05 Y39.051 I0 J1.45
G3 X-86.856 Y44.042 I-7.45 J-3.051
G2 X-87.853 Y44.38 I-0.064 J1.449
G1 X-101.432 Y55.774
G2 X-101.95 Y56.885 I0.932 J1.111
G1 Y64.75
G2 X-97.75 Y68.95 I4.2 J0
G1 X-75.25
G2 X-71.05 Y64.75 I0 J-4.2
G1 Y44.743
X-70.75 F300
G0 Z14
X-78.992 Y62.262
Z11
G1 Z8 F300
Z5.2
X-78.72 Y62.389
G2 X-78.95 Y63.425 I2.22 J1.036 F500
G1 Y64.5
G3 X-80.5 Y66.05 I-1.55 J0
G1 X-92.5
G3 X-93.922 Y65.117 I0 J-1.55
G2 X-94.05 Y64.01 I-4.049 J-0.092
G1 Y63.425
G2 X-96.5 Y60.975 I-2.45 J0
G1 X-97.5
G3 X-99.05 Y59.425 I0 J-1.55
G1 Y58.284
G3 X-98.496 Y57.097 I1.55 J0
G1 X-93.444 Y52.858
G3 X-91.963 Y52.573 I0.996 J1.187
G2 X-76.397 Y50.228 I5.463 J-16.573
G3 X-73.95 Y51.492 I0.897 J1.264
G1 Y59.425
G3 X-75.5 Y60.975 I-1.55 J0
G1 X-76.5
G2 X-78.72 Y62.389 I0 J2.45
G1 X-78.992 Y62.262 F300
G0 Z14
X-73.071 Y65.025
Z11
G1 Z8 F300
Z5.2
X-72.771
G3 X-77.071 Y65.025 I-2.15 J0 F500
X-72.771 Y65.025 I2.15 J0
G1 X-73.071 F300
G0 Z14
X-96.121
Z11
G1 Z8 F300
Z5.2
X-95.821
G3 X-100.121 Y65.025 I-2.15 J0 F500
X-95.821 Y65.025 I2.15 J0
G1 X-96.121 F300
G0 Z14
X-95.262 Y23.727
Z11
G1 Z8 F300
Z5.2
X-94.964 Y23.762
G3 X-99.036 Y23.278 I-2.036 J-0.242 F500
X-94.964 Y23.762 I2.036 J0.242
G1 X-95.262 Y23.727 F300
G0 Z14
X-88.193 Y6.25
Z11
G1 Z8 F300
Z5.2
Y5.95
X-80.5 F500
G3 X-78.95 Y7.5 I0 J1.55
G1 Y9.036
G2 X-77.725 Y11.158 I2.45 J0
G3 X-76.95 Y12.5 I-0.775 J1.342
G1 Y17.5
G3 X-78.5 Y19.05 I-1.55 J0
G1 X-94.5
G3 X-96.05 Y17.5 I0 J-1.55
G1 Y12.5
G3 X-95.275 Y11.158 I1.55 J0
G2 X-94.05 Y9.036 I-1.225 J-2.122
G1 Y7.5
G3 X-92.5 Y5.95 I1.55 J0
G1 X-88.193
Y6.25 F300
G0 Z14
X-96.121 Y6.975
Z11
G1 Z8 F300
Z5.2
X-95.821
G3 X-100.121 Y6.975 I-2.15 J0 F500
X-95.821 Y6.975 I2.15 J0
G1 X-96.121 F300
G0 Z14
X-73.082 Y7.182
Z11
G1 Z8 F300
Z5.2
X-72.784 Y7.216
G3 X-77.057 Y6.734 I-2.136 J-0.241 F500
X-72.784 Y7.216 I2.136 J0.241
G1 X-73.082 Y7.182 F300
G0 Z14
X-74.25 Y23.52
Z11
G1 Z8 F300
Z5.2
X-73.95
G3 X-78.05 Y23.52 I-2.05 J0 F500
X-73.95 Y23.52 I2.05 J0
G1 X-74.25 F300
G0 Z14
X-31.98 Y33.534
Z11
G1 Z8 F300
Z5.2
X-31.726 Y33.374
G2 X-30.5 Y34.05 I1.226 J-0.774 F500
G1 X-25.371
G2 X-24.017 Y33.119 I0 J-1.45
G3 X-8.983 Y33.119 I7.517 J2.881
G2 X-7.629 Y34.05 I1.354 J-0.519
G1 X-6
G3 X-6 Y38.15 I0 J2.05
G1 X-7.709
G2 X-9.05 Y39.051 I0 J1.45
G3 X-16.856 Y44.042 I-7.45 J-3.051
G2 X-17.853 Y44.38 I-0.064 J1.449
G1 X-31.432 Y55.774
G2 X-31.95 Y56.885 I0.932 J1.111
G1 Y64.75
G2 X-27.75 Y68.95 I4.2 J0
G1 X-5.25
G2 X-1.05 Y64.75 I0 J-4.2
G1 Y7.25
G2 X-5.25 Y3.05 I-4.2 J0
G1 X-27.75
G2 X-31.95 Y7.25 I0 J4.2
G1 Y32.6
G2 X-31.726 Y33.374 I1.45 J0
G1 X-31.98 Y33.534 F300
G0 Z14
X-25.25 Y23.52
Z11
G1 Z8 F300
Z5.2
X-24.95
G3 X-29.05 Y23.52 I-2.05 J0 F500
X-24.95 Y23.52 I2.05 J0
G1 X-25.25 F300
G0 Z14
X-9.038 Y10.094
Z11
G1 Z8 F300
Z5.2
X-8.761 Y9.979
G2 X-7.725 Y11.158 I2.261 J-0.943 F500
G3 X-6.95 Y12.5 I-0.775 J1.342
G1 Y17.5
G3 X-8.5 Y19.05 I-1.55 J0
G1 X-24.5
G3 X-26.05 Y17.5 I0 J-1.55
G1 Y12.5
G3 X-25.275 Y11.158 I1.55 J0
G2 X-24.05 Y9.036 I-1.225 J-2.122
G1 Y7.5
G3 X-22.5 Y5.95 I1.55 J0
G1 X-10.5
G3 X-8.95 Y7.5 I0 J1.55
G1 Y9.036
G2 X-8.761 Y9.979 I2.45 J0
G1 X-9.038 Y10.094 F300
G0 Z14
X-3.082 Y7.182
Z11
G1 Z8 F300
Z5.2
X-2.784 Y7.216
G3 X-7.057 Y6.734 I-2.136 J-0.241 F500
X-2.784 Y7.216 I2.136 J0.241
G1 X-3.082 Y7.182 F300
G0 Z14
X-4.25 Y23.52
Z11
G1 Z8 F300
Z5.2
X-3.95
G3 X-8.05 Y23.52 I-2.05 J0 F500
X-3.95 Y23.52 I2.05 J0
G1 X-4.25 F300
G0 Z14
X-8.992 Y62.262
Z11
G1 Z8 F300
Z5.2
X-8.72 Y62.389
G2 X-8.95 Y63.425 I2.22 J1.036 F500
G1 Y64.5
G3 X-10.5 Y66.05 I-1.55 J0
G1 X-22.5
G3 X-23.922 Y65.117 I0 J-1.55
G2 X-24.05 Y64.01 I-4.049 J-0.092
G1 Y63.425
G2 X-26.5 Y60.975 I-2.45 J0
G1 X-27.5
G3 X-29.05 Y59.425 I0 J-1.55
G1 Y58.284
G3 X-28.496 Y57.097 I1.55 J0
G1 X-23.444 Y52.858
G3 X-21.963 Y52.573 I0.996 J1.187
G2 X-6.397 Y50.228 I5.463 J-16.573
G3 X-3.95 Y51.492 I0.897 J1.264
G1 Y59.425
G3 X-5.5 Y60.975 I-1.55 J0
G1 X-6.5
G2 X-8.72 Y62.389 I0 J2.45
G1 X-8.992 Y62.262 F300
G0 Z14
X-3.071 Y65.025
Z11
G1 Z8 F300
Z5.2
X-2.771
G3 X-7.071 Y65.025 I-2.15 J0 F500
X-2.771 Y65.025 I2.15 J0
G1 X-3.071 F300
G0 Z14
X-26.121
Z11
G1 Z8 F300
Z5.2
X-25.821
G3 X-30.121 Y65.025 I-2.15 J0 F500
X-25.821 Y65.025 I2.15 J0
G1 X-26.121 F300
G0 Z14
X-26.132 Y7.182
Z11
G1 Z8 F300
Z5.2
X-25.834 Y7.216
G3 X-30.107 Y6.734 I-2.136 J-0.241 F500
X-25.834 Y7.216 I2.136 J0.241
G1 X-26.132 Y7.182 F300
G0 Z24
X-78.782 Y35.293
Z11
G1 Z8 F300
Z2.2
X-78.484 Y35.266
G3 X-78.503 Y36.92 I-8.016 J0.734 F500
G1 X-78.801 Y36.885 F300
G0 Z14
X-88.966 Y43.347
Z11
G1 Z8 F300
Z2.2
X-89.062 Y43.632
G3 X-94.517 Y35.266 I2.562 J-7.632 F500
G1 X-94.218 Y35.294 F300
G0 Z14
X-18.966 Y43.347
Z11
G1 Z8 F300
Z2.2
X-19.062 Y43.632
G3 X-24.517 Y35.266 I2.562 J-7.632 F500
G1 X-24.218 Y35.294 F300
G0 Z14
X-8.782 Y35.293
Z11
G1 Z8 F300
Z2.2
X-8.484 Y35.266
G3 X-8.503 Y36.92 I-8.016 J0.734 F500
G1 X-8.801 Y36.885 F300
G0 Z24
G28 G91 Z0
G90
G28 G91 X0 Y0
G90
M5
M30
