(contour1)
(T6 D=3.175 CR=0 - ZMIN=0 - flat end mill)
G90 G94
G17
G21
G28 G91 Z0
G90

(2D Contour2)
T6
(18 Flat-45 degree helix)
S18000 M3
G17 G90 G94
G54
G0 X-98.067 Y75.551
Z26
G0 Z7.5
G1 Z5.817 F30
G19 G2 Y75.234 Z5.5 J-0.317 K0 F600
G1 Y70.405
G17 G3 X-97.75 Y70.088 I0.317 J0
G1 X-75.25 F1000
G2 X-69.912 Y64.75 I0 J-5.338
G1 Y7.25
G2 X-75.25 Y1.913 I-5.338 J0
G1 X-97.75
G2 X-103.088 Y7.25 I0 J5.337
G1 Y64.75
G2 X-97.75 Y70.088 I5.338 J0
G3 X-97.433 Y70.405 I0 J0.317 F600
G1 Y70.723
G19 G3 Y71.04 Z5.817 J0 K0.318
G1 X-98.067 Y75.551 F1000
Z5.317 F30
G2 Y75.234 Z5 J-0.317 K0 F600
G1 Y70.405
G17 G3 X-97.75 Y70.088 I0.317 J0
G1 X-75.25 F1000
G2 X-69.912 Y64.75 I0 J-5.338
G1 Y7.25
G2 X-75.25 Y1.913 I-5.338 J0
G1 X-97.75
G2 X-103.088 Y7.25 I0 J5.337
G1 Y64.75
G2 X-97.75 Y70.088 I5.338 J0
G3 X-97.433 Y70.405 I0 J0.317 F600
G1 Y70.723
G19 G3 Y71.04 Z5.317 J0 K0.318
G1 X-98.067 Y75.551 F1000
Z4.817 F30
G2 Y75.234 Z4.5 J-0.317 K0 F600
G1 Y70.405
G17 G3 X-97.75 Y70.088 I0.317 J0
G1 X-75.25 F1000
G2 X-69.912 Y64.75 I0 J-5.338
G1 Y7.25
G2 X-75.25 Y1.913 I-5.338 J0
G1 X-97.75
G2 X-103.088 Y7.25 I0 J5.337
G1 Y64.75
G2 X-97.75 Y70.088 I5.338 J0
G3 X-97.433 Y70.405 I0 J0.317 F600
G1 Y70.723
G19 G3 Y71.04 Z4.817 J0 K0.318
G1 X-98.067 Y75.551 F1000
Z4.317 F30
G2 Y75.234 Z4 J-0.317 K0 F600
G1 Y70.405
G17 G3 X-97.75 Y70.088 I0.317 J0
G1 X-75.25 F1000
G2 X-69.912 Y64.75 I0 J-5.338
G1 Y7.25
G2 X-75.25 Y1.913 I-5.338 J0
G1 X-97.75
G2 X-103.088 Y7.25 I0 J5.337
G1 Y64.75
G2 X-97.75 Y70.088 I5.338 J0
G3 X-97.433 Y70.405 I0 J0.317 F600
G1 Y70.723
G19 G3 Y71.04 Z4.317 J0 K0.318
G1 X-98.067 Y75.551 F1000
Z3.817 F30
G2 Y75.234 Z3.5 J-0.317 K0 F600
G1 Y70.405
G17 G3 X-97.75 Y70.088 I0.317 J0
G1 X-75.25 F1000
G2 X-69.912 Y64.75 I0 J-5.338
G1 Y7.25
G2 X-75.25 Y1.913 I-5.338 J0
G1 X-97.75
G2 X-103.088 Y7.25 I0 J5.337
G1 Y64.75
G2 X-97.75 Y70.088 I5.338 J0
G3 X-97.433 Y70.405 I0 J0.317 F600
G1 Y70.723
G19 G3 Y71.04 Z3.817 J0 K0.318
G1 X-98.067 Y75.551 F1000
Z3.317 F30
G2 Y75.234 Z3 J-0.317 K0 F600
G1 Y70.405
G17 G3 X-97.75 Y70.088 I0.317 J0
G1 X-75.25 F1000
G2 X-69.912 Y64.75 I0 J-5.338
G1 Y7.25
G2 X-75.25 Y1.913 I-5.338 J0
G1 X-97.75
G2 X-103.088 Y7.25 I0 J5.337
G1 Y64.75
G2 X-97.75 Y70.088 I5.338 J0
G3 X-97.433 Y70.405 I0 J0.317 F600
G1 Y70.723
G19 G3 Y71.04 Z3.317 J0 K0.318
G1 X-98.067 Y75.551 F1000
Z2.817 F30
G2 Y75.234 Z2.5 J-0.317 K0 F600
G1 Y70.405
G17 G3 X-97.75 Y70.088 I0.317 J0
G1 X-75.25 F1000
G2 X-69.912 Y64.75 I0 J-5.338
G1 Y7.25
G2 X-75.25 Y1.913 I-5.338 J0
G1 X-97.75
G2 X-103.088 Y7.25 I0 J5.337
G1 Y64.75
G2 X-97.75 Y70.088 I5.338 J0
G3 X-97.433 Y70.405 I0 J0.317 F600
G1 Y70.723
G19 G3 Y71.04 Z2.817 J0 K0.318
G1 X-98.067 Y75.551 F1000
Z2.317 F30
G2 Y75.234 Z2 J-0.317 K0 F600
G1 Y70.405
G17 G3 X-97.75 Y70.088 I0.317 J0
G1 X-75.25 F1000
G2 X-69.912 Y64.75 I0 J-5.338
G1 Y7.25
G2 X-75.25 Y1.913 I-5.338 J0
G1 X-97.75
G2 X-103.088 Y7.25 I0 J5.337
G1 Y64.75
G2 X-97.75 Y70.088 I5.338 J0
G3 X-97.433 Y70.405 I0 J0.317 F600
G1 Y70.723
G19 G3 Y71.04 Z2.317 J0 K0.318
G1 X-98.067 Y75.551 F1000
Z1.817 F30
G2 Y75.234 Z1.5 J-0.317 K0 F600
G1 Y70.405
G17 G3 X-97.75 Y70.088 I0.317 J0
G1 X-75.25 F1000
G2 X-69.912 Y64.75 I0 J-5.338
G1 Y7.25
G2 X-75.25 Y1.913 I-5.338 J0
G1 X-97.75
G2 X-103.088 Y7.25 I0 J5.337
G1 Y64.75
G2 X-97.75 Y70.088 I5.338 J0
G3 X-97.433 Y70.405 I0 J0.317 F600
G1 Y70.723
G19 G3 Y71.04 Z1.817 J0 K0.317
G1 X-98.067 Y75.551 F1000
Z1.317 F30
G2 Y75.234 Z1 J-0.317 K0 F600
G1 Y70.405
G17 G3 X-97.75 Y70.088 I0.317 J0
G1 X-75.25 F1000
G2 X-69.912 Y64.75 I0 J-5.338
G1 Y7.25
G2 X-75.25 Y1.913 I-5.338 J0
G1 X-97.75
G2 X-103.088 Y7.25 I0 J5.337
G1 Y64.75
G2 X-97.75 Y70.088 I5.338 J0
G3 X-97.433 Y70.405 I0 J0.317 F600
G1 Y70.723
G19 G3 Y71.04 Z1.317 J0 K0.317
G1 X-98.067 Y75.551 F1000
Z0.817 F30
G2 Y75.234 Z0.5 J-0.317 K0 F600
G1 Y70.405
G17 G3 X-97.75 Y70.088 I0.317 J0
G1 X-75.25 F1000
G2 X-69.912 Y64.75 I0 J-5.338
G1 Y55.6
Y54.806 Z1
Y51.631
Y50.837 Z0.5 F30
Y39.009 F1000
Y38.216 Z1
Y35.041
Y34.247 Z0.5 F30
Y24.389 F1000
Y23.595 Z1
Y20.42
Y19.626 Z0.5 F30
Y7.25 F1000
G2 X-75.25 Y1.913 I-5.338 J0
G1 X-97.75
G2 X-103.088 Y7.25 I0 J5.337
G1 Y64.75
G2 X-97.75 Y70.088 I5.338 J0
G3 X-97.433 Y70.405 I0 J0.317 F600
G1 Y70.723
G19 G3 Y71.04 Z0.817 J0 K0.317
G1 X-98.067 Y75.551 F1000
Z0.317 F30
G2 Y75.234 Z0 J-0.317 K0 F600
G1 Y70.405
G17 G3 X-97.75 Y70.088 I0.317 J0
G1 X-75.25 F1000
G2 X-69.912 Y64.75 I0 J-5.338
G1 Y56.393
Y54.806 Z1
Y51.631
Y50.043 Z0 F30
Y39.803 F1000
Y38.216 Z1
Y35.041
Y33.453 Z0 F30
Y25.183 F1000
Y23.595 Z1
Y20.42
Y18.833 Z0 F30
Y7.25 F1000
G2 X-75.25 Y1.913 I-5.338 J0
G1 X-97.75
G2 X-103.088 Y7.25 I0 J5.337
G1 Y64.75
G2 X-97.75 Y70.088 I5.338 J0
G3 X-97.433 Y70.405 I0 J0.317 F600
G1 Y70.723
G19 G3 Y71.04 Z0.317 J0 K0.317
G0 Z16
X-29.314 Y75.548
Z7.5
G1 Z5.817 F30
Y75.54 Z5.747 F600
X-29.311 Y75.517 Z5.68
X-29.307 Y75.479 Z5.62
X-29.301 Y75.429 Z5.569
X-29.294 Y75.369 Z5.531
X-29.286 Y75.303 Z5.508
X-29.278 Y75.233 Z5.5
X-28.713 Y70.331
G17 G3 X-28.361 Y70.052 I0.315 J0.036
G2 X-27.75 Y70.088 I0.611 J-5.302 F1000
G1 X-5.25
G2 X0.087 Y64.75 I0 J-5.338
G1 Y7.25
G2 X-5.25 Y1.913 I-5.337 J0
G1 X-27.75
G2 X-33.088 Y7.25 I0 J5.337
G1 Y64.75
G2 X-28.361 Y70.052 I5.338 J0
G3 X-28.082 Y70.404 I-0.036 J0.315 F600
G1 X-28.119 Y70.72
X-28.127 Y70.79 Z5.508
X-28.134 Y70.856 Z5.531
X-28.141 Y70.916 Z5.569
X-28.147 Y70.966 Z5.62
X-28.151 Y71.004 Z5.68
X-28.154 Y71.027 Z5.747
X-28.155 Y71.035 Z5.817
G0 Z16
X-4.932 Y-3.553
Z7.5
G1 Z5.317 F30
G19 G3 Y-3.236 Z5 J0.317 K0 F600
G1 Y1.595
G17 G3 X-5.25 Y1.913 I-0.318 J0
G1 X-27.75 F1000
G2 X-33.088 Y7.25 I0 J5.337
G1 Y64.75
G2 X-27.75 Y70.088 I5.338 J0
G1 X-5.25
G2 X0.087 Y64.75 I0 J-5.338
G1 Y7.25
G2 X-5.25 Y1.913 I-5.337 J0
G3 X-5.568 Y1.595 I0 J-0.317 F600
G1 Y1.278
G19 G2 Y0.96 Z5.317 J0 K0.318
G1 X-4.932 Y-3.553 F1000
Z4.817 F30
G3 Y-3.236 Z4.5 J0.317 K0 F600
G1 Y1.595
G17 G3 X-5.25 Y1.913 I-0.318 J0
G1 X-27.75 F1000
G2 X-33.088 Y7.25 I0 J5.337
G1 Y64.75
G2 X-27.75 Y70.088 I5.338 J0
G1 X-5.25
G2 X0.087 Y64.75 I0 J-5.338
G1 Y7.25
G2 X-5.25 Y1.913 I-5.337 J0
G3 X-5.568 Y1.595 I0 J-0.317 F600
G1 Y1.278
G19 G2 Y0.96 Z4.817 J0 K0.318
G1 X-4.932 Y-3.553 F1000
Z4.317 F30
G3 Y-3.236 Z4 J0.317 K0 F600
G1 Y1.595
G17 G3 X-5.25 Y1.913 I-0.318 J0
G1 X-27.75 F1000
G2 X-33.088 Y7.25 I0 J5.337
G1 Y64.75
G2 X-27.75 Y70.088 I5.338 J0
G1 X-5.25
G2 X0.087 Y64.75 I0 J-5.338
G1 Y7.25
G2 X-5.25 Y1.913 I-5.337 J0
G3 X-5.568 Y1.595 I0 J-0.317 F600
G1 Y1.278
G19 G2 Y0.96 Z4.317 J0 K0.318
G1 X-4.932 Y-3.553 F1000
Z3.817 F30
G3 Y-3.236 Z3.5 J0.317 K0 F600
G1 Y1.595
G17 G3 X-5.25 Y1.913 I-0.318 J0
G1 X-27.75 F1000
G2 X-33.088 Y7.25 I0 J5.337
G1 Y64.75
G2 X-27.75 Y70.088 I5.338 J0
G1 X-5.25
G2 X0.087 Y64.75 I0 J-5.338
G1 Y7.25
G2 X-5.25 Y1.913 I-5.337 J0
G3 X-5.568 Y1.595 I0 J-0.317 F600
G1 Y1.278
G19 G2 Y0.96 Z3.817 J0 K0.318
G1 X-4.932 Y-3.553 F1000
Z3.317 F30
G3 Y-3.236 Z3 J0.317 K0 F600
G1 Y1.595
G17 G3 X-5.25 Y1.913 I-0.318 J0
G1 X-27.75 F1000
G2 X-33.088 Y7.25 I0 J5.337
G1 Y64.75
G2 X-27.75 Y70.088 I5.338 J0
G1 X-5.25
G2 X0.087 Y64.75 I0 J-5.338
G1 Y7.25
G2 X-5.25 Y1.913 I-5.337 J0
G3 X-5.568 Y1.595 I0 J-0.317 F600
G1 Y1.278
G19 G2 Y0.96 Z3.317 J0 K0.318
G1 X-4.932 Y-3.553 F1000
Z2.817 F30
G3 Y-3.236 Z2.5 J0.317 K0 F600
G1 Y1.595
G17 G3 X-5.25 Y1.913 I-0.318 J0
G1 X-27.75 F1000
G2 X-33.088 Y7.25 I0 J5.337
G1 Y64.75
G2 X-27.75 Y70.088 I5.338 J0
G1 X-5.25
G2 X0.087 Y64.75 I0 J-5.338
G1 Y7.25
G2 X-5.25 Y1.913 I-5.337 J0
G3 X-5.568 Y1.595 I0 J-0.317 F600
G1 Y1.278
G19 G2 Y0.96 Z2.817 J0 K0.318
G1 X-4.932 Y-3.553 F1000
Z2.317 F30
G3 Y-3.236 Z2 J0.317 K0 F600
G1 Y1.595
G17 G3 X-5.25 Y1.913 I-0.318 J0
G1 X-27.75 F1000
G2 X-33.088 Y7.25 I0 J5.337
G1 Y64.75
G2 X-27.75 Y70.088 I5.338 J0
G1 X-5.25
G2 X0.087 Y64.75 I0 J-5.338
G1 Y7.25
G2 X-5.25 Y1.913 I-5.337 J0
G3 X-5.568 Y1.595 I0 J-0.317 F600
G1 Y1.278
G19 G2 Y0.96 Z2.317 J0 K0.318
G1 X-4.932 Y-3.553 F1000
Z1.817 F30
G3 Y-3.236 Z1.5 J0.317 K0 F600
G1 Y1.595
G17 G3 X-5.25 Y1.913 I-0.318 J0
G1 X-27.75 F1000
G2 X-33.088 Y7.25 I0 J5.337
G1 Y64.75
G2 X-27.75 Y70.088 I5.338 J0
G1 X-5.25
G2 X0.087 Y64.75 I0 J-5.338
G1 Y7.25
G2 X-5.25 Y1.913 I-5.337 J0
G3 X-5.568 Y1.595 I0 J-0.317 F600
G1 Y1.278
G19 G2 Y0.96 Z1.817 J0 K0.317
G1 X-4.932 Y-3.553 F1000
Z1.317 F30
G3 Y-3.236 Z1 J0.317 K0 F600
G1 Y1.595
G17 G3 X-5.25 Y1.913 I-0.318 J0
G1 X-27.75 F1000
G2 X-33.088 Y7.25 I0 J5.337
G1 Y64.75
G2 X-27.75 Y70.088 I5.338 J0
G1 X-5.25
G2 X0.087 Y64.75 I0 J-5.338
G1 Y7.25
G2 X-5.25 Y1.913 I-5.337 J0
G3 X-5.568 Y1.595 I0 J-0.317 F600
G1 Y1.278
G19 G2 Y0.96 Z1.317 J0 K0.317
G1 X-4.932 Y-3.553 F1000
Z0.817 F30
G3 Y-3.236 Z0.5 J0.317 K0 F600
G1 Y1.595
G17 G3 X-5.25 Y1.913 I-0.318 J0
G1 X-27.75 F1000
G2 X-33.088 Y7.25 I0 J5.337
G1 Y15.959
Y16.753 Z1
Y19.927
Y20.721 Z0.5 F30
Y35.476 F1000
Y36.27 Z1
Y39.444
Y40.238 Z0.5 F30
Y51.595 F1000
Y52.389 Z1
Y55.564
Y56.358 Z0.5 F30
Y64.75 F1000
G2 X-27.75 Y70.088 I5.338 J0
G1 X-5.25
G2 X0.087 Y64.75 I0 J-5.338
G1 Y7.25
G2 X-5.25 Y1.913 I-5.337 J0
G3 X-5.568 Y1.595 I0 J-0.317 F600
G1 Y1.278
G19 G2 Y0.96 Z0.817 J0 K0.317
G1 X-4.932 Y-3.553 F1000
Z0.317 F30
G3 Y-3.236 Z0 J0.317 K0 F600
G1 Y1.595
G17 G3 X-5.25 Y1.913 I-0.318 J0
G1 X-27.75 F1000
G2 X-33.088 Y7.25 I0 J5.337
G1 Y15.165
Y16.753 Z1
Y19.927
Y21.515 Z0 F30
Y34.682 F1000
Y36.27 Z1
Y39.444
Y41.032 Z0 F30
Y50.801 F1000
Y52.389 Z1
Y55.564
Y57.151 Z0 F30
Y64.75 F1000
G2 X-27.75 Y70.088 I5.338 J0
G1 X-5.25
G2 X0.087 Y64.75 I0 J-5.338
G1 Y7.25
G2 X-5.25 Y1.913 I-5.337 J0
G3 X-5.568 Y1.595 I0 J-0.317 F600
G1 Y1.278
G19 G2 Y0.96 Z0.317 J0 K0.317
G0 Z26
G17
G28 G91 Z0
G90
G28 G91 X0 Y0
G90
M5
M30
