(drill1)
(T2 D=5 CR=0 TAPER=120deg - ZMIN=2 - center drill)
G90 G94
G17
G21
G28 G91 Z0
G90

(Drill1 3)
T2
S5000 M3
G17 G90 G94
G54
G0 X-97 Y36.1
Z26
G0 Z16
Z8
Z5
G1 Z2.5 F100.3
G0 Z8
Z4.5
G1 Z2 F100.3
G0 Z16
X-99.744 Y28.958
Z11
Z8
G1 Z5.5 F100.3
G0 Z11
Z7.5
G1 Z5 F100.3
G0 Z16
X-97 Y23.52
Z8
Z5
G1 Z2.5 F100.3
G0 Z8
Z4.5
G1 Z2 F100.3
G0 Z16
X-97.971 Y6.975
Z8
Z5
G1 Z2.5 F100.3
G0 Z8
Z4.5
G1 Z2 F100.3
G0 Z16
X-74.921
Z8
Z5
G1 Z2.5 F100.3
G0 Z8
Z4.5
G1 Z2 F100.3
G0 Z16
X-76 Y23.52
Z8
Z5
G1 Z2.5 F100.3
G0 Z8
Z4.5
G1 Z2 F100.3
G0 Z16
Y36.1
Z8
Z5
G1 Z2.5 F100.3
G0 Z8
Z4.5
G1 Z2 F100.3
G0 Z16
X-73.256 Y43.042
Z11
Z8
G1 Z5.5 F100.3
G0 Z11
Z7.5
G1 Z5 F100.3
G0 Z16
X-74.921 Y65.025
Z8
Z5
G1 Z2.5 F100.3
G0 Z8
Z4.5
G1 Z2 F100.3
G0 Z16
X-97.971
Z8
Z5
G1 Z2.5 F100.3
G0 Z8
Z4.5
G1 Z2 F100.3
G0 Z16
X-27.971
Z8
Z5
G1 Z2.5 F100.3
G0 Z8
Z4.5
G1 Z2 F100.3
G0 Z16
X-4.921
Z8
Z5
G1 Z2.5 F100.3
G0 Z8
Z4.5
G1 Z2 F100.3
G0 Z16
X-3.256 Y43.042
Z11
Z8
G1 Z5.5 F100.3
G0 Z11
Z7.5
G1 Z5 F100.3
G0 Z16
X-6 Y36.1
Z8
Z5
G1 Z2.5 F100.3
G0 Z8
Z4.5
G1 Z2 F100.3
G0 Z16
Y23.52
Z8
Z5
G1 Z2.5 F100.3
G0 Z8
Z4.5
G1 Z2 F100.3
G0 Z16
X-4.921 Y6.975
Z8
Z5
G1 Z2.5 F100.3
G0 Z8
Z4.5
G1 Z2 F100.3
G0 Z16
X-27.971
Z8
Z5
G1 Z2.5 F100.3
G0 Z8
Z4.5
G1 Z2 F100.3
G0 Z16
X-27 Y23.52
Z8
Z5
G1 Z2.5 F100.3
G0 Z8
Z4.5
G1 Z2 F100.3
G0 Z16
X-29.744 Y28.958
Z11
Z8
G1 Z5.5 F100.3
G0 Z11
Z7.5
G1 Z5 F100.3
G0 Z16
X-27 Y36.1
Z8
Z5
G1 Z2.5 F100.3
G0 Z8
Z4.5
G1 Z2 F100.3
G0 Z16
Z26
G28 G91 Z0
G90
G28 G91 X0 Y0
G90
M5
M30
