(adap1)
(T6 D=3.175 CR=0 - ZMIN=0 - flat end mill)
G90 G94
G17
G21
G28 G91 Z0
G90

(2D Adaptive1 2)
T6
(18 Flat-45 degree helix)
S18000 M3
G17 G90 G94
G54
G0 X3.694 Y-63.327
Z30.1
G0 Z20.1
Z10.235
G1 Z9.917 F600
X3.687 Y-63.325 Z9.847
X3.664 Y-63.32 Z9.78
X3.627 Y-63.31 Z9.72
X3.579 Y-63.298 Z9.669
X3.52 Y-63.283 Z9.631
X3.455 Y-63.266 Z9.608
X3.387 Y-63.249 Z9.6
G3 X1.658 Y-63 I-2.011 J-7.852
G1 X1.508 F1300
X0.879 Y-63.128
X0.242 Y-63.206
X-0.399 Y-63.251
X-1.041 Y-63.279
X-1.683 Y-63.295
X-2.325 Y-63.304
X-2.967 Y-63.31
X-3.609 Y-63.313
X-4.893 Y-63.316
X-8.104 Y-63.317
X-48.562 Y-63.318
X-98.652
X-120.487
X-120.646 Y-63.301
X-120.951 Y-63.199
X-121.207 Y-63.005
X-121.633 Y-62.524
X-121.903 Y-61.942
X-122.07 Y-61.321
X-122.161 Y-60.747
X-122.183 Y-60.652
X-122.216 Y-60.56
X-122.262 Y-60.474
X-122.284 Y-60.438
X-122.294 Y-60.42
X-122.302 Y-60.403
X-122.369 Y-60.218
X-122.404 Y-60.072
X-122.435 Y-59.926
X-122.493 Y-59.634
X-122.519 Y-59.488
X-122.567 Y-59.196
X-122.584 Y-59.05
X-122.588 Y-58.613
Y-3.314
X-122.585 Y-3.168
X-122.575 Y-2.876
X-122.561 Y-2.73
X-122.534 Y-2.584
X-122.446 Y-1.948
X-122.392 Y-1.308
X-122.267 Y-1.012
X-122.066 Y-0.762
X-121.575 Y-0.348
X-121.152 Y-0.157
X-121.114 Y-0.139
X-121.078 Y-0.119
X-121.042 Y-0.097
G3 X-120.971 Y0.347 Z9.8 I-0.186 J0.257 F800
G1 X-121.012 Y0.393
X-121.061 Y0.431
X-121.117 Y0.458
X-121.177 Y0.474
G3 X-121.5 Y0.325 I-0.051 J-0.313 F1300
G1 X-123.115 Y-2.35
G3 X-123.111 Y-2.685 I0.272 J-0.164
G1 X-123.073 Y-2.733 F600
X-123.026 Y-2.774
X-122.972 Y-2.804
X-122.913 Y-2.824
G3 X-122.534 Y-2.584 Z9.6 I0.07 J0.31
G1 X-122.478 Y-2.292 F1300
X-122.419 Y-2.001
X-122.388 Y-1.855
X-122.315 Y-1.637
X-122.284 Y-1.563
X-122.205 Y-1.417
X-121.918 Y-0.979
X-121.877 Y-0.918
X-121.818 Y-0.833
X-121.597 Y-0.53
X-121.439 Y-0.378
X-121.294 Y-0.271
X-121.025 Y-0.085
X-120.83 Y0.042
X-120.564 Y0.213
X-120.418 Y0.289
X-120.272 Y0.351
X-120.126 Y0.391
X-119.981 Y0.423
X-119.689 Y0.482
X-119.543 Y0.509
X-119.251 Y0.562
X-119.105 Y0.579
X-118.668 Y0.587
X-3.131
X-2.985 Y0.585
X-2.839 Y0.578
X-2.693 Y0.555
X-2.056 Y0.472
X-1.417 Y0.408
X-1.107 Y0.323
X-0.842 Y0.143
X-0.399 Y-0.323
X-0.117 Y-0.899
X-0.106 Y-0.931
X-0.091 Y-0.962
X-0.074 Y-0.991
G3 X0.37 Y-1.06 Z9.8 I0.256 J0.188 F800
G1 X0.416 Y-1.019
X0.453 Y-0.969
X0.48 Y-0.913
X0.496 Y-0.853
G3 X0.344 Y-0.531 I-0.314 J0.05 F1300
G1 X-2.463 Y1.138
G3 X-2.798 Y1.132 I-0.162 J-0.273
G1 X-2.847 Y1.093 F600
X-2.887 Y1.046
X-2.917 Y0.991
X-2.936 Y0.932
G3 X-2.693 Y0.555 Z9.6 I0.31 J-0.067
G1 X-2.547 Y0.529 F1300
X-2.255 Y0.47
X-2.11 Y0.44
X-1.716 Y0.347
X-1.699 Y0.342
X-1.526 Y0.265
X-1.38 Y0.181
X-1.234 Y0.089
X-0.797 Y-0.204
X-0.651 Y-0.307
X-0.543 Y-0.396
X-0.39 Y-0.541
X-0.359 Y-0.583
X-0.067 Y-1.001
X0.079 Y-1.219
X0.225 Y-1.446
X0.281 Y-1.563
X0.342 Y-1.709
X0.388 Y-1.855
X0.478 Y-2.292
X0.536 Y-2.584
X0.562 Y-2.73
X0.575 Y-2.876
X0.585 Y-3.168
X0.587 Y-3.314
Y-58.613
X0.584 Y-59.05
X0.568 Y-59.196
X0.546 Y-59.342
X0.472 Y-59.98
X0.439 Y-60.3
X0.332 Y-60.602
X0.145 Y-60.863
X-0.123 Y-61.114
X-0.162 Y-61.153
X-0.197 Y-61.195
X-0.23 Y-61.239
G3 X-0.134 Y-61.678 Z9.8 I0.267 J-0.172 F800
G1 X-0.079 Y-61.706
X-0.02 Y-61.723
X0.042 Y-61.728
X0.104 Y-61.721
G3 X0.331 Y-61.531 I-0.066 J0.31 F1300
G1 X1.151 Y-59.526
G3 X1.121 Y-59.229 I-0.294 J0.12
G1 X1.082 Y-59.181 F600
X1.034 Y-59.142
X0.979 Y-59.113
X0.92 Y-59.095
G3 X0.546 Y-59.342 Z9.6 I-0.063 J-0.311
G1 X0.521 Y-59.488 F1300
X0.434 Y-59.926
X0.403 Y-60.072
X0.367 Y-60.218
X0.314 Y-60.364
X0.242 Y-60.51
X0.155 Y-60.655
X0.079 Y-60.781
X-0.247 Y-61.263
X-0.331 Y-61.385
X-0.359 Y-61.421
X-0.505 Y-61.569
X-0.631 Y-61.677
X-0.797 Y-61.796
X-1.273 Y-62.115
X-1.38 Y-62.182
X-1.519 Y-62.26
X-1.69 Y-62.338
X-2.11 Y-62.44
X-2.255 Y-62.471
X-2.547 Y-62.529
X-2.693 Y-62.555
X-2.839 Y-62.578
X-2.985 Y-62.585
X-3.131 Y-62.588
X-118.668
X-119.105 Y-62.579
X-119.251 Y-62.562
X-119.543 Y-62.509
X-119.689 Y-62.482
X-120.066 Y-62.406
X-120.126 Y-62.391
X-120.272 Y-62.35
X-120.418 Y-62.29
X-120.485 Y-62.26
X-120.564 Y-62.215
X-120.944 Y-61.969
X-121.163 Y-61.823
X-121.294 Y-61.733
X-121.371 Y-61.677
X-121.439 Y-61.623
X-121.538 Y-61.531
X-121.585 Y-61.483
X-121.667 Y-61.385
X-121.731 Y-61.298
X-121.877 Y-61.082
X-121.967 Y-60.947
X-122.023 Y-60.862
X-122.262 Y-60.474
G3 X-122.676 Y-60.37 I-0.264 J-0.176 F800
G1 X-122.716 Y-60.406 Z9.605
X-122.755 Y-60.442 Z9.619
X-122.791 Y-60.475 Z9.642
X-122.808 Y-60.522 Z9.678
X-122.821 Y-60.561 Z9.722
X-122.832 Y-60.592 Z9.773
X-122.839 Y-60.613 Z9.829
X-122.843 Y-60.623 Z9.889
Y-60.624 Z9.917
G0 Z20.1
X3.694 Y-63.327
Z9.735
G1 Z9.417 F600
X3.687 Y-63.325 Z9.347
X3.664 Y-63.32 Z9.28
X3.627 Y-63.31 Z9.22
X3.579 Y-63.298 Z9.169
X3.52 Y-63.283 Z9.131
X3.455 Y-63.266 Z9.108
X3.387 Y-63.249 Z9.1
G3 X1.658 Y-63 I-2.011 J-7.852
G1 X1.508 F1300
X0.879 Y-63.128
X0.242 Y-63.206
X-0.399 Y-63.251
X-1.041 Y-63.279
X-1.683 Y-63.295
X-2.325 Y-63.304
X-2.967 Y-63.31
X-3.609 Y-63.313
X-4.893 Y-63.316
X-8.104 Y-63.317
X-48.562 Y-63.318
X-98.652
X-120.487
X-120.646 Y-63.301
X-120.951 Y-63.199
X-121.207 Y-63.005
X-121.633 Y-62.524
X-121.903 Y-61.942
X-122.07 Y-61.321
X-122.161 Y-60.747
X-122.183 Y-60.652
X-122.216 Y-60.56
X-122.262 Y-60.474
X-122.284 Y-60.438
X-122.294 Y-60.42
X-122.302 Y-60.403
X-122.369 Y-60.218
X-122.404 Y-60.072
X-122.435 Y-59.926
X-122.493 Y-59.634
X-122.519 Y-59.488
X-122.567 Y-59.196
X-122.584 Y-59.05
X-122.588 Y-58.613
Y-3.314
X-122.585 Y-3.168
X-122.575 Y-2.876
X-122.561 Y-2.73
X-122.534 Y-2.584
X-122.446 Y-1.948
X-122.392 Y-1.308
X-122.267 Y-1.012
X-122.066 Y-0.762
X-121.575 Y-0.348
X-121.152 Y-0.157
X-121.114 Y-0.139
X-121.078 Y-0.119
X-121.042 Y-0.097
G3 X-120.971 Y0.347 Z9.3 I-0.186 J0.257 F800
G1 X-121.012 Y0.393
X-121.061 Y0.431
X-121.117 Y0.458
X-121.177 Y0.474
G3 X-121.5 Y0.325 I-0.051 J-0.313 F1300
G1 X-123.115 Y-2.35
G3 X-123.111 Y-2.685 I0.272 J-0.164
G1 X-123.073 Y-2.733 F600
X-123.026 Y-2.774
X-122.972 Y-2.804
X-122.913 Y-2.824
G3 X-122.534 Y-2.584 Z9.1 I0.07 J0.31
G1 X-122.478 Y-2.292 F1300
X-122.419 Y-2.001
X-122.388 Y-1.855
X-122.315 Y-1.637
X-122.284 Y-1.563
X-122.205 Y-1.417
X-121.918 Y-0.979
X-121.877 Y-0.918
X-121.818 Y-0.833
X-121.597 Y-0.53
X-121.439 Y-0.378
X-121.294 Y-0.271
X-121.025 Y-0.085
X-120.83 Y0.042
X-120.564 Y0.213
X-120.418 Y0.289
X-120.272 Y0.351
X-120.126 Y0.391
X-119.981 Y0.423
X-119.689 Y0.482
X-119.543 Y0.509
X-119.251 Y0.562
X-119.105 Y0.579
X-118.668 Y0.587
X-3.131
X-2.985 Y0.585
X-2.839 Y0.578
X-2.693 Y0.555
X-2.056 Y0.472
X-1.417 Y0.408
X-1.107 Y0.323
X-0.842 Y0.143
X-0.399 Y-0.323
X-0.117 Y-0.899
X-0.106 Y-0.931
X-0.091 Y-0.962
X-0.074 Y-0.991
G3 X0.37 Y-1.06 Z9.3 I0.256 J0.188 F800
G1 X0.416 Y-1.019
X0.453 Y-0.969
X0.48 Y-0.913
X0.496 Y-0.853
G3 X0.344 Y-0.531 I-0.314 J0.05 F1300
G1 X-2.463 Y1.138
G3 X-2.798 Y1.132 I-0.162 J-0.273
G1 X-2.847 Y1.093 F600
X-2.887 Y1.046
X-2.917 Y0.991
X-2.936 Y0.932
G3 X-2.693 Y0.555 Z9.1 I0.31 J-0.067
G1 X-2.547 Y0.529 F1300
X-2.255 Y0.47
X-2.11 Y0.44
X-1.716 Y0.347
X-1.699 Y0.342
X-1.526 Y0.265
X-1.38 Y0.181
X-1.234 Y0.089
X-0.797 Y-0.204
X-0.651 Y-0.307
X-0.543 Y-0.396
X-0.39 Y-0.541
X-0.359 Y-0.583
X-0.067 Y-1.001
X0.079 Y-1.219
X0.225 Y-1.446
X0.281 Y-1.563
X0.342 Y-1.709
X0.388 Y-1.855
X0.478 Y-2.292
X0.536 Y-2.584
X0.562 Y-2.73
X0.575 Y-2.876
X0.585 Y-3.168
X0.587 Y-3.314
Y-58.613
X0.584 Y-59.05
X0.568 Y-59.196
X0.546 Y-59.342
X0.472 Y-59.98
X0.439 Y-60.3
X0.332 Y-60.602
X0.145 Y-60.863
X-0.123 Y-61.114
X-0.162 Y-61.153
X-0.197 Y-61.195
X-0.23 Y-61.239
G3 X-0.134 Y-61.678 Z9.3 I0.267 J-0.172 F800
G1 X-0.079 Y-61.706
X-0.02 Y-61.723
X0.042 Y-61.728
X0.104 Y-61.721
G3 X0.331 Y-61.531 I-0.066 J0.31 F1300
G1 X1.151 Y-59.526
G3 X1.121 Y-59.229 I-0.294 J0.12
G1 X1.082 Y-59.181 F600
X1.034 Y-59.142
X0.979 Y-59.113
X0.92 Y-59.095
G3 X0.546 Y-59.342 Z9.1 I-0.063 J-0.311
G1 X0.521 Y-59.488 F1300
X0.434 Y-59.926
X0.403 Y-60.072
X0.367 Y-60.218
X0.314 Y-60.364
X0.242 Y-60.51
X0.155 Y-60.655
X0.079 Y-60.781
X-0.247 Y-61.263
X-0.331 Y-61.385
X-0.359 Y-61.421
X-0.505 Y-61.569
X-0.631 Y-61.677
X-0.797 Y-61.796
X-1.273 Y-62.115
X-1.38 Y-62.182
X-1.519 Y-62.26
X-1.69 Y-62.338
X-2.11 Y-62.44
X-2.255 Y-62.471
X-2.547 Y-62.529
X-2.693 Y-62.555
X-2.839 Y-62.578
X-2.985 Y-62.585
X-3.131 Y-62.588
X-118.668
X-119.105 Y-62.579
X-119.251 Y-62.562
X-119.543 Y-62.509
X-119.689 Y-62.482
X-120.066 Y-62.406
X-120.126 Y-62.391
X-120.272 Y-62.35
X-120.418 Y-62.29
X-120.485 Y-62.26
X-120.564 Y-62.215
X-120.944 Y-61.969
X-121.163 Y-61.823
X-121.294 Y-61.733
X-121.371 Y-61.677
X-121.439 Y-61.623
X-121.538 Y-61.531
X-121.585 Y-61.483
X-121.667 Y-61.385
X-121.731 Y-61.298
X-121.877 Y-61.082
X-121.967 Y-60.947
X-122.023 Y-60.862
X-122.262 Y-60.474
G3 X-122.676 Y-60.37 I-0.264 J-0.176 F800
G1 X-122.716 Y-60.406 Z9.105
X-122.755 Y-60.442 Z9.119
X-122.791 Y-60.475 Z9.142
X-122.808 Y-60.522 Z9.178
X-122.821 Y-60.561 Z9.222
X-122.832 Y-60.592 Z9.273
X-122.839 Y-60.613 Z9.329
X-122.843 Y-60.623 Z9.389
Y-60.624 Z9.417
G0 Z20.1
X3.694 Y-63.327
Z9.235
G1 Z8.917 F600
X3.687 Y-63.325 Z8.847
X3.664 Y-63.32 Z8.78
X3.627 Y-63.31 Z8.72
X3.579 Y-63.298 Z8.669
X3.52 Y-63.283 Z8.631
X3.455 Y-63.266 Z8.608
X3.387 Y-63.249 Z8.6
G3 X1.658 Y-63 I-2.011 J-7.852
G1 X1.508 F1300
X0.879 Y-63.128
X0.242 Y-63.206
X-0.399 Y-63.251
X-1.041 Y-63.279
X-1.683 Y-63.295
X-2.325 Y-63.304
X-2.967 Y-63.31
X-3.609 Y-63.313
X-4.893 Y-63.316
X-8.104 Y-63.317
X-48.562 Y-63.318
X-98.652
X-120.487
X-120.646 Y-63.301
X-120.951 Y-63.199
X-121.207 Y-63.005
X-121.633 Y-62.524
X-121.903 Y-61.942
X-122.07 Y-61.321
X-122.161 Y-60.747
X-122.183 Y-60.652
X-122.216 Y-60.56
X-122.262 Y-60.474
X-122.284 Y-60.438
X-122.294 Y-60.42
X-122.302 Y-60.403
X-122.369 Y-60.218
X-122.404 Y-60.072
X-122.435 Y-59.926
X-122.493 Y-59.634
X-122.519 Y-59.488
X-122.567 Y-59.196
X-122.584 Y-59.05
X-122.588 Y-58.613
Y-3.314
X-122.585 Y-3.168
X-122.575 Y-2.876
X-122.561 Y-2.73
X-122.534 Y-2.584
X-122.446 Y-1.948
X-122.392 Y-1.308
X-122.267 Y-1.012
X-122.066 Y-0.762
X-121.575 Y-0.348
X-121.152 Y-0.157
X-121.114 Y-0.139
X-121.078 Y-0.119
X-121.042 Y-0.097
G3 X-120.971 Y0.347 Z8.8 I-0.186 J0.257 F800
G1 X-121.012 Y0.393
X-121.061 Y0.431
X-121.117 Y0.458
X-121.177 Y0.474
G3 X-121.5 Y0.325 I-0.051 J-0.313 F1300
G1 X-123.115 Y-2.35
G3 X-123.111 Y-2.685 I0.272 J-0.164
G1 X-123.073 Y-2.733 F600
X-123.026 Y-2.774
X-122.972 Y-2.804
X-122.913 Y-2.824
G3 X-122.534 Y-2.584 Z8.6 I0.07 J0.31
G1 X-122.478 Y-2.292 F1300
X-122.419 Y-2.001
X-122.388 Y-1.855
X-122.315 Y-1.637
X-122.284 Y-1.563
X-122.205 Y-1.417
X-121.918 Y-0.979
X-121.877 Y-0.918
X-121.818 Y-0.833
X-121.597 Y-0.53
X-121.439 Y-0.378
X-121.294 Y-0.271
X-121.025 Y-0.085
X-120.83 Y0.042
X-120.564 Y0.213
X-120.418 Y0.289
X-120.272 Y0.351
X-120.126 Y0.391
X-119.981 Y0.423
X-119.689 Y0.482
X-119.543 Y0.509
X-119.251 Y0.562
X-119.105 Y0.579
X-118.668 Y0.587
X-3.131
X-2.985 Y0.585
X-2.839 Y0.578
X-2.693 Y0.555
X-2.056 Y0.472
X-1.417 Y0.408
X-1.107 Y0.323
X-0.842 Y0.143
X-0.399 Y-0.323
X-0.117 Y-0.899
X-0.106 Y-0.931
X-0.091 Y-0.962
X-0.074 Y-0.991
G3 X0.37 Y-1.06 Z8.8 I0.256 J0.188 F800
G1 X0.416 Y-1.019
X0.453 Y-0.969
X0.48 Y-0.913
X0.496 Y-0.853
G3 X0.344 Y-0.531 I-0.314 J0.05 F1300
G1 X-2.463 Y1.138
G3 X-2.798 Y1.132 I-0.162 J-0.273
G1 X-2.847 Y1.093 F600
X-2.887 Y1.046
X-2.917 Y0.991
X-2.936 Y0.932
G3 X-2.693 Y0.555 Z8.6 I0.31 J-0.067
G1 X-2.547 Y0.529 F1300
X-2.255 Y0.47
X-2.11 Y0.44
X-1.716 Y0.347
X-1.699 Y0.342
X-1.526 Y0.265
X-1.38 Y0.181
X-1.234 Y0.089
X-0.797 Y-0.204
X-0.651 Y-0.307
X-0.543 Y-0.396
X-0.39 Y-0.541
X-0.359 Y-0.583
X-0.067 Y-1.001
X0.079 Y-1.219
X0.225 Y-1.446
X0.281 Y-1.563
X0.342 Y-1.709
X0.388 Y-1.855
X0.478 Y-2.292
X0.536 Y-2.584
X0.562 Y-2.73
X0.575 Y-2.876
X0.585 Y-3.168
X0.587 Y-3.314
Y-58.613
X0.584 Y-59.05
X0.568 Y-59.196
X0.546 Y-59.342
X0.472 Y-59.98
X0.439 Y-60.3
X0.332 Y-60.602
X0.145 Y-60.863
X-0.123 Y-61.114
X-0.162 Y-61.153
X-0.197 Y-61.195
X-0.23 Y-61.239
G3 X-0.134 Y-61.678 Z8.8 I0.267 J-0.172 F800
G1 X-0.079 Y-61.706
X-0.02 Y-61.723
X0.042 Y-61.728
X0.104 Y-61.721
G3 X0.331 Y-61.531 I-0.066 J0.31 F1300
G1 X1.151 Y-59.526
G3 X1.121 Y-59.229 I-0.294 J0.12
G1 X1.082 Y-59.181 F600
X1.034 Y-59.142
X0.979 Y-59.113
X0.92 Y-59.095
G3 X0.546 Y-59.342 Z8.6 I-0.063 J-0.311
G1 X0.521 Y-59.488 F1300
X0.434 Y-59.926
X0.403 Y-60.072
X0.367 Y-60.218
X0.314 Y-60.364
X0.242 Y-60.51
X0.155 Y-60.655
X0.079 Y-60.781
X-0.247 Y-61.263
X-0.331 Y-61.385
X-0.359 Y-61.421
X-0.505 Y-61.569
X-0.631 Y-61.677
X-0.797 Y-61.796
X-1.273 Y-62.115
X-1.38 Y-62.182
X-1.519 Y-62.26
X-1.69 Y-62.338
X-2.11 Y-62.44
X-2.255 Y-62.471
X-2.547 Y-62.529
X-2.693 Y-62.555
X-2.839 Y-62.578
X-2.985 Y-62.585
X-3.131 Y-62.588
X-118.668
X-119.105 Y-62.579
X-119.251 Y-62.562
X-119.543 Y-62.509
X-119.689 Y-62.482
X-120.066 Y-62.406
X-120.126 Y-62.391
X-120.272 Y-62.35
X-120.418 Y-62.29
X-120.485 Y-62.26
X-120.564 Y-62.215
X-120.944 Y-61.969
X-121.163 Y-61.823
X-121.294 Y-61.733
X-121.371 Y-61.677
X-121.439 Y-61.623
X-121.538 Y-61.531
X-121.585 Y-61.483
X-121.667 Y-61.385
X-121.731 Y-61.298
X-121.877 Y-61.082
X-121.967 Y-60.947
X-122.023 Y-60.862
X-122.262 Y-60.474
G3 X-122.676 Y-60.37 I-0.264 J-0.176 F800
G1 X-122.716 Y-60.406 Z8.605
X-122.755 Y-60.442 Z8.619
X-122.791 Y-60.475 Z8.642
X-122.808 Y-60.522 Z8.678
X-122.821 Y-60.561 Z8.722
X-122.832 Y-60.592 Z8.773
X-122.839 Y-60.613 Z8.829
X-122.843 Y-60.623 Z8.889
Y-60.624 Z8.917
G0 Z20.1
X3.694 Y-63.327
Z8.735
G1 Z8.417 F600
X3.687 Y-63.325 Z8.347
X3.664 Y-63.32 Z8.28
X3.627 Y-63.31 Z8.22
X3.579 Y-63.298 Z8.169
X3.52 Y-63.283 Z8.131
X3.455 Y-63.266 Z8.108
X3.387 Y-63.249 Z8.1
G3 X1.658 Y-63 I-2.011 J-7.852
G1 X1.508 F1300
X0.879 Y-63.128
X0.242 Y-63.206
X-0.399 Y-63.251
X-1.041 Y-63.279
X-1.683 Y-63.295
X-2.325 Y-63.304
X-2.967 Y-63.31
X-3.609 Y-63.313
X-4.893 Y-63.316
X-8.104 Y-63.317
X-48.562 Y-63.318
X-98.652
X-120.487
X-120.646 Y-63.301
X-120.951 Y-63.199
X-121.207 Y-63.005
X-121.633 Y-62.524
X-121.903 Y-61.942
X-122.07 Y-61.321
X-122.161 Y-60.747
X-122.183 Y-60.652
X-122.216 Y-60.56
X-122.262 Y-60.474
X-122.284 Y-60.438
X-122.294 Y-60.42
X-122.302 Y-60.403
X-122.369 Y-60.218
X-122.404 Y-60.072
X-122.435 Y-59.926
X-122.493 Y-59.634
X-122.519 Y-59.488
X-122.567 Y-59.196
X-122.584 Y-59.05
X-122.588 Y-58.613
Y-3.314
X-122.585 Y-3.168
X-122.575 Y-2.876
X-122.561 Y-2.73
X-122.534 Y-2.584
X-122.446 Y-1.948
X-122.392 Y-1.308
X-122.267 Y-1.012
X-122.066 Y-0.762
X-121.575 Y-0.348
X-121.152 Y-0.157
X-121.114 Y-0.139
X-121.078 Y-0.119
X-121.042 Y-0.097
G3 X-120.971 Y0.347 Z8.3 I-0.186 J0.257 F800
G1 X-121.012 Y0.393
X-121.061 Y0.431
X-121.117 Y0.458
X-121.177 Y0.474
G3 X-121.5 Y0.325 I-0.051 J-0.313 F1300
G1 X-123.115 Y-2.35
G3 X-123.111 Y-2.685 I0.272 J-0.164
G1 X-123.073 Y-2.733 F600
X-123.026 Y-2.774
X-122.972 Y-2.804
X-122.913 Y-2.824
G3 X-122.534 Y-2.584 Z8.1 I0.07 J0.31
G1 X-122.478 Y-2.292 F1300
X-122.419 Y-2.001
X-122.388 Y-1.855
X-122.315 Y-1.637
X-122.284 Y-1.563
X-122.205 Y-1.417
X-121.918 Y-0.979
X-121.877 Y-0.918
X-121.818 Y-0.833
X-121.597 Y-0.53
X-121.439 Y-0.378
X-121.294 Y-0.271
X-121.025 Y-0.085
X-120.83 Y0.042
X-120.564 Y0.213
X-120.418 Y0.289
X-120.272 Y0.351
X-120.126 Y0.391
X-119.981 Y0.423
X-119.689 Y0.482
X-119.543 Y0.509
X-119.251 Y0.562
X-119.105 Y0.579
X-118.668 Y0.587
X-3.131
X-2.985 Y0.585
X-2.839 Y0.578
X-2.693 Y0.555
X-2.056 Y0.472
X-1.417 Y0.408
X-1.107 Y0.323
X-0.842 Y0.143
X-0.399 Y-0.323
X-0.117 Y-0.899
X-0.106 Y-0.931
X-0.091 Y-0.962
X-0.074 Y-0.991
G3 X0.37 Y-1.06 Z8.3 I0.256 J0.188 F800
G1 X0.416 Y-1.019
X0.453 Y-0.969
X0.48 Y-0.913
X0.496 Y-0.853
G3 X0.344 Y-0.531 I-0.314 J0.05 F1300
G1 X-2.463 Y1.138
G3 X-2.798 Y1.132 I-0.162 J-0.273
G1 X-2.847 Y1.093 F600
X-2.887 Y1.046
X-2.917 Y0.991
X-2.936 Y0.932
G3 X-2.693 Y0.555 Z8.1 I0.31 J-0.067
G1 X-2.547 Y0.529 F1300
X-2.255 Y0.47
X-2.11 Y0.44
X-1.716 Y0.347
X-1.699 Y0.342
X-1.526 Y0.265
X-1.38 Y0.181
X-1.234 Y0.089
X-0.797 Y-0.204
X-0.651 Y-0.307
X-0.543 Y-0.396
X-0.39 Y-0.541
X-0.359 Y-0.583
X-0.067 Y-1.001
X0.079 Y-1.219
X0.225 Y-1.446
X0.281 Y-1.563
X0.342 Y-1.709
X0.388 Y-1.855
X0.478 Y-2.292
X0.536 Y-2.584
X0.562 Y-2.73
X0.575 Y-2.876
X0.585 Y-3.168
X0.587 Y-3.314
Y-58.613
X0.584 Y-59.05
X0.568 Y-59.196
X0.546 Y-59.342
X0.472 Y-59.98
X0.439 Y-60.3
X0.332 Y-60.602
X0.145 Y-60.863
X-0.123 Y-61.114
X-0.162 Y-61.153
X-0.197 Y-61.195
X-0.23 Y-61.239
G3 X-0.134 Y-61.678 Z8.3 I0.267 J-0.172 F800
G1 X-0.079 Y-61.706
X-0.02 Y-61.723
X0.042 Y-61.728
X0.104 Y-61.721
G3 X0.331 Y-61.531 I-0.066 J0.31 F1300
G1 X1.151 Y-59.526
G3 X1.121 Y-59.229 I-0.294 J0.12
G1 X1.082 Y-59.181 F600
X1.034 Y-59.142
X0.979 Y-59.113
X0.92 Y-59.095
G3 X0.546 Y-59.342 Z8.1 I-0.063 J-0.311
G1 X0.521 Y-59.488 F1300
X0.434 Y-59.926
X0.403 Y-60.072
X0.367 Y-60.218
X0.314 Y-60.364
X0.242 Y-60.51
X0.155 Y-60.655
X0.079 Y-60.781
X-0.247 Y-61.263
X-0.331 Y-61.385
X-0.359 Y-61.421
X-0.505 Y-61.569
X-0.631 Y-61.677
X-0.797 Y-61.796
X-1.273 Y-62.115
X-1.38 Y-62.182
X-1.519 Y-62.26
X-1.69 Y-62.338
X-2.11 Y-62.44
X-2.255 Y-62.471
X-2.547 Y-62.529
X-2.693 Y-62.555
X-2.839 Y-62.578
X-2.985 Y-62.585
X-3.131 Y-62.588
X-118.668
X-119.105 Y-62.579
X-119.251 Y-62.562
X-119.543 Y-62.509
X-119.689 Y-62.482
X-120.066 Y-62.406
X-120.126 Y-62.391
X-120.272 Y-62.35
X-120.418 Y-62.29
X-120.485 Y-62.26
X-120.564 Y-62.215
X-120.944 Y-61.969
X-121.163 Y-61.823
X-121.294 Y-61.733
X-121.371 Y-61.677
X-121.439 Y-61.623
X-121.538 Y-61.531
X-121.585 Y-61.483
X-121.667 Y-61.385
X-121.731 Y-61.298
X-121.877 Y-61.082
X-121.967 Y-60.947
X-122.023 Y-60.862
X-122.262 Y-60.474
G3 X-122.676 Y-60.37 I-0.264 J-0.176 F800
G1 X-122.716 Y-60.406 Z8.105
X-122.755 Y-60.442 Z8.119
X-122.791 Y-60.475 Z8.142
X-122.808 Y-60.522 Z8.178
X-122.821 Y-60.561 Z8.222
X-122.832 Y-60.592 Z8.273
X-122.839 Y-60.613 Z8.329
X-122.843 Y-60.623 Z8.389
Y-60.624 Z8.417
G0 Z20.1
X3.694 Y-63.327
Z8.235
G1 Z7.918 F600
X3.687 Y-63.325 Z7.847
X3.664 Y-63.32 Z7.78
X3.627 Y-63.31 Z7.72
X3.579 Y-63.298 Z7.669
X3.52 Y-63.283 Z7.631
X3.455 Y-63.266 Z7.608
X3.387 Y-63.249 Z7.6
G3 X1.658 Y-63 I-2.011 J-7.852
G1 X1.508 F1300
X0.879 Y-63.128
X0.242 Y-63.206
X-0.399 Y-63.251
X-1.041 Y-63.279
X-1.683 Y-63.295
X-2.325 Y-63.304
X-2.967 Y-63.31
X-3.609 Y-63.313
X-4.893 Y-63.316
X-8.104 Y-63.317
X-48.562 Y-63.318
X-98.652
X-120.487
X-120.646 Y-63.301
X-120.951 Y-63.199
X-121.207 Y-63.005
X-121.633 Y-62.524
X-121.903 Y-61.942
X-122.07 Y-61.321
X-122.161 Y-60.747
X-122.183 Y-60.652
X-122.216 Y-60.56
X-122.262 Y-60.474
X-122.284 Y-60.438
X-122.294 Y-60.42
X-122.302 Y-60.403
X-122.369 Y-60.218
X-122.404 Y-60.072
X-122.435 Y-59.926
X-122.493 Y-59.634
X-122.519 Y-59.488
X-122.567 Y-59.196
X-122.584 Y-59.05
X-122.588 Y-58.613
Y-3.314
X-122.585 Y-3.168
X-122.575 Y-2.876
X-122.561 Y-2.73
X-122.534 Y-2.584
X-122.446 Y-1.948
X-122.392 Y-1.308
X-122.267 Y-1.012
X-122.066 Y-0.762
X-121.575 Y-0.348
X-121.152 Y-0.157
X-121.114 Y-0.139
X-121.078 Y-0.119
X-121.042 Y-0.097
G3 X-120.971 Y0.347 Z7.8 I-0.186 J0.257 F800
G1 X-121.012 Y0.393
X-121.061 Y0.431
X-121.117 Y0.458
X-121.177 Y0.474
G3 X-121.5 Y0.325 I-0.051 J-0.313 F1300
G1 X-123.115 Y-2.35
G3 X-123.111 Y-2.685 I0.272 J-0.164
G1 X-123.073 Y-2.733 F600
X-123.026 Y-2.774
X-122.972 Y-2.804
X-122.913 Y-2.824
G3 X-122.534 Y-2.584 Z7.6 I0.07 J0.31
G1 X-122.478 Y-2.292 F1300
X-122.419 Y-2.001
X-122.388 Y-1.855
X-122.315 Y-1.637
X-122.284 Y-1.563
X-122.205 Y-1.417
X-121.918 Y-0.979
X-121.877 Y-0.918
X-121.818 Y-0.833
X-121.597 Y-0.53
X-121.439 Y-0.378
X-121.294 Y-0.271
X-121.025 Y-0.085
X-120.83 Y0.042
X-120.564 Y0.213
X-120.418 Y0.289
X-120.272 Y0.351
X-120.126 Y0.391
X-119.981 Y0.423
X-119.689 Y0.482
X-119.543 Y0.509
X-119.251 Y0.562
X-119.105 Y0.579
X-118.668 Y0.587
X-3.131
X-2.985 Y0.585
X-2.839 Y0.578
X-2.693 Y0.555
X-2.056 Y0.472
X-1.417 Y0.408
X-1.107 Y0.323
X-0.842 Y0.143
X-0.399 Y-0.323
X-0.117 Y-0.899
X-0.106 Y-0.931
X-0.091 Y-0.962
X-0.074 Y-0.991
G3 X0.37 Y-1.06 Z7.8 I0.256 J0.188 F800
G1 X0.416 Y-1.019
X0.453 Y-0.969
X0.48 Y-0.913
X0.496 Y-0.853
G3 X0.344 Y-0.531 I-0.314 J0.05 F1300
G1 X-2.463 Y1.138
G3 X-2.798 Y1.132 I-0.162 J-0.273
G1 X-2.847 Y1.093 F600
X-2.887 Y1.046
X-2.917 Y0.991
X-2.936 Y0.932
G3 X-2.693 Y0.555 Z7.6 I0.31 J-0.067
G1 X-2.547 Y0.529 F1300
X-2.255 Y0.47
X-2.11 Y0.44
X-1.716 Y0.347
X-1.699 Y0.342
X-1.526 Y0.265
X-1.38 Y0.181
X-1.234 Y0.089
X-0.797 Y-0.204
X-0.651 Y-0.307
X-0.543 Y-0.396
X-0.39 Y-0.541
X-0.359 Y-0.583
X-0.067 Y-1.001
X0.079 Y-1.219
X0.225 Y-1.446
X0.281 Y-1.563
X0.342 Y-1.709
X0.388 Y-1.855
X0.478 Y-2.292
X0.536 Y-2.584
X0.562 Y-2.73
X0.575 Y-2.876
X0.585 Y-3.168
X0.587 Y-3.314
Y-58.613
X0.584 Y-59.05
X0.568 Y-59.196
X0.546 Y-59.342
X0.472 Y-59.98
X0.439 Y-60.3
X0.332 Y-60.602
X0.145 Y-60.863
X-0.123 Y-61.114
X-0.162 Y-61.153
X-0.197 Y-61.195
X-0.23 Y-61.239
G3 X-0.134 Y-61.678 Z7.8 I0.267 J-0.172 F800
G1 X-0.079 Y-61.706
X-0.02 Y-61.723
X0.042 Y-61.728
X0.104 Y-61.721
G3 X0.331 Y-61.531 I-0.066 J0.31 F1300
G1 X1.151 Y-59.526
G3 X1.121 Y-59.229 I-0.294 J0.12
G1 X1.082 Y-59.181 F600
X1.034 Y-59.142
X0.979 Y-59.113
X0.92 Y-59.095
G3 X0.546 Y-59.342 Z7.6 I-0.063 J-0.311
G1 X0.521 Y-59.488 F1300
X0.434 Y-59.926
X0.403 Y-60.072
X0.367 Y-60.218
X0.314 Y-60.364
X0.242 Y-60.51
X0.155 Y-60.655
X0.079 Y-60.781
X-0.247 Y-61.263
X-0.331 Y-61.385
X-0.359 Y-61.421
X-0.505 Y-61.569
X-0.631 Y-61.677
X-0.797 Y-61.796
X-1.273 Y-62.115
X-1.38 Y-62.182
X-1.519 Y-62.26
X-1.69 Y-62.338
X-2.11 Y-62.44
X-2.255 Y-62.471
X-2.547 Y-62.529
X-2.693 Y-62.555
X-2.839 Y-62.578
X-2.985 Y-62.585
X-3.131 Y-62.588
X-118.668
X-119.105 Y-62.579
X-119.251 Y-62.562
X-119.543 Y-62.509
X-119.689 Y-62.482
X-120.066 Y-62.406
X-120.126 Y-62.391
X-120.272 Y-62.35
X-120.418 Y-62.29
X-120.485 Y-62.26
X-120.564 Y-62.215
X-120.944 Y-61.969
X-121.163 Y-61.823
X-121.294 Y-61.733
X-121.371 Y-61.677
X-121.439 Y-61.623
X-121.538 Y-61.531
X-121.585 Y-61.483
X-121.667 Y-61.385
X-121.731 Y-61.298
X-121.877 Y-61.082
X-121.967 Y-60.947
X-122.023 Y-60.862
X-122.262 Y-60.474
G3 X-122.676 Y-60.37 I-0.264 J-0.176 F800
G1 X-122.716 Y-60.406 Z7.605
X-122.755 Y-60.442 Z7.619
X-122.791 Y-60.475 Z7.642
X-122.808 Y-60.522 Z7.678
X-122.821 Y-60.561 Z7.722
X-122.832 Y-60.592 Z7.773
X-122.839 Y-60.613 Z7.829
X-122.843 Y-60.623 Z7.889
Y-60.624 Z7.918
G0 Z20.1
X3.694 Y-63.327
Z7.735
G1 Z7.418 F600
X3.687 Y-63.325 Z7.347
X3.664 Y-63.32 Z7.28
X3.627 Y-63.31 Z7.22
X3.579 Y-63.298 Z7.169
X3.52 Y-63.283 Z7.131
X3.455 Y-63.266 Z7.108
X3.387 Y-63.249 Z7.1
G3 X1.658 Y-63 I-2.011 J-7.852
G1 X1.508 F1300
X0.879 Y-63.128
X0.242 Y-63.206
X-0.399 Y-63.251
X-1.041 Y-63.279
X-1.683 Y-63.295
X-2.325 Y-63.304
X-2.967 Y-63.31
X-3.609 Y-63.313
X-4.893 Y-63.316
X-8.104 Y-63.317
X-48.562 Y-63.318
X-98.652
X-120.487
X-120.646 Y-63.301
X-120.951 Y-63.199
X-121.207 Y-63.005
X-121.633 Y-62.524
X-121.903 Y-61.942
X-122.07 Y-61.321
X-122.161 Y-60.747
X-122.183 Y-60.652
X-122.216 Y-60.56
X-122.262 Y-60.474
X-122.284 Y-60.438
X-122.294 Y-60.42
X-122.302 Y-60.403
X-122.369 Y-60.218
X-122.404 Y-60.072
X-122.435 Y-59.926
X-122.493 Y-59.634
X-122.519 Y-59.488
X-122.567 Y-59.196
X-122.584 Y-59.05
X-122.588 Y-58.613
Y-3.314
X-122.585 Y-3.168
X-122.575 Y-2.876
X-122.561 Y-2.73
X-122.534 Y-2.584
X-122.446 Y-1.948
X-122.392 Y-1.308
X-122.267 Y-1.012
X-122.066 Y-0.762
X-121.575 Y-0.348
X-121.152 Y-0.157
X-121.114 Y-0.139
X-121.078 Y-0.119
X-121.042 Y-0.097
G3 X-120.971 Y0.347 Z7.3 I-0.186 J0.257 F800
G1 X-121.012 Y0.393
X-121.061 Y0.431
X-121.117 Y0.458
X-121.177 Y0.474
G3 X-121.5 Y0.325 I-0.051 J-0.313 F1300
G1 X-123.115 Y-2.35
G3 X-123.111 Y-2.685 I0.272 J-0.164
G1 X-123.073 Y-2.733 F600
X-123.026 Y-2.774
X-122.972 Y-2.804
X-122.913 Y-2.824
G3 X-122.534 Y-2.584 Z7.1 I0.07 J0.31
G1 X-122.478 Y-2.292 F1300
X-122.419 Y-2.001
X-122.388 Y-1.855
X-122.315 Y-1.637
X-122.284 Y-1.563
X-122.205 Y-1.417
X-121.918 Y-0.979
X-121.877 Y-0.918
X-121.818 Y-0.833
X-121.597 Y-0.53
X-121.439 Y-0.378
X-121.294 Y-0.271
X-121.025 Y-0.085
X-120.83 Y0.042
X-120.564 Y0.213
X-120.418 Y0.289
X-120.272 Y0.351
X-120.126 Y0.391
X-119.981 Y0.423
X-119.689 Y0.482
X-119.543 Y0.509
X-119.251 Y0.562
X-119.105 Y0.579
X-118.668 Y0.587
X-3.131
X-2.985 Y0.585
X-2.839 Y0.578
X-2.693 Y0.555
X-2.056 Y0.472
X-1.417 Y0.408
X-1.107 Y0.323
X-0.842 Y0.143
X-0.399 Y-0.323
X-0.117 Y-0.899
X-0.106 Y-0.931
X-0.091 Y-0.962
X-0.074 Y-0.991
G3 X0.37 Y-1.06 Z7.3 I0.256 J0.188 F800
G1 X0.416 Y-1.019
X0.453 Y-0.969
X0.48 Y-0.913
X0.496 Y-0.853
G3 X0.344 Y-0.531 I-0.314 J0.05 F1300
G1 X-2.463 Y1.138
G3 X-2.798 Y1.132 I-0.162 J-0.273
G1 X-2.847 Y1.093 F600
X-2.887 Y1.046
X-2.917 Y0.991
X-2.936 Y0.932
G3 X-2.693 Y0.555 Z7.1 I0.31 J-0.067
G1 X-2.547 Y0.529 F1300
X-2.255 Y0.47
X-2.11 Y0.44
X-1.716 Y0.347
X-1.699 Y0.342
X-1.526 Y0.265
X-1.38 Y0.181
X-1.234 Y0.089
X-0.797 Y-0.204
X-0.651 Y-0.307
X-0.543 Y-0.396
X-0.39 Y-0.541
X-0.359 Y-0.583
X-0.067 Y-1.001
X0.079 Y-1.219
X0.225 Y-1.446
X0.281 Y-1.563
X0.342 Y-1.709
X0.388 Y-1.855
X0.478 Y-2.292
X0.536 Y-2.584
X0.562 Y-2.73
X0.575 Y-2.876
X0.585 Y-3.168
X0.587 Y-3.314
Y-58.613
X0.584 Y-59.05
X0.568 Y-59.196
X0.546 Y-59.342
X0.472 Y-59.98
X0.439 Y-60.3
X0.332 Y-60.602
X0.145 Y-60.863
X-0.123 Y-61.114
X-0.162 Y-61.153
X-0.197 Y-61.195
X-0.23 Y-61.239
G3 X-0.134 Y-61.678 Z7.3 I0.267 J-0.172 F800
G1 X-0.079 Y-61.706
X-0.02 Y-61.723
X0.042 Y-61.728
X0.104 Y-61.721
G3 X0.331 Y-61.531 I-0.066 J0.31 F1300
G1 X1.151 Y-59.526
G3 X1.121 Y-59.229 I-0.294 J0.12
G1 X1.082 Y-59.181 F600
X1.034 Y-59.142
X0.979 Y-59.113
X0.92 Y-59.095
G3 X0.546 Y-59.342 Z7.1 I-0.063 J-0.311
G1 X0.521 Y-59.488 F1300
X0.434 Y-59.926
X0.403 Y-60.072
X0.367 Y-60.218
X0.314 Y-60.364
X0.242 Y-60.51
X0.155 Y-60.655
X0.079 Y-60.781
X-0.247 Y-61.263
X-0.331 Y-61.385
X-0.359 Y-61.421
X-0.505 Y-61.569
X-0.631 Y-61.677
X-0.797 Y-61.796
X-1.273 Y-62.115
X-1.38 Y-62.182
X-1.519 Y-62.26
X-1.69 Y-62.338
X-2.11 Y-62.44
X-2.255 Y-62.471
X-2.547 Y-62.529
X-2.693 Y-62.555
X-2.839 Y-62.578
X-2.985 Y-62.585
X-3.131 Y-62.588
X-118.668
X-119.105 Y-62.579
X-119.251 Y-62.562
X-119.543 Y-62.509
X-119.689 Y-62.482
X-120.066 Y-62.406
X-120.126 Y-62.391
X-120.272 Y-62.35
X-120.418 Y-62.29
X-120.485 Y-62.26
X-120.564 Y-62.215
X-120.944 Y-61.969
X-121.163 Y-61.823
X-121.294 Y-61.733
X-121.371 Y-61.677
X-121.439 Y-61.623
X-121.538 Y-61.531
X-121.585 Y-61.483
X-121.667 Y-61.385
X-121.731 Y-61.298
X-121.877 Y-61.082
X-121.967 Y-60.947
X-122.023 Y-60.862
X-122.262 Y-60.474
G3 X-122.676 Y-60.37 I-0.264 J-0.176 F800
G1 X-122.716 Y-60.406 Z7.105
X-122.755 Y-60.442 Z7.119
X-122.791 Y-60.475 Z7.142
X-122.808 Y-60.522 Z7.178
X-122.821 Y-60.561 Z7.222
X-122.832 Y-60.592 Z7.273
X-122.839 Y-60.613 Z7.329
X-122.843 Y-60.623 Z7.389
Y-60.624 Z7.418
G0 Z20.1
X3.694 Y-63.327
Z7.235
G1 Z6.918 F600
X3.687 Y-63.325 Z6.847
X3.664 Y-63.32 Z6.78
X3.627 Y-63.31 Z6.72
X3.579 Y-63.298 Z6.669
X3.52 Y-63.283 Z6.631
X3.455 Y-63.266 Z6.608
X3.387 Y-63.249 Z6.6
G3 X1.658 Y-63 I-2.011 J-7.852
G1 X1.508 F1300
X0.879 Y-63.128
X0.242 Y-63.206
X-0.399 Y-63.251
X-1.041 Y-63.279
X-1.683 Y-63.295
X-2.325 Y-63.304
X-2.967 Y-63.31
X-3.609 Y-63.313
X-4.893 Y-63.316
X-8.104 Y-63.317
X-48.562 Y-63.318
X-98.652
X-120.487
X-120.646 Y-63.301
X-120.951 Y-63.199
X-121.207 Y-63.005
X-121.633 Y-62.524
X-121.903 Y-61.942
X-122.07 Y-61.321
X-122.161 Y-60.747
X-122.183 Y-60.652
X-122.216 Y-60.56
X-122.262 Y-60.474
X-122.284 Y-60.438
X-122.294 Y-60.42
X-122.302 Y-60.403
X-122.369 Y-60.218
X-122.404 Y-60.072
X-122.435 Y-59.926
X-122.493 Y-59.634
X-122.519 Y-59.488
X-122.567 Y-59.196
X-122.584 Y-59.05
X-122.588 Y-58.613
Y-3.314
X-122.585 Y-3.168
X-122.575 Y-2.876
X-122.561 Y-2.73
X-122.534 Y-2.584
X-122.446 Y-1.948
X-122.392 Y-1.308
X-122.267 Y-1.012
X-122.066 Y-0.762
X-121.575 Y-0.348
X-121.152 Y-0.157
X-121.114 Y-0.139
X-121.078 Y-0.119
X-121.042 Y-0.097
G3 X-120.971 Y0.347 Z6.8 I-0.186 J0.257 F800
G1 X-121.012 Y0.393
X-121.061 Y0.431
X-121.117 Y0.458
X-121.177 Y0.474
G3 X-121.5 Y0.325 I-0.051 J-0.313 F1300
G1 X-123.115 Y-2.35
G3 X-123.111 Y-2.685 I0.272 J-0.164
G1 X-123.073 Y-2.733 F600
X-123.026 Y-2.774
X-122.972 Y-2.804
X-122.913 Y-2.824
G3 X-122.534 Y-2.584 Z6.6 I0.07 J0.31
G1 X-122.478 Y-2.292 F1300
X-122.419 Y-2.001
X-122.388 Y-1.855
X-122.315 Y-1.637
X-122.284 Y-1.563
X-122.205 Y-1.417
X-121.918 Y-0.979
X-121.877 Y-0.918
X-121.818 Y-0.833
X-121.597 Y-0.53
X-121.439 Y-0.378
X-121.294 Y-0.271
X-121.025 Y-0.085
X-120.83 Y0.042
X-120.564 Y0.213
X-120.418 Y0.289
X-120.272 Y0.351
X-120.126 Y0.391
X-119.981 Y0.423
X-119.689 Y0.482
X-119.543 Y0.509
X-119.251 Y0.562
X-119.105 Y0.579
X-118.668 Y0.587
X-3.131
X-2.985 Y0.585
X-2.839 Y0.578
X-2.693 Y0.555
X-2.056 Y0.472
X-1.417 Y0.408
X-1.107 Y0.323
X-0.842 Y0.143
X-0.399 Y-0.323
X-0.117 Y-0.899
X-0.106 Y-0.931
X-0.091 Y-0.962
X-0.074 Y-0.991
G3 X0.37 Y-1.06 Z6.8 I0.256 J0.188 F800
G1 X0.416 Y-1.019
X0.453 Y-0.969
X0.48 Y-0.913
X0.496 Y-0.853
G3 X0.344 Y-0.531 I-0.314 J0.05 F1300
G1 X-2.463 Y1.138
G3 X-2.798 Y1.132 I-0.162 J-0.273
G1 X-2.847 Y1.093 F600
X-2.887 Y1.046
X-2.917 Y0.991
X-2.936 Y0.932
G3 X-2.693 Y0.555 Z6.6 I0.31 J-0.067
G1 X-2.547 Y0.529 F1300
X-2.255 Y0.47
X-2.11 Y0.44
X-1.716 Y0.347
X-1.699 Y0.342
X-1.526 Y0.265
X-1.38 Y0.181
X-1.234 Y0.089
X-0.797 Y-0.204
X-0.651 Y-0.307
X-0.543 Y-0.396
X-0.39 Y-0.541
X-0.359 Y-0.583
X-0.067 Y-1.001
X0.079 Y-1.219
X0.225 Y-1.446
X0.281 Y-1.563
X0.342 Y-1.709
X0.388 Y-1.855
X0.478 Y-2.292
X0.536 Y-2.584
X0.562 Y-2.73
X0.575 Y-2.876
X0.585 Y-3.168
X0.587 Y-3.314
Y-58.613
X0.584 Y-59.05
X0.568 Y-59.196
X0.546 Y-59.342
X0.472 Y-59.98
X0.439 Y-60.3
X0.332 Y-60.602
X0.145 Y-60.863
X-0.123 Y-61.114
X-0.162 Y-61.153
X-0.197 Y-61.195
X-0.23 Y-61.239
G3 X-0.134 Y-61.678 Z6.8 I0.267 J-0.172 F800
G1 X-0.079 Y-61.706
X-0.02 Y-61.723
X0.042 Y-61.728
X0.104 Y-61.721
G3 X0.331 Y-61.531 I-0.066 J0.31 F1300
G1 X1.151 Y-59.526
G3 X1.121 Y-59.229 I-0.294 J0.12
G1 X1.082 Y-59.181 F600
X1.034 Y-59.142
X0.979 Y-59.113
X0.92 Y-59.095
G3 X0.546 Y-59.342 Z6.6 I-0.063 J-0.311
G1 X0.521 Y-59.488 F1300
X0.434 Y-59.926
X0.403 Y-60.072
X0.367 Y-60.218
X0.314 Y-60.364
X0.242 Y-60.51
X0.155 Y-60.655
X0.079 Y-60.781
X-0.247 Y-61.263
X-0.331 Y-61.385
X-0.359 Y-61.421
X-0.505 Y-61.569
X-0.631 Y-61.677
X-0.797 Y-61.796
X-1.273 Y-62.115
X-1.38 Y-62.182
X-1.519 Y-62.26
X-1.69 Y-62.338
X-2.11 Y-62.44
X-2.255 Y-62.471
X-2.547 Y-62.529
X-2.693 Y-62.555
X-2.839 Y-62.578
X-2.985 Y-62.585
X-3.131 Y-62.588
X-118.668
X-119.105 Y-62.579
X-119.251 Y-62.562
X-119.543 Y-62.509
X-119.689 Y-62.482
X-120.066 Y-62.406
X-120.126 Y-62.391
X-120.272 Y-62.35
X-120.418 Y-62.29
X-120.485 Y-62.26
X-120.564 Y-62.215
X-120.944 Y-61.969
X-121.163 Y-61.823
X-121.294 Y-61.733
X-121.371 Y-61.677
X-121.439 Y-61.623
X-121.538 Y-61.531
X-121.585 Y-61.483
X-121.667 Y-61.385
X-121.731 Y-61.298
X-121.877 Y-61.082
X-121.967 Y-60.947
X-122.023 Y-60.862
X-122.262 Y-60.474
G3 X-122.676 Y-60.37 I-0.264 J-0.176 F800
G1 X-122.716 Y-60.406 Z6.605
X-122.755 Y-60.442 Z6.619
X-122.791 Y-60.475 Z6.642
X-122.808 Y-60.522 Z6.678
X-122.821 Y-60.561 Z6.722
X-122.832 Y-60.592 Z6.773
X-122.839 Y-60.613 Z6.829
X-122.843 Y-60.623 Z6.889
Y-60.624 Z6.918
G0 Z20.1
X3.694 Y-63.327
Z6.735
G1 Z6.418 F600
X3.687 Y-63.325 Z6.347
X3.664 Y-63.32 Z6.28
X3.627 Y-63.31 Z6.22
X3.579 Y-63.298 Z6.169
X3.52 Y-63.283 Z6.131
X3.455 Y-63.266 Z6.108
X3.387 Y-63.249 Z6.1
G3 X1.658 Y-63 I-2.011 J-7.852
G1 X1.508 F1300
X0.879 Y-63.128
X0.242 Y-63.206
X-0.399 Y-63.251
X-1.041 Y-63.279
X-1.683 Y-63.295
X-2.325 Y-63.304
X-2.967 Y-63.31
X-3.609 Y-63.313
X-4.893 Y-63.316
X-8.104 Y-63.317
X-48.562 Y-63.318
X-98.652
X-120.487
X-120.646 Y-63.301
X-120.951 Y-63.199
X-121.207 Y-63.005
X-121.633 Y-62.524
X-121.903 Y-61.942
X-122.07 Y-61.321
X-122.161 Y-60.747
X-122.183 Y-60.652
X-122.216 Y-60.56
X-122.262 Y-60.474
X-122.284 Y-60.438
X-122.294 Y-60.42
X-122.302 Y-60.403
X-122.369 Y-60.218
X-122.404 Y-60.072
X-122.435 Y-59.926
X-122.493 Y-59.634
X-122.519 Y-59.488
X-122.567 Y-59.196
X-122.584 Y-59.05
X-122.588 Y-58.613
Y-3.314
X-122.585 Y-3.168
X-122.575 Y-2.876
X-122.561 Y-2.73
X-122.534 Y-2.584
X-122.446 Y-1.948
X-122.392 Y-1.308
X-122.267 Y-1.012
X-122.066 Y-0.762
X-121.575 Y-0.348
X-121.152 Y-0.157
X-121.114 Y-0.139
X-121.078 Y-0.119
X-121.042 Y-0.097
G3 X-120.971 Y0.347 Z6.3 I-0.186 J0.257 F800
G1 X-121.012 Y0.393
X-121.061 Y0.431
X-121.117 Y0.458
X-121.177 Y0.474
G3 X-121.5 Y0.325 I-0.051 J-0.313 F1300
G1 X-123.115 Y-2.35
G3 X-123.111 Y-2.685 I0.272 J-0.164
G1 X-123.073 Y-2.733 F600
X-123.026 Y-2.774
X-122.972 Y-2.804
X-122.913 Y-2.824
G3 X-122.534 Y-2.584 Z6.1 I0.07 J0.31
G1 X-122.478 Y-2.292 F1300
X-122.419 Y-2.001
X-122.388 Y-1.855
X-122.315 Y-1.637
X-122.284 Y-1.563
X-122.205 Y-1.417
X-121.918 Y-0.979
X-121.877 Y-0.918
X-121.818 Y-0.833
X-121.597 Y-0.53
X-121.439 Y-0.378
X-121.294 Y-0.271
X-121.025 Y-0.085
X-120.83 Y0.042
X-120.564 Y0.213
X-120.418 Y0.289
X-120.272 Y0.351
X-120.126 Y0.391
X-119.981 Y0.423
X-119.689 Y0.482
X-119.543 Y0.509
X-119.251 Y0.562
X-119.105 Y0.579
X-118.668 Y0.587
X-3.131
X-2.985 Y0.585
X-2.839 Y0.578
X-2.693 Y0.555
X-2.056 Y0.472
X-1.417 Y0.408
X-1.107 Y0.323
X-0.842 Y0.143
X-0.399 Y-0.323
X-0.117 Y-0.899
X-0.106 Y-0.931
X-0.091 Y-0.962
X-0.074 Y-0.991
G3 X0.37 Y-1.06 Z6.3 I0.256 J0.188 F800
G1 X0.416 Y-1.019
X0.453 Y-0.969
X0.48 Y-0.913
X0.496 Y-0.853
G3 X0.344 Y-0.531 I-0.314 J0.05 F1300
G1 X-2.463 Y1.138
G3 X-2.798 Y1.132 I-0.162 J-0.273
G1 X-2.847 Y1.093 F600
X-2.887 Y1.046
X-2.917 Y0.991
X-2.936 Y0.932
G3 X-2.693 Y0.555 Z6.1 I0.31 J-0.067
G1 X-2.547 Y0.529 F1300
X-2.255 Y0.47
X-2.11 Y0.44
X-1.716 Y0.347
X-1.699 Y0.342
X-1.526 Y0.265
X-1.38 Y0.181
X-1.234 Y0.089
X-0.797 Y-0.204
X-0.651 Y-0.307
X-0.543 Y-0.396
X-0.39 Y-0.541
X-0.359 Y-0.583
X-0.067 Y-1.001
X0.079 Y-1.219
X0.225 Y-1.446
X0.281 Y-1.563
X0.342 Y-1.709
X0.388 Y-1.855
X0.478 Y-2.292
X0.536 Y-2.584
X0.562 Y-2.73
X0.575 Y-2.876
X0.585 Y-3.168
X0.587 Y-3.314
Y-58.613
X0.584 Y-59.05
X0.568 Y-59.196
X0.546 Y-59.342
X0.472 Y-59.98
X0.439 Y-60.3
X0.332 Y-60.602
X0.145 Y-60.863
X-0.123 Y-61.114
X-0.162 Y-61.153
X-0.197 Y-61.195
X-0.23 Y-61.239
G3 X-0.134 Y-61.678 Z6.3 I0.267 J-0.172 F800
G1 X-0.079 Y-61.706
X-0.02 Y-61.723
X0.042 Y-61.728
X0.104 Y-61.721
G3 X0.331 Y-61.531 I-0.066 J0.31 F1300
G1 X1.151 Y-59.526
G3 X1.121 Y-59.229 I-0.294 J0.12
G1 X1.082 Y-59.181 F600
X1.034 Y-59.142
X0.979 Y-59.113
X0.92 Y-59.095
G3 X0.546 Y-59.342 Z6.1 I-0.063 J-0.311
G1 X0.521 Y-59.488 F1300
X0.434 Y-59.926
X0.403 Y-60.072
X0.367 Y-60.218
X0.314 Y-60.364
X0.242 Y-60.51
X0.155 Y-60.655
X0.079 Y-60.781
X-0.247 Y-61.263
X-0.331 Y-61.385
X-0.359 Y-61.421
X-0.505 Y-61.569
X-0.631 Y-61.677
X-0.797 Y-61.796
X-1.273 Y-62.115
X-1.38 Y-62.182
X-1.519 Y-62.26
X-1.69 Y-62.338
X-2.11 Y-62.44
X-2.255 Y-62.471
X-2.547 Y-62.529
X-2.693 Y-62.555
X-2.839 Y-62.578
X-2.985 Y-62.585
X-3.131 Y-62.588
X-118.668
X-119.105 Y-62.579
X-119.251 Y-62.562
X-119.543 Y-62.509
X-119.689 Y-62.482
X-120.066 Y-62.406
X-120.126 Y-62.391
X-120.272 Y-62.35
X-120.418 Y-62.29
X-120.485 Y-62.26
X-120.564 Y-62.215
X-120.944 Y-61.969
X-121.163 Y-61.823
X-121.294 Y-61.733
X-121.371 Y-61.677
X-121.439 Y-61.623
X-121.538 Y-61.531
X-121.585 Y-61.483
X-121.667 Y-61.385
X-121.731 Y-61.298
X-121.877 Y-61.082
X-121.967 Y-60.947
X-122.023 Y-60.862
X-122.262 Y-60.474
G3 X-122.676 Y-60.37 I-0.264 J-0.176 F800
G1 X-122.716 Y-60.406 Z6.105
X-122.755 Y-60.442 Z6.119
X-122.791 Y-60.475 Z6.142
X-122.808 Y-60.522 Z6.178
X-122.821 Y-60.561 Z6.222
X-122.832 Y-60.592 Z6.273
X-122.839 Y-60.613 Z6.329
X-122.843 Y-60.623 Z6.389
Y-60.624 Z6.418
G0 Z20.1
X3.694 Y-63.327
Z6.235
G1 Z5.918 F600
X3.687 Y-63.325 Z5.847
X3.664 Y-63.32 Z5.78
X3.627 Y-63.31 Z5.72
X3.579 Y-63.298 Z5.669
X3.52 Y-63.283 Z5.631
X3.455 Y-63.266 Z5.608
X3.387 Y-63.249 Z5.6
G3 X1.658 Y-63 I-2.011 J-7.852
G1 X1.508 F1300
X0.879 Y-63.128
X0.242 Y-63.206
X-0.399 Y-63.251
X-1.041 Y-63.279
X-1.683 Y-63.295
X-2.325 Y-63.304
X-2.967 Y-63.31
X-3.609 Y-63.313
X-4.893 Y-63.316
X-8.104 Y-63.317
X-48.562 Y-63.318
X-98.652
X-120.487
X-120.646 Y-63.301
X-120.951 Y-63.199
X-121.207 Y-63.005
X-121.633 Y-62.524
X-121.903 Y-61.942
X-122.07 Y-61.321
X-122.161 Y-60.747
X-122.183 Y-60.652
X-122.216 Y-60.56
X-122.262 Y-60.474
X-122.284 Y-60.438
X-122.294 Y-60.42
X-122.302 Y-60.403
X-122.369 Y-60.218
X-122.404 Y-60.072
X-122.435 Y-59.926
X-122.493 Y-59.634
X-122.519 Y-59.488
X-122.567 Y-59.196
X-122.584 Y-59.05
X-122.588 Y-58.613
Y-3.314
X-122.585 Y-3.168
X-122.575 Y-2.876
X-122.561 Y-2.73
X-122.534 Y-2.584
X-122.446 Y-1.948
X-122.392 Y-1.308
X-122.267 Y-1.012
X-122.066 Y-0.762
X-121.575 Y-0.348
X-121.152 Y-0.157
X-121.114 Y-0.139
X-121.078 Y-0.119
X-121.042 Y-0.097
G3 X-120.971 Y0.347 Z5.8 I-0.186 J0.257 F800
G1 X-121.012 Y0.393
X-121.061 Y0.431
X-121.117 Y0.458
X-121.177 Y0.474
G3 X-121.5 Y0.325 I-0.051 J-0.313 F1300
G1 X-123.115 Y-2.35
G3 X-123.111 Y-2.685 I0.272 J-0.164
G1 X-123.073 Y-2.733 F600
X-123.026 Y-2.774
X-122.972 Y-2.804
X-122.913 Y-2.824
G3 X-122.534 Y-2.584 Z5.6 I0.07 J0.31
G1 X-122.478 Y-2.292 F1300
X-122.419 Y-2.001
X-122.388 Y-1.855
X-122.315 Y-1.637
X-122.284 Y-1.563
X-122.205 Y-1.417
X-121.918 Y-0.979
X-121.877 Y-0.918
X-121.818 Y-0.833
X-121.597 Y-0.53
X-121.439 Y-0.378
X-121.294 Y-0.271
X-121.025 Y-0.085
X-120.83 Y0.042
X-120.564 Y0.213
X-120.418 Y0.289
X-120.272 Y0.351
X-120.126 Y0.391
X-119.981 Y0.423
X-119.689 Y0.482
X-119.543 Y0.509
X-119.251 Y0.562
X-119.105 Y0.579
X-118.668 Y0.587
X-3.131
X-2.985 Y0.585
X-2.839 Y0.578
X-2.693 Y0.555
X-2.056 Y0.472
X-1.417 Y0.408
X-1.107 Y0.323
X-0.842 Y0.143
X-0.399 Y-0.323
X-0.117 Y-0.899
X-0.106 Y-0.931
X-0.091 Y-0.962
X-0.074 Y-0.991
G3 X0.37 Y-1.06 Z5.8 I0.256 J0.188 F800
G1 X0.416 Y-1.019
X0.453 Y-0.969
X0.48 Y-0.913
X0.496 Y-0.853
G3 X0.344 Y-0.531 I-0.314 J0.05 F1300
G1 X-2.463 Y1.138
G3 X-2.798 Y1.132 I-0.162 J-0.273
G1 X-2.847 Y1.093 F600
X-2.887 Y1.046
X-2.917 Y0.991
X-2.936 Y0.932
G3 X-2.693 Y0.555 Z5.6 I0.31 J-0.067
G1 X-2.547 Y0.529 F1300
X-2.255 Y0.47
X-2.11 Y0.44
X-1.716 Y0.347
X-1.699 Y0.342
X-1.526 Y0.265
X-1.38 Y0.181
X-1.234 Y0.089
X-0.797 Y-0.204
X-0.651 Y-0.307
X-0.543 Y-0.396
X-0.39 Y-0.541
X-0.359 Y-0.583
X-0.067 Y-1.001
X0.079 Y-1.219
X0.225 Y-1.446
X0.281 Y-1.563
X0.342 Y-1.709
X0.388 Y-1.855
X0.478 Y-2.292
X0.536 Y-2.584
X0.562 Y-2.73
X0.575 Y-2.876
X0.585 Y-3.168
X0.587 Y-3.314
Y-58.613
X0.584 Y-59.05
X0.568 Y-59.196
X0.546 Y-59.342
X0.472 Y-59.98
X0.439 Y-60.3
X0.332 Y-60.602
X0.145 Y-60.863
X-0.123 Y-61.114
X-0.162 Y-61.153
X-0.197 Y-61.195
X-0.23 Y-61.239
G3 X-0.134 Y-61.678 Z5.8 I0.267 J-0.172 F800
G1 X-0.079 Y-61.706
X-0.02 Y-61.723
X0.042 Y-61.728
X0.104 Y-61.721
G3 X0.331 Y-61.531 I-0.066 J0.31 F1300
G1 X1.151 Y-59.526
G3 X1.121 Y-59.229 I-0.294 J0.12
G1 X1.082 Y-59.181 F600
X1.034 Y-59.142
X0.979 Y-59.113
X0.92 Y-59.095
G3 X0.546 Y-59.342 Z5.6 I-0.063 J-0.311
G1 X0.521 Y-59.488 F1300
X0.434 Y-59.926
X0.403 Y-60.072
X0.367 Y-60.218
X0.314 Y-60.364
X0.242 Y-60.51
X0.155 Y-60.655
X0.079 Y-60.781
X-0.247 Y-61.263
X-0.331 Y-61.385
X-0.359 Y-61.421
X-0.505 Y-61.569
X-0.631 Y-61.677
X-0.797 Y-61.796
X-1.273 Y-62.115
X-1.38 Y-62.182
X-1.519 Y-62.26
X-1.69 Y-62.338
X-2.11 Y-62.44
X-2.255 Y-62.471
X-2.547 Y-62.529
X-2.693 Y-62.555
X-2.839 Y-62.578
X-2.985 Y-62.585
X-3.131 Y-62.588
X-118.668
X-119.105 Y-62.579
X-119.251 Y-62.562
X-119.543 Y-62.509
X-119.689 Y-62.482
X-120.066 Y-62.406
X-120.126 Y-62.391
X-120.272 Y-62.35
X-120.418 Y-62.29
X-120.485 Y-62.26
X-120.564 Y-62.215
X-120.944 Y-61.969
X-121.163 Y-61.823
X-121.294 Y-61.733
X-121.371 Y-61.677
X-121.439 Y-61.623
X-121.538 Y-61.531
X-121.585 Y-61.483
X-121.667 Y-61.385
X-121.731 Y-61.298
X-121.877 Y-61.082
X-121.967 Y-60.947
X-122.023 Y-60.862
X-122.262 Y-60.474
G3 X-122.676 Y-60.37 I-0.264 J-0.176 F800
G1 X-122.716 Y-60.406 Z5.605
X-122.755 Y-60.442 Z5.619
X-122.791 Y-60.475 Z5.642
X-122.808 Y-60.522 Z5.678
X-122.821 Y-60.561 Z5.722
X-122.832 Y-60.592 Z5.773
X-122.839 Y-60.613 Z5.829
X-122.843 Y-60.623 Z5.889
Y-60.624 Z5.918
G0 Z20.1
X3.694 Y-63.327
Z5.735
G1 Z5.418 F600
X3.687 Y-63.325 Z5.347
X3.664 Y-63.32 Z5.28
X3.627 Y-63.31 Z5.22
X3.579 Y-63.298 Z5.169
X3.52 Y-63.283 Z5.131
X3.455 Y-63.266 Z5.108
X3.387 Y-63.249 Z5.1
G3 X1.658 Y-63 I-2.011 J-7.852
G1 X1.508 F1300
X0.879 Y-63.128
X0.242 Y-63.206
X-0.399 Y-63.251
X-1.041 Y-63.279
X-1.683 Y-63.295
X-2.325 Y-63.304
X-2.967 Y-63.31
X-3.609 Y-63.313
X-4.893 Y-63.316
X-8.104 Y-63.317
X-48.562 Y-63.318
X-98.652
X-120.487
X-120.646 Y-63.301
X-120.951 Y-63.199
X-121.207 Y-63.005
X-121.633 Y-62.524
X-121.903 Y-61.942
X-122.07 Y-61.321
X-122.161 Y-60.747
X-122.183 Y-60.652
X-122.216 Y-60.56
X-122.262 Y-60.474
X-122.284 Y-60.438
X-122.294 Y-60.42
X-122.302 Y-60.403
X-122.369 Y-60.218
X-122.404 Y-60.072
X-122.435 Y-59.926
X-122.493 Y-59.634
X-122.519 Y-59.488
X-122.567 Y-59.196
X-122.584 Y-59.05
X-122.588 Y-58.613
Y-3.314
X-122.585 Y-3.168
X-122.575 Y-2.876
X-122.561 Y-2.73
X-122.534 Y-2.584
X-122.446 Y-1.948
X-122.392 Y-1.308
X-122.267 Y-1.012
X-122.066 Y-0.762
X-121.575 Y-0.348
X-121.152 Y-0.157
X-121.114 Y-0.139
X-121.078 Y-0.119
X-121.042 Y-0.097
G3 X-120.971 Y0.347 Z5.3 I-0.186 J0.257 F800
G1 X-121.012 Y0.393
X-121.061 Y0.431
X-121.117 Y0.458
X-121.177 Y0.474
G3 X-121.5 Y0.325 I-0.051 J-0.313 F1300
G1 X-123.115 Y-2.35
G3 X-123.111 Y-2.685 I0.272 J-0.164
G1 X-123.073 Y-2.733 F600
X-123.026 Y-2.774
X-122.972 Y-2.804
X-122.913 Y-2.824
G3 X-122.534 Y-2.584 Z5.1 I0.07 J0.31
G1 X-122.478 Y-2.292 F1300
X-122.419 Y-2.001
X-122.388 Y-1.855
X-122.315 Y-1.637
X-122.284 Y-1.563
X-122.205 Y-1.417
X-121.918 Y-0.979
X-121.877 Y-0.918
X-121.818 Y-0.833
X-121.597 Y-0.53
X-121.439 Y-0.378
X-121.294 Y-0.271
X-121.025 Y-0.085
X-120.83 Y0.042
X-120.564 Y0.213
X-120.418 Y0.289
X-120.272 Y0.351
X-120.126 Y0.391
X-119.981 Y0.423
X-119.689 Y0.482
X-119.543 Y0.509
X-119.251 Y0.562
X-119.105 Y0.579
X-118.668 Y0.587
X-3.131
X-2.985 Y0.585
X-2.839 Y0.578
X-2.693 Y0.555
X-2.056 Y0.472
X-1.417 Y0.408
X-1.107 Y0.323
X-0.842 Y0.143
X-0.399 Y-0.323
X-0.117 Y-0.899
X-0.106 Y-0.931
X-0.091 Y-0.962
X-0.074 Y-0.991
G3 X0.37 Y-1.06 Z5.3 I0.256 J0.188 F800
G1 X0.416 Y-1.019
X0.453 Y-0.969
X0.48 Y-0.913
X0.496 Y-0.853
G3 X0.344 Y-0.531 I-0.314 J0.05 F1300
G1 X-2.463 Y1.138
G3 X-2.798 Y1.132 I-0.162 J-0.273
G1 X-2.847 Y1.093 F600
X-2.887 Y1.046
X-2.917 Y0.991
X-2.936 Y0.932
G3 X-2.693 Y0.555 Z5.1 I0.31 J-0.067
G1 X-2.547 Y0.529 F1300
X-2.255 Y0.47
X-2.11 Y0.44
X-1.716 Y0.347
X-1.699 Y0.342
X-1.526 Y0.265
X-1.38 Y0.181
X-1.234 Y0.089
X-0.797 Y-0.204
X-0.651 Y-0.307
X-0.543 Y-0.396
X-0.39 Y-0.541
X-0.359 Y-0.583
X-0.067 Y-1.001
X0.079 Y-1.219
X0.225 Y-1.446
X0.281 Y-1.563
X0.342 Y-1.709
X0.388 Y-1.855
X0.478 Y-2.292
X0.536 Y-2.584
X0.562 Y-2.73
X0.575 Y-2.876
X0.585 Y-3.168
X0.587 Y-3.314
Y-58.613
X0.584 Y-59.05
X0.568 Y-59.196
X0.546 Y-59.342
X0.472 Y-59.98
X0.439 Y-60.3
X0.332 Y-60.602
X0.145 Y-60.863
X-0.123 Y-61.114
X-0.162 Y-61.153
X-0.197 Y-61.195
X-0.23 Y-61.239
G3 X-0.134 Y-61.678 Z5.3 I0.267 J-0.172 F800
G1 X-0.079 Y-61.706
X-0.02 Y-61.723
X0.042 Y-61.728
X0.104 Y-61.721
G3 X0.331 Y-61.531 I-0.066 J0.31 F1300
G1 X1.151 Y-59.526
G3 X1.121 Y-59.229 I-0.294 J0.12
G1 X1.082 Y-59.181 F600
X1.034 Y-59.142
X0.979 Y-59.113
X0.92 Y-59.095
G3 X0.546 Y-59.342 Z5.1 I-0.063 J-0.311
G1 X0.521 Y-59.488 F1300
X0.434 Y-59.926
X0.403 Y-60.072
X0.367 Y-60.218
X0.314 Y-60.364
X0.242 Y-60.51
X0.155 Y-60.655
X0.079 Y-60.781
X-0.247 Y-61.263
X-0.331 Y-61.385
X-0.359 Y-61.421
X-0.505 Y-61.569
X-0.631 Y-61.677
X-0.797 Y-61.796
X-1.273 Y-62.115
X-1.38 Y-62.182
X-1.519 Y-62.26
X-1.69 Y-62.338
X-2.11 Y-62.44
X-2.255 Y-62.471
X-2.547 Y-62.529
X-2.693 Y-62.555
X-2.839 Y-62.578
X-2.985 Y-62.585
X-3.131 Y-62.588
X-118.668
X-119.105 Y-62.579
X-119.251 Y-62.562
X-119.543 Y-62.509
X-119.689 Y-62.482
X-120.066 Y-62.406
X-120.126 Y-62.391
X-120.272 Y-62.35
X-120.418 Y-62.29
X-120.485 Y-62.26
X-120.564 Y-62.215
X-120.944 Y-61.969
X-121.163 Y-61.823
X-121.294 Y-61.733
X-121.371 Y-61.677
X-121.439 Y-61.623
X-121.538 Y-61.531
X-121.585 Y-61.483
X-121.667 Y-61.385
X-121.731 Y-61.298
X-121.877 Y-61.082
X-121.967 Y-60.947
X-122.023 Y-60.862
X-122.262 Y-60.474
G3 X-122.676 Y-60.37 I-0.264 J-0.176 F800
G1 X-122.716 Y-60.406 Z5.105
X-122.755 Y-60.442 Z5.119
X-122.791 Y-60.475 Z5.142
X-122.808 Y-60.522 Z5.178
X-122.821 Y-60.561 Z5.222
X-122.832 Y-60.592 Z5.273
X-122.839 Y-60.613 Z5.329
X-122.843 Y-60.623 Z5.389
Y-60.624 Z5.418
G0 Z20.1
X3.694 Y-63.327
Z5.235
G1 Z4.918 F600
X3.687 Y-63.325 Z4.847
X3.664 Y-63.32 Z4.78
X3.627 Y-63.31 Z4.72
X3.579 Y-63.298 Z4.669
X3.52 Y-63.283 Z4.631
X3.455 Y-63.266 Z4.608
X3.387 Y-63.249 Z4.6
G3 X1.658 Y-63 I-2.011 J-7.852
G1 X1.508 F1300
X0.879 Y-63.128
X0.242 Y-63.206
X-0.399 Y-63.251
X-1.041 Y-63.279
X-1.683 Y-63.295
X-2.325 Y-63.304
X-2.967 Y-63.31
X-3.609 Y-63.313
X-4.893 Y-63.316
X-8.104 Y-63.317
X-48.562 Y-63.318
X-98.652
X-120.487
X-120.646 Y-63.301
X-120.951 Y-63.199
X-121.207 Y-63.005
X-121.633 Y-62.524
X-121.903 Y-61.942
X-122.07 Y-61.321
X-122.161 Y-60.747
X-122.183 Y-60.652
X-122.216 Y-60.56
X-122.262 Y-60.474
X-122.284 Y-60.438
X-122.294 Y-60.42
X-122.302 Y-60.403
X-122.369 Y-60.218
X-122.404 Y-60.072
X-122.435 Y-59.926
X-122.493 Y-59.634
X-122.519 Y-59.488
X-122.567 Y-59.196
X-122.584 Y-59.05
X-122.588 Y-58.613
Y-3.314
X-122.585 Y-3.168
X-122.575 Y-2.876
X-122.561 Y-2.73
X-122.534 Y-2.584
X-122.446 Y-1.948
X-122.392 Y-1.308
X-122.267 Y-1.012
X-122.066 Y-0.762
X-121.575 Y-0.348
X-121.152 Y-0.157
X-121.114 Y-0.139
X-121.078 Y-0.119
X-121.042 Y-0.097
G3 X-120.971 Y0.347 Z4.8 I-0.186 J0.257 F800
G1 X-121.012 Y0.393
X-121.061 Y0.431
X-121.117 Y0.458
X-121.177 Y0.474
G3 X-121.5 Y0.325 I-0.051 J-0.313 F1300
G1 X-123.115 Y-2.35
G3 X-123.111 Y-2.685 I0.272 J-0.164
G1 X-123.073 Y-2.733 F600
X-123.026 Y-2.774
X-122.972 Y-2.804
X-122.913 Y-2.824
G3 X-122.534 Y-2.584 Z4.6 I0.07 J0.31
G1 X-122.478 Y-2.292 F1300
X-122.419 Y-2.001
X-122.388 Y-1.855
X-122.315 Y-1.637
X-122.284 Y-1.563
X-122.205 Y-1.417
X-121.918 Y-0.979
X-121.877 Y-0.918
X-121.818 Y-0.833
X-121.597 Y-0.53
X-121.439 Y-0.378
X-121.294 Y-0.271
X-121.025 Y-0.085
X-120.83 Y0.042
X-120.564 Y0.213
X-120.418 Y0.289
X-120.272 Y0.351
X-120.126 Y0.391
X-119.981 Y0.423
X-119.689 Y0.482
X-119.543 Y0.509
X-119.251 Y0.562
X-119.105 Y0.579
X-118.668 Y0.587
X-3.131
X-2.985 Y0.585
X-2.839 Y0.578
X-2.693 Y0.555
X-2.056 Y0.472
X-1.417 Y0.408
X-1.107 Y0.323
X-0.842 Y0.143
X-0.399 Y-0.323
X-0.117 Y-0.899
X-0.106 Y-0.931
X-0.091 Y-0.962
X-0.074 Y-0.991
G3 X0.37 Y-1.06 Z4.8 I0.256 J0.188 F800
G1 X0.416 Y-1.019
X0.453 Y-0.969
X0.48 Y-0.913
X0.496 Y-0.853
G3 X0.344 Y-0.531 I-0.314 J0.05 F1300
G1 X-2.463 Y1.138
G3 X-2.798 Y1.132 I-0.162 J-0.273
G1 X-2.847 Y1.093 F600
X-2.887 Y1.046
X-2.917 Y0.991
X-2.936 Y0.932
G3 X-2.693 Y0.555 Z4.6 I0.31 J-0.067
G1 X-2.547 Y0.529 F1300
X-2.255 Y0.47
X-2.11 Y0.44
X-1.716 Y0.347
X-1.699 Y0.342
X-1.526 Y0.265
X-1.38 Y0.181
X-1.234 Y0.089
X-0.797 Y-0.204
X-0.651 Y-0.307
X-0.543 Y-0.396
X-0.39 Y-0.541
X-0.359 Y-0.583
X-0.067 Y-1.001
X0.079 Y-1.219
X0.225 Y-1.446
X0.281 Y-1.563
X0.342 Y-1.709
X0.388 Y-1.855
X0.478 Y-2.292
X0.536 Y-2.584
X0.562 Y-2.73
X0.575 Y-2.876
X0.585 Y-3.168
X0.587 Y-3.314
Y-58.613
X0.584 Y-59.05
X0.568 Y-59.196
X0.546 Y-59.342
X0.472 Y-59.98
X0.439 Y-60.3
X0.332 Y-60.602
X0.145 Y-60.863
X-0.123 Y-61.114
X-0.162 Y-61.153
X-0.197 Y-61.195
X-0.23 Y-61.239
G3 X-0.134 Y-61.678 Z4.8 I0.267 J-0.172 F800
G1 X-0.079 Y-61.706
X-0.02 Y-61.723
X0.042 Y-61.728
X0.104 Y-61.721
G3 X0.331 Y-61.531 I-0.066 J0.31 F1300
G1 X1.151 Y-59.526
G3 X1.121 Y-59.229 I-0.294 J0.12
G1 X1.082 Y-59.181 F600
X1.034 Y-59.142
X0.979 Y-59.113
X0.92 Y-59.095
G3 X0.546 Y-59.342 Z4.6 I-0.063 J-0.311
G1 X0.521 Y-59.488 F1300
X0.434 Y-59.926
X0.403 Y-60.072
X0.367 Y-60.218
X0.314 Y-60.364
X0.242 Y-60.51
X0.155 Y-60.655
X0.079 Y-60.781
X-0.247 Y-61.263
X-0.331 Y-61.385
X-0.359 Y-61.421
X-0.505 Y-61.569
X-0.631 Y-61.677
X-0.797 Y-61.796
X-1.273 Y-62.115
X-1.38 Y-62.182
X-1.519 Y-62.26
X-1.69 Y-62.338
X-2.11 Y-62.44
X-2.255 Y-62.471
X-2.547 Y-62.529
X-2.693 Y-62.555
X-2.839 Y-62.578
X-2.985 Y-62.585
X-3.131 Y-62.588
X-118.668
X-119.105 Y-62.579
X-119.251 Y-62.562
X-119.543 Y-62.509
X-119.689 Y-62.482
X-120.066 Y-62.406
X-120.126 Y-62.391
X-120.272 Y-62.35
X-120.418 Y-62.29
X-120.485 Y-62.26
X-120.564 Y-62.215
X-120.944 Y-61.969
X-121.163 Y-61.823
X-121.294 Y-61.733
X-121.371 Y-61.677
X-121.439 Y-61.623
X-121.538 Y-61.531
X-121.585 Y-61.483
X-121.667 Y-61.385
X-121.731 Y-61.298
X-121.877 Y-61.082
X-121.967 Y-60.947
X-122.023 Y-60.862
X-122.262 Y-60.474
G3 X-122.676 Y-60.37 I-0.264 J-0.176 F800
G1 X-122.716 Y-60.406 Z4.605
X-122.755 Y-60.442 Z4.619
X-122.791 Y-60.475 Z4.642
X-122.808 Y-60.522 Z4.678
X-122.821 Y-60.561 Z4.722
X-122.832 Y-60.592 Z4.773
X-122.839 Y-60.613 Z4.829
X-122.843 Y-60.623 Z4.889
Y-60.624 Z4.918
G0 Z20.1
X3.694 Y-63.327
Z4.735
G1 Z4.418 F600
X3.687 Y-63.325 Z4.347
X3.664 Y-63.32 Z4.28
X3.627 Y-63.31 Z4.22
X3.579 Y-63.298 Z4.169
X3.52 Y-63.283 Z4.131
X3.455 Y-63.266 Z4.108
X3.387 Y-63.249 Z4.1
G3 X1.658 Y-63 I-2.011 J-7.852
G1 X1.508 F1300
X0.879 Y-63.128
X0.242 Y-63.206
X-0.399 Y-63.251
X-1.041 Y-63.279
X-1.683 Y-63.295
X-2.325 Y-63.304
X-2.967 Y-63.31
X-3.609 Y-63.313
X-4.893 Y-63.316
X-8.104 Y-63.317
X-48.562 Y-63.318
X-98.652
X-120.487
X-120.646 Y-63.301
X-120.951 Y-63.199
X-121.207 Y-63.005
X-121.633 Y-62.524
X-121.903 Y-61.942
X-122.07 Y-61.321
X-122.161 Y-60.747
X-122.183 Y-60.652
X-122.216 Y-60.56
X-122.262 Y-60.474
X-122.284 Y-60.438
X-122.294 Y-60.42
X-122.302 Y-60.403
X-122.369 Y-60.218
X-122.404 Y-60.072
X-122.435 Y-59.926
X-122.493 Y-59.634
X-122.519 Y-59.488
X-122.567 Y-59.196
X-122.584 Y-59.05
X-122.588 Y-58.613
Y-3.314
X-122.585 Y-3.168
X-122.575 Y-2.876
X-122.561 Y-2.73
X-122.534 Y-2.584
X-122.446 Y-1.948
X-122.392 Y-1.308
X-122.267 Y-1.012
X-122.066 Y-0.762
X-121.575 Y-0.348
X-121.152 Y-0.157
X-121.114 Y-0.139
X-121.078 Y-0.119
X-121.042 Y-0.097
G3 X-120.971 Y0.347 Z4.3 I-0.186 J0.257 F800
G1 X-121.012 Y0.393
X-121.061 Y0.431
X-121.117 Y0.458
X-121.177 Y0.474
G3 X-121.5 Y0.325 I-0.051 J-0.313 F1300
G1 X-123.115 Y-2.35
G3 X-123.111 Y-2.685 I0.272 J-0.164
G1 X-123.073 Y-2.733 F600
X-123.026 Y-2.774
X-122.972 Y-2.804
X-122.913 Y-2.824
G3 X-122.534 Y-2.584 Z4.1 I0.07 J0.31
G1 X-122.478 Y-2.292 F1300
X-122.419 Y-2.001
X-122.388 Y-1.855
X-122.315 Y-1.637
X-122.284 Y-1.563
X-122.205 Y-1.417
X-121.918 Y-0.979
X-121.877 Y-0.918
X-121.818 Y-0.833
X-121.597 Y-0.53
X-121.439 Y-0.378
X-121.294 Y-0.271
X-121.025 Y-0.085
X-120.83 Y0.042
X-120.564 Y0.213
X-120.418 Y0.289
X-120.272 Y0.351
X-120.126 Y0.391
X-119.981 Y0.423
X-119.689 Y0.482
X-119.543 Y0.509
X-119.251 Y0.562
X-119.105 Y0.579
X-118.668 Y0.587
X-3.131
X-2.985 Y0.585
X-2.839 Y0.578
X-2.693 Y0.555
X-2.056 Y0.472
X-1.417 Y0.408
X-1.107 Y0.323
X-0.842 Y0.143
X-0.399 Y-0.323
X-0.117 Y-0.899
X-0.106 Y-0.931
X-0.091 Y-0.962
X-0.074 Y-0.991
G3 X0.37 Y-1.06 Z4.3 I0.256 J0.188 F800
G1 X0.416 Y-1.019
X0.453 Y-0.969
X0.48 Y-0.913
X0.496 Y-0.853
G3 X0.344 Y-0.531 I-0.314 J0.05 F1300
G1 X-2.463 Y1.138
G3 X-2.798 Y1.132 I-0.162 J-0.273
G1 X-2.847 Y1.093 F600
X-2.887 Y1.046
X-2.917 Y0.991
X-2.936 Y0.932
G3 X-2.693 Y0.555 Z4.1 I0.31 J-0.067
G1 X-2.547 Y0.529 F1300
X-2.255 Y0.47
X-2.11 Y0.44
X-1.716 Y0.347
X-1.699 Y0.342
X-1.526 Y0.265
X-1.38 Y0.181
X-1.234 Y0.089
X-0.797 Y-0.204
X-0.651 Y-0.307
X-0.543 Y-0.396
X-0.39 Y-0.541
X-0.359 Y-0.583
X-0.067 Y-1.001
X0.079 Y-1.219
X0.225 Y-1.446
X0.281 Y-1.563
X0.342 Y-1.709
X0.388 Y-1.855
X0.478 Y-2.292
X0.536 Y-2.584
X0.562 Y-2.73
X0.575 Y-2.876
X0.585 Y-3.168
X0.587 Y-3.314
Y-58.613
X0.584 Y-59.05
X0.568 Y-59.196
X0.546 Y-59.342
X0.472 Y-59.98
X0.439 Y-60.3
X0.332 Y-60.602
X0.145 Y-60.863
X-0.123 Y-61.114
X-0.162 Y-61.153
X-0.197 Y-61.195
X-0.23 Y-61.239
G3 X-0.134 Y-61.678 Z4.3 I0.267 J-0.172 F800
G1 X-0.079 Y-61.706
X-0.02 Y-61.723
X0.042 Y-61.728
X0.104 Y-61.721
G3 X0.331 Y-61.531 I-0.066 J0.31 F1300
G1 X1.151 Y-59.526
G3 X1.121 Y-59.229 I-0.294 J0.12
G1 X1.082 Y-59.181 F600
X1.034 Y-59.142
X0.979 Y-59.113
X0.92 Y-59.095
G3 X0.546 Y-59.342 Z4.1 I-0.063 J-0.311
G1 X0.521 Y-59.488 F1300
X0.434 Y-59.926
X0.403 Y-60.072
X0.367 Y-60.218
X0.314 Y-60.364
X0.242 Y-60.51
X0.155 Y-60.655
X0.079 Y-60.781
X-0.247 Y-61.263
X-0.331 Y-61.385
X-0.359 Y-61.421
X-0.505 Y-61.569
X-0.631 Y-61.677
X-0.797 Y-61.796
X-1.273 Y-62.115
X-1.38 Y-62.182
X-1.519 Y-62.26
X-1.69 Y-62.338
X-2.11 Y-62.44
X-2.255 Y-62.471
X-2.547 Y-62.529
X-2.693 Y-62.555
X-2.839 Y-62.578
X-2.985 Y-62.585
X-3.131 Y-62.588
X-118.668
X-119.105 Y-62.579
X-119.251 Y-62.562
X-119.543 Y-62.509
X-119.689 Y-62.482
X-120.066 Y-62.406
X-120.126 Y-62.391
X-120.272 Y-62.35
X-120.418 Y-62.29
X-120.485 Y-62.26
X-120.564 Y-62.215
X-120.944 Y-61.969
X-121.163 Y-61.823
X-121.294 Y-61.733
X-121.371 Y-61.677
X-121.439 Y-61.623
X-121.538 Y-61.531
X-121.585 Y-61.483
X-121.667 Y-61.385
X-121.731 Y-61.298
X-121.877 Y-61.082
X-121.967 Y-60.947
X-122.023 Y-60.862
X-122.262 Y-60.474
G3 X-122.676 Y-60.37 I-0.264 J-0.176 F800
G1 X-122.716 Y-60.406 Z4.105
X-122.755 Y-60.442 Z4.119
X-122.791 Y-60.475 Z4.142
X-122.808 Y-60.522 Z4.178
X-122.821 Y-60.561 Z4.222
X-122.832 Y-60.592 Z4.273
X-122.839 Y-60.613 Z4.329
X-122.843 Y-60.623 Z4.389
Y-60.624 Z4.418
G0 Z20.1
X3.694 Y-63.327
Z4.235
G1 Z3.918 F600
X3.687 Y-63.325 Z3.847
X3.664 Y-63.32 Z3.78
X3.627 Y-63.31 Z3.72
X3.579 Y-63.298 Z3.669
X3.52 Y-63.283 Z3.631
X3.455 Y-63.266 Z3.608
X3.387 Y-63.249 Z3.6
G3 X1.658 Y-63 I-2.011 J-7.852
G1 X1.508 F1300
X0.879 Y-63.128
X0.242 Y-63.206
X-0.399 Y-63.251
X-1.041 Y-63.279
X-1.683 Y-63.295
X-2.325 Y-63.304
X-2.967 Y-63.31
X-3.609 Y-63.313
X-4.893 Y-63.316
X-8.104 Y-63.317
X-48.562 Y-63.318
X-98.652
X-120.487
X-120.646 Y-63.301
X-120.951 Y-63.199
X-121.207 Y-63.005
X-121.633 Y-62.524
X-121.903 Y-61.942
X-122.07 Y-61.321
X-122.161 Y-60.747
X-122.183 Y-60.652
X-122.216 Y-60.56
X-122.262 Y-60.474
X-122.284 Y-60.438
X-122.294 Y-60.42
X-122.302 Y-60.403
X-122.369 Y-60.218
X-122.404 Y-60.072
X-122.435 Y-59.926
X-122.493 Y-59.634
X-122.519 Y-59.488
X-122.567 Y-59.196
X-122.584 Y-59.05
X-122.588 Y-58.613
Y-3.314
X-122.585 Y-3.168
X-122.575 Y-2.876
X-122.561 Y-2.73
X-122.534 Y-2.584
X-122.446 Y-1.948
X-122.392 Y-1.308
X-122.267 Y-1.012
X-122.066 Y-0.762
X-121.575 Y-0.348
X-121.152 Y-0.157
X-121.114 Y-0.139
X-121.078 Y-0.119
X-121.042 Y-0.097
G3 X-120.971 Y0.347 Z3.8 I-0.186 J0.257 F800
G1 X-121.012 Y0.393
X-121.061 Y0.431
X-121.117 Y0.458
X-121.177 Y0.474
G3 X-121.5 Y0.325 I-0.051 J-0.313 F1300
G1 X-123.115 Y-2.35
G3 X-123.111 Y-2.685 I0.272 J-0.164
G1 X-123.073 Y-2.733 F600
X-123.026 Y-2.774
X-122.972 Y-2.804
X-122.913 Y-2.824
G3 X-122.534 Y-2.584 Z3.6 I0.07 J0.31
G1 X-122.478 Y-2.292 F1300
X-122.419 Y-2.001
X-122.388 Y-1.855
X-122.315 Y-1.637
X-122.284 Y-1.563
X-122.205 Y-1.417
X-121.918 Y-0.979
X-121.877 Y-0.918
X-121.818 Y-0.833
X-121.597 Y-0.53
X-121.439 Y-0.378
X-121.294 Y-0.271
X-121.025 Y-0.085
X-120.83 Y0.042
X-120.564 Y0.213
X-120.418 Y0.289
X-120.272 Y0.351
X-120.126 Y0.391
X-119.981 Y0.423
X-119.689 Y0.482
X-119.543 Y0.509
X-119.251 Y0.562
X-119.105 Y0.579
X-118.668 Y0.587
X-3.131
X-2.985 Y0.585
X-2.839 Y0.578
X-2.693 Y0.555
X-2.056 Y0.472
X-1.417 Y0.408
X-1.107 Y0.323
X-0.842 Y0.143
X-0.399 Y-0.323
X-0.117 Y-0.899
X-0.106 Y-0.931
X-0.091 Y-0.962
X-0.074 Y-0.991
G3 X0.37 Y-1.06 Z3.8 I0.256 J0.188 F800
G1 X0.416 Y-1.019
X0.453 Y-0.969
X0.48 Y-0.913
X0.496 Y-0.853
G3 X0.344 Y-0.531 I-0.314 J0.05 F1300
G1 X-2.463 Y1.138
G3 X-2.798 Y1.132 I-0.162 J-0.273
G1 X-2.847 Y1.093 F600
X-2.887 Y1.046
X-2.917 Y0.991
X-2.936 Y0.932
G3 X-2.693 Y0.555 Z3.6 I0.31 J-0.067
G1 X-2.547 Y0.529 F1300
X-2.255 Y0.47
X-2.11 Y0.44
X-1.716 Y0.347
X-1.699 Y0.342
X-1.526 Y0.265
X-1.38 Y0.181
X-1.234 Y0.089
X-0.797 Y-0.204
X-0.651 Y-0.307
X-0.543 Y-0.396
X-0.39 Y-0.541
X-0.359 Y-0.583
X-0.067 Y-1.001
X0.079 Y-1.219
X0.225 Y-1.446
X0.281 Y-1.563
X0.342 Y-1.709
X0.388 Y-1.855
X0.478 Y-2.292
X0.536 Y-2.584
X0.562 Y-2.73
X0.575 Y-2.876
X0.585 Y-3.168
X0.587 Y-3.314
Y-58.613
X0.584 Y-59.05
X0.568 Y-59.196
X0.546 Y-59.342
X0.472 Y-59.98
X0.439 Y-60.3
X0.332 Y-60.602
X0.145 Y-60.863
X-0.123 Y-61.114
X-0.162 Y-61.153
X-0.197 Y-61.195
X-0.23 Y-61.239
G3 X-0.134 Y-61.678 Z3.8 I0.267 J-0.172 F800
G1 X-0.079 Y-61.706
X-0.02 Y-61.723
X0.042 Y-61.728
X0.104 Y-61.721
G3 X0.331 Y-61.531 I-0.066 J0.31 F1300
G1 X1.151 Y-59.526
G3 X1.121 Y-59.229 I-0.294 J0.12
G1 X1.082 Y-59.181 F600
X1.034 Y-59.142
X0.979 Y-59.113
X0.92 Y-59.095
G3 X0.546 Y-59.342 Z3.6 I-0.063 J-0.311
G1 X0.521 Y-59.488 F1300
X0.434 Y-59.926
X0.403 Y-60.072
X0.367 Y-60.218
X0.314 Y-60.364
X0.242 Y-60.51
X0.155 Y-60.655
X0.079 Y-60.781
X-0.247 Y-61.263
X-0.331 Y-61.385
X-0.359 Y-61.421
X-0.505 Y-61.569
X-0.631 Y-61.677
X-0.797 Y-61.796
X-1.273 Y-62.115
X-1.38 Y-62.182
X-1.519 Y-62.26
X-1.69 Y-62.338
X-2.11 Y-62.44
X-2.255 Y-62.471
X-2.547 Y-62.529
X-2.693 Y-62.555
X-2.839 Y-62.578
X-2.985 Y-62.585
X-3.131 Y-62.588
X-118.668
X-119.105 Y-62.579
X-119.251 Y-62.562
X-119.543 Y-62.509
X-119.689 Y-62.482
X-120.066 Y-62.406
X-120.126 Y-62.391
X-120.272 Y-62.35
X-120.418 Y-62.29
X-120.485 Y-62.26
X-120.564 Y-62.215
X-120.944 Y-61.969
X-121.163 Y-61.823
X-121.294 Y-61.733
X-121.371 Y-61.677
X-121.439 Y-61.623
X-121.538 Y-61.531
X-121.585 Y-61.483
X-121.667 Y-61.385
X-121.731 Y-61.298
X-121.877 Y-61.082
X-121.967 Y-60.947
X-122.023 Y-60.862
X-122.262 Y-60.474
G3 X-122.676 Y-60.37 I-0.264 J-0.176 F800
G1 X-122.716 Y-60.406 Z3.605
X-122.755 Y-60.442 Z3.619
X-122.791 Y-60.475 Z3.642
X-122.808 Y-60.522 Z3.678
X-122.821 Y-60.561 Z3.722
X-122.832 Y-60.592 Z3.773
X-122.839 Y-60.613 Z3.829
X-122.843 Y-60.623 Z3.889
Y-60.624 Z3.918
G0 Z20.1
X3.694 Y-63.327
Z3.735
G1 Z3.418 F600
X3.687 Y-63.325 Z3.347
X3.664 Y-63.32 Z3.28
X3.627 Y-63.31 Z3.22
X3.579 Y-63.298 Z3.169
X3.52 Y-63.283 Z3.131
X3.455 Y-63.266 Z3.108
X3.387 Y-63.249 Z3.1
G3 X1.658 Y-63 I-2.011 J-7.852
G1 X1.508 F1300
X0.879 Y-63.128
X0.242 Y-63.206
X-0.399 Y-63.251
X-1.041 Y-63.279
X-1.683 Y-63.295
X-2.325 Y-63.304
X-2.967 Y-63.31
X-3.609 Y-63.313
X-4.893 Y-63.316
X-8.104 Y-63.317
X-48.562 Y-63.318
X-98.652
X-120.487
X-120.646 Y-63.301
X-120.951 Y-63.199
X-121.207 Y-63.005
X-121.633 Y-62.524
X-121.903 Y-61.942
X-122.07 Y-61.321
X-122.161 Y-60.747
X-122.183 Y-60.652
X-122.216 Y-60.56
X-122.262 Y-60.474
X-122.284 Y-60.438
X-122.294 Y-60.42
X-122.302 Y-60.403
X-122.369 Y-60.218
X-122.404 Y-60.072
X-122.435 Y-59.926
X-122.493 Y-59.634
X-122.519 Y-59.488
X-122.567 Y-59.196
X-122.584 Y-59.05
X-122.588 Y-58.613
Y-3.314
X-122.585 Y-3.168
X-122.575 Y-2.876
X-122.561 Y-2.73
X-122.534 Y-2.584
X-122.446 Y-1.948
X-122.392 Y-1.308
X-122.267 Y-1.012
X-122.066 Y-0.762
X-121.575 Y-0.348
X-121.152 Y-0.157
X-121.114 Y-0.139
X-121.078 Y-0.119
X-121.042 Y-0.097
G3 X-120.971 Y0.347 Z3.3 I-0.186 J0.257 F800
G1 X-121.012 Y0.393
X-121.061 Y0.431
X-121.117 Y0.458
X-121.177 Y0.474
G3 X-121.5 Y0.325 I-0.051 J-0.313 F1300
G1 X-123.115 Y-2.35
G3 X-123.111 Y-2.685 I0.272 J-0.164
G1 X-123.073 Y-2.733 F600
X-123.026 Y-2.774
X-122.972 Y-2.804
X-122.913 Y-2.824
G3 X-122.534 Y-2.584 Z3.1 I0.07 J0.31
G1 X-122.478 Y-2.292 F1300
X-122.419 Y-2.001
X-122.388 Y-1.855
X-122.315 Y-1.637
X-122.284 Y-1.563
X-122.205 Y-1.417
X-121.918 Y-0.979
X-121.877 Y-0.918
X-121.818 Y-0.833
X-121.597 Y-0.53
X-121.439 Y-0.378
X-121.294 Y-0.271
X-121.025 Y-0.085
X-120.83 Y0.042
X-120.564 Y0.213
X-120.418 Y0.289
X-120.272 Y0.351
X-120.126 Y0.391
X-119.981 Y0.423
X-119.689 Y0.482
X-119.543 Y0.509
X-119.251 Y0.562
X-119.105 Y0.579
X-118.668 Y0.587
X-3.131
X-2.985 Y0.585
X-2.839 Y0.578
X-2.693 Y0.555
X-2.056 Y0.472
X-1.417 Y0.408
X-1.107 Y0.323
X-0.842 Y0.143
X-0.399 Y-0.323
X-0.117 Y-0.899
X-0.106 Y-0.931
X-0.091 Y-0.962
X-0.074 Y-0.991
G3 X0.37 Y-1.06 Z3.3 I0.256 J0.188 F800
G1 X0.416 Y-1.019
X0.453 Y-0.969
X0.48 Y-0.913
X0.496 Y-0.853
G3 X0.344 Y-0.531 I-0.314 J0.05 F1300
G1 X-2.463 Y1.138
G3 X-2.798 Y1.132 I-0.162 J-0.273
G1 X-2.847 Y1.093 F600
X-2.887 Y1.046
X-2.917 Y0.991
X-2.936 Y0.932
G3 X-2.693 Y0.555 Z3.1 I0.31 J-0.067
G1 X-2.547 Y0.529 F1300
X-2.255 Y0.47
X-2.11 Y0.44
X-1.716 Y0.347
X-1.699 Y0.342
X-1.526 Y0.265
X-1.38 Y0.181
X-1.234 Y0.089
X-0.797 Y-0.204
X-0.651 Y-0.307
X-0.543 Y-0.396
X-0.39 Y-0.541
X-0.359 Y-0.583
X-0.067 Y-1.001
X0.079 Y-1.219
X0.225 Y-1.446
X0.281 Y-1.563
X0.342 Y-1.709
X0.388 Y-1.855
X0.478 Y-2.292
X0.536 Y-2.584
X0.562 Y-2.73
X0.575 Y-2.876
X0.585 Y-3.168
X0.587 Y-3.314
Y-58.613
X0.584 Y-59.05
X0.568 Y-59.196
X0.546 Y-59.342
X0.472 Y-59.98
X0.439 Y-60.3
X0.332 Y-60.602
X0.145 Y-60.863
X-0.123 Y-61.114
X-0.162 Y-61.153
X-0.197 Y-61.195
X-0.23 Y-61.239
G3 X-0.134 Y-61.678 Z3.3 I0.267 J-0.172 F800
G1 X-0.079 Y-61.706
X-0.02 Y-61.723
X0.042 Y-61.728
X0.104 Y-61.721
G3 X0.331 Y-61.531 I-0.066 J0.31 F1300
G1 X1.151 Y-59.526
G3 X1.121 Y-59.229 I-0.294 J0.12
G1 X1.082 Y-59.181 F600
X1.034 Y-59.142
X0.979 Y-59.113
X0.92 Y-59.095
G3 X0.546 Y-59.342 Z3.1 I-0.063 J-0.311
G1 X0.521 Y-59.488 F1300
X0.434 Y-59.926
X0.403 Y-60.072
X0.367 Y-60.218
X0.314 Y-60.364
X0.242 Y-60.51
X0.155 Y-60.655
X0.079 Y-60.781
X-0.247 Y-61.263
X-0.331 Y-61.385
X-0.359 Y-61.421
X-0.505 Y-61.569
X-0.631 Y-61.677
X-0.797 Y-61.796
X-1.273 Y-62.115
X-1.38 Y-62.182
X-1.519 Y-62.26
X-1.69 Y-62.338
X-2.11 Y-62.44
X-2.255 Y-62.471
X-2.547 Y-62.529
X-2.693 Y-62.555
X-2.839 Y-62.578
X-2.985 Y-62.585
X-3.131 Y-62.588
X-118.668
X-119.105 Y-62.579
X-119.251 Y-62.562
X-119.543 Y-62.509
X-119.689 Y-62.482
X-120.066 Y-62.406
X-120.126 Y-62.391
X-120.272 Y-62.35
X-120.418 Y-62.29
X-120.485 Y-62.26
X-120.564 Y-62.215
X-120.944 Y-61.969
X-121.163 Y-61.823
X-121.294 Y-61.733
X-121.371 Y-61.677
X-121.439 Y-61.623
X-121.538 Y-61.531
X-121.585 Y-61.483
X-121.667 Y-61.385
X-121.731 Y-61.298
X-121.877 Y-61.082
X-121.967 Y-60.947
X-122.023 Y-60.862
X-122.262 Y-60.474
G3 X-122.676 Y-60.37 I-0.264 J-0.176 F800
G1 X-122.716 Y-60.406 Z3.105
X-122.755 Y-60.442 Z3.119
X-122.791 Y-60.475 Z3.142
X-122.808 Y-60.522 Z3.178
X-122.821 Y-60.561 Z3.222
X-122.832 Y-60.592 Z3.273
X-122.839 Y-60.613 Z3.329
X-122.843 Y-60.623 Z3.389
Y-60.624 Z3.418
G0 Z20.1
X3.694 Y-63.327
Z3.235
G1 Z2.918 F600
X3.687 Y-63.325 Z2.847
X3.664 Y-63.32 Z2.78
X3.627 Y-63.31 Z2.72
X3.579 Y-63.298 Z2.669
X3.52 Y-63.283 Z2.631
X3.455 Y-63.266 Z2.608
X3.387 Y-63.249 Z2.6
G3 X1.658 Y-63 I-2.011 J-7.852
G1 X1.508 F1300
X0.879 Y-63.128
X0.242 Y-63.206
X-0.399 Y-63.251
X-1.041 Y-63.279
X-1.683 Y-63.295
X-2.325 Y-63.304
X-2.967 Y-63.31
X-3.609 Y-63.313
X-4.893 Y-63.316
X-8.104 Y-63.317
X-48.562 Y-63.318
X-98.652
X-120.487
X-120.646 Y-63.301
X-120.951 Y-63.199
X-121.207 Y-63.005
X-121.633 Y-62.524
X-121.903 Y-61.942
X-122.07 Y-61.321
X-122.161 Y-60.747
X-122.183 Y-60.652
X-122.216 Y-60.56
X-122.262 Y-60.474
X-122.284 Y-60.438
X-122.294 Y-60.42
X-122.302 Y-60.403
X-122.369 Y-60.218
X-122.404 Y-60.072
X-122.435 Y-59.926
X-122.493 Y-59.634
X-122.519 Y-59.488
X-122.567 Y-59.196
X-122.584 Y-59.05
X-122.588 Y-58.613
Y-3.314
X-122.585 Y-3.168
X-122.575 Y-2.876
X-122.561 Y-2.73
X-122.534 Y-2.584
X-122.446 Y-1.948
X-122.392 Y-1.308
X-122.267 Y-1.012
X-122.066 Y-0.762
X-121.575 Y-0.348
X-121.152 Y-0.157
X-121.114 Y-0.139
X-121.078 Y-0.119
X-121.042 Y-0.097
G3 X-120.971 Y0.347 Z2.8 I-0.186 J0.257 F800
G1 X-121.012 Y0.393
X-121.061 Y0.431
X-121.117 Y0.458
X-121.177 Y0.474
G3 X-121.5 Y0.325 I-0.051 J-0.313 F1300
G1 X-123.115 Y-2.35
G3 X-123.111 Y-2.685 I0.272 J-0.164
G1 X-123.073 Y-2.733 F600
X-123.026 Y-2.774
X-122.972 Y-2.804
X-122.913 Y-2.824
G3 X-122.534 Y-2.584 Z2.6 I0.07 J0.31
G1 X-122.478 Y-2.292 F1300
X-122.419 Y-2.001
X-122.388 Y-1.855
X-122.315 Y-1.637
X-122.284 Y-1.563
X-122.205 Y-1.417
X-121.918 Y-0.979
X-121.877 Y-0.918
X-121.818 Y-0.833
X-121.597 Y-0.53
X-121.439 Y-0.378
X-121.294 Y-0.271
X-121.025 Y-0.085
X-120.83 Y0.042
X-120.564 Y0.213
X-120.418 Y0.289
X-120.272 Y0.351
X-120.126 Y0.391
X-119.981 Y0.423
X-119.689 Y0.482
X-119.543 Y0.509
X-119.251 Y0.562
X-119.105 Y0.579
X-118.668 Y0.587
X-3.131
X-2.985 Y0.585
X-2.839 Y0.578
X-2.693 Y0.555
X-2.056 Y0.472
X-1.417 Y0.408
X-1.107 Y0.323
X-0.842 Y0.143
X-0.399 Y-0.323
X-0.117 Y-0.899
X-0.106 Y-0.931
X-0.091 Y-0.962
X-0.074 Y-0.991
G3 X0.37 Y-1.06 Z2.8 I0.256 J0.188 F800
G1 X0.416 Y-1.019
X0.453 Y-0.969
X0.48 Y-0.913
X0.496 Y-0.853
G3 X0.344 Y-0.531 I-0.314 J0.05 F1300
G1 X-2.463 Y1.138
G3 X-2.798 Y1.132 I-0.162 J-0.273
G1 X-2.847 Y1.093 F600
X-2.887 Y1.046
X-2.917 Y0.991
X-2.936 Y0.932
G3 X-2.693 Y0.555 Z2.6 I0.31 J-0.067
G1 X-2.547 Y0.529 F1300
X-2.255 Y0.47
X-2.11 Y0.44
X-1.716 Y0.347
X-1.699 Y0.342
X-1.526 Y0.265
X-1.38 Y0.181
X-1.234 Y0.089
X-0.797 Y-0.204
X-0.651 Y-0.307
X-0.543 Y-0.396
X-0.39 Y-0.541
X-0.359 Y-0.583
X-0.067 Y-1.001
X0.079 Y-1.219
X0.225 Y-1.446
X0.281 Y-1.563
X0.342 Y-1.709
X0.388 Y-1.855
X0.478 Y-2.292
X0.536 Y-2.584
X0.562 Y-2.73
X0.575 Y-2.876
X0.585 Y-3.168
X0.587 Y-3.314
Y-58.613
X0.584 Y-59.05
X0.568 Y-59.196
X0.546 Y-59.342
X0.472 Y-59.98
X0.439 Y-60.3
X0.332 Y-60.602
X0.145 Y-60.863
X-0.123 Y-61.114
X-0.162 Y-61.153
X-0.197 Y-61.195
X-0.23 Y-61.239
G3 X-0.134 Y-61.678 Z2.8 I0.267 J-0.172 F800
G1 X-0.079 Y-61.706
X-0.02 Y-61.723
X0.042 Y-61.728
X0.104 Y-61.721
G3 X0.331 Y-61.531 I-0.066 J0.31 F1300
G1 X1.151 Y-59.526
G3 X1.121 Y-59.229 I-0.294 J0.12
G1 X1.082 Y-59.181 F600
X1.034 Y-59.142
X0.979 Y-59.113
X0.92 Y-59.095
G3 X0.546 Y-59.342 Z2.6 I-0.063 J-0.311
G1 X0.521 Y-59.488 F1300
X0.434 Y-59.926
X0.403 Y-60.072
X0.367 Y-60.218
X0.314 Y-60.364
X0.242 Y-60.51
X0.155 Y-60.655
X0.079 Y-60.781
X-0.247 Y-61.263
X-0.331 Y-61.385
X-0.359 Y-61.421
X-0.505 Y-61.569
X-0.631 Y-61.677
X-0.797 Y-61.796
X-1.273 Y-62.115
X-1.38 Y-62.182
X-1.519 Y-62.26
X-1.69 Y-62.338
X-2.11 Y-62.44
X-2.255 Y-62.471
X-2.547 Y-62.529
X-2.693 Y-62.555
X-2.839 Y-62.578
X-2.985 Y-62.585
X-3.131 Y-62.588
X-118.668
X-119.105 Y-62.579
X-119.251 Y-62.562
X-119.543 Y-62.509
X-119.689 Y-62.482
X-120.066 Y-62.406
X-120.126 Y-62.391
X-120.272 Y-62.35
X-120.418 Y-62.29
X-120.485 Y-62.26
X-120.564 Y-62.215
X-120.944 Y-61.969
X-121.163 Y-61.823
X-121.294 Y-61.733
X-121.371 Y-61.677
X-121.439 Y-61.623
X-121.538 Y-61.531
X-121.585 Y-61.483
X-121.667 Y-61.385
X-121.731 Y-61.298
X-121.877 Y-61.082
X-121.967 Y-60.947
X-122.023 Y-60.862
X-122.262 Y-60.474
G3 X-122.676 Y-60.37 I-0.264 J-0.176 F800
G1 X-122.716 Y-60.406 Z2.605
X-122.755 Y-60.442 Z2.619
X-122.791 Y-60.475 Z2.642
X-122.808 Y-60.522 Z2.678
X-122.821 Y-60.561 Z2.722
X-122.832 Y-60.592 Z2.773
X-122.839 Y-60.613 Z2.829
X-122.843 Y-60.623 Z2.889
Y-60.624 Z2.918
G0 Z20.1
X3.694 Y-63.327
Z2.735
G1 Z2.418 F600
X3.687 Y-63.325 Z2.347
X3.664 Y-63.32 Z2.28
X3.627 Y-63.31 Z2.22
X3.579 Y-63.298 Z2.169
X3.52 Y-63.283 Z2.131
X3.455 Y-63.266 Z2.108
X3.387 Y-63.249 Z2.1
G3 X1.658 Y-63 I-2.011 J-7.852
G1 X1.508 F1300
X0.879 Y-63.128
X0.242 Y-63.206
X-0.399 Y-63.251
X-1.041 Y-63.279
X-1.683 Y-63.295
X-2.325 Y-63.304
X-2.967 Y-63.31
X-3.609 Y-63.313
X-4.893 Y-63.316
X-8.104 Y-63.317
X-48.562 Y-63.318
X-98.652
X-120.487
X-120.646 Y-63.301
X-120.951 Y-63.199
X-121.207 Y-63.005
X-121.633 Y-62.524
X-121.903 Y-61.942
X-122.07 Y-61.321
X-122.161 Y-60.747
X-122.183 Y-60.652
X-122.216 Y-60.56
X-122.262 Y-60.474
X-122.284 Y-60.438
X-122.294 Y-60.42
X-122.302 Y-60.403
X-122.369 Y-60.218
X-122.404 Y-60.072
X-122.435 Y-59.926
X-122.493 Y-59.634
X-122.519 Y-59.488
X-122.567 Y-59.196
X-122.584 Y-59.05
X-122.588 Y-58.613
Y-3.314
X-122.585 Y-3.168
X-122.575 Y-2.876
X-122.561 Y-2.73
X-122.534 Y-2.584
X-122.446 Y-1.948
X-122.392 Y-1.308
X-122.267 Y-1.012
X-122.066 Y-0.762
X-121.575 Y-0.348
X-121.152 Y-0.157
X-121.114 Y-0.139
X-121.078 Y-0.119
X-121.042 Y-0.097
G3 X-120.971 Y0.347 Z2.3 I-0.186 J0.257 F800
G1 X-121.012 Y0.393
X-121.061 Y0.431
X-121.117 Y0.458
X-121.177 Y0.474
G3 X-121.5 Y0.325 I-0.051 J-0.313 F1300
G1 X-123.115 Y-2.35
G3 X-123.111 Y-2.685 I0.272 J-0.164
G1 X-123.073 Y-2.733 F600
X-123.026 Y-2.774
X-122.972 Y-2.804
X-122.913 Y-2.824
G3 X-122.534 Y-2.584 Z2.1 I0.07 J0.31
G1 X-122.478 Y-2.292 F1300
X-122.419 Y-2.001
X-122.388 Y-1.855
X-122.315 Y-1.637
X-122.284 Y-1.563
X-122.205 Y-1.417
X-121.918 Y-0.979
X-121.877 Y-0.918
X-121.818 Y-0.833
X-121.597 Y-0.53
X-121.439 Y-0.378
X-121.294 Y-0.271
X-121.025 Y-0.085
X-120.83 Y0.042
X-120.564 Y0.213
X-120.418 Y0.289
X-120.272 Y0.351
X-120.126 Y0.391
X-119.981 Y0.423
X-119.689 Y0.482
X-119.543 Y0.509
X-119.251 Y0.562
X-119.105 Y0.579
X-118.668 Y0.587
X-3.131
X-2.985 Y0.585
X-2.839 Y0.578
X-2.693 Y0.555
X-2.056 Y0.472
X-1.417 Y0.408
X-1.107 Y0.323
X-0.842 Y0.143
X-0.399 Y-0.323
X-0.117 Y-0.899
X-0.106 Y-0.931
X-0.091 Y-0.962
X-0.074 Y-0.991
G3 X0.37 Y-1.06 Z2.3 I0.256 J0.188 F800
G1 X0.416 Y-1.019
X0.453 Y-0.969
X0.48 Y-0.913
X0.496 Y-0.853
G3 X0.344 Y-0.531 I-0.314 J0.05 F1300
G1 X-2.463 Y1.138
G3 X-2.798 Y1.132 I-0.162 J-0.273
G1 X-2.847 Y1.093 F600
X-2.887 Y1.046
X-2.917 Y0.991
X-2.936 Y0.932
G3 X-2.693 Y0.555 Z2.1 I0.31 J-0.067
G1 X-2.547 Y0.529 F1300
X-2.255 Y0.47
X-2.11 Y0.44
X-1.716 Y0.347
X-1.699 Y0.342
X-1.526 Y0.265
X-1.38 Y0.181
X-1.234 Y0.089
X-0.797 Y-0.204
X-0.651 Y-0.307
X-0.543 Y-0.396
X-0.39 Y-0.541
X-0.359 Y-0.583
X-0.067 Y-1.001
X0.079 Y-1.219
X0.225 Y-1.446
X0.281 Y-1.563
X0.342 Y-1.709
X0.388 Y-1.855
X0.478 Y-2.292
X0.536 Y-2.584
X0.562 Y-2.73
X0.575 Y-2.876
X0.585 Y-3.168
X0.587 Y-3.314
Y-58.613
X0.584 Y-59.05
X0.568 Y-59.196
X0.546 Y-59.342
X0.472 Y-59.98
X0.439 Y-60.3
X0.332 Y-60.602
X0.145 Y-60.863
X-0.123 Y-61.114
X-0.162 Y-61.153
X-0.197 Y-61.195
X-0.23 Y-61.239
G3 X-0.134 Y-61.678 Z2.3 I0.267 J-0.172 F800
G1 X-0.079 Y-61.706
X-0.02 Y-61.723
X0.042 Y-61.728
X0.104 Y-61.721
G3 X0.331 Y-61.531 I-0.066 J0.31 F1300
G1 X1.151 Y-59.526
G3 X1.121 Y-59.229 I-0.294 J0.12
G1 X1.082 Y-59.181 F600
X1.034 Y-59.142
X0.979 Y-59.113
X0.92 Y-59.095
G3 X0.546 Y-59.342 Z2.1 I-0.063 J-0.311
G1 X0.521 Y-59.488 F1300
X0.434 Y-59.926
X0.403 Y-60.072
X0.367 Y-60.218
X0.314 Y-60.364
X0.242 Y-60.51
X0.155 Y-60.655
X0.079 Y-60.781
X-0.247 Y-61.263
X-0.331 Y-61.385
X-0.359 Y-61.421
X-0.505 Y-61.569
X-0.631 Y-61.677
X-0.797 Y-61.796
X-1.273 Y-62.115
X-1.38 Y-62.182
X-1.519 Y-62.26
X-1.69 Y-62.338
X-2.11 Y-62.44
X-2.255 Y-62.471
X-2.547 Y-62.529
X-2.693 Y-62.555
X-2.839 Y-62.578
X-2.985 Y-62.585
X-3.131 Y-62.588
X-118.668
X-119.105 Y-62.579
X-119.251 Y-62.562
X-119.543 Y-62.509
X-119.689 Y-62.482
X-120.066 Y-62.406
X-120.126 Y-62.391
X-120.272 Y-62.35
X-120.418 Y-62.29
X-120.485 Y-62.26
X-120.564 Y-62.215
X-120.944 Y-61.969
X-121.163 Y-61.823
X-121.294 Y-61.733
X-121.371 Y-61.677
X-121.439 Y-61.623
X-121.538 Y-61.531
X-121.585 Y-61.483
X-121.667 Y-61.385
X-121.731 Y-61.298
X-121.877 Y-61.082
X-121.967 Y-60.947
X-122.023 Y-60.862
X-122.262 Y-60.474
G3 X-122.676 Y-60.37 I-0.264 J-0.176 F800
G1 X-122.716 Y-60.406 Z2.105
X-122.755 Y-60.442 Z2.119
X-122.791 Y-60.475 Z2.142
X-122.808 Y-60.522 Z2.178
X-122.821 Y-60.561 Z2.222
X-122.832 Y-60.592 Z2.273
X-122.839 Y-60.613 Z2.329
X-122.843 Y-60.623 Z2.389
Y-60.624 Z2.418
G0 Z20.1
X3.694 Y-63.327
Z2.235
G1 Z1.918 F600
X3.687 Y-63.325 Z1.847
X3.664 Y-63.32 Z1.78
X3.627 Y-63.31 Z1.72
X3.579 Y-63.298 Z1.669
X3.52 Y-63.283 Z1.631
X3.455 Y-63.266 Z1.608
X3.387 Y-63.249 Z1.6
G3 X1.658 Y-63 I-2.011 J-7.852
G1 X1.508 F1300
X0.879 Y-63.128
X0.242 Y-63.206
X-0.399 Y-63.251
X-1.041 Y-63.279
X-1.683 Y-63.295
X-2.325 Y-63.304
X-2.967 Y-63.31
X-3.609 Y-63.313
X-4.893 Y-63.316
X-8.104 Y-63.317
X-48.562 Y-63.318
X-98.652
X-120.487
X-120.646 Y-63.301
X-120.951 Y-63.199
X-121.207 Y-63.005
X-121.633 Y-62.524
X-121.903 Y-61.942
X-122.07 Y-61.321
X-122.161 Y-60.747
X-122.183 Y-60.652
X-122.216 Y-60.56
X-122.262 Y-60.474
X-122.284 Y-60.438
X-122.294 Y-60.42
X-122.302 Y-60.403
X-122.369 Y-60.218
X-122.404 Y-60.072
X-122.435 Y-59.926
X-122.493 Y-59.634
X-122.519 Y-59.488
X-122.567 Y-59.196
X-122.584 Y-59.05
X-122.588 Y-58.613
Y-3.314
X-122.585 Y-3.168
X-122.575 Y-2.876
X-122.561 Y-2.73
X-122.534 Y-2.584
X-122.446 Y-1.948
X-122.392 Y-1.308
X-122.267 Y-1.012
X-122.066 Y-0.762
X-121.575 Y-0.348
X-121.152 Y-0.157
X-121.114 Y-0.139
X-121.078 Y-0.119
X-121.042 Y-0.097
G3 X-120.971 Y0.347 Z1.8 I-0.186 J0.257 F800
G1 X-121.012 Y0.393
X-121.061 Y0.431
X-121.117 Y0.458
X-121.177 Y0.474
G3 X-121.5 Y0.325 I-0.051 J-0.313 F1300
G1 X-123.115 Y-2.35
G3 X-123.111 Y-2.685 I0.272 J-0.164
G1 X-123.073 Y-2.733 F600
X-123.026 Y-2.774
X-122.972 Y-2.804
X-122.913 Y-2.824
G3 X-122.534 Y-2.584 Z1.6 I0.07 J0.31
G1 X-122.478 Y-2.292 F1300
X-122.419 Y-2.001
X-122.388 Y-1.855
X-122.315 Y-1.637
X-122.284 Y-1.563
X-122.205 Y-1.417
X-121.918 Y-0.979
X-121.877 Y-0.918
X-121.818 Y-0.833
X-121.597 Y-0.53
X-121.439 Y-0.378
X-121.294 Y-0.271
X-121.025 Y-0.085
X-120.83 Y0.042
X-120.564 Y0.213
X-120.418 Y0.289
X-120.272 Y0.351
X-120.126 Y0.391
X-119.981 Y0.423
X-119.689 Y0.482
X-119.543 Y0.509
X-119.251 Y0.562
X-119.105 Y0.579
X-118.668 Y0.587
X-3.131
X-2.985 Y0.585
X-2.839 Y0.578
X-2.693 Y0.555
X-2.056 Y0.472
X-1.417 Y0.408
X-1.107 Y0.323
X-0.842 Y0.143
X-0.399 Y-0.323
X-0.117 Y-0.899
X-0.106 Y-0.931
X-0.091 Y-0.962
X-0.074 Y-0.991
G3 X0.37 Y-1.06 Z1.8 I0.256 J0.188 F800
G1 X0.416 Y-1.019
X0.453 Y-0.969
X0.48 Y-0.913
X0.496 Y-0.853
G3 X0.344 Y-0.531 I-0.314 J0.05 F1300
G1 X-2.463 Y1.138
G3 X-2.798 Y1.132 I-0.162 J-0.273
G1 X-2.847 Y1.093 F600
X-2.887 Y1.046
X-2.917 Y0.991
X-2.936 Y0.932
G3 X-2.693 Y0.555 Z1.6 I0.31 J-0.067
G1 X-2.547 Y0.529 F1300
X-2.255 Y0.47
X-2.11 Y0.44
X-1.716 Y0.347
X-1.699 Y0.342
X-1.526 Y0.265
X-1.38 Y0.181
X-1.234 Y0.089
X-0.797 Y-0.204
X-0.651 Y-0.307
X-0.543 Y-0.396
X-0.39 Y-0.541
X-0.359 Y-0.583
X-0.067 Y-1.001
X0.079 Y-1.219
X0.225 Y-1.446
X0.281 Y-1.563
X0.342 Y-1.709
X0.388 Y-1.855
X0.478 Y-2.292
X0.536 Y-2.584
X0.562 Y-2.73
X0.575 Y-2.876
X0.585 Y-3.168
X0.587 Y-3.314
Y-58.613
X0.584 Y-59.05
X0.568 Y-59.196
X0.546 Y-59.342
X0.472 Y-59.98
X0.439 Y-60.3
X0.332 Y-60.602
X0.145 Y-60.863
X-0.123 Y-61.114
X-0.162 Y-61.153
X-0.197 Y-61.195
X-0.23 Y-61.239
G3 X-0.134 Y-61.678 Z1.8 I0.267 J-0.172 F800
G1 X-0.079 Y-61.706
X-0.02 Y-61.723
X0.042 Y-61.728
X0.104 Y-61.721
G3 X0.331 Y-61.531 I-0.066 J0.31 F1300
G1 X1.151 Y-59.526
G3 X1.121 Y-59.229 I-0.294 J0.12
G1 X1.082 Y-59.181 F600
X1.034 Y-59.142
X0.979 Y-59.113
X0.92 Y-59.095
G3 X0.546 Y-59.342 Z1.6 I-0.063 J-0.311
G1 X0.521 Y-59.488 F1300
X0.434 Y-59.926
X0.403 Y-60.072
X0.367 Y-60.218
X0.314 Y-60.364
X0.242 Y-60.51
X0.155 Y-60.655
X0.079 Y-60.781
X-0.247 Y-61.263
X-0.331 Y-61.385
X-0.359 Y-61.421
X-0.505 Y-61.569
X-0.631 Y-61.677
X-0.797 Y-61.796
X-1.273 Y-62.115
X-1.38 Y-62.182
X-1.519 Y-62.26
X-1.69 Y-62.338
X-2.11 Y-62.44
X-2.255 Y-62.471
X-2.547 Y-62.529
X-2.693 Y-62.555
X-2.839 Y-62.578
X-2.985 Y-62.585
X-3.131 Y-62.588
X-118.668
X-119.105 Y-62.579
X-119.251 Y-62.562
X-119.543 Y-62.509
X-119.689 Y-62.482
X-120.066 Y-62.406
X-120.126 Y-62.391
X-120.272 Y-62.35
X-120.418 Y-62.29
X-120.485 Y-62.26
X-120.564 Y-62.215
X-120.944 Y-61.969
X-121.163 Y-61.823
X-121.294 Y-61.733
X-121.371 Y-61.677
X-121.439 Y-61.623
X-121.538 Y-61.531
X-121.585 Y-61.483
X-121.667 Y-61.385
X-121.731 Y-61.298
X-121.877 Y-61.082
X-121.967 Y-60.947
X-122.023 Y-60.862
X-122.262 Y-60.474
G3 X-122.676 Y-60.37 I-0.264 J-0.176 F800
G1 X-122.716 Y-60.406 Z1.605
X-122.755 Y-60.442 Z1.619
X-122.791 Y-60.475 Z1.642
X-122.808 Y-60.522 Z1.678
X-122.821 Y-60.561 Z1.722
X-122.832 Y-60.592 Z1.773
X-122.839 Y-60.613 Z1.829
X-122.843 Y-60.623 Z1.889
Y-60.624 Z1.918
G0 Z20.1
X3.694 Y-63.327
Z1.735
G1 Z1.418 F600
X3.687 Y-63.325 Z1.347
X3.664 Y-63.32 Z1.28
X3.627 Y-63.31 Z1.22
X3.579 Y-63.298 Z1.169
X3.52 Y-63.283 Z1.131
X3.455 Y-63.266 Z1.108
X3.387 Y-63.249 Z1.1
G3 X1.658 Y-63 I-2.011 J-7.852
G1 X1.508 F1300
X0.879 Y-63.128
X0.242 Y-63.206
X-0.399 Y-63.251
X-1.041 Y-63.279
X-1.683 Y-63.295
X-2.325 Y-63.304
X-2.967 Y-63.31
X-3.609 Y-63.313
X-4.893 Y-63.316
X-8.104 Y-63.317
X-48.562 Y-63.318
X-98.652
X-120.487
X-120.646 Y-63.301
X-120.951 Y-63.199
X-121.207 Y-63.005
X-121.633 Y-62.524
X-121.903 Y-61.942
X-122.07 Y-61.321
X-122.161 Y-60.747
X-122.183 Y-60.652
X-122.216 Y-60.56
X-122.262 Y-60.474
X-122.284 Y-60.438
X-122.294 Y-60.42
X-122.302 Y-60.403
X-122.369 Y-60.218
X-122.404 Y-60.072
X-122.435 Y-59.926
X-122.493 Y-59.634
X-122.519 Y-59.488
X-122.567 Y-59.196
X-122.584 Y-59.05
X-122.588 Y-58.613
Y-3.314
X-122.585 Y-3.168
X-122.575 Y-2.876
X-122.561 Y-2.73
X-122.534 Y-2.584
X-122.446 Y-1.948
X-122.392 Y-1.308
X-122.267 Y-1.012
X-122.066 Y-0.762
X-121.575 Y-0.348
X-121.152 Y-0.157
X-121.114 Y-0.139
X-121.078 Y-0.119
X-121.042 Y-0.097
G3 X-120.971 Y0.347 Z1.3 I-0.186 J0.257 F800
G1 X-121.012 Y0.393
X-121.061 Y0.431
X-121.117 Y0.458
X-121.177 Y0.474
G3 X-121.5 Y0.325 I-0.051 J-0.313 F1300
G1 X-123.115 Y-2.35
G3 X-123.111 Y-2.685 I0.272 J-0.164
G1 X-123.073 Y-2.733 F600
X-123.026 Y-2.774
X-122.972 Y-2.804
X-122.913 Y-2.824
G3 X-122.534 Y-2.584 Z1.1 I0.07 J0.31
G1 X-122.478 Y-2.292 F1300
X-122.419 Y-2.001
X-122.388 Y-1.855
X-122.315 Y-1.637
X-122.284 Y-1.563
X-122.205 Y-1.417
X-121.918 Y-0.979
X-121.877 Y-0.918
X-121.818 Y-0.833
X-121.597 Y-0.53
X-121.439 Y-0.378
X-121.294 Y-0.271
X-121.025 Y-0.085
X-120.83 Y0.042
X-120.564 Y0.213
X-120.418 Y0.289
X-120.272 Y0.351
X-120.126 Y0.391
X-119.981 Y0.423
X-119.689 Y0.482
X-119.543 Y0.509
X-119.251 Y0.562
X-119.105 Y0.579
X-118.668 Y0.587
X-3.131
X-2.985 Y0.585
X-2.839 Y0.578
X-2.693 Y0.555
X-2.056 Y0.472
X-1.417 Y0.408
X-1.107 Y0.323
X-0.842 Y0.143
X-0.399 Y-0.323
X-0.117 Y-0.899
X-0.106 Y-0.931
X-0.091 Y-0.962
X-0.074 Y-0.991
G3 X0.37 Y-1.06 Z1.3 I0.256 J0.188 F800
G1 X0.416 Y-1.019
X0.453 Y-0.969
X0.48 Y-0.913
X0.496 Y-0.853
G3 X0.344 Y-0.531 I-0.314 J0.05 F1300
G1 X-2.463 Y1.138
G3 X-2.798 Y1.132 I-0.162 J-0.273
G1 X-2.847 Y1.093 F600
X-2.887 Y1.046
X-2.917 Y0.991
X-2.936 Y0.932
G3 X-2.693 Y0.555 Z1.1 I0.31 J-0.067
G1 X-2.547 Y0.529 F1300
X-2.255 Y0.47
X-2.11 Y0.44
X-1.716 Y0.347
X-1.699 Y0.342
X-1.526 Y0.265
X-1.38 Y0.181
X-1.234 Y0.089
X-0.797 Y-0.204
X-0.651 Y-0.307
X-0.543 Y-0.396
X-0.39 Y-0.541
X-0.359 Y-0.583
X-0.067 Y-1.001
X0.079 Y-1.219
X0.225 Y-1.446
X0.281 Y-1.563
X0.342 Y-1.709
X0.388 Y-1.855
X0.478 Y-2.292
X0.536 Y-2.584
X0.562 Y-2.73
X0.575 Y-2.876
X0.585 Y-3.168
X0.587 Y-3.314
Y-58.613
X0.584 Y-59.05
X0.568 Y-59.196
X0.546 Y-59.342
X0.472 Y-59.98
X0.439 Y-60.3
X0.332 Y-60.602
X0.145 Y-60.863
X-0.123 Y-61.114
X-0.162 Y-61.153
X-0.197 Y-61.195
X-0.23 Y-61.239
G3 X-0.134 Y-61.678 Z1.3 I0.267 J-0.172 F800
G1 X-0.079 Y-61.706
X-0.02 Y-61.723
X0.042 Y-61.728
X0.104 Y-61.721
G3 X0.331 Y-61.531 I-0.066 J0.31 F1300
G1 X1.151 Y-59.526
G3 X1.121 Y-59.229 I-0.294 J0.12
G1 X1.082 Y-59.181 F600
X1.034 Y-59.142
X0.979 Y-59.113
X0.92 Y-59.095
G3 X0.546 Y-59.342 Z1.1 I-0.063 J-0.311
G1 X0.521 Y-59.488 F1300
X0.434 Y-59.926
X0.403 Y-60.072
X0.367 Y-60.218
X0.314 Y-60.364
X0.242 Y-60.51
X0.155 Y-60.655
X0.079 Y-60.781
X-0.247 Y-61.263
X-0.331 Y-61.385
X-0.359 Y-61.421
X-0.505 Y-61.569
X-0.631 Y-61.677
X-0.797 Y-61.796
X-1.273 Y-62.115
X-1.38 Y-62.182
X-1.519 Y-62.26
X-1.69 Y-62.338
X-2.11 Y-62.44
X-2.255 Y-62.471
X-2.547 Y-62.529
X-2.693 Y-62.555
X-2.839 Y-62.578
X-2.985 Y-62.585
X-3.131 Y-62.588
X-118.668
X-119.105 Y-62.579
X-119.251 Y-62.562
X-119.543 Y-62.509
X-119.689 Y-62.482
X-120.066 Y-62.406
X-120.126 Y-62.391
X-120.272 Y-62.35
X-120.418 Y-62.29
X-120.485 Y-62.26
X-120.564 Y-62.215
X-120.944 Y-61.969
X-121.163 Y-61.823
X-121.294 Y-61.733
X-121.371 Y-61.677
X-121.439 Y-61.623
X-121.538 Y-61.531
X-121.585 Y-61.483
X-121.667 Y-61.385
X-121.731 Y-61.298
X-121.877 Y-61.082
X-121.967 Y-60.947
X-122.023 Y-60.862
X-122.262 Y-60.474
G3 X-122.676 Y-60.37 I-0.264 J-0.176 F800
G1 X-122.716 Y-60.406 Z1.105
X-122.755 Y-60.442 Z1.119
X-122.791 Y-60.475 Z1.142
X-122.808 Y-60.522 Z1.178
X-122.821 Y-60.561 Z1.222
X-122.832 Y-60.592 Z1.273
X-122.839 Y-60.613 Z1.329
X-122.843 Y-60.623 Z1.389
Y-60.624 Z1.418
G0 Z20.1
X3.694 Y-63.327
Z1.235
G1 Z0.918 F600
X3.687 Y-63.325 Z0.847
X3.664 Y-63.32 Z0.78
X3.627 Y-63.31 Z0.72
X3.579 Y-63.298 Z0.669
X3.52 Y-63.283 Z0.631
X3.455 Y-63.266 Z0.608
X3.387 Y-63.249 Z0.6
G3 X1.658 Y-63 I-2.011 J-7.852
G1 X1.508 F1300
X0.879 Y-63.128
X0.242 Y-63.206
X-0.399 Y-63.251
X-1.041 Y-63.279
X-1.683 Y-63.295
X-2.325 Y-63.304
X-2.967 Y-63.31
X-3.609 Y-63.313
X-4.893 Y-63.316
X-8.104 Y-63.317
X-48.562 Y-63.318
X-98.652
X-120.487
X-120.646 Y-63.301
X-120.951 Y-63.199
X-121.207 Y-63.005
X-121.633 Y-62.524
X-121.903 Y-61.942
X-122.07 Y-61.321
X-122.161 Y-60.747
X-122.183 Y-60.652
X-122.216 Y-60.56
X-122.262 Y-60.474
X-122.284 Y-60.438
X-122.294 Y-60.42
X-122.302 Y-60.403
X-122.369 Y-60.218
X-122.404 Y-60.072
X-122.435 Y-59.926
X-122.493 Y-59.634
X-122.519 Y-59.488
X-122.567 Y-59.196
X-122.584 Y-59.05
X-122.588 Y-58.613
Y-3.314
X-122.585 Y-3.168
X-122.575 Y-2.876
X-122.561 Y-2.73
X-122.534 Y-2.584
X-122.446 Y-1.948
X-122.392 Y-1.308
X-122.267 Y-1.012
X-122.066 Y-0.762
X-121.575 Y-0.348
X-121.152 Y-0.157
X-121.114 Y-0.139
X-121.078 Y-0.119
X-121.042 Y-0.097
G3 X-120.971 Y0.347 Z0.8 I-0.186 J0.257 F800
G1 X-121.012 Y0.393
X-121.061 Y0.431
X-121.117 Y0.458
X-121.177 Y0.474
G3 X-121.5 Y0.325 I-0.051 J-0.313 F1300
G1 X-123.115 Y-2.35
G3 X-123.111 Y-2.685 I0.272 J-0.164
G1 X-123.073 Y-2.733 F600
X-123.026 Y-2.774
X-122.972 Y-2.804
X-122.913 Y-2.824
G3 X-122.534 Y-2.584 Z0.6 I0.07 J0.31
G1 X-122.478 Y-2.292 F1300
X-122.419 Y-2.001
X-122.388 Y-1.855
X-122.315 Y-1.637
X-122.284 Y-1.563
X-122.205 Y-1.417
X-121.918 Y-0.979
X-121.877 Y-0.918
X-121.818 Y-0.833
X-121.597 Y-0.53
X-121.439 Y-0.378
X-121.294 Y-0.271
X-121.025 Y-0.085
X-120.83 Y0.042
X-120.564 Y0.213
X-120.418 Y0.289
X-120.272 Y0.351
X-120.126 Y0.391
X-119.981 Y0.423
X-119.689 Y0.482
X-119.543 Y0.509
X-119.251 Y0.562
X-119.105 Y0.579
X-118.668 Y0.587
X-3.131
X-2.985 Y0.585
X-2.839 Y0.578
X-2.693 Y0.555
X-2.056 Y0.472
X-1.417 Y0.408
X-1.107 Y0.323
X-0.842 Y0.143
X-0.399 Y-0.323
X-0.117 Y-0.899
X-0.106 Y-0.931
X-0.091 Y-0.962
X-0.074 Y-0.991
G3 X0.37 Y-1.06 Z0.8 I0.256 J0.188 F800
G1 X0.416 Y-1.019
X0.453 Y-0.969
X0.48 Y-0.913
X0.496 Y-0.853
G3 X0.344 Y-0.531 I-0.314 J0.05 F1300
G1 X-2.463 Y1.138
G3 X-2.798 Y1.132 I-0.162 J-0.273
G1 X-2.847 Y1.093 F600
X-2.887 Y1.046
X-2.917 Y0.991
X-2.936 Y0.932
G3 X-2.693 Y0.555 Z0.6 I0.31 J-0.067
G1 X-2.547 Y0.529 F1300
X-2.255 Y0.47
X-2.11 Y0.44
X-1.716 Y0.347
X-1.699 Y0.342
X-1.526 Y0.265
X-1.38 Y0.181
X-1.234 Y0.089
X-0.797 Y-0.204
X-0.651 Y-0.307
X-0.543 Y-0.396
X-0.39 Y-0.541
X-0.359 Y-0.583
X-0.067 Y-1.001
X0.079 Y-1.219
X0.225 Y-1.446
X0.281 Y-1.563
X0.342 Y-1.709
X0.388 Y-1.855
X0.478 Y-2.292
X0.536 Y-2.584
X0.562 Y-2.73
X0.575 Y-2.876
X0.585 Y-3.168
X0.587 Y-3.314
Y-58.613
X0.584 Y-59.05
X0.568 Y-59.196
X0.546 Y-59.342
X0.472 Y-59.98
X0.439 Y-60.3
X0.332 Y-60.602
X0.145 Y-60.863
X-0.123 Y-61.114
X-0.162 Y-61.153
X-0.197 Y-61.195
X-0.23 Y-61.239
G3 X-0.134 Y-61.678 Z0.8 I0.267 J-0.172 F800
G1 X-0.079 Y-61.706
X-0.02 Y-61.723
X0.042 Y-61.728
X0.104 Y-61.721
G3 X0.331 Y-61.531 I-0.066 J0.31 F1300
G1 X1.151 Y-59.526
G3 X1.121 Y-59.229 I-0.294 J0.12
G1 X1.082 Y-59.181 F600
X1.034 Y-59.142
X0.979 Y-59.113
X0.92 Y-59.095
G3 X0.546 Y-59.342 Z0.6 I-0.063 J-0.311
G1 X0.521 Y-59.488 F1300
X0.434 Y-59.926
X0.403 Y-60.072
X0.367 Y-60.218
X0.314 Y-60.364
X0.242 Y-60.51
X0.155 Y-60.655
X0.079 Y-60.781
X-0.247 Y-61.263
X-0.331 Y-61.385
X-0.359 Y-61.421
X-0.505 Y-61.569
X-0.631 Y-61.677
X-0.797 Y-61.796
X-1.273 Y-62.115
X-1.38 Y-62.182
X-1.519 Y-62.26
X-1.69 Y-62.338
X-2.11 Y-62.44
X-2.255 Y-62.471
X-2.547 Y-62.529
X-2.693 Y-62.555
X-2.839 Y-62.578
X-2.985 Y-62.585
X-3.131 Y-62.588
X-118.668
X-119.105 Y-62.579
X-119.251 Y-62.562
X-119.543 Y-62.509
X-119.689 Y-62.482
X-120.066 Y-62.406
X-120.126 Y-62.391
X-120.272 Y-62.35
X-120.418 Y-62.29
X-120.485 Y-62.26
X-120.564 Y-62.215
X-120.944 Y-61.969
X-121.163 Y-61.823
X-121.294 Y-61.733
X-121.371 Y-61.677
X-121.439 Y-61.623
X-121.538 Y-61.531
X-121.585 Y-61.483
X-121.667 Y-61.385
X-121.731 Y-61.298
X-121.877 Y-61.082
X-121.967 Y-60.947
X-122.023 Y-60.862
X-122.262 Y-60.474
G3 X-122.676 Y-60.37 I-0.264 J-0.176 F800
G1 X-122.716 Y-60.406 Z0.605
X-122.755 Y-60.442 Z0.619
X-122.791 Y-60.475 Z0.642
X-122.808 Y-60.522 Z0.678
X-122.821 Y-60.561 Z0.722
X-122.832 Y-60.592 Z0.773
X-122.839 Y-60.613 Z0.829
X-122.843 Y-60.623 Z0.889
Y-60.624 Z0.917
G0 Z20.1
X3.694 Y-63.327
Z0.735
G1 Z0.417 F600
X3.687 Y-63.325 Z0.347
X3.664 Y-63.32 Z0.28
X3.627 Y-63.31 Z0.22
X3.579 Y-63.298 Z0.169
X3.52 Y-63.283 Z0.131
X3.455 Y-63.266 Z0.108
X3.387 Y-63.249 Z0.1
G3 X1.658 Y-63 I-2.011 J-7.852
G1 X1.508 F1300
X0.879 Y-63.128
X0.242 Y-63.206
X-0.399 Y-63.251
X-1.041 Y-63.279
X-1.683 Y-63.295
X-2.325 Y-63.304
X-2.967 Y-63.31
X-3.609 Y-63.313
X-4.893 Y-63.316
X-8.104 Y-63.317
X-48.562 Y-63.318
X-98.652
X-120.487
X-120.646 Y-63.301
X-120.951 Y-63.199
X-121.207 Y-63.005
X-121.633 Y-62.524
X-121.903 Y-61.942
X-122.07 Y-61.321
X-122.161 Y-60.747
X-122.183 Y-60.652
X-122.216 Y-60.56
X-122.262 Y-60.474
X-122.284 Y-60.438
X-122.294 Y-60.42
X-122.302 Y-60.403
X-122.369 Y-60.218
X-122.404 Y-60.072
X-122.435 Y-59.926
X-122.493 Y-59.634
X-122.519 Y-59.488
X-122.567 Y-59.196
X-122.584 Y-59.05
X-122.588 Y-58.613
Y-3.314
X-122.585 Y-3.168
X-122.575 Y-2.876
X-122.561 Y-2.73
X-122.534 Y-2.584
X-122.446 Y-1.948
X-122.392 Y-1.308
X-122.267 Y-1.012
X-122.066 Y-0.762
X-121.575 Y-0.348
X-121.152 Y-0.157
X-121.114 Y-0.139
X-121.078 Y-0.119
X-121.042 Y-0.097
G3 X-120.971 Y0.347 Z0.3 I-0.186 J0.257 F800
G1 X-121.012 Y0.393
X-121.061 Y0.431
X-121.117 Y0.458
X-121.177 Y0.474
G3 X-121.5 Y0.325 I-0.051 J-0.313 F1300
G1 X-123.115 Y-2.35
G3 X-123.111 Y-2.685 I0.272 J-0.164
G1 X-123.073 Y-2.733 F600
X-123.026 Y-2.774
X-122.972 Y-2.804
X-122.913 Y-2.824
G3 X-122.534 Y-2.584 Z0.1 I0.07 J0.31
G1 X-122.478 Y-2.292 F1300
X-122.419 Y-2.001
X-122.388 Y-1.855
X-122.315 Y-1.637
X-122.284 Y-1.563
X-122.205 Y-1.417
X-121.918 Y-0.979
X-121.877 Y-0.918
X-121.818 Y-0.833
X-121.597 Y-0.53
X-121.439 Y-0.378
X-121.294 Y-0.271
X-121.025 Y-0.085
X-120.83 Y0.042
X-120.564 Y0.213
X-120.418 Y0.289
X-120.272 Y0.351
X-120.126 Y0.391
X-119.981 Y0.423
X-119.689 Y0.482
X-119.543 Y0.509
X-119.251 Y0.562
X-119.105 Y0.579
X-118.668 Y0.587
X-3.131
X-2.985 Y0.585
X-2.839 Y0.578
X-2.693 Y0.555
X-2.056 Y0.472
X-1.417 Y0.408
X-1.107 Y0.323
X-0.842 Y0.143
X-0.399 Y-0.323
X-0.117 Y-0.899
X-0.106 Y-0.931
X-0.091 Y-0.962
X-0.074 Y-0.991
G3 X0.37 Y-1.06 Z0.3 I0.256 J0.188 F800
G1 X0.416 Y-1.019
X0.453 Y-0.969
X0.48 Y-0.913
X0.496 Y-0.853
G3 X0.344 Y-0.531 I-0.314 J0.05 F1300
G1 X-2.463 Y1.138
G3 X-2.798 Y1.132 I-0.162 J-0.273
G1 X-2.847 Y1.093 F600
X-2.887 Y1.046
X-2.917 Y0.991
X-2.936 Y0.932
G3 X-2.693 Y0.555 Z0.1 I0.31 J-0.067
G1 X-2.547 Y0.529 F1300
X-2.255 Y0.47
X-2.11 Y0.44
X-1.716 Y0.347
X-1.699 Y0.342
X-1.526 Y0.265
X-1.38 Y0.181
X-1.234 Y0.089
X-0.797 Y-0.204
X-0.651 Y-0.307
X-0.543 Y-0.396
X-0.39 Y-0.541
X-0.359 Y-0.583
X-0.067 Y-1.001
X0.079 Y-1.219
X0.225 Y-1.446
X0.281 Y-1.563
X0.342 Y-1.709
X0.388 Y-1.855
X0.478 Y-2.292
X0.536 Y-2.584
X0.562 Y-2.73
X0.575 Y-2.876
X0.585 Y-3.168
X0.587 Y-3.314
Y-58.613
X0.584 Y-59.05
X0.568 Y-59.196
X0.546 Y-59.342
X0.472 Y-59.98
X0.439 Y-60.3
X0.332 Y-60.602
X0.145 Y-60.863
X-0.123 Y-61.114
X-0.162 Y-61.153
X-0.197 Y-61.195
X-0.23 Y-61.239
G3 X-0.134 Y-61.678 Z0.3 I0.267 J-0.172 F800
G1 X-0.079 Y-61.706
X-0.02 Y-61.723
X0.042 Y-61.728
X0.104 Y-61.721
G3 X0.331 Y-61.531 I-0.066 J0.31 F1300
G1 X1.151 Y-59.526
G3 X1.121 Y-59.229 I-0.294 J0.12
G1 X1.082 Y-59.181 F600
X1.034 Y-59.142
X0.979 Y-59.113
X0.92 Y-59.095
G3 X0.546 Y-59.342 Z0.1 I-0.063 J-0.311
G1 X0.521 Y-59.488 F1300
X0.434 Y-59.926
X0.403 Y-60.072
X0.367 Y-60.218
X0.314 Y-60.364
X0.242 Y-60.51
X0.155 Y-60.655
X0.079 Y-60.781
X-0.247 Y-61.263
X-0.331 Y-61.385
X-0.359 Y-61.421
X-0.505 Y-61.569
X-0.631 Y-61.677
X-0.797 Y-61.796
X-1.273 Y-62.115
X-1.38 Y-62.182
X-1.519 Y-62.26
X-1.69 Y-62.338
X-2.11 Y-62.44
X-2.255 Y-62.471
X-2.547 Y-62.529
X-2.693 Y-62.555
X-2.839 Y-62.578
X-2.985 Y-62.585
X-3.131 Y-62.588
X-118.668
X-119.105 Y-62.579
X-119.251 Y-62.562
X-119.543 Y-62.509
X-119.689 Y-62.482
X-120.066 Y-62.406
X-120.126 Y-62.391
X-120.272 Y-62.35
X-120.418 Y-62.29
X-120.485 Y-62.26
X-120.564 Y-62.215
X-120.944 Y-61.969
X-121.163 Y-61.823
X-121.294 Y-61.733
X-121.371 Y-61.677
X-121.439 Y-61.623
X-121.538 Y-61.531
X-121.585 Y-61.483
X-121.667 Y-61.385
X-121.731 Y-61.298
X-121.877 Y-61.082
X-121.967 Y-60.947
X-122.023 Y-60.862
X-122.262 Y-60.474
G3 X-122.676 Y-60.37 I-0.264 J-0.176 F800
G1 X-122.716 Y-60.406 Z0.105
X-122.755 Y-60.442 Z0.119
X-122.791 Y-60.475 Z0.142
X-122.808 Y-60.522 Z0.178
X-122.821 Y-60.561 Z0.222
X-122.832 Y-60.592 Z0.273
X-122.839 Y-60.613 Z0.329
X-122.843 Y-60.623 Z0.389
Y-60.624 Z0.417
G0 Z20.1
X3.694 Y-63.327
Z0.635
G1 Z0.317 F600
X3.687 Y-63.325 Z0.247
X3.664 Y-63.32 Z0.18
X3.627 Y-63.31 Z0.12
X3.579 Y-63.298 Z0.069
X3.52 Y-63.283 Z0.031
X3.455 Y-63.266 Z0.008
X3.387 Y-63.249 Z0
G3 X1.658 Y-63 I-2.011 J-7.852
G1 X1.508 F1300
X0.879 Y-63.128
X0.242 Y-63.206
X-0.399 Y-63.251
X-1.041 Y-63.279
X-1.683 Y-63.295
X-2.325 Y-63.304
X-2.967 Y-63.31
X-3.609 Y-63.313
X-4.893 Y-63.316
X-8.104 Y-63.317
X-48.562 Y-63.318
X-98.652
X-120.487
X-120.646 Y-63.301
X-120.951 Y-63.199
X-121.207 Y-63.005
X-121.633 Y-62.524
X-121.903 Y-61.942
X-122.07 Y-61.321
X-122.161 Y-60.747
X-122.183 Y-60.652
X-122.216 Y-60.56
X-122.262 Y-60.474
X-122.284 Y-60.438
X-122.294 Y-60.42
X-122.302 Y-60.403
X-122.369 Y-60.218
X-122.404 Y-60.072
X-122.435 Y-59.926
X-122.493 Y-59.634
X-122.519 Y-59.488
X-122.567 Y-59.196
X-122.584 Y-59.05
X-122.588 Y-58.613
Y-3.314
X-122.585 Y-3.168
X-122.575 Y-2.876
X-122.561 Y-2.73
X-122.534 Y-2.584
X-122.446 Y-1.948
X-122.392 Y-1.308
X-122.267 Y-1.012
X-122.066 Y-0.762
X-121.575 Y-0.348
X-121.152 Y-0.157
X-121.114 Y-0.139
X-121.078 Y-0.119
X-121.042 Y-0.097
G3 X-120.971 Y0.347 Z0.2 I-0.186 J0.257 F800
G1 X-121.012 Y0.393
X-121.061 Y0.431
X-121.117 Y0.458
X-121.177 Y0.474
G3 X-121.5 Y0.325 I-0.051 J-0.313 F1300
G1 X-123.115 Y-2.35
G3 X-123.111 Y-2.685 I0.272 J-0.164
G1 X-123.073 Y-2.733 F600
X-123.026 Y-2.774
X-122.972 Y-2.804
X-122.913 Y-2.824
G3 X-122.534 Y-2.584 Z0 I0.07 J0.31
G1 X-122.478 Y-2.292 F1300
X-122.419 Y-2.001
X-122.388 Y-1.855
X-122.315 Y-1.637
X-122.284 Y-1.563
X-122.205 Y-1.417
X-121.918 Y-0.979
X-121.877 Y-0.918
X-121.818 Y-0.833
X-121.597 Y-0.53
X-121.439 Y-0.378
X-121.294 Y-0.271
X-121.025 Y-0.085
X-120.83 Y0.042
X-120.564 Y0.213
X-120.418 Y0.289
X-120.272 Y0.351
X-120.126 Y0.391
X-119.981 Y0.423
X-119.689 Y0.482
X-119.543 Y0.509
X-119.251 Y0.562
X-119.105 Y0.579
X-118.668 Y0.587
X-3.131
X-2.985 Y0.585
X-2.839 Y0.578
X-2.693 Y0.555
X-2.056 Y0.472
X-1.417 Y0.408
X-1.107 Y0.323
X-0.842 Y0.143
X-0.399 Y-0.323
X-0.117 Y-0.899
X-0.106 Y-0.931
X-0.091 Y-0.962
X-0.074 Y-0.991
G3 X0.37 Y-1.06 Z0.2 I0.256 J0.188 F800
G1 X0.416 Y-1.019
X0.453 Y-0.969
X0.48 Y-0.913
X0.496 Y-0.853
G3 X0.344 Y-0.531 I-0.314 J0.05 F1300
G1 X-2.463 Y1.138
G3 X-2.798 Y1.132 I-0.162 J-0.273
G1 X-2.847 Y1.093 F600
X-2.887 Y1.046
X-2.917 Y0.991
X-2.936 Y0.932
G3 X-2.693 Y0.555 Z0 I0.31 J-0.067
G1 X-2.547 Y0.529 F1300
X-2.255 Y0.47
X-2.11 Y0.44
X-1.716 Y0.347
X-1.699 Y0.342
X-1.526 Y0.265
X-1.38 Y0.181
X-1.234 Y0.089
X-0.797 Y-0.204
X-0.651 Y-0.307
X-0.543 Y-0.396
X-0.39 Y-0.541
X-0.359 Y-0.583
X-0.067 Y-1.001
X0.079 Y-1.219
X0.225 Y-1.446
X0.281 Y-1.563
X0.342 Y-1.709
X0.388 Y-1.855
X0.478 Y-2.292
X0.536 Y-2.584
X0.562 Y-2.73
X0.575 Y-2.876
X0.585 Y-3.168
X0.587 Y-3.314
Y-58.613
X0.584 Y-59.05
X0.568 Y-59.196
X0.546 Y-59.342
X0.472 Y-59.98
X0.439 Y-60.3
X0.332 Y-60.602
X0.145 Y-60.863
X-0.123 Y-61.114
X-0.162 Y-61.153
X-0.197 Y-61.195
X-0.23 Y-61.239
G3 X-0.134 Y-61.678 Z0.2 I0.267 J-0.172 F800
G1 X-0.079 Y-61.706
X-0.02 Y-61.723
X0.042 Y-61.728
X0.104 Y-61.721
G3 X0.331 Y-61.531 I-0.066 J0.31 F1300
G1 X1.151 Y-59.526
G3 X1.121 Y-59.229 I-0.294 J0.12
G1 X1.082 Y-59.181 F600
X1.034 Y-59.142
X0.979 Y-59.113
X0.92 Y-59.095
G3 X0.546 Y-59.342 Z0 I-0.063 J-0.311
G1 X0.521 Y-59.488 F1300
X0.434 Y-59.926
X0.403 Y-60.072
X0.367 Y-60.218
X0.314 Y-60.364
X0.242 Y-60.51
X0.155 Y-60.655
X0.079 Y-60.781
X-0.247 Y-61.263
X-0.331 Y-61.385
X-0.359 Y-61.421
X-0.505 Y-61.569
X-0.631 Y-61.677
X-0.797 Y-61.796
X-1.273 Y-62.115
X-1.38 Y-62.182
X-1.519 Y-62.26
X-1.69 Y-62.338
X-2.11 Y-62.44
X-2.255 Y-62.471
X-2.547 Y-62.529
X-2.693 Y-62.555
X-2.839 Y-62.578
X-2.985 Y-62.585
X-3.131 Y-62.588
X-118.668
X-119.105 Y-62.579
X-119.251 Y-62.562
X-119.543 Y-62.509
X-119.689 Y-62.482
X-120.066 Y-62.406
X-120.126 Y-62.391
X-120.272 Y-62.35
X-120.418 Y-62.29
X-120.485 Y-62.26
X-120.564 Y-62.215
X-120.944 Y-61.969
X-121.163 Y-61.823
X-121.294 Y-61.733
X-121.371 Y-61.677
X-121.439 Y-61.623
X-121.538 Y-61.531
X-121.585 Y-61.483
X-121.667 Y-61.385
X-121.731 Y-61.298
X-121.877 Y-61.082
X-121.967 Y-60.947
X-122.023 Y-60.862
X-122.262 Y-60.474
G3 X-122.843 Y-60.624 I-0.264 J-0.176 F800
G1 X-122.848 Y-60.695 Z0.008
X-122.854 Y-60.762 Z0.031
X-122.859 Y-60.822 Z0.069
X-122.863 Y-60.872 Z0.12
X-122.866 Y-60.909 Z0.18
X-122.868 Y-60.933 Z0.247
Y-60.941 Z0.317
G0 Z30.1
G28 G91 Z0
G90
G28 G91 X0 Y0
G90
M5
M30
