(bore1)
(T6 D=3.175 CR=0 - ZMIN=0 - flat end mill)
G90 G94
G17
G21
G28 G91 Z0
G90

(Bore1 3)
T6
(18 Flat-45 degree helix)
S18000 M3
G17 G90 G94
G54
G0 X-5.682 Y-5.381
Z28.1
G0 Z12
G1 Z10.318 F500
G19 G3 Y-5.064 Z10 J0.318 K0
G1 Y-4.905
G17 G3 X-6 Y-4.588 I-0.318 J0
X-6 Y-7.412 Z9.895 I0 J-1.412
X-6 Y-4.588 Z9.79 I0 J1.412
X-6 Y-7.412 Z9.686 I0 J-1.412
X-6 Y-4.588 Z9.581 I0 J1.412
X-6 Y-7.412 Z9.476 I0 J-1.412
X-6 Y-4.588 Z9.371 I0 J1.412
X-6 Y-7.412 Z9.267 I0 J-1.412
X-6 Y-4.588 Z9.162 I0 J1.412
X-6 Y-7.412 Z9.057 I0 J-1.412
X-6 Y-4.588 Z8.952 I0 J1.412
X-6 Y-7.412 Z8.848 I0 J-1.412
X-6 Y-4.588 Z8.743 I0 J1.412
X-6 Y-7.412 Z8.638 I0 J-1.412
X-6 Y-4.588 Z8.533 I0 J1.412
X-6 Y-7.412 Z8.429 I0 J-1.412
X-6 Y-4.588 Z8.324 I0 J1.412
X-6 Y-7.412 Z8.219 I0 J-1.412
X-6 Y-4.588 Z8.114 I0 J1.412
X-6 Y-7.412 Z8.01 I0 J-1.412
X-6 Y-4.588 Z7.905 I0 J1.412
X-6 Y-7.412 Z7.8 I0 J-1.412
X-6 Y-4.588 Z7.695 I0 J1.412
X-6 Y-7.412 Z7.59 I0 J-1.412
X-6 Y-4.588 Z7.486 I0 J1.412
X-6 Y-7.412 Z7.381 I0 J-1.412
X-6 Y-4.588 Z7.276 I0 J1.412
X-6 Y-7.412 Z7.171 I0 J-1.412
X-6 Y-4.588 Z7.067 I0 J1.412
X-6 Y-7.412 Z6.962 I0 J-1.412
X-6 Y-4.588 Z6.857 I0 J1.412
X-6 Y-7.412 Z6.752 I0 J-1.412
X-6 Y-4.588 Z6.648 I0 J1.412
X-6 Y-7.412 Z6.543 I0 J-1.412
X-6 Y-4.588 Z6.438 I0 J1.412
X-6 Y-7.412 Z6.333 I0 J-1.412
X-6 Y-4.588 Z6.229 I0 J1.412
X-6 Y-7.412 Z6.124 I0 J-1.412
X-6 Y-4.588 Z6.019 I0 J1.412
X-6 Y-7.412 Z5.914 I0 J-1.412
X-6 Y-4.588 Z5.81 I0 J1.412
X-6 Y-7.412 Z5.705 I0 J-1.412
X-6 Y-4.588 Z5.6 I0 J1.412
X-6 Y-7.412 Z5.495 I0 J-1.412
X-6 Y-4.588 Z5.39 I0 J1.412
X-6 Y-7.412 Z5.286 I0 J-1.412
X-6 Y-4.588 Z5.181 I0 J1.412
X-6 Y-7.412 Z5.076 I0 J-1.412
X-6 Y-4.588 Z4.971 I0 J1.412
X-6 Y-7.412 Z4.867 I0 J-1.412
X-6 Y-4.588 Z4.762 I0 J1.412
X-6 Y-7.412 Z4.657 I0 J-1.412
X-6 Y-4.588 Z4.552 I0 J1.412
X-6 Y-7.412 Z4.448 I0 J-1.412
X-6 Y-4.588 Z4.343 I0 J1.412
X-6 Y-7.412 Z4.238 I0 J-1.412
X-6 Y-4.588 Z4.133 I0 J1.412
X-6 Y-7.413 Z4.029 I0 J-1.412
X-6 Y-4.587 Z3.924 I0 J1.413
X-6 Y-7.413 Z3.819 I0 J-1.413
X-6 Y-4.587 Z3.714 I0 J1.413
X-6 Y-7.413 Z3.609 I0 J-1.413
X-6 Y-4.587 Z3.505 I0 J1.413
X-6 Y-7.413 Z3.4 I0 J-1.413
X-6 Y-4.587 Z3.295 I0 J1.413
X-6 Y-7.413 Z3.19 I0 J-1.413
X-6 Y-4.587 Z3.086 I0 J1.413
X-6 Y-7.413 Z2.981 I0 J-1.413
X-6 Y-4.587 Z2.876 I0 J1.413
X-6 Y-7.413 Z2.771 I0 J-1.413
X-6 Y-4.587 Z2.667 I0 J1.413
X-6 Y-7.413 Z2.562 I0 J-1.413
X-6 Y-4.587 Z2.457 I0 J1.413
X-6 Y-7.413 Z2.352 I0 J-1.413
X-6 Y-4.587 Z2.248 I0 J1.413
X-6 Y-7.413 Z2.143 I0 J-1.413
X-6 Y-4.587 Z2.038 I0 J1.413
X-6 Y-7.413 Z1.933 I0 J-1.413
X-6 Y-4.587 Z1.829 I0 J1.413
X-6 Y-7.413 Z1.724 I0 J-1.413
X-6 Y-4.587 Z1.619 I0 J1.413
X-6 Y-7.413 Z1.514 I0 J-1.413
X-6 Y-4.587 Z1.409 I0 J1.413
X-6 Y-7.413 Z1.305 I0 J-1.413
X-6 Y-4.587 Z1.2 I0 J1.413
X-6 Y-7.413 Z1.095 I0 J-1.413
X-6 Y-4.587 Z0.99 I0 J1.413
X-6 Y-7.413 Z0.886 I0 J-1.413
X-6 Y-4.587 Z0.781 I0 J1.413
X-6 Y-7.413 Z0.676 I0 J-1.413
X-6 Y-4.587 Z0.571 I0 J1.413
X-6 Y-7.413 Z0.467 I0 J-1.413
X-6 Y-4.587 Z0.362 I0 J1.413
X-6 Y-7.413 Z0.257 I0 J-1.413
X-6 Y-4.587 Z0.152 I0 J1.413
X-6 Y-7.413 Z0.048 I0 J-1.413
X-4.602 Y-6.203 Z0 I0 J1.413
X-7.398 Y-5.797 I-1.398 J0.203
X-4.602 Y-6.203 I1.398 J-0.203
X-4.871 Y-5.843 I-0.314 J0.046
G1 X-5.028 Y-5.82
X-5.098 Y-5.81 Z0.008
X-5.164 Y-5.8 Z0.031
X-5.224 Y-5.792 Z0.069
X-5.274 Y-5.784 Z0.12
X-5.311 Y-5.779 Z0.18
X-5.334 Y-5.776 Z0.247
X-5.342 Y-5.775 Z0.317
G0 Z18.1
X-18.183 Y-5.381
Z12
G1 Z10.318 F500
G19 G3 Y-5.064 Z10 J0.318 K0
G1 Y-4.905
G17 G3 X-18.5 Y-4.588 I-0.317 J0
X-18.5 Y-7.412 Z9.895 I0 J-1.412
X-18.5 Y-4.588 Z9.79 I0 J1.412
X-18.5 Y-7.412 Z9.686 I0 J-1.412
X-18.5 Y-4.588 Z9.581 I0 J1.412
X-18.5 Y-7.412 Z9.476 I0 J-1.412
X-18.5 Y-4.588 Z9.371 I0 J1.412
X-18.5 Y-7.412 Z9.267 I0 J-1.412
X-18.5 Y-4.588 Z9.162 I0 J1.412
X-18.5 Y-7.412 Z9.057 I0 J-1.412
X-18.5 Y-4.588 Z8.952 I0 J1.412
X-18.5 Y-7.412 Z8.848 I0 J-1.412
X-18.5 Y-4.588 Z8.743 I0 J1.412
X-18.5 Y-7.412 Z8.638 I0 J-1.412
X-18.5 Y-4.588 Z8.533 I0 J1.412
X-18.5 Y-7.413 Z8.429 I0 J-1.412
X-18.5 Y-4.587 Z8.324 I0 J1.413
X-18.5 Y-7.413 Z8.219 I0 J-1.413
X-18.5 Y-4.587 Z8.114 I0 J1.413
X-18.5 Y-7.413 Z8.01 I0 J-1.413
X-18.5 Y-4.587 Z7.905 I0 J1.413
X-18.5 Y-7.413 Z7.8 I0 J-1.413
X-18.5 Y-4.587 Z7.695 I0 J1.413
X-18.5 Y-7.413 Z7.59 I0 J-1.413
X-18.5 Y-4.587 Z7.486 I0 J1.413
X-18.5 Y-7.413 Z7.381 I0 J-1.413
X-18.5 Y-4.587 Z7.276 I0 J1.413
X-18.5 Y-7.413 Z7.171 I0 J-1.413
X-18.5 Y-4.587 Z7.067 I0 J1.413
X-18.5 Y-7.413 Z6.962 I0 J-1.413
X-18.5 Y-4.587 Z6.857 I0 J1.413
X-18.5 Y-7.413 Z6.752 I0 J-1.413
X-18.5 Y-4.587 Z6.648 I0 J1.413
X-18.5 Y-7.413 Z6.543 I0 J-1.413
X-18.5 Y-4.587 Z6.438 I0 J1.413
X-18.5 Y-7.413 Z6.333 I0 J-1.413
X-18.5 Y-4.587 Z6.229 I0 J1.413
X-18.5 Y-7.413 Z6.124 I0 J-1.413
X-18.5 Y-4.587 Z6.019 I0 J1.413
X-18.5 Y-7.413 Z5.914 I0 J-1.413
X-18.5 Y-4.587 Z5.81 I0 J1.413
X-18.5 Y-7.413 Z5.705 I0 J-1.413
X-18.5 Y-4.587 Z5.6 I0 J1.413
X-18.5 Y-7.413 Z5.495 I0 J-1.413
X-18.5 Y-4.587 Z5.39 I0 J1.413
X-18.5 Y-7.413 Z5.286 I0 J-1.413
X-18.5 Y-4.587 Z5.181 I0 J1.413
X-18.5 Y-7.413 Z5.076 I0 J-1.413
X-18.5 Y-4.587 Z4.971 I0 J1.413
X-18.5 Y-7.413 Z4.867 I0 J-1.413
X-18.5 Y-4.587 Z4.762 I0 J1.413
X-18.5 Y-7.413 Z4.657 I0 J-1.413
X-18.5 Y-4.587 Z4.552 I0 J1.413
X-18.5 Y-7.413 Z4.448 I0 J-1.413
X-18.5 Y-4.587 Z4.343 I0 J1.413
X-18.5 Y-7.413 Z4.238 I0 J-1.413
X-18.5 Y-4.587 Z4.133 I0 J1.413
X-18.5 Y-7.413 Z4.029 I0 J-1.413
X-18.5 Y-4.587 Z3.924 I0 J1.413
X-18.5 Y-7.413 Z3.819 I0 J-1.413
X-18.5 Y-4.587 Z3.714 I0 J1.413
X-18.5 Y-7.413 Z3.609 I0 J-1.413
X-18.5 Y-4.587 Z3.505 I0 J1.413
X-18.5 Y-7.413 Z3.4 I0 J-1.413
X-18.5 Y-4.587 Z3.295 I0 J1.413
X-18.5 Y-7.413 Z3.19 I0 J-1.413
X-18.5 Y-4.587 Z3.086 I0 J1.413
X-18.5 Y-7.413 Z2.981 I0 J-1.413
X-18.5 Y-4.587 Z2.876 I0 J1.413
X-18.5 Y-7.413 Z2.771 I0 J-1.413
X-18.5 Y-4.587 Z2.667 I0 J1.413
X-18.5 Y-7.413 Z2.562 I0 J-1.413
X-18.5 Y-4.587 Z2.457 I0 J1.413
X-18.5 Y-7.413 Z2.352 I0 J-1.413
X-18.5 Y-4.587 Z2.248 I0 J1.413
X-18.5 Y-7.413 Z2.143 I0 J-1.413
X-18.5 Y-4.587 Z2.038 I0 J1.413
X-18.5 Y-7.413 Z1.933 I0 J-1.413
X-18.5 Y-4.587 Z1.829 I0 J1.413
X-18.5 Y-7.413 Z1.724 I0 J-1.413
X-18.5 Y-4.587 Z1.619 I0 J1.413
X-18.5 Y-7.413 Z1.514 I0 J-1.413
X-18.5 Y-4.587 Z1.409 I0 J1.413
X-18.5 Y-7.413 Z1.305 I0 J-1.413
X-18.5 Y-4.587 Z1.2 I0 J1.413
X-18.5 Y-7.413 Z1.095 I0 J-1.413
X-18.5 Y-4.587 Z0.99 I0 J1.413
X-18.5 Y-7.413 Z0.886 I0 J-1.413
X-18.5 Y-4.587 Z0.781 I0 J1.413
X-18.5 Y-7.413 Z0.676 I0 J-1.413
X-18.5 Y-4.587 Z0.571 I0 J1.413
X-18.5 Y-7.413 Z0.467 I0 J-1.413
X-18.5 Y-4.587 Z0.362 I0 J1.413
X-18.5 Y-7.413 Z0.257 I0 J-1.413
X-18.5 Y-4.587 Z0.152 I0 J1.413
X-18.5 Y-7.413 Z0.048 I0 J-1.413
X-17.102 Y-6.203 Z0 I0 J1.413
X-19.898 Y-5.797 I-1.398 J0.203
X-17.102 Y-6.203 I1.398 J-0.203
X-17.371 Y-5.843 I-0.314 J0.046
G1 X-17.528 Y-5.82
X-17.598 Y-5.81 Z0.008
X-17.664 Y-5.8 Z0.031
X-17.724 Y-5.792 Z0.069
X-17.774 Y-5.784 Z0.12
X-17.811 Y-5.779 Z0.18
X-17.834 Y-5.776 Z0.247
X-17.842 Y-5.775 Z0.317
G0 Z18.1
X-30.683 Y-5.381
Z12
G1 Z10.318 F500
G19 G3 Y-5.064 Z10 J0.318 K0
G1 Y-4.905
G17 G3 X-31 Y-4.588 I-0.317 J0
X-31 Y-7.412 Z9.895 I0 J-1.412
X-31 Y-4.588 Z9.79 I0 J1.412
X-31 Y-7.412 Z9.686 I0 J-1.412
X-31 Y-4.588 Z9.581 I0 J1.412
X-31 Y-7.412 Z9.476 I0 J-1.412
X-31 Y-4.588 Z9.371 I0 J1.412
X-31 Y-7.412 Z9.267 I0 J-1.412
X-31 Y-4.588 Z9.162 I0 J1.412
X-31 Y-7.412 Z9.057 I0 J-1.412
X-31 Y-4.588 Z8.952 I0 J1.412
X-31 Y-7.412 Z8.848 I0 J-1.412
X-31 Y-4.588 Z8.743 I0 J1.412
X-31 Y-7.412 Z8.638 I0 J-1.412
X-31 Y-4.588 Z8.533 I0 J1.412
X-31 Y-7.413 Z8.429 I0 J-1.412
X-31 Y-4.587 Z8.324 I0 J1.413
X-31 Y-7.413 Z8.219 I0 J-1.413
X-31 Y-4.587 Z8.114 I0 J1.413
X-31 Y-7.413 Z8.01 I0 J-1.413
X-31 Y-4.587 Z7.905 I0 J1.413
X-31 Y-7.413 Z7.8 I0 J-1.413
X-31 Y-4.587 Z7.695 I0 J1.413
X-31 Y-7.413 Z7.59 I0 J-1.413
X-31 Y-4.587 Z7.486 I0 J1.413
X-31 Y-7.413 Z7.381 I0 J-1.413
X-31 Y-4.587 Z7.276 I0 J1.413
X-31 Y-7.413 Z7.171 I0 J-1.413
X-31 Y-4.587 Z7.067 I0 J1.413
X-31 Y-7.413 Z6.962 I0 J-1.413
X-31 Y-4.587 Z6.857 I0 J1.413
X-31 Y-7.413 Z6.752 I0 J-1.413
X-31 Y-4.587 Z6.648 I0 J1.413
X-31 Y-7.413 Z6.543 I0 J-1.413
X-31 Y-4.587 Z6.438 I0 J1.413
X-31 Y-7.413 Z6.333 I0 J-1.413
X-31 Y-4.587 Z6.229 I0 J1.413
X-31 Y-7.413 Z6.124 I0 J-1.413
X-31 Y-4.587 Z6.019 I0 J1.413
X-31 Y-7.413 Z5.914 I0 J-1.413
X-31 Y-4.587 Z5.81 I0 J1.413
X-31 Y-7.413 Z5.705 I0 J-1.413
X-31 Y-4.587 Z5.6 I0 J1.413
X-31 Y-7.413 Z5.495 I0 J-1.413
X-31 Y-4.587 Z5.39 I0 J1.413
X-31 Y-7.413 Z5.286 I0 J-1.413
X-31 Y-4.587 Z5.181 I0 J1.413
X-31 Y-7.413 Z5.076 I0 J-1.413
X-31 Y-4.587 Z4.971 I0 J1.413
X-31 Y-7.413 Z4.867 I0 J-1.413
X-31 Y-4.587 Z4.762 I0 J1.413
X-31 Y-7.413 Z4.657 I0 J-1.413
X-31 Y-4.587 Z4.552 I0 J1.413
X-31 Y-7.413 Z4.448 I0 J-1.413
X-31 Y-4.587 Z4.343 I0 J1.413
X-31 Y-7.413 Z4.238 I0 J-1.413
X-31 Y-4.587 Z4.133 I0 J1.413
X-31 Y-7.413 Z4.029 I0 J-1.413
X-31 Y-4.587 Z3.924 I0 J1.413
X-31 Y-7.413 Z3.819 I0 J-1.413
X-31 Y-4.587 Z3.714 I0 J1.413
X-31 Y-7.413 Z3.609 I0 J-1.413
X-31 Y-4.587 Z3.505 I0 J1.413
X-31 Y-7.413 Z3.4 I0 J-1.413
X-31 Y-4.587 Z3.295 I0 J1.413
X-31 Y-7.413 Z3.19 I0 J-1.413
X-31 Y-4.587 Z3.086 I0 J1.413
X-31 Y-7.413 Z2.981 I0 J-1.413
X-31 Y-4.587 Z2.876 I0 J1.413
X-31 Y-7.413 Z2.771 I0 J-1.413
X-31 Y-4.587 Z2.667 I0 J1.413
X-31 Y-7.413 Z2.562 I0 J-1.413
X-31 Y-4.587 Z2.457 I0 J1.413
X-31 Y-7.413 Z2.352 I0 J-1.413
X-31 Y-4.587 Z2.248 I0 J1.413
X-31 Y-7.413 Z2.143 I0 J-1.413
X-31 Y-4.587 Z2.038 I0 J1.413
X-31 Y-7.413 Z1.933 I0 J-1.413
X-31 Y-4.587 Z1.829 I0 J1.413
X-31 Y-7.413 Z1.724 I0 J-1.413
X-31 Y-4.587 Z1.619 I0 J1.413
X-31 Y-7.413 Z1.514 I0 J-1.413
X-31 Y-4.587 Z1.409 I0 J1.413
X-31 Y-7.413 Z1.305 I0 J-1.413
X-31 Y-4.587 Z1.2 I0 J1.413
X-31 Y-7.413 Z1.095 I0 J-1.413
X-31 Y-4.587 Z0.99 I0 J1.413
X-31 Y-7.413 Z0.886 I0 J-1.413
X-31 Y-4.587 Z0.781 I0 J1.413
X-31 Y-7.413 Z0.676 I0 J-1.413
X-31 Y-4.587 Z0.571 I0 J1.413
X-31 Y-7.413 Z0.467 I0 J-1.413
X-31 Y-4.587 Z0.362 I0 J1.413
X-31 Y-7.413 Z0.257 I0 J-1.413
X-31 Y-4.587 Z0.152 I0 J1.413
X-31 Y-7.413 Z0.048 I0 J-1.413
X-29.602 Y-6.203 Z0 I0 J1.413
X-32.398 Y-5.797 I-1.398 J0.203
X-29.602 Y-6.203 I1.398 J-0.203
X-29.871 Y-5.843 I-0.314 J0.046
G1 X-30.028 Y-5.82
X-30.098 Y-5.81 Z0.008
X-30.164 Y-5.8 Z0.031
X-30.224 Y-5.792 Z0.069
X-30.274 Y-5.784 Z0.12
X-30.311 Y-5.779 Z0.18
X-30.334 Y-5.776 Z0.247
X-30.342 Y-5.775 Z0.317
G0 Z18.1
X-43.182 Y-5.381
Z12
G1 Z10.318 F500
G19 G3 Y-5.064 Z10 J0.318 K0
G1 Y-4.905
G17 G3 X-43.5 Y-4.588 I-0.318 J0
X-43.5 Y-7.412 Z9.895 I0 J-1.412
X-43.5 Y-4.588 Z9.79 I0 J1.412
X-43.5 Y-7.412 Z9.686 I0 J-1.412
X-43.5 Y-4.588 Z9.581 I0 J1.412
X-43.5 Y-7.412 Z9.476 I0 J-1.412
X-43.5 Y-4.588 Z9.371 I0 J1.412
X-43.5 Y-7.412 Z9.267 I0 J-1.412
X-43.5 Y-4.588 Z9.162 I0 J1.412
X-43.5 Y-7.412 Z9.057 I0 J-1.412
X-43.5 Y-4.588 Z8.952 I0 J1.412
X-43.5 Y-7.412 Z8.848 I0 J-1.412
X-43.5 Y-4.588 Z8.743 I0 J1.412
X-43.5 Y-7.412 Z8.638 I0 J-1.412
X-43.5 Y-4.588 Z8.533 I0 J1.412
X-43.5 Y-7.412 Z8.429 I0 J-1.412
X-43.5 Y-4.588 Z8.324 I0 J1.412
X-43.5 Y-7.412 Z8.219 I0 J-1.412
X-43.5 Y-4.588 Z8.114 I0 J1.412
X-43.5 Y-7.412 Z8.01 I0 J-1.412
X-43.5 Y-4.588 Z7.905 I0 J1.412
X-43.5 Y-7.412 Z7.8 I0 J-1.412
X-43.5 Y-4.588 Z7.695 I0 J1.412
X-43.5 Y-7.412 Z7.59 I0 J-1.412
X-43.5 Y-4.588 Z7.486 I0 J1.412
X-43.5 Y-7.412 Z7.381 I0 J-1.412
X-43.5 Y-4.588 Z7.276 I0 J1.412
X-43.5 Y-7.412 Z7.171 I0 J-1.412
X-43.5 Y-4.588 Z7.067 I0 J1.412
X-43.5 Y-7.412 Z6.962 I0 J-1.412
X-43.5 Y-4.588 Z6.857 I0 J1.412
X-43.5 Y-7.412 Z6.752 I0 J-1.412
X-43.5 Y-4.588 Z6.648 I0 J1.412
X-43.5 Y-7.412 Z6.543 I0 J-1.412
X-43.5 Y-4.588 Z6.438 I0 J1.412
X-43.5 Y-7.412 Z6.333 I0 J-1.412
X-43.5 Y-4.588 Z6.229 I0 J1.412
X-43.5 Y-7.412 Z6.124 I0 J-1.412
X-43.5 Y-4.588 Z6.019 I0 J1.412
X-43.5 Y-7.412 Z5.914 I0 J-1.412
X-43.5 Y-4.588 Z5.81 I0 J1.412
X-43.5 Y-7.412 Z5.705 I0 J-1.412
X-43.5 Y-4.588 Z5.6 I0 J1.412
X-43.5 Y-7.412 Z5.495 I0 J-1.412
X-43.5 Y-4.588 Z5.39 I0 J1.412
X-43.5 Y-7.412 Z5.286 I0 J-1.412
X-43.5 Y-4.588 Z5.181 I0 J1.412
X-43.5 Y-7.412 Z5.076 I0 J-1.412
X-43.5 Y-4.588 Z4.971 I0 J1.412
X-43.5 Y-7.412 Z4.867 I0 J-1.412
X-43.5 Y-4.588 Z4.762 I0 J1.412
X-43.5 Y-7.412 Z4.657 I0 J-1.412
X-43.5 Y-4.588 Z4.552 I0 J1.412
X-43.5 Y-7.412 Z4.448 I0 J-1.412
X-43.5 Y-4.588 Z4.343 I0 J1.412
X-43.5 Y-7.412 Z4.238 I0 J-1.412
X-43.5 Y-4.588 Z4.133 I0 J1.412
X-43.5 Y-7.412 Z4.029 I0 J-1.412
X-43.5 Y-4.588 Z3.924 I0 J1.412
X-43.5 Y-7.412 Z3.819 I0 J-1.412
X-43.5 Y-4.588 Z3.714 I0 J1.412
X-43.5 Y-7.412 Z3.609 I0 J-1.412
X-43.5 Y-4.588 Z3.505 I0 J1.412
X-43.5 Y-7.412 Z3.4 I0 J-1.412
X-43.5 Y-4.588 Z3.295 I0 J1.412
X-43.5 Y-7.412 Z3.19 I0 J-1.412
X-43.5 Y-4.588 Z3.086 I0 J1.412
X-43.5 Y-7.412 Z2.981 I0 J-1.412
X-43.5 Y-4.588 Z2.876 I0 J1.412
X-43.5 Y-7.412 Z2.771 I0 J-1.412
X-43.5 Y-4.588 Z2.667 I0 J1.412
X-43.5 Y-7.412 Z2.562 I0 J-1.412
X-43.5 Y-4.588 Z2.457 I0 J1.412
X-43.5 Y-7.412 Z2.352 I0 J-1.412
X-43.5 Y-4.588 Z2.248 I0 J1.412
X-43.5 Y-7.412 Z2.143 I0 J-1.412
X-43.5 Y-4.588 Z2.038 I0 J1.412
X-43.5 Y-7.412 Z1.933 I0 J-1.412
X-43.5 Y-4.588 Z1.829 I0 J1.412
X-43.5 Y-7.412 Z1.724 I0 J-1.412
X-43.5 Y-4.588 Z1.619 I0 J1.412
X-43.5 Y-7.412 Z1.514 I0 J-1.412
X-43.5 Y-4.588 Z1.409 I0 J1.412
X-43.5 Y-7.412 Z1.305 I0 J-1.412
X-43.5 Y-4.588 Z1.2 I0 J1.412
X-43.5 Y-7.412 Z1.095 I0 J-1.412
X-43.5 Y-4.588 Z0.99 I0 J1.412
X-43.5 Y-7.412 Z0.886 I0 J-1.412
X-43.5 Y-4.588 Z0.781 I0 J1.412
X-43.5 Y-7.412 Z0.676 I0 J-1.412
X-43.5 Y-4.588 Z0.571 I0 J1.412
X-43.5 Y-7.412 Z0.467 I0 J-1.412
X-43.5 Y-4.588 Z0.362 I0 J1.412
X-43.5 Y-7.412 Z0.257 I0 J-1.412
X-43.5 Y-4.588 Z0.152 I0 J1.412
X-43.5 Y-7.412 Z0.048 I0 J-1.412
X-42.102 Y-6.203 Z0 I0 J1.412
X-44.898 Y-5.797 I-1.398 J0.203
X-42.102 Y-6.203 I1.398 J-0.203
X-42.371 Y-5.843 I-0.314 J0.046
G1 X-42.528 Y-5.82
X-42.598 Y-5.81 Z0.008
X-42.664 Y-5.8 Z0.031
X-42.724 Y-5.792 Z0.069
X-42.774 Y-5.784 Z0.12
X-42.811 Y-5.779 Z0.18
X-42.834 Y-5.776 Z0.247
X-42.842 Y-5.775 Z0.317
G0 Z18.1
X-55.682 Y-5.381
Z12
G1 Z10.318 F500
G19 G3 Y-5.064 Z10 J0.318 K0
G1 Y-4.905
G17 G3 X-56 Y-4.588 I-0.318 J0
X-56 Y-7.412 Z9.895 I0 J-1.412
X-56 Y-4.588 Z9.79 I0 J1.412
X-56 Y-7.412 Z9.686 I0 J-1.412
X-56 Y-4.588 Z9.581 I0 J1.412
X-56 Y-7.412 Z9.476 I0 J-1.412
X-56 Y-4.588 Z9.371 I0 J1.412
X-56 Y-7.412 Z9.267 I0 J-1.412
X-56 Y-4.588 Z9.162 I0 J1.412
X-56 Y-7.412 Z9.057 I0 J-1.412
X-56 Y-4.588 Z8.952 I0 J1.412
X-56 Y-7.412 Z8.848 I0 J-1.412
X-56 Y-4.588 Z8.743 I0 J1.412
X-56 Y-7.412 Z8.638 I0 J-1.412
X-56 Y-4.588 Z8.533 I0 J1.412
X-56 Y-7.412 Z8.429 I0 J-1.412
X-56 Y-4.588 Z8.324 I0 J1.412
X-56 Y-7.412 Z8.219 I0 J-1.412
X-56 Y-4.588 Z8.114 I0 J1.412
X-56 Y-7.412 Z8.01 I0 J-1.412
X-56 Y-4.588 Z7.905 I0 J1.412
X-56 Y-7.412 Z7.8 I0 J-1.412
X-56 Y-4.588 Z7.695 I0 J1.412
X-56 Y-7.412 Z7.59 I0 J-1.412
X-56 Y-4.588 Z7.486 I0 J1.412
X-56 Y-7.412 Z7.381 I0 J-1.412
X-56 Y-4.588 Z7.276 I0 J1.412
X-56 Y-7.412 Z7.171 I0 J-1.412
X-56 Y-4.588 Z7.067 I0 J1.412
X-56 Y-7.412 Z6.962 I0 J-1.412
X-56 Y-4.588 Z6.857 I0 J1.412
X-56 Y-7.412 Z6.752 I0 J-1.412
X-56 Y-4.588 Z6.648 I0 J1.412
X-56 Y-7.412 Z6.543 I0 J-1.412
X-56 Y-4.588 Z6.438 I0 J1.412
X-56 Y-7.412 Z6.333 I0 J-1.412
X-56 Y-4.588 Z6.229 I0 J1.412
X-56 Y-7.412 Z6.124 I0 J-1.412
X-56 Y-4.588 Z6.019 I0 J1.412
X-56 Y-7.412 Z5.914 I0 J-1.412
X-56 Y-4.588 Z5.81 I0 J1.412
X-56 Y-7.412 Z5.705 I0 J-1.412
X-56 Y-4.588 Z5.6 I0 J1.412
X-56 Y-7.412 Z5.495 I0 J-1.412
X-56 Y-4.588 Z5.39 I0 J1.412
X-56 Y-7.412 Z5.286 I0 J-1.412
X-56 Y-4.588 Z5.181 I0 J1.412
X-56 Y-7.412 Z5.076 I0 J-1.412
X-56 Y-4.588 Z4.971 I0 J1.412
X-56 Y-7.412 Z4.867 I0 J-1.412
X-56 Y-4.588 Z4.762 I0 J1.412
X-56 Y-7.412 Z4.657 I0 J-1.412
X-56 Y-4.588 Z4.552 I0 J1.412
X-56 Y-7.412 Z4.448 I0 J-1.412
X-56 Y-4.588 Z4.343 I0 J1.412
X-56 Y-7.412 Z4.238 I0 J-1.412
X-56 Y-4.588 Z4.133 I0 J1.412
X-56 Y-7.412 Z4.029 I0 J-1.412
X-56 Y-4.588 Z3.924 I0 J1.412
X-56 Y-7.412 Z3.819 I0 J-1.412
X-56 Y-4.588 Z3.714 I0 J1.412
X-56 Y-7.412 Z3.609 I0 J-1.412
X-56 Y-4.588 Z3.505 I0 J1.412
X-56 Y-7.412 Z3.4 I0 J-1.412
X-56 Y-4.588 Z3.295 I0 J1.412
X-56 Y-7.412 Z3.19 I0 J-1.412
X-56 Y-4.588 Z3.086 I0 J1.412
X-56 Y-7.412 Z2.981 I0 J-1.412
X-56 Y-4.588 Z2.876 I0 J1.412
X-56 Y-7.412 Z2.771 I0 J-1.412
X-56 Y-4.588 Z2.667 I0 J1.412
X-56 Y-7.412 Z2.562 I0 J-1.412
X-56 Y-4.588 Z2.457 I0 J1.412
X-56 Y-7.412 Z2.352 I0 J-1.412
X-56 Y-4.588 Z2.248 I0 J1.412
X-56 Y-7.412 Z2.143 I0 J-1.412
X-56 Y-4.588 Z2.038 I0 J1.412
X-56 Y-7.412 Z1.933 I0 J-1.412
X-56 Y-4.588 Z1.829 I0 J1.412
X-56 Y-7.412 Z1.724 I0 J-1.412
X-56 Y-4.588 Z1.619 I0 J1.412
X-56 Y-7.412 Z1.514 I0 J-1.412
X-56 Y-4.588 Z1.409 I0 J1.412
X-56 Y-7.412 Z1.305 I0 J-1.412
X-56 Y-4.588 Z1.2 I0 J1.412
X-56 Y-7.412 Z1.095 I0 J-1.412
X-56 Y-4.588 Z0.99 I0 J1.412
X-56 Y-7.412 Z0.886 I0 J-1.412
X-56 Y-4.588 Z0.781 I0 J1.412
X-56 Y-7.412 Z0.676 I0 J-1.412
X-56 Y-4.588 Z0.571 I0 J1.412
X-56 Y-7.412 Z0.467 I0 J-1.412
X-56 Y-4.588 Z0.362 I0 J1.412
X-56 Y-7.412 Z0.257 I0 J-1.412
X-56 Y-4.588 Z0.152 I0 J1.412
X-56 Y-7.412 Z0.048 I0 J-1.412
X-54.602 Y-6.203 Z0 I0 J1.412
X-57.398 Y-5.797 I-1.398 J0.203
X-54.602 Y-6.203 I1.398 J-0.203
X-54.871 Y-5.843 I-0.314 J0.046
G1 X-55.028 Y-5.82
X-55.098 Y-5.81 Z0.008
X-55.164 Y-5.8 Z0.031
X-55.224 Y-5.792 Z0.069
X-55.274 Y-5.784 Z0.12
X-55.311 Y-5.779 Z0.18
X-55.334 Y-5.776 Z0.247
X-55.342 Y-5.775 Z0.317
G0 Z18.1
X-68.183 Y-5.381
Z12
G1 Z10.318 F500
G19 G3 Y-5.064 Z10 J0.318 K0
G1 Y-4.905
G17 G3 X-68.5 Y-4.588 I-0.317 J0
X-68.5 Y-7.412 Z9.895 I0 J-1.412
X-68.5 Y-4.588 Z9.79 I0 J1.412
X-68.5 Y-7.412 Z9.686 I0 J-1.412
X-68.5 Y-4.588 Z9.581 I0 J1.412
X-68.5 Y-7.412 Z9.476 I0 J-1.412
X-68.5 Y-4.588 Z9.371 I0 J1.412
X-68.5 Y-7.412 Z9.267 I0 J-1.412
X-68.5 Y-4.588 Z9.162 I0 J1.412
X-68.5 Y-7.412 Z9.057 I0 J-1.412
X-68.5 Y-4.588 Z8.952 I0 J1.412
X-68.5 Y-7.412 Z8.848 I0 J-1.412
X-68.5 Y-4.588 Z8.743 I0 J1.412
X-68.5 Y-7.412 Z8.638 I0 J-1.412
X-68.5 Y-4.588 Z8.533 I0 J1.412
X-68.5 Y-7.412 Z8.429 I0 J-1.412
X-68.5 Y-4.588 Z8.324 I0 J1.412
X-68.5 Y-7.412 Z8.219 I0 J-1.412
X-68.5 Y-4.588 Z8.114 I0 J1.412
X-68.5 Y-7.412 Z8.01 I0 J-1.412
X-68.5 Y-4.588 Z7.905 I0 J1.412
X-68.5 Y-7.412 Z7.8 I0 J-1.412
X-68.5 Y-4.588 Z7.695 I0 J1.412
X-68.5 Y-7.412 Z7.59 I0 J-1.412
X-68.5 Y-4.588 Z7.486 I0 J1.412
X-68.5 Y-7.412 Z7.381 I0 J-1.412
X-68.5 Y-4.588 Z7.276 I0 J1.412
X-68.5 Y-7.412 Z7.171 I0 J-1.412
X-68.5 Y-4.588 Z7.067 I0 J1.412
X-68.5 Y-7.412 Z6.962 I0 J-1.412
X-68.5 Y-4.588 Z6.857 I0 J1.412
X-68.5 Y-7.412 Z6.752 I0 J-1.412
X-68.5 Y-4.588 Z6.648 I0 J1.412
X-68.5 Y-7.412 Z6.543 I0 J-1.412
X-68.5 Y-4.588 Z6.438 I0 J1.412
X-68.5 Y-7.412 Z6.333 I0 J-1.412
X-68.5 Y-4.588 Z6.229 I0 J1.412
X-68.5 Y-7.412 Z6.124 I0 J-1.412
X-68.5 Y-4.588 Z6.019 I0 J1.412
X-68.5 Y-7.412 Z5.914 I0 J-1.412
X-68.5 Y-4.588 Z5.81 I0 J1.412
X-68.5 Y-7.412 Z5.705 I0 J-1.412
X-68.5 Y-4.588 Z5.6 I0 J1.412
X-68.5 Y-7.412 Z5.495 I0 J-1.412
X-68.5 Y-4.588 Z5.39 I0 J1.412
X-68.5 Y-7.412 Z5.286 I0 J-1.412
X-68.5 Y-4.588 Z5.181 I0 J1.412
X-68.5 Y-7.412 Z5.076 I0 J-1.412
X-68.5 Y-4.588 Z4.971 I0 J1.412
X-68.5 Y-7.412 Z4.867 I0 J-1.412
X-68.5 Y-4.588 Z4.762 I0 J1.412
X-68.5 Y-7.412 Z4.657 I0 J-1.412
X-68.5 Y-4.588 Z4.552 I0 J1.412
X-68.5 Y-7.412 Z4.448 I0 J-1.412
X-68.5 Y-4.588 Z4.343 I0 J1.412
X-68.5 Y-7.412 Z4.238 I0 J-1.412
X-68.5 Y-4.588 Z4.133 I0 J1.412
X-68.5 Y-7.412 Z4.029 I0 J-1.412
X-68.5 Y-4.588 Z3.924 I0 J1.412
X-68.5 Y-7.412 Z3.819 I0 J-1.412
X-68.5 Y-4.588 Z3.714 I0 J1.412
X-68.5 Y-7.412 Z3.609 I0 J-1.412
X-68.5 Y-4.588 Z3.505 I0 J1.412
X-68.5 Y-7.412 Z3.4 I0 J-1.412
X-68.5 Y-4.588 Z3.295 I0 J1.412
X-68.5 Y-7.412 Z3.19 I0 J-1.412
X-68.5 Y-4.588 Z3.086 I0 J1.412
X-68.5 Y-7.412 Z2.981 I0 J-1.412
X-68.5 Y-4.588 Z2.876 I0 J1.412
X-68.5 Y-7.412 Z2.771 I0 J-1.412
X-68.5 Y-4.588 Z2.667 I0 J1.412
X-68.5 Y-7.412 Z2.562 I0 J-1.412
X-68.5 Y-4.588 Z2.457 I0 J1.412
X-68.5 Y-7.412 Z2.352 I0 J-1.412
X-68.5 Y-4.588 Z2.248 I0 J1.412
X-68.5 Y-7.412 Z2.143 I0 J-1.412
X-68.5 Y-4.588 Z2.038 I0 J1.412
X-68.5 Y-7.412 Z1.933 I0 J-1.412
X-68.5 Y-4.588 Z1.829 I0 J1.412
X-68.5 Y-7.412 Z1.724 I0 J-1.412
X-68.5 Y-4.588 Z1.619 I0 J1.412
X-68.5 Y-7.412 Z1.514 I0 J-1.412
X-68.5 Y-4.588 Z1.409 I0 J1.412
X-68.5 Y-7.412 Z1.305 I0 J-1.412
X-68.5 Y-4.588 Z1.2 I0 J1.412
X-68.5 Y-7.412 Z1.095 I0 J-1.412
X-68.5 Y-4.588 Z0.99 I0 J1.412
X-68.5 Y-7.412 Z0.886 I0 J-1.412
X-68.5 Y-4.588 Z0.781 I0 J1.412
X-68.5 Y-7.412 Z0.676 I0 J-1.412
X-68.5 Y-4.588 Z0.571 I0 J1.412
X-68.5 Y-7.412 Z0.467 I0 J-1.412
X-68.5 Y-4.588 Z0.362 I0 J1.412
X-68.5 Y-7.412 Z0.257 I0 J-1.412
X-68.5 Y-4.588 Z0.152 I0 J1.412
X-68.5 Y-7.412 Z0.048 I0 J-1.412
X-67.102 Y-6.203 Z0 I0 J1.412
X-69.898 Y-5.797 I-1.398 J0.203
X-67.102 Y-6.203 I1.398 J-0.203
X-67.371 Y-5.843 I-0.314 J0.046
G1 X-67.528 Y-5.82
X-67.598 Y-5.81 Z0.008
X-67.664 Y-5.8 Z0.031
X-67.724 Y-5.792 Z0.069
X-67.774 Y-5.784 Z0.12
X-67.811 Y-5.779 Z0.18
X-67.834 Y-5.776 Z0.247
X-67.842 Y-5.775 Z0.317
G0 Z18.1
X-80.683 Y-5.381
Z12
G1 Z10.318 F500
G19 G3 Y-5.064 Z10 J0.318 K0
G1 Y-4.905
G17 G3 X-81 Y-4.588 I-0.317 J0
X-81 Y-7.412 Z9.895 I0 J-1.412
X-81 Y-4.588 Z9.79 I0 J1.412
X-81 Y-7.412 Z9.686 I0 J-1.412
X-81 Y-4.588 Z9.581 I0 J1.412
X-81 Y-7.412 Z9.476 I0 J-1.412
X-81 Y-4.588 Z9.371 I0 J1.412
X-81 Y-7.412 Z9.267 I0 J-1.412
X-81 Y-4.588 Z9.162 I0 J1.412
X-81 Y-7.412 Z9.057 I0 J-1.412
X-81 Y-4.588 Z8.952 I0 J1.412
X-81 Y-7.412 Z8.848 I0 J-1.412
X-81 Y-4.588 Z8.743 I0 J1.412
X-81 Y-7.412 Z8.638 I0 J-1.412
X-81 Y-4.588 Z8.533 I0 J1.412
X-81 Y-7.412 Z8.429 I0 J-1.412
X-81 Y-4.588 Z8.324 I0 J1.412
X-81 Y-7.412 Z8.219 I0 J-1.412
X-81 Y-4.588 Z8.114 I0 J1.412
X-81 Y-7.412 Z8.01 I0 J-1.412
X-81 Y-4.588 Z7.905 I0 J1.412
X-81 Y-7.412 Z7.8 I0 J-1.412
X-81 Y-4.588 Z7.695 I0 J1.412
X-81 Y-7.412 Z7.59 I0 J-1.412
X-81 Y-4.588 Z7.486 I0 J1.412
X-81 Y-7.412 Z7.381 I0 J-1.412
X-81 Y-4.588 Z7.276 I0 J1.412
X-81 Y-7.412 Z7.171 I0 J-1.412
X-81 Y-4.588 Z7.067 I0 J1.412
X-81 Y-7.412 Z6.962 I0 J-1.412
X-81 Y-4.588 Z6.857 I0 J1.412
X-81 Y-7.412 Z6.752 I0 J-1.412
X-81 Y-4.588 Z6.648 I0 J1.412
X-81 Y-7.412 Z6.543 I0 J-1.412
X-81 Y-4.588 Z6.438 I0 J1.412
X-81 Y-7.412 Z6.333 I0 J-1.412
X-81 Y-4.588 Z6.229 I0 J1.412
X-81 Y-7.412 Z6.124 I0 J-1.412
X-81 Y-4.588 Z6.019 I0 J1.412
X-81 Y-7.412 Z5.914 I0 J-1.412
X-81 Y-4.588 Z5.81 I0 J1.412
X-81 Y-7.412 Z5.705 I0 J-1.412
X-81 Y-4.588 Z5.6 I0 J1.412
X-81 Y-7.412 Z5.495 I0 J-1.412
X-81 Y-4.588 Z5.39 I0 J1.412
X-81 Y-7.412 Z5.286 I0 J-1.412
X-81 Y-4.588 Z5.181 I0 J1.412
X-81 Y-7.412 Z5.076 I0 J-1.412
X-81 Y-4.588 Z4.971 I0 J1.412
X-81 Y-7.412 Z4.867 I0 J-1.412
X-81 Y-4.588 Z4.762 I0 J1.412
X-81 Y-7.412 Z4.657 I0 J-1.412
X-81 Y-4.588 Z4.552 I0 J1.412
X-81 Y-7.412 Z4.448 I0 J-1.412
X-81 Y-4.588 Z4.343 I0 J1.412
X-81 Y-7.412 Z4.238 I0 J-1.412
X-81 Y-4.588 Z4.133 I0 J1.412
X-81 Y-7.412 Z4.029 I0 J-1.412
X-81 Y-4.588 Z3.924 I0 J1.412
X-81 Y-7.412 Z3.819 I0 J-1.412
X-81 Y-4.588 Z3.714 I0 J1.412
X-81 Y-7.412 Z3.609 I0 J-1.412
X-81 Y-4.588 Z3.505 I0 J1.412
X-81 Y-7.412 Z3.4 I0 J-1.412
X-81 Y-4.588 Z3.295 I0 J1.412
X-81 Y-7.412 Z3.19 I0 J-1.412
X-81 Y-4.588 Z3.086 I0 J1.412
X-81 Y-7.412 Z2.981 I0 J-1.412
X-81 Y-4.588 Z2.876 I0 J1.412
X-81 Y-7.412 Z2.771 I0 J-1.412
X-81 Y-4.588 Z2.667 I0 J1.412
X-81 Y-7.412 Z2.562 I0 J-1.412
X-81 Y-4.588 Z2.457 I0 J1.412
X-81 Y-7.412 Z2.352 I0 J-1.412
X-81 Y-4.588 Z2.248 I0 J1.412
X-81 Y-7.412 Z2.143 I0 J-1.412
X-81 Y-4.588 Z2.038 I0 J1.412
X-81 Y-7.412 Z1.933 I0 J-1.412
X-81 Y-4.588 Z1.829 I0 J1.412
X-81 Y-7.412 Z1.724 I0 J-1.412
X-81 Y-4.588 Z1.619 I0 J1.412
X-81 Y-7.412 Z1.514 I0 J-1.412
X-81 Y-4.588 Z1.409 I0 J1.412
X-81 Y-7.412 Z1.305 I0 J-1.412
X-81 Y-4.588 Z1.2 I0 J1.412
X-81 Y-7.412 Z1.095 I0 J-1.412
X-81 Y-4.588 Z0.99 I0 J1.412
X-81 Y-7.412 Z0.886 I0 J-1.412
X-81 Y-4.588 Z0.781 I0 J1.412
X-81 Y-7.412 Z0.676 I0 J-1.412
X-81 Y-4.588 Z0.571 I0 J1.412
X-81 Y-7.412 Z0.467 I0 J-1.412
X-81 Y-4.588 Z0.362 I0 J1.412
X-81 Y-7.412 Z0.257 I0 J-1.412
X-81 Y-4.588 Z0.152 I0 J1.412
X-81 Y-7.412 Z0.048 I0 J-1.412
X-79.602 Y-6.203 Z0 I0 J1.412
X-82.398 Y-5.797 I-1.398 J0.203
X-79.602 Y-6.203 I1.398 J-0.203
X-79.871 Y-5.843 I-0.314 J0.046
G1 X-80.028 Y-5.82
X-80.098 Y-5.81 Z0.008
X-80.164 Y-5.8 Z0.031
X-80.224 Y-5.792 Z0.069
X-80.274 Y-5.784 Z0.12
X-80.311 Y-5.779 Z0.18
X-80.334 Y-5.776 Z0.247
X-80.342 Y-5.775 Z0.317
G0 Z18.1
X-93.183 Y-5.381
Z12
G1 Z10.318 F500
G19 G3 Y-5.064 Z10 J0.318 K0
G1 Y-4.905
G17 G3 X-93.5 Y-4.588 I-0.317 J0
X-93.5 Y-7.412 Z9.895 I0 J-1.412
X-93.5 Y-4.588 Z9.79 I0 J1.412
X-93.5 Y-7.412 Z9.686 I0 J-1.412
X-93.5 Y-4.588 Z9.581 I0 J1.412
X-93.5 Y-7.412 Z9.476 I0 J-1.412
X-93.5 Y-4.588 Z9.371 I0 J1.412
X-93.5 Y-7.412 Z9.267 I0 J-1.412
X-93.5 Y-4.588 Z9.162 I0 J1.412
X-93.5 Y-7.412 Z9.057 I0 J-1.412
X-93.5 Y-4.588 Z8.952 I0 J1.412
X-93.5 Y-7.412 Z8.848 I0 J-1.412
X-93.5 Y-4.588 Z8.743 I0 J1.412
X-93.5 Y-7.412 Z8.638 I0 J-1.412
X-93.5 Y-4.588 Z8.533 I0 J1.412
X-93.5 Y-7.412 Z8.429 I0 J-1.412
X-93.5 Y-4.588 Z8.324 I0 J1.412
X-93.5 Y-7.412 Z8.219 I0 J-1.412
X-93.5 Y-4.588 Z8.114 I0 J1.412
X-93.5 Y-7.412 Z8.01 I0 J-1.412
X-93.5 Y-4.588 Z7.905 I0 J1.412
X-93.5 Y-7.412 Z7.8 I0 J-1.412
X-93.5 Y-4.588 Z7.695 I0 J1.412
X-93.5 Y-7.412 Z7.59 I0 J-1.412
X-93.5 Y-4.588 Z7.486 I0 J1.412
X-93.5 Y-7.412 Z7.381 I0 J-1.412
X-93.5 Y-4.588 Z7.276 I0 J1.412
X-93.5 Y-7.412 Z7.171 I0 J-1.412
X-93.5 Y-4.588 Z7.067 I0 J1.412
X-93.5 Y-7.412 Z6.962 I0 J-1.412
X-93.5 Y-4.588 Z6.857 I0 J1.412
X-93.5 Y-7.412 Z6.752 I0 J-1.412
X-93.5 Y-4.588 Z6.648 I0 J1.412
X-93.5 Y-7.412 Z6.543 I0 J-1.412
X-93.5 Y-4.588 Z6.438 I0 J1.412
X-93.5 Y-7.412 Z6.333 I0 J-1.412
X-93.5 Y-4.588 Z6.229 I0 J1.412
X-93.5 Y-7.412 Z6.124 I0 J-1.412
X-93.5 Y-4.588 Z6.019 I0 J1.412
X-93.5 Y-7.412 Z5.914 I0 J-1.412
X-93.5 Y-4.588 Z5.81 I0 J1.412
X-93.5 Y-7.412 Z5.705 I0 J-1.412
X-93.5 Y-4.588 Z5.6 I0 J1.412
X-93.5 Y-7.412 Z5.495 I0 J-1.412
X-93.5 Y-4.588 Z5.39 I0 J1.412
X-93.5 Y-7.412 Z5.286 I0 J-1.412
X-93.5 Y-4.588 Z5.181 I0 J1.412
X-93.5 Y-7.412 Z5.076 I0 J-1.412
X-93.5 Y-4.588 Z4.971 I0 J1.412
X-93.5 Y-7.412 Z4.867 I0 J-1.412
X-93.5 Y-4.588 Z4.762 I0 J1.412
X-93.5 Y-7.412 Z4.657 I0 J-1.412
X-93.5 Y-4.588 Z4.552 I0 J1.412
X-93.5 Y-7.412 Z4.448 I0 J-1.412
X-93.5 Y-4.588 Z4.343 I0 J1.412
X-93.5 Y-7.412 Z4.238 I0 J-1.412
X-93.5 Y-4.588 Z4.133 I0 J1.412
X-93.5 Y-7.412 Z4.029 I0 J-1.412
X-93.5 Y-4.588 Z3.924 I0 J1.412
X-93.5 Y-7.412 Z3.819 I0 J-1.412
X-93.5 Y-4.588 Z3.714 I0 J1.412
X-93.5 Y-7.412 Z3.609 I0 J-1.412
X-93.5 Y-4.588 Z3.505 I0 J1.412
X-93.5 Y-7.412 Z3.4 I0 J-1.412
X-93.5 Y-4.588 Z3.295 I0 J1.412
X-93.5 Y-7.412 Z3.19 I0 J-1.412
X-93.5 Y-4.588 Z3.086 I0 J1.412
X-93.5 Y-7.412 Z2.981 I0 J-1.412
X-93.5 Y-4.588 Z2.876 I0 J1.412
X-93.5 Y-7.412 Z2.771 I0 J-1.412
X-93.5 Y-4.588 Z2.667 I0 J1.412
X-93.5 Y-7.412 Z2.562 I0 J-1.412
X-93.5 Y-4.588 Z2.457 I0 J1.412
X-93.5 Y-7.412 Z2.352 I0 J-1.412
X-93.5 Y-4.588 Z2.248 I0 J1.412
X-93.5 Y-7.412 Z2.143 I0 J-1.412
X-93.5 Y-4.588 Z2.038 I0 J1.412
X-93.5 Y-7.412 Z1.933 I0 J-1.412
X-93.5 Y-4.588 Z1.829 I0 J1.412
X-93.5 Y-7.412 Z1.724 I0 J-1.412
X-93.5 Y-4.588 Z1.619 I0 J1.412
X-93.5 Y-7.412 Z1.514 I0 J-1.412
X-93.5 Y-4.588 Z1.409 I0 J1.412
X-93.5 Y-7.412 Z1.305 I0 J-1.412
X-93.5 Y-4.588 Z1.2 I0 J1.412
X-93.5 Y-7.412 Z1.095 I0 J-1.412
X-93.5 Y-4.588 Z0.99 I0 J1.412
X-93.5 Y-7.412 Z0.886 I0 J-1.412
X-93.5 Y-4.588 Z0.781 I0 J1.412
X-93.5 Y-7.412 Z0.676 I0 J-1.412
X-93.5 Y-4.588 Z0.571 I0 J1.412
X-93.5 Y-7.412 Z0.467 I0 J-1.412
X-93.5 Y-4.588 Z0.362 I0 J1.412
X-93.5 Y-7.412 Z0.257 I0 J-1.412
X-93.5 Y-4.588 Z0.152 I0 J1.412
X-93.5 Y-7.412 Z0.048 I0 J-1.412
X-92.102 Y-6.203 Z0 I0 J1.412
X-94.898 Y-5.797 I-1.398 J0.203
X-92.102 Y-6.203 I1.398 J-0.203
X-92.371 Y-5.843 I-0.314 J0.046
G1 X-92.528 Y-5.82
X-92.598 Y-5.81 Z0.008
X-92.664 Y-5.8 Z0.031
X-92.724 Y-5.792 Z0.069
X-92.774 Y-5.784 Z0.12
X-92.811 Y-5.779 Z0.18
X-92.834 Y-5.776 Z0.247
X-92.842 Y-5.775 Z0.317
G0 Z18.1
X-105.683 Y-5.381
Z12
G1 Z10.318 F500
G19 G3 Y-5.064 Z10 J0.318 K0
G1 Y-4.905
G17 G3 X-106 Y-4.588 I-0.317 J0
X-106 Y-7.412 Z9.895 I0 J-1.412
X-106 Y-4.588 Z9.79 I0 J1.412
X-106 Y-7.412 Z9.686 I0 J-1.412
X-106 Y-4.588 Z9.581 I0 J1.412
X-106 Y-7.412 Z9.476 I0 J-1.412
X-106 Y-4.588 Z9.371 I0 J1.412
X-106 Y-7.412 Z9.267 I0 J-1.412
X-106 Y-4.588 Z9.162 I0 J1.412
X-106 Y-7.412 Z9.057 I0 J-1.412
X-106 Y-4.588 Z8.952 I0 J1.412
X-106 Y-7.412 Z8.848 I0 J-1.412
X-106 Y-4.588 Z8.743 I0 J1.412
X-106 Y-7.412 Z8.638 I0 J-1.412
X-106 Y-4.588 Z8.533 I0 J1.412
X-106 Y-7.412 Z8.429 I0 J-1.412
X-106 Y-4.588 Z8.324 I0 J1.412
X-106 Y-7.412 Z8.219 I0 J-1.412
X-106 Y-4.588 Z8.114 I0 J1.412
X-106 Y-7.412 Z8.01 I0 J-1.412
X-106 Y-4.588 Z7.905 I0 J1.412
X-106 Y-7.412 Z7.8 I0 J-1.412
X-106 Y-4.588 Z7.695 I0 J1.412
X-106 Y-7.412 Z7.59 I0 J-1.412
X-106 Y-4.588 Z7.486 I0 J1.412
X-106 Y-7.412 Z7.381 I0 J-1.412
X-106 Y-4.588 Z7.276 I0 J1.412
X-106 Y-7.412 Z7.171 I0 J-1.412
X-106 Y-4.588 Z7.067 I0 J1.412
X-106 Y-7.412 Z6.962 I0 J-1.412
X-106 Y-4.588 Z6.857 I0 J1.412
X-106 Y-7.412 Z6.752 I0 J-1.412
X-106 Y-4.588 Z6.648 I0 J1.412
X-106 Y-7.412 Z6.543 I0 J-1.412
X-106 Y-4.588 Z6.438 I0 J1.412
X-106 Y-7.412 Z6.333 I0 J-1.412
X-106 Y-4.588 Z6.229 I0 J1.412
X-106 Y-7.412 Z6.124 I0 J-1.412
X-106 Y-4.588 Z6.019 I0 J1.412
X-106 Y-7.412 Z5.914 I0 J-1.412
X-106 Y-4.588 Z5.81 I0 J1.412
X-106 Y-7.412 Z5.705 I0 J-1.412
X-106 Y-4.588 Z5.6 I0 J1.412
X-106 Y-7.412 Z5.495 I0 J-1.412
X-106 Y-4.588 Z5.39 I0 J1.412
X-106 Y-7.412 Z5.286 I0 J-1.412
X-106 Y-4.588 Z5.181 I0 J1.412
X-106 Y-7.412 Z5.076 I0 J-1.412
X-106 Y-4.588 Z4.971 I0 J1.412
X-106 Y-7.412 Z4.867 I0 J-1.412
X-106 Y-4.588 Z4.762 I0 J1.412
X-106 Y-7.412 Z4.657 I0 J-1.412
X-106 Y-4.588 Z4.552 I0 J1.412
X-106 Y-7.412 Z4.448 I0 J-1.412
X-106 Y-4.588 Z4.343 I0 J1.412
X-106 Y-7.412 Z4.238 I0 J-1.412
X-106 Y-4.588 Z4.133 I0 J1.412
X-106 Y-7.412 Z4.029 I0 J-1.412
X-106 Y-4.588 Z3.924 I0 J1.412
X-106 Y-7.412 Z3.819 I0 J-1.412
X-106 Y-4.588 Z3.714 I0 J1.412
X-106 Y-7.412 Z3.609 I0 J-1.412
X-106 Y-4.588 Z3.505 I0 J1.412
X-106 Y-7.412 Z3.4 I0 J-1.412
X-106 Y-4.588 Z3.295 I0 J1.412
X-106 Y-7.412 Z3.19 I0 J-1.412
X-106 Y-4.588 Z3.086 I0 J1.412
X-106 Y-7.412 Z2.981 I0 J-1.412
X-106 Y-4.588 Z2.876 I0 J1.412
X-106 Y-7.412 Z2.771 I0 J-1.412
X-106 Y-4.588 Z2.667 I0 J1.412
X-106 Y-7.412 Z2.562 I0 J-1.412
X-106 Y-4.588 Z2.457 I0 J1.412
X-106 Y-7.412 Z2.352 I0 J-1.412
X-106 Y-4.588 Z2.248 I0 J1.412
X-106 Y-7.412 Z2.143 I0 J-1.412
X-106 Y-4.588 Z2.038 I0 J1.412
X-106 Y-7.412 Z1.933 I0 J-1.412
X-106 Y-4.588 Z1.829 I0 J1.412
X-106 Y-7.412 Z1.724 I0 J-1.412
X-106 Y-4.588 Z1.619 I0 J1.412
X-106 Y-7.412 Z1.514 I0 J-1.412
X-106 Y-4.588 Z1.409 I0 J1.412
X-106 Y-7.412 Z1.305 I0 J-1.412
X-106 Y-4.588 Z1.2 I0 J1.412
X-106 Y-7.412 Z1.095 I0 J-1.412
X-106 Y-4.588 Z0.99 I0 J1.412
X-106 Y-7.412 Z0.886 I0 J-1.412
X-106 Y-4.588 Z0.781 I0 J1.412
X-106 Y-7.412 Z0.676 I0 J-1.412
X-106 Y-4.588 Z0.571 I0 J1.412
X-106 Y-7.412 Z0.467 I0 J-1.412
X-106 Y-4.588 Z0.362 I0 J1.412
X-106 Y-7.412 Z0.257 I0 J-1.412
X-106 Y-4.588 Z0.152 I0 J1.412
X-106 Y-7.412 Z0.048 I0 J-1.412
X-104.602 Y-6.203 Z0 I0 J1.412
X-107.398 Y-5.797 I-1.398 J0.203
X-104.602 Y-6.203 I1.398 J-0.203
X-104.871 Y-5.843 I-0.314 J0.046
G1 X-105.028 Y-5.82
X-105.098 Y-5.81 Z0.008
X-105.164 Y-5.8 Z0.031
X-105.224 Y-5.792 Z0.069
X-105.274 Y-5.784 Z0.12
X-105.311 Y-5.779 Z0.18
X-105.334 Y-5.776 Z0.247
X-105.342 Y-5.775 Z0.317
G0 Z18.1
X-93.183 Y-30.381
Z12
G1 Z10.318 F500
G19 G3 Y-30.064 Z10 J0.318 K0
G1 Y-29.905
G17 G3 X-93.5 Y-29.587 I-0.317 J0
X-93.5 Y-32.413 Z9.895 I0 J-1.413
X-93.5 Y-29.587 Z9.79 I0 J1.413
X-93.5 Y-32.413 Z9.686 I0 J-1.413
X-93.5 Y-29.587 Z9.581 I0 J1.413
X-93.5 Y-32.413 Z9.476 I0 J-1.413
X-93.5 Y-29.587 Z9.371 I0 J1.413
X-93.5 Y-32.413 Z9.267 I0 J-1.413
X-93.5 Y-29.587 Z9.162 I0 J1.413
X-93.5 Y-32.413 Z9.057 I0 J-1.413
X-93.5 Y-29.587 Z8.952 I0 J1.413
X-93.5 Y-32.413 Z8.848 I0 J-1.413
X-93.5 Y-29.587 Z8.743 I0 J1.413
X-93.5 Y-32.413 Z8.638 I0 J-1.413
X-93.5 Y-29.587 Z8.533 I0 J1.413
X-93.5 Y-32.413 Z8.429 I0 J-1.413
X-93.5 Y-29.587 Z8.324 I0 J1.413
X-93.5 Y-32.413 Z8.219 I0 J-1.413
X-93.5 Y-29.587 Z8.114 I0 J1.413
X-93.5 Y-32.413 Z8.01 I0 J-1.413
X-93.5 Y-29.587 Z7.905 I0 J1.413
X-93.5 Y-32.412 Z7.8 I0 J-1.413
X-93.5 Y-29.588 Z7.695 I0 J1.412
X-93.5 Y-32.412 Z7.59 I0 J-1.412
X-93.5 Y-29.588 Z7.486 I0 J1.412
X-93.5 Y-32.412 Z7.381 I0 J-1.412
X-93.5 Y-29.588 Z7.276 I0 J1.412
X-93.5 Y-32.412 Z7.171 I0 J-1.412
X-93.5 Y-29.588 Z7.067 I0 J1.412
X-93.5 Y-32.412 Z6.962 I0 J-1.412
X-93.5 Y-29.588 Z6.857 I0 J1.412
X-93.5 Y-32.412 Z6.752 I0 J-1.412
X-93.5 Y-29.588 Z6.648 I0 J1.412
X-93.5 Y-32.412 Z6.543 I0 J-1.412
X-93.5 Y-29.588 Z6.438 I0 J1.412
X-93.5 Y-32.412 Z6.333 I0 J-1.412
X-93.5 Y-29.588 Z6.229 I0 J1.412
X-93.5 Y-32.412 Z6.124 I0 J-1.412
X-93.5 Y-29.588 Z6.019 I0 J1.412
X-93.5 Y-32.412 Z5.914 I0 J-1.412
X-93.5 Y-29.588 Z5.81 I0 J1.412
X-93.5 Y-32.412 Z5.705 I0 J-1.412
X-93.5 Y-29.588 Z5.6 I0 J1.412
X-93.5 Y-32.412 Z5.495 I0 J-1.412
X-93.5 Y-29.588 Z5.39 I0 J1.412
X-93.5 Y-32.412 Z5.286 I0 J-1.412
X-93.5 Y-29.588 Z5.181 I0 J1.412
X-93.5 Y-32.412 Z5.076 I0 J-1.412
X-93.5 Y-29.588 Z4.971 I0 J1.412
X-93.5 Y-32.412 Z4.867 I0 J-1.412
X-93.5 Y-29.588 Z4.762 I0 J1.412
X-93.5 Y-32.412 Z4.657 I0 J-1.412
X-93.5 Y-29.588 Z4.552 I0 J1.412
X-93.5 Y-32.412 Z4.448 I0 J-1.412
X-93.5 Y-29.588 Z4.343 I0 J1.412
X-93.5 Y-32.412 Z4.238 I0 J-1.412
X-93.5 Y-29.588 Z4.133 I0 J1.412
X-93.5 Y-32.412 Z4.029 I0 J-1.412
X-93.5 Y-29.588 Z3.924 I0 J1.412
X-93.5 Y-32.412 Z3.819 I0 J-1.412
X-93.5 Y-29.588 Z3.714 I0 J1.412
X-93.5 Y-32.412 Z3.609 I0 J-1.412
X-93.5 Y-29.588 Z3.505 I0 J1.412
X-93.5 Y-32.412 Z3.4 I0 J-1.412
X-93.5 Y-29.588 Z3.295 I0 J1.412
X-93.5 Y-32.412 Z3.19 I0 J-1.412
X-93.5 Y-29.588 Z3.086 I0 J1.412
X-93.5 Y-32.412 Z2.981 I0 J-1.412
X-93.5 Y-29.588 Z2.876 I0 J1.412
X-93.5 Y-32.412 Z2.771 I0 J-1.412
X-93.5 Y-29.588 Z2.667 I0 J1.412
X-93.5 Y-32.412 Z2.562 I0 J-1.412
X-93.5 Y-29.588 Z2.457 I0 J1.412
X-93.5 Y-32.412 Z2.352 I0 J-1.412
X-93.5 Y-29.588 Z2.248 I0 J1.412
X-93.5 Y-32.412 Z2.143 I0 J-1.412
X-93.5 Y-29.588 Z2.038 I0 J1.412
X-93.5 Y-32.412 Z1.933 I0 J-1.412
X-93.5 Y-29.588 Z1.829 I0 J1.412
X-93.5 Y-32.412 Z1.724 I0 J-1.412
X-93.5 Y-29.588 Z1.619 I0 J1.412
X-93.5 Y-32.412 Z1.514 I0 J-1.412
X-93.5 Y-29.588 Z1.409 I0 J1.412
X-93.5 Y-32.412 Z1.305 I0 J-1.412
X-93.5 Y-29.588 Z1.2 I0 J1.412
X-93.5 Y-32.412 Z1.095 I0 J-1.412
X-93.5 Y-29.588 Z0.99 I0 J1.412
X-93.5 Y-32.412 Z0.886 I0 J-1.412
X-93.5 Y-29.588 Z0.781 I0 J1.412
X-93.5 Y-32.412 Z0.676 I0 J-1.412
X-93.5 Y-29.588 Z0.571 I0 J1.412
X-93.5 Y-32.412 Z0.467 I0 J-1.412
X-93.5 Y-29.588 Z0.362 I0 J1.412
X-93.5 Y-32.412 Z0.257 I0 J-1.412
X-93.5 Y-29.588 Z0.152 I0 J1.412
X-93.5 Y-32.412 Z0.048 I0 J-1.412
X-92.102 Y-31.203 Z0 I0 J1.412
X-94.898 Y-30.797 I-1.398 J0.203
X-92.102 Y-31.203 I1.398 J-0.203
X-92.371 Y-30.843 I-0.314 J0.046
G1 X-92.528 Y-30.82
X-92.598 Y-30.81 Z0.008
X-92.664 Y-30.8 Z0.031
X-92.724 Y-30.792 Z0.069
X-92.774 Y-30.784 Z0.12
X-92.811 Y-30.779 Z0.18
X-92.834 Y-30.776 Z0.247
X-92.842 Y-30.775 Z0.317
G0 Z18.1
X-105.683 Y-30.381
Z12
G1 Z10.318 F500
G19 G3 Y-30.064 Z10 J0.318 K0
G1 Y-29.905
G17 G3 X-106 Y-29.587 I-0.317 J0
X-106 Y-32.413 Z9.895 I0 J-1.413
X-106 Y-29.587 Z9.79 I0 J1.413
X-106 Y-32.413 Z9.686 I0 J-1.413
X-106 Y-29.587 Z9.581 I0 J1.413
X-106 Y-32.413 Z9.476 I0 J-1.413
X-106 Y-29.587 Z9.371 I0 J1.413
X-106 Y-32.413 Z9.267 I0 J-1.413
X-106 Y-29.587 Z9.162 I0 J1.413
X-106 Y-32.413 Z9.057 I0 J-1.413
X-106 Y-29.587 Z8.952 I0 J1.413
X-106 Y-32.413 Z8.848 I0 J-1.413
X-106 Y-29.587 Z8.743 I0 J1.413
X-106 Y-32.413 Z8.638 I0 J-1.413
X-106 Y-29.587 Z8.533 I0 J1.413
X-106 Y-32.413 Z8.429 I0 J-1.413
X-106 Y-29.587 Z8.324 I0 J1.413
X-106 Y-32.413 Z8.219 I0 J-1.413
X-106 Y-29.587 Z8.114 I0 J1.413
X-106 Y-32.413 Z8.01 I0 J-1.413
X-106 Y-29.587 Z7.905 I0 J1.413
X-106 Y-32.412 Z7.8 I0 J-1.413
X-106 Y-29.588 Z7.695 I0 J1.412
X-106 Y-32.412 Z7.59 I0 J-1.412
X-106 Y-29.588 Z7.486 I0 J1.412
X-106 Y-32.412 Z7.381 I0 J-1.412
X-106 Y-29.588 Z7.276 I0 J1.412
X-106 Y-32.412 Z7.171 I0 J-1.412
X-106 Y-29.588 Z7.067 I0 J1.412
X-106 Y-32.412 Z6.962 I0 J-1.412
X-106 Y-29.588 Z6.857 I0 J1.412
X-106 Y-32.412 Z6.752 I0 J-1.412
X-106 Y-29.588 Z6.648 I0 J1.412
X-106 Y-32.412 Z6.543 I0 J-1.412
X-106 Y-29.588 Z6.438 I0 J1.412
X-106 Y-32.412 Z6.333 I0 J-1.412
X-106 Y-29.588 Z6.229 I0 J1.412
X-106 Y-32.412 Z6.124 I0 J-1.412
X-106 Y-29.588 Z6.019 I0 J1.412
X-106 Y-32.412 Z5.914 I0 J-1.412
X-106 Y-29.588 Z5.81 I0 J1.412
X-106 Y-32.412 Z5.705 I0 J-1.412
X-106 Y-29.588 Z5.6 I0 J1.412
X-106 Y-32.412 Z5.495 I0 J-1.412
X-106 Y-29.588 Z5.39 I0 J1.412
X-106 Y-32.412 Z5.286 I0 J-1.412
X-106 Y-29.588 Z5.181 I0 J1.412
X-106 Y-32.412 Z5.076 I0 J-1.412
X-106 Y-29.588 Z4.971 I0 J1.412
X-106 Y-32.412 Z4.867 I0 J-1.412
X-106 Y-29.588 Z4.762 I0 J1.412
X-106 Y-32.412 Z4.657 I0 J-1.412
X-106 Y-29.588 Z4.552 I0 J1.412
X-106 Y-32.412 Z4.448 I0 J-1.412
X-106 Y-29.588 Z4.343 I0 J1.412
X-106 Y-32.412 Z4.238 I0 J-1.412
X-106 Y-29.588 Z4.133 I0 J1.412
X-106 Y-32.412 Z4.029 I0 J-1.412
X-106 Y-29.588 Z3.924 I0 J1.412
X-106 Y-32.412 Z3.819 I0 J-1.412
X-106 Y-29.588 Z3.714 I0 J1.412
X-106 Y-32.412 Z3.609 I0 J-1.412
X-106 Y-29.588 Z3.505 I0 J1.412
X-106 Y-32.412 Z3.4 I0 J-1.412
X-106 Y-29.588 Z3.295 I0 J1.412
X-106 Y-32.412 Z3.19 I0 J-1.412
X-106 Y-29.588 Z3.086 I0 J1.412
X-106 Y-32.412 Z2.981 I0 J-1.412
X-106 Y-29.588 Z2.876 I0 J1.412
X-106 Y-32.412 Z2.771 I0 J-1.412
X-106 Y-29.588 Z2.667 I0 J1.412
X-106 Y-32.412 Z2.562 I0 J-1.412
X-106 Y-29.588 Z2.457 I0 J1.412
X-106 Y-32.412 Z2.352 I0 J-1.412
X-106 Y-29.588 Z2.248 I0 J1.412
X-106 Y-32.412 Z2.143 I0 J-1.412
X-106 Y-29.588 Z2.038 I0 J1.412
X-106 Y-32.412 Z1.933 I0 J-1.412
X-106 Y-29.588 Z1.829 I0 J1.412
X-106 Y-32.412 Z1.724 I0 J-1.412
X-106 Y-29.588 Z1.619 I0 J1.412
X-106 Y-32.412 Z1.514 I0 J-1.412
X-106 Y-29.588 Z1.409 I0 J1.412
X-106 Y-32.412 Z1.305 I0 J-1.412
X-106 Y-29.588 Z1.2 I0 J1.412
X-106 Y-32.412 Z1.095 I0 J-1.412
X-106 Y-29.588 Z0.99 I0 J1.412
X-106 Y-32.412 Z0.886 I0 J-1.412
X-106 Y-29.588 Z0.781 I0 J1.412
X-106 Y-32.412 Z0.676 I0 J-1.412
X-106 Y-29.588 Z0.571 I0 J1.412
X-106 Y-32.412 Z0.467 I0 J-1.412
X-106 Y-29.588 Z0.362 I0 J1.412
X-106 Y-32.412 Z0.257 I0 J-1.412
X-106 Y-29.588 Z0.152 I0 J1.412
X-106 Y-32.412 Z0.048 I0 J-1.412
X-104.602 Y-31.203 Z0 I0 J1.412
X-107.398 Y-30.797 I-1.398 J0.203
X-104.602 Y-31.203 I1.398 J-0.203
X-104.871 Y-30.843 I-0.314 J0.046
G1 X-105.028 Y-30.82
X-105.098 Y-30.81 Z0.008
X-105.164 Y-30.8 Z0.031
X-105.224 Y-30.792 Z0.069
X-105.274 Y-30.784 Z0.12
X-105.311 Y-30.779 Z0.18
X-105.334 Y-30.776 Z0.247
X-105.342 Y-30.775 Z0.317
G0 Z18.1
X-105.683 Y-17.881
Z12
G1 Z10.318 F500
G19 G3 Y-17.564 Z10 J0.318 K0
G1 Y-17.405
G17 G3 X-106 Y-17.087 I-0.317 J0
X-106 Y-19.913 Z9.895 I0 J-1.413
X-106 Y-17.087 Z9.79 I0 J1.413
X-106 Y-19.913 Z9.686 I0 J-1.413
X-106 Y-17.087 Z9.581 I0 J1.413
X-106 Y-19.913 Z9.476 I0 J-1.413
X-106 Y-17.087 Z9.371 I0 J1.413
X-106 Y-19.913 Z9.267 I0 J-1.413
X-106 Y-17.087 Z9.162 I0 J1.413
X-106 Y-19.913 Z9.057 I0 J-1.413
X-106 Y-17.087 Z8.952 I0 J1.413
X-106 Y-19.913 Z8.848 I0 J-1.413
X-106 Y-17.087 Z8.743 I0 J1.413
X-106 Y-19.913 Z8.638 I0 J-1.413
X-106 Y-17.087 Z8.533 I0 J1.413
X-106 Y-19.913 Z8.429 I0 J-1.413
X-106 Y-17.087 Z8.324 I0 J1.413
X-106 Y-19.913 Z8.219 I0 J-1.413
X-106 Y-17.087 Z8.114 I0 J1.413
X-106 Y-19.913 Z8.01 I0 J-1.413
X-106 Y-17.087 Z7.905 I0 J1.413
X-106 Y-19.912 Z7.8 I0 J-1.413
X-106 Y-17.088 Z7.695 I0 J1.412
X-106 Y-19.912 Z7.59 I0 J-1.412
X-106 Y-17.088 Z7.486 I0 J1.412
X-106 Y-19.912 Z7.381 I0 J-1.412
X-106 Y-17.088 Z7.276 I0 J1.412
X-106 Y-19.912 Z7.171 I0 J-1.412
X-106 Y-17.088 Z7.067 I0 J1.412
X-106 Y-19.912 Z6.962 I0 J-1.412
X-106 Y-17.088 Z6.857 I0 J1.412
X-106 Y-19.912 Z6.752 I0 J-1.412
X-106 Y-17.088 Z6.648 I0 J1.412
X-106 Y-19.912 Z6.543 I0 J-1.412
X-106 Y-17.088 Z6.438 I0 J1.412
X-106 Y-19.912 Z6.333 I0 J-1.412
X-106 Y-17.088 Z6.229 I0 J1.412
X-106 Y-19.912 Z6.124 I0 J-1.412
X-106 Y-17.088 Z6.019 I0 J1.412
X-106 Y-19.912 Z5.914 I0 J-1.412
X-106 Y-17.088 Z5.81 I0 J1.412
X-106 Y-19.912 Z5.705 I0 J-1.412
X-106 Y-17.088 Z5.6 I0 J1.412
X-106 Y-19.912 Z5.495 I0 J-1.412
X-106 Y-17.088 Z5.39 I0 J1.412
X-106 Y-19.912 Z5.286 I0 J-1.412
X-106 Y-17.088 Z5.181 I0 J1.412
X-106 Y-19.912 Z5.076 I0 J-1.412
X-106 Y-17.088 Z4.971 I0 J1.412
X-106 Y-19.912 Z4.867 I0 J-1.412
X-106 Y-17.088 Z4.762 I0 J1.412
X-106 Y-19.912 Z4.657 I0 J-1.412
X-106 Y-17.088 Z4.552 I0 J1.412
X-106 Y-19.912 Z4.448 I0 J-1.412
X-106 Y-17.088 Z4.343 I0 J1.412
X-106 Y-19.912 Z4.238 I0 J-1.412
X-106 Y-17.088 Z4.133 I0 J1.412
X-106 Y-19.912 Z4.029 I0 J-1.412
X-106 Y-17.088 Z3.924 I0 J1.412
X-106 Y-19.912 Z3.819 I0 J-1.412
X-106 Y-17.088 Z3.714 I0 J1.412
X-106 Y-19.912 Z3.609 I0 J-1.412
X-106 Y-17.088 Z3.505 I0 J1.412
X-106 Y-19.912 Z3.4 I0 J-1.412
X-106 Y-17.088 Z3.295 I0 J1.412
X-106 Y-19.912 Z3.19 I0 J-1.412
X-106 Y-17.088 Z3.086 I0 J1.412
X-106 Y-19.912 Z2.981 I0 J-1.412
X-106 Y-17.088 Z2.876 I0 J1.412
X-106 Y-19.912 Z2.771 I0 J-1.412
X-106 Y-17.088 Z2.667 I0 J1.412
X-106 Y-19.912 Z2.562 I0 J-1.412
X-106 Y-17.088 Z2.457 I0 J1.412
X-106 Y-19.912 Z2.352 I0 J-1.412
X-106 Y-17.088 Z2.248 I0 J1.412
X-106 Y-19.912 Z2.143 I0 J-1.412
X-106 Y-17.088 Z2.038 I0 J1.412
X-106 Y-19.912 Z1.933 I0 J-1.412
X-106 Y-17.088 Z1.829 I0 J1.412
X-106 Y-19.912 Z1.724 I0 J-1.412
X-106 Y-17.088 Z1.619 I0 J1.412
X-106 Y-19.912 Z1.514 I0 J-1.412
X-106 Y-17.088 Z1.409 I0 J1.412
X-106 Y-19.912 Z1.305 I0 J-1.412
X-106 Y-17.088 Z1.2 I0 J1.412
X-106 Y-19.912 Z1.095 I0 J-1.412
X-106 Y-17.088 Z0.99 I0 J1.412
X-106 Y-19.912 Z0.886 I0 J-1.412
X-106 Y-17.088 Z0.781 I0 J1.412
X-106 Y-19.912 Z0.676 I0 J-1.412
X-106 Y-17.088 Z0.571 I0 J1.412
X-106 Y-19.912 Z0.467 I0 J-1.412
X-106 Y-17.088 Z0.362 I0 J1.412
X-106 Y-19.912 Z0.257 I0 J-1.412
X-106 Y-17.088 Z0.152 I0 J1.412
X-106 Y-19.912 Z0.048 I0 J-1.412
X-104.602 Y-18.703 Z0 I0 J1.412
X-107.398 Y-18.297 I-1.398 J0.203
X-104.602 Y-18.703 I1.398 J-0.203
X-104.871 Y-18.343 I-0.314 J0.046
G1 X-105.028 Y-18.32
X-105.098 Y-18.31 Z0.008
X-105.164 Y-18.3 Z0.031
X-105.224 Y-18.292 Z0.069
X-105.274 Y-18.284 Z0.12
X-105.311 Y-18.279 Z0.18
X-105.334 Y-18.276 Z0.247
X-105.342 Y-18.275 Z0.317
G0 Z18.1
X-93.183 Y-17.881
Z12
G1 Z10.318 F500
G19 G3 Y-17.564 Z10 J0.318 K0
G1 Y-17.405
G17 G3 X-93.5 Y-17.087 I-0.317 J0
X-93.5 Y-19.913 Z9.895 I0 J-1.413
X-93.5 Y-17.087 Z9.79 I0 J1.413
X-93.5 Y-19.913 Z9.686 I0 J-1.413
X-93.5 Y-17.087 Z9.581 I0 J1.413
X-93.5 Y-19.913 Z9.476 I0 J-1.413
X-93.5 Y-17.087 Z9.371 I0 J1.413
X-93.5 Y-19.913 Z9.267 I0 J-1.413
X-93.5 Y-17.087 Z9.162 I0 J1.413
X-93.5 Y-19.913 Z9.057 I0 J-1.413
X-93.5 Y-17.087 Z8.952 I0 J1.413
X-93.5 Y-19.913 Z8.848 I0 J-1.413
X-93.5 Y-17.087 Z8.743 I0 J1.413
X-93.5 Y-19.913 Z8.638 I0 J-1.413
X-93.5 Y-17.087 Z8.533 I0 J1.413
X-93.5 Y-19.913 Z8.429 I0 J-1.413
X-93.5 Y-17.087 Z8.324 I0 J1.413
X-93.5 Y-19.913 Z8.219 I0 J-1.413
X-93.5 Y-17.087 Z8.114 I0 J1.413
X-93.5 Y-19.913 Z8.01 I0 J-1.413
X-93.5 Y-17.087 Z7.905 I0 J1.413
X-93.5 Y-19.912 Z7.8 I0 J-1.413
X-93.5 Y-17.088 Z7.695 I0 J1.412
X-93.5 Y-19.912 Z7.59 I0 J-1.412
X-93.5 Y-17.088 Z7.486 I0 J1.412
X-93.5 Y-19.912 Z7.381 I0 J-1.412
X-93.5 Y-17.088 Z7.276 I0 J1.412
X-93.5 Y-19.912 Z7.171 I0 J-1.412
X-93.5 Y-17.088 Z7.067 I0 J1.412
X-93.5 Y-19.912 Z6.962 I0 J-1.412
X-93.5 Y-17.088 Z6.857 I0 J1.412
X-93.5 Y-19.912 Z6.752 I0 J-1.412
X-93.5 Y-17.088 Z6.648 I0 J1.412
X-93.5 Y-19.912 Z6.543 I0 J-1.412
X-93.5 Y-17.088 Z6.438 I0 J1.412
X-93.5 Y-19.912 Z6.333 I0 J-1.412
X-93.5 Y-17.088 Z6.229 I0 J1.412
X-93.5 Y-19.912 Z6.124 I0 J-1.412
X-93.5 Y-17.088 Z6.019 I0 J1.412
X-93.5 Y-19.912 Z5.914 I0 J-1.412
X-93.5 Y-17.088 Z5.81 I0 J1.412
X-93.5 Y-19.912 Z5.705 I0 J-1.412
X-93.5 Y-17.088 Z5.6 I0 J1.412
X-93.5 Y-19.912 Z5.495 I0 J-1.412
X-93.5 Y-17.088 Z5.39 I0 J1.412
X-93.5 Y-19.912 Z5.286 I0 J-1.412
X-93.5 Y-17.088 Z5.181 I0 J1.412
X-93.5 Y-19.912 Z5.076 I0 J-1.412
X-93.5 Y-17.088 Z4.971 I0 J1.412
X-93.5 Y-19.912 Z4.867 I0 J-1.412
X-93.5 Y-17.088 Z4.762 I0 J1.412
X-93.5 Y-19.912 Z4.657 I0 J-1.412
X-93.5 Y-17.088 Z4.552 I0 J1.412
X-93.5 Y-19.912 Z4.448 I0 J-1.412
X-93.5 Y-17.088 Z4.343 I0 J1.412
X-93.5 Y-19.912 Z4.238 I0 J-1.412
X-93.5 Y-17.088 Z4.133 I0 J1.412
X-93.5 Y-19.912 Z4.029 I0 J-1.412
X-93.5 Y-17.088 Z3.924 I0 J1.412
X-93.5 Y-19.912 Z3.819 I0 J-1.412
X-93.5 Y-17.088 Z3.714 I0 J1.412
X-93.5 Y-19.912 Z3.609 I0 J-1.412
X-93.5 Y-17.088 Z3.505 I0 J1.412
X-93.5 Y-19.912 Z3.4 I0 J-1.412
X-93.5 Y-17.088 Z3.295 I0 J1.412
X-93.5 Y-19.912 Z3.19 I0 J-1.412
X-93.5 Y-17.088 Z3.086 I0 J1.412
X-93.5 Y-19.912 Z2.981 I0 J-1.412
X-93.5 Y-17.088 Z2.876 I0 J1.412
X-93.5 Y-19.912 Z2.771 I0 J-1.412
X-93.5 Y-17.088 Z2.667 I0 J1.412
X-93.5 Y-19.912 Z2.562 I0 J-1.412
X-93.5 Y-17.088 Z2.457 I0 J1.412
X-93.5 Y-19.912 Z2.352 I0 J-1.412
X-93.5 Y-17.088 Z2.248 I0 J1.412
X-93.5 Y-19.912 Z2.143 I0 J-1.412
X-93.5 Y-17.088 Z2.038 I0 J1.412
X-93.5 Y-19.912 Z1.933 I0 J-1.412
X-93.5 Y-17.088 Z1.829 I0 J1.412
X-93.5 Y-19.912 Z1.724 I0 J-1.412
X-93.5 Y-17.088 Z1.619 I0 J1.412
X-93.5 Y-19.912 Z1.514 I0 J-1.412
X-93.5 Y-17.088 Z1.409 I0 J1.412
X-93.5 Y-19.912 Z1.305 I0 J-1.412
X-93.5 Y-17.088 Z1.2 I0 J1.412
X-93.5 Y-19.912 Z1.095 I0 J-1.412
X-93.5 Y-17.088 Z0.99 I0 J1.412
X-93.5 Y-19.912 Z0.886 I0 J-1.412
X-93.5 Y-17.088 Z0.781 I0 J1.412
X-93.5 Y-19.912 Z0.676 I0 J-1.412
X-93.5 Y-17.088 Z0.571 I0 J1.412
X-93.5 Y-19.912 Z0.467 I0 J-1.412
X-93.5 Y-17.088 Z0.362 I0 J1.412
X-93.5 Y-19.912 Z0.257 I0 J-1.412
X-93.5 Y-17.088 Z0.152 I0 J1.412
X-93.5 Y-19.912 Z0.048 I0 J-1.412
X-92.102 Y-18.703 Z0 I0 J1.412
X-94.898 Y-18.297 I-1.398 J0.203
X-92.102 Y-18.703 I1.398 J-0.203
X-92.371 Y-18.343 I-0.314 J0.046
G1 X-92.528 Y-18.32
X-92.598 Y-18.31 Z0.008
X-92.664 Y-18.3 Z0.031
X-92.724 Y-18.292 Z0.069
X-92.774 Y-18.284 Z0.12
X-92.811 Y-18.279 Z0.18
X-92.834 Y-18.276 Z0.247
X-92.842 Y-18.275 Z0.317
G0 Z18.1
X-80.683 Y-17.881
Z12
G1 Z10.318 F500
G19 G3 Y-17.564 Z10 J0.318 K0
G1 Y-17.405
G17 G3 X-81 Y-17.087 I-0.317 J0
X-81 Y-19.913 Z9.895 I0 J-1.413
X-81 Y-17.087 Z9.79 I0 J1.413
X-81 Y-19.913 Z9.686 I0 J-1.413
X-81 Y-17.087 Z9.581 I0 J1.413
X-81 Y-19.913 Z9.476 I0 J-1.413
X-81 Y-17.087 Z9.371 I0 J1.413
X-81 Y-19.913 Z9.267 I0 J-1.413
X-81 Y-17.087 Z9.162 I0 J1.413
X-81 Y-19.913 Z9.057 I0 J-1.413
X-81 Y-17.087 Z8.952 I0 J1.413
X-81 Y-19.913 Z8.848 I0 J-1.413
X-81 Y-17.087 Z8.743 I0 J1.413
X-81 Y-19.913 Z8.638 I0 J-1.413
X-81 Y-17.087 Z8.533 I0 J1.413
X-81 Y-19.913 Z8.429 I0 J-1.413
X-81 Y-17.087 Z8.324 I0 J1.413
X-81 Y-19.913 Z8.219 I0 J-1.413
X-81 Y-17.087 Z8.114 I0 J1.413
X-81 Y-19.913 Z8.01 I0 J-1.413
X-81 Y-17.087 Z7.905 I0 J1.413
X-81 Y-19.912 Z7.8 I0 J-1.413
X-81 Y-17.088 Z7.695 I0 J1.412
X-81 Y-19.912 Z7.59 I0 J-1.412
X-81 Y-17.088 Z7.486 I0 J1.412
X-81 Y-19.912 Z7.381 I0 J-1.412
X-81 Y-17.088 Z7.276 I0 J1.412
X-81 Y-19.912 Z7.171 I0 J-1.412
X-81 Y-17.088 Z7.067 I0 J1.412
X-81 Y-19.912 Z6.962 I0 J-1.412
X-81 Y-17.088 Z6.857 I0 J1.412
X-81 Y-19.912 Z6.752 I0 J-1.412
X-81 Y-17.088 Z6.648 I0 J1.412
X-81 Y-19.912 Z6.543 I0 J-1.412
X-81 Y-17.088 Z6.438 I0 J1.412
X-81 Y-19.912 Z6.333 I0 J-1.412
X-81 Y-17.088 Z6.229 I0 J1.412
X-81 Y-19.912 Z6.124 I0 J-1.412
X-81 Y-17.088 Z6.019 I0 J1.412
X-81 Y-19.912 Z5.914 I0 J-1.412
X-81 Y-17.088 Z5.81 I0 J1.412
X-81 Y-19.912 Z5.705 I0 J-1.412
X-81 Y-17.088 Z5.6 I0 J1.412
X-81 Y-19.912 Z5.495 I0 J-1.412
X-81 Y-17.088 Z5.39 I0 J1.412
X-81 Y-19.912 Z5.286 I0 J-1.412
X-81 Y-17.088 Z5.181 I0 J1.412
X-81 Y-19.912 Z5.076 I0 J-1.412
X-81 Y-17.088 Z4.971 I0 J1.412
X-81 Y-19.912 Z4.867 I0 J-1.412
X-81 Y-17.088 Z4.762 I0 J1.412
X-81 Y-19.912 Z4.657 I0 J-1.412
X-81 Y-17.088 Z4.552 I0 J1.412
X-81 Y-19.912 Z4.448 I0 J-1.412
X-81 Y-17.088 Z4.343 I0 J1.412
X-81 Y-19.912 Z4.238 I0 J-1.412
X-81 Y-17.088 Z4.133 I0 J1.412
X-81 Y-19.912 Z4.029 I0 J-1.412
X-81 Y-17.088 Z3.924 I0 J1.412
X-81 Y-19.912 Z3.819 I0 J-1.412
X-81 Y-17.088 Z3.714 I0 J1.412
X-81 Y-19.912 Z3.609 I0 J-1.412
X-81 Y-17.088 Z3.505 I0 J1.412
X-81 Y-19.912 Z3.4 I0 J-1.412
X-81 Y-17.088 Z3.295 I0 J1.412
X-81 Y-19.912 Z3.19 I0 J-1.412
X-81 Y-17.088 Z3.086 I0 J1.412
X-81 Y-19.912 Z2.981 I0 J-1.412
X-81 Y-17.088 Z2.876 I0 J1.412
X-81 Y-19.912 Z2.771 I0 J-1.412
X-81 Y-17.088 Z2.667 I0 J1.412
X-81 Y-19.912 Z2.562 I0 J-1.412
X-81 Y-17.088 Z2.457 I0 J1.412
X-81 Y-19.912 Z2.352 I0 J-1.412
X-81 Y-17.088 Z2.248 I0 J1.412
X-81 Y-19.912 Z2.143 I0 J-1.412
X-81 Y-17.088 Z2.038 I0 J1.412
X-81 Y-19.912 Z1.933 I0 J-1.412
X-81 Y-17.088 Z1.829 I0 J1.412
X-81 Y-19.912 Z1.724 I0 J-1.412
X-81 Y-17.088 Z1.619 I0 J1.412
X-81 Y-19.912 Z1.514 I0 J-1.412
X-81 Y-17.088 Z1.409 I0 J1.412
X-81 Y-19.912 Z1.305 I0 J-1.412
X-81 Y-17.088 Z1.2 I0 J1.412
X-81 Y-19.912 Z1.095 I0 J-1.412
X-81 Y-17.088 Z0.99 I0 J1.412
X-81 Y-19.912 Z0.886 I0 J-1.412
X-81 Y-17.088 Z0.781 I0 J1.412
X-81 Y-19.912 Z0.676 I0 J-1.412
X-81 Y-17.088 Z0.571 I0 J1.412
X-81 Y-19.912 Z0.467 I0 J-1.412
X-81 Y-17.088 Z0.362 I0 J1.412
X-81 Y-19.912 Z0.257 I0 J-1.412
X-81 Y-17.088 Z0.152 I0 J1.412
X-81 Y-19.912 Z0.048 I0 J-1.412
X-79.602 Y-18.703 Z0 I0 J1.412
X-82.398 Y-18.297 I-1.398 J0.203
X-79.602 Y-18.703 I1.398 J-0.203
X-79.871 Y-18.343 I-0.314 J0.046
G1 X-80.028 Y-18.32
X-80.098 Y-18.31 Z0.008
X-80.164 Y-18.3 Z0.031
X-80.224 Y-18.292 Z0.069
X-80.274 Y-18.284 Z0.12
X-80.311 Y-18.279 Z0.18
X-80.334 Y-18.276 Z0.247
X-80.342 Y-18.275 Z0.317
G0 Z18.1
X-68.183 Y-17.881
Z12
G1 Z10.318 F500
G19 G3 Y-17.564 Z10 J0.318 K0
G1 Y-17.405
G17 G3 X-68.5 Y-17.087 I-0.317 J0
X-68.5 Y-19.913 Z9.895 I0 J-1.413
X-68.5 Y-17.087 Z9.79 I0 J1.413
X-68.5 Y-19.913 Z9.686 I0 J-1.413
X-68.5 Y-17.087 Z9.581 I0 J1.413
X-68.5 Y-19.913 Z9.476 I0 J-1.413
X-68.5 Y-17.087 Z9.371 I0 J1.413
X-68.5 Y-19.913 Z9.267 I0 J-1.413
X-68.5 Y-17.087 Z9.162 I0 J1.413
X-68.5 Y-19.913 Z9.057 I0 J-1.413
X-68.5 Y-17.087 Z8.952 I0 J1.413
X-68.5 Y-19.913 Z8.848 I0 J-1.413
X-68.5 Y-17.087 Z8.743 I0 J1.413
X-68.5 Y-19.913 Z8.638 I0 J-1.413
X-68.5 Y-17.087 Z8.533 I0 J1.413
X-68.5 Y-19.913 Z8.429 I0 J-1.413
X-68.5 Y-17.087 Z8.324 I0 J1.413
X-68.5 Y-19.913 Z8.219 I0 J-1.413
X-68.5 Y-17.087 Z8.114 I0 J1.413
X-68.5 Y-19.913 Z8.01 I0 J-1.413
X-68.5 Y-17.087 Z7.905 I0 J1.413
X-68.5 Y-19.912 Z7.8 I0 J-1.413
X-68.5 Y-17.088 Z7.695 I0 J1.412
X-68.5 Y-19.912 Z7.59 I0 J-1.412
X-68.5 Y-17.088 Z7.486 I0 J1.412
X-68.5 Y-19.912 Z7.381 I0 J-1.412
X-68.5 Y-17.088 Z7.276 I0 J1.412
X-68.5 Y-19.912 Z7.171 I0 J-1.412
X-68.5 Y-17.088 Z7.067 I0 J1.412
X-68.5 Y-19.912 Z6.962 I0 J-1.412
X-68.5 Y-17.088 Z6.857 I0 J1.412
X-68.5 Y-19.912 Z6.752 I0 J-1.412
X-68.5 Y-17.088 Z6.648 I0 J1.412
X-68.5 Y-19.912 Z6.543 I0 J-1.412
X-68.5 Y-17.088 Z6.438 I0 J1.412
X-68.5 Y-19.912 Z6.333 I0 J-1.412
X-68.5 Y-17.088 Z6.229 I0 J1.412
X-68.5 Y-19.912 Z6.124 I0 J-1.412
X-68.5 Y-17.088 Z6.019 I0 J1.412
X-68.5 Y-19.912 Z5.914 I0 J-1.412
X-68.5 Y-17.088 Z5.81 I0 J1.412
X-68.5 Y-19.912 Z5.705 I0 J-1.412
X-68.5 Y-17.088 Z5.6 I0 J1.412
X-68.5 Y-19.912 Z5.495 I0 J-1.412
X-68.5 Y-17.088 Z5.39 I0 J1.412
X-68.5 Y-19.912 Z5.286 I0 J-1.412
X-68.5 Y-17.088 Z5.181 I0 J1.412
X-68.5 Y-19.912 Z5.076 I0 J-1.412
X-68.5 Y-17.088 Z4.971 I0 J1.412
X-68.5 Y-19.912 Z4.867 I0 J-1.412
X-68.5 Y-17.088 Z4.762 I0 J1.412
X-68.5 Y-19.912 Z4.657 I0 J-1.412
X-68.5 Y-17.088 Z4.552 I0 J1.412
X-68.5 Y-19.912 Z4.448 I0 J-1.412
X-68.5 Y-17.088 Z4.343 I0 J1.412
X-68.5 Y-19.912 Z4.238 I0 J-1.412
X-68.5 Y-17.088 Z4.133 I0 J1.412
X-68.5 Y-19.912 Z4.029 I0 J-1.412
X-68.5 Y-17.088 Z3.924 I0 J1.412
X-68.5 Y-19.912 Z3.819 I0 J-1.412
X-68.5 Y-17.088 Z3.714 I0 J1.412
X-68.5 Y-19.912 Z3.609 I0 J-1.412
X-68.5 Y-17.088 Z3.505 I0 J1.412
X-68.5 Y-19.912 Z3.4 I0 J-1.412
X-68.5 Y-17.088 Z3.295 I0 J1.412
X-68.5 Y-19.912 Z3.19 I0 J-1.412
X-68.5 Y-17.088 Z3.086 I0 J1.412
X-68.5 Y-19.912 Z2.981 I0 J-1.412
X-68.5 Y-17.088 Z2.876 I0 J1.412
X-68.5 Y-19.912 Z2.771 I0 J-1.412
X-68.5 Y-17.088 Z2.667 I0 J1.412
X-68.5 Y-19.912 Z2.562 I0 J-1.412
X-68.5 Y-17.088 Z2.457 I0 J1.412
X-68.5 Y-19.912 Z2.352 I0 J-1.412
X-68.5 Y-17.088 Z2.248 I0 J1.412
X-68.5 Y-19.912 Z2.143 I0 J-1.412
X-68.5 Y-17.088 Z2.038 I0 J1.412
X-68.5 Y-19.912 Z1.933 I0 J-1.412
X-68.5 Y-17.088 Z1.829 I0 J1.412
X-68.5 Y-19.912 Z1.724 I0 J-1.412
X-68.5 Y-17.088 Z1.619 I0 J1.412
X-68.5 Y-19.912 Z1.514 I0 J-1.412
X-68.5 Y-17.088 Z1.409 I0 J1.412
X-68.5 Y-19.912 Z1.305 I0 J-1.412
X-68.5 Y-17.088 Z1.2 I0 J1.412
X-68.5 Y-19.912 Z1.095 I0 J-1.412
X-68.5 Y-17.088 Z0.99 I0 J1.412
X-68.5 Y-19.912 Z0.886 I0 J-1.412
X-68.5 Y-17.088 Z0.781 I0 J1.412
X-68.5 Y-19.912 Z0.676 I0 J-1.412
X-68.5 Y-17.088 Z0.571 I0 J1.412
X-68.5 Y-19.912 Z0.467 I0 J-1.412
X-68.5 Y-17.088 Z0.362 I0 J1.412
X-68.5 Y-19.912 Z0.257 I0 J-1.412
X-68.5 Y-17.088 Z0.152 I0 J1.412
X-68.5 Y-19.912 Z0.048 I0 J-1.412
X-67.102 Y-18.703 Z0 I0 J1.412
X-69.898 Y-18.297 I-1.398 J0.203
X-67.102 Y-18.703 I1.398 J-0.203
X-67.371 Y-18.343 I-0.314 J0.046
G1 X-67.528 Y-18.32
X-67.598 Y-18.31 Z0.008
X-67.664 Y-18.3 Z0.031
X-67.724 Y-18.292 Z0.069
X-67.774 Y-18.284 Z0.12
X-67.811 Y-18.279 Z0.18
X-67.834 Y-18.276 Z0.247
X-67.842 Y-18.275 Z0.317
G0 Z18.1
X-55.682 Y-17.881
Z12
G1 Z10.318 F500
G19 G3 Y-17.564 Z10 J0.318 K0
G1 Y-17.405
G17 G3 X-56 Y-17.087 I-0.318 J0
X-56 Y-19.913 Z9.895 I0 J-1.413
X-56 Y-17.087 Z9.79 I0 J1.413
X-56 Y-19.913 Z9.686 I0 J-1.413
X-56 Y-17.087 Z9.581 I0 J1.413
X-56 Y-19.913 Z9.476 I0 J-1.413
X-56 Y-17.087 Z9.371 I0 J1.413
X-56 Y-19.913 Z9.267 I0 J-1.413
X-56 Y-17.087 Z9.162 I0 J1.413
X-56 Y-19.913 Z9.057 I0 J-1.413
X-56 Y-17.087 Z8.952 I0 J1.413
X-56 Y-19.913 Z8.848 I0 J-1.413
X-56 Y-17.087 Z8.743 I0 J1.413
X-56 Y-19.913 Z8.638 I0 J-1.413
X-56 Y-17.087 Z8.533 I0 J1.413
X-56 Y-19.913 Z8.429 I0 J-1.413
X-56 Y-17.087 Z8.324 I0 J1.413
X-56 Y-19.913 Z8.219 I0 J-1.413
X-56 Y-17.087 Z8.114 I0 J1.413
X-56 Y-19.913 Z8.01 I0 J-1.413
X-56 Y-17.087 Z7.905 I0 J1.413
X-56 Y-19.912 Z7.8 I0 J-1.413
X-56 Y-17.088 Z7.695 I0 J1.412
X-56 Y-19.912 Z7.59 I0 J-1.412
X-56 Y-17.088 Z7.486 I0 J1.412
X-56 Y-19.912 Z7.381 I0 J-1.412
X-56 Y-17.088 Z7.276 I0 J1.412
X-56 Y-19.912 Z7.171 I0 J-1.412
X-56 Y-17.088 Z7.067 I0 J1.412
X-56 Y-19.912 Z6.962 I0 J-1.412
X-56 Y-17.088 Z6.857 I0 J1.412
X-56 Y-19.912 Z6.752 I0 J-1.412
X-56 Y-17.088 Z6.648 I0 J1.412
X-56 Y-19.912 Z6.543 I0 J-1.412
X-56 Y-17.088 Z6.438 I0 J1.412
X-56 Y-19.912 Z6.333 I0 J-1.412
X-56 Y-17.088 Z6.229 I0 J1.412
X-56 Y-19.912 Z6.124 I0 J-1.412
X-56 Y-17.088 Z6.019 I0 J1.412
X-56 Y-19.912 Z5.914 I0 J-1.412
X-56 Y-17.088 Z5.81 I0 J1.412
X-56 Y-19.912 Z5.705 I0 J-1.412
X-56 Y-17.088 Z5.6 I0 J1.412
X-56 Y-19.912 Z5.495 I0 J-1.412
X-56 Y-17.088 Z5.39 I0 J1.412
X-56 Y-19.912 Z5.286 I0 J-1.412
X-56 Y-17.088 Z5.181 I0 J1.412
X-56 Y-19.912 Z5.076 I0 J-1.412
X-56 Y-17.088 Z4.971 I0 J1.412
X-56 Y-19.912 Z4.867 I0 J-1.412
X-56 Y-17.088 Z4.762 I0 J1.412
X-56 Y-19.912 Z4.657 I0 J-1.412
X-56 Y-17.088 Z4.552 I0 J1.412
X-56 Y-19.912 Z4.448 I0 J-1.412
X-56 Y-17.088 Z4.343 I0 J1.412
X-56 Y-19.912 Z4.238 I0 J-1.412
X-56 Y-17.088 Z4.133 I0 J1.412
X-56 Y-19.912 Z4.029 I0 J-1.412
X-56 Y-17.088 Z3.924 I0 J1.412
X-56 Y-19.912 Z3.819 I0 J-1.412
X-56 Y-17.088 Z3.714 I0 J1.412
X-56 Y-19.912 Z3.609 I0 J-1.412
X-56 Y-17.088 Z3.505 I0 J1.412
X-56 Y-19.912 Z3.4 I0 J-1.412
X-56 Y-17.088 Z3.295 I0 J1.412
X-56 Y-19.912 Z3.19 I0 J-1.412
X-56 Y-17.088 Z3.086 I0 J1.412
X-56 Y-19.912 Z2.981 I0 J-1.412
X-56 Y-17.088 Z2.876 I0 J1.412
X-56 Y-19.912 Z2.771 I0 J-1.412
X-56 Y-17.088 Z2.667 I0 J1.412
X-56 Y-19.912 Z2.562 I0 J-1.412
X-56 Y-17.088 Z2.457 I0 J1.412
X-56 Y-19.912 Z2.352 I0 J-1.412
X-56 Y-17.088 Z2.248 I0 J1.412
X-56 Y-19.912 Z2.143 I0 J-1.412
X-56 Y-17.088 Z2.038 I0 J1.412
X-56 Y-19.912 Z1.933 I0 J-1.412
X-56 Y-17.088 Z1.829 I0 J1.412
X-56 Y-19.912 Z1.724 I0 J-1.412
X-56 Y-17.088 Z1.619 I0 J1.412
X-56 Y-19.912 Z1.514 I0 J-1.412
X-56 Y-17.088 Z1.409 I0 J1.412
X-56 Y-19.912 Z1.305 I0 J-1.412
X-56 Y-17.088 Z1.2 I0 J1.412
X-56 Y-19.912 Z1.095 I0 J-1.412
X-56 Y-17.088 Z0.99 I0 J1.412
X-56 Y-19.912 Z0.886 I0 J-1.412
X-56 Y-17.088 Z0.781 I0 J1.412
X-56 Y-19.912 Z0.676 I0 J-1.412
X-56 Y-17.088 Z0.571 I0 J1.412
X-56 Y-19.912 Z0.467 I0 J-1.412
X-56 Y-17.088 Z0.362 I0 J1.412
X-56 Y-19.912 Z0.257 I0 J-1.412
X-56 Y-17.088 Z0.152 I0 J1.412
X-56 Y-19.912 Z0.048 I0 J-1.412
X-54.602 Y-18.703 Z0 I0 J1.412
X-57.398 Y-18.297 I-1.398 J0.203
X-54.602 Y-18.703 I1.398 J-0.203
X-54.871 Y-18.343 I-0.314 J0.046
G1 X-55.028 Y-18.32
X-55.098 Y-18.31 Z0.008
X-55.164 Y-18.3 Z0.031
X-55.224 Y-18.292 Z0.069
X-55.274 Y-18.284 Z0.12
X-55.311 Y-18.279 Z0.18
X-55.334 Y-18.276 Z0.247
X-55.342 Y-18.275 Z0.317
G0 Z18.1
X-55.682 Y-30.381
Z12
G1 Z10.318 F500
G19 G3 Y-30.064 Z10 J0.318 K0
G1 Y-29.905
G17 G3 X-56 Y-29.587 I-0.318 J0
X-56 Y-32.413 Z9.895 I0 J-1.413
X-56 Y-29.587 Z9.79 I0 J1.413
X-56 Y-32.413 Z9.686 I0 J-1.413
X-56 Y-29.587 Z9.581 I0 J1.413
X-56 Y-32.413 Z9.476 I0 J-1.413
X-56 Y-29.587 Z9.371 I0 J1.413
X-56 Y-32.413 Z9.267 I0 J-1.413
X-56 Y-29.587 Z9.162 I0 J1.413
X-56 Y-32.413 Z9.057 I0 J-1.413
X-56 Y-29.587 Z8.952 I0 J1.413
X-56 Y-32.413 Z8.848 I0 J-1.413
X-56 Y-29.587 Z8.743 I0 J1.413
X-56 Y-32.413 Z8.638 I0 J-1.413
X-56 Y-29.587 Z8.533 I0 J1.413
X-56 Y-32.413 Z8.429 I0 J-1.413
X-56 Y-29.587 Z8.324 I0 J1.413
X-56 Y-32.413 Z8.219 I0 J-1.413
X-56 Y-29.587 Z8.114 I0 J1.413
X-56 Y-32.413 Z8.01 I0 J-1.413
X-56 Y-29.587 Z7.905 I0 J1.413
X-56 Y-32.412 Z7.8 I0 J-1.413
X-56 Y-29.588 Z7.695 I0 J1.412
X-56 Y-32.412 Z7.59 I0 J-1.412
X-56 Y-29.588 Z7.486 I0 J1.412
X-56 Y-32.412 Z7.381 I0 J-1.412
X-56 Y-29.588 Z7.276 I0 J1.412
X-56 Y-32.412 Z7.171 I0 J-1.412
X-56 Y-29.588 Z7.067 I0 J1.412
X-56 Y-32.412 Z6.962 I0 J-1.412
X-56 Y-29.588 Z6.857 I0 J1.412
X-56 Y-32.412 Z6.752 I0 J-1.412
X-56 Y-29.588 Z6.648 I0 J1.412
X-56 Y-32.412 Z6.543 I0 J-1.412
X-56 Y-29.588 Z6.438 I0 J1.412
X-56 Y-32.412 Z6.333 I0 J-1.412
X-56 Y-29.588 Z6.229 I0 J1.412
X-56 Y-32.412 Z6.124 I0 J-1.412
X-56 Y-29.588 Z6.019 I0 J1.412
X-56 Y-32.412 Z5.914 I0 J-1.412
X-56 Y-29.588 Z5.81 I0 J1.412
X-56 Y-32.412 Z5.705 I0 J-1.412
X-56 Y-29.588 Z5.6 I0 J1.412
X-56 Y-32.412 Z5.495 I0 J-1.412
X-56 Y-29.588 Z5.39 I0 J1.412
X-56 Y-32.412 Z5.286 I0 J-1.412
X-56 Y-29.588 Z5.181 I0 J1.412
X-56 Y-32.412 Z5.076 I0 J-1.412
X-56 Y-29.588 Z4.971 I0 J1.412
X-56 Y-32.412 Z4.867 I0 J-1.412
X-56 Y-29.588 Z4.762 I0 J1.412
X-56 Y-32.412 Z4.657 I0 J-1.412
X-56 Y-29.588 Z4.552 I0 J1.412
X-56 Y-32.412 Z4.448 I0 J-1.412
X-56 Y-29.588 Z4.343 I0 J1.412
X-56 Y-32.412 Z4.238 I0 J-1.412
X-56 Y-29.588 Z4.133 I0 J1.412
X-56 Y-32.412 Z4.029 I0 J-1.412
X-56 Y-29.588 Z3.924 I0 J1.412
X-56 Y-32.412 Z3.819 I0 J-1.412
X-56 Y-29.588 Z3.714 I0 J1.412
X-56 Y-32.412 Z3.609 I0 J-1.412
X-56 Y-29.588 Z3.505 I0 J1.412
X-56 Y-32.412 Z3.4 I0 J-1.412
X-56 Y-29.588 Z3.295 I0 J1.412
X-56 Y-32.412 Z3.19 I0 J-1.412
X-56 Y-29.588 Z3.086 I0 J1.412
X-56 Y-32.412 Z2.981 I0 J-1.412
X-56 Y-29.588 Z2.876 I0 J1.412
X-56 Y-32.412 Z2.771 I0 J-1.412
X-56 Y-29.588 Z2.667 I0 J1.412
X-56 Y-32.412 Z2.562 I0 J-1.412
X-56 Y-29.588 Z2.457 I0 J1.412
X-56 Y-32.412 Z2.352 I0 J-1.412
X-56 Y-29.588 Z2.248 I0 J1.412
X-56 Y-32.412 Z2.143 I0 J-1.412
X-56 Y-29.588 Z2.038 I0 J1.412
X-56 Y-32.412 Z1.933 I0 J-1.412
X-56 Y-29.588 Z1.829 I0 J1.412
X-56 Y-32.412 Z1.724 I0 J-1.412
X-56 Y-29.588 Z1.619 I0 J1.412
X-56 Y-32.412 Z1.514 I0 J-1.412
X-56 Y-29.588 Z1.409 I0 J1.412
X-56 Y-32.412 Z1.305 I0 J-1.412
X-56 Y-29.588 Z1.2 I0 J1.412
X-56 Y-32.412 Z1.095 I0 J-1.412
X-56 Y-29.588 Z0.99 I0 J1.412
X-56 Y-32.412 Z0.886 I0 J-1.412
X-56 Y-29.588 Z0.781 I0 J1.412
X-56 Y-32.412 Z0.676 I0 J-1.412
X-56 Y-29.588 Z0.571 I0 J1.412
X-56 Y-32.412 Z0.467 I0 J-1.412
X-56 Y-29.588 Z0.362 I0 J1.412
X-56 Y-32.412 Z0.257 I0 J-1.412
X-56 Y-29.588 Z0.152 I0 J1.412
X-56 Y-32.412 Z0.048 I0 J-1.412
X-54.602 Y-31.203 Z0 I0 J1.412
X-57.398 Y-30.797 I-1.398 J0.203
X-54.602 Y-31.203 I1.398 J-0.203
X-54.871 Y-30.843 I-0.314 J0.046
G1 X-55.028 Y-30.82
X-55.098 Y-30.81 Z0.008
X-55.164 Y-30.8 Z0.031
X-55.224 Y-30.792 Z0.069
X-55.274 Y-30.784 Z0.12
X-55.311 Y-30.779 Z0.18
X-55.334 Y-30.776 Z0.247
X-55.342 Y-30.775 Z0.317
G0 Z18.1
X-68.183 Y-30.381
Z12
G1 Z10.318 F500
G19 G3 Y-30.064 Z10 J0.318 K0
G1 Y-29.905
G17 G3 X-68.5 Y-29.587 I-0.317 J0
X-68.5 Y-32.413 Z9.895 I0 J-1.413
X-68.5 Y-29.587 Z9.79 I0 J1.413
X-68.5 Y-32.413 Z9.686 I0 J-1.413
X-68.5 Y-29.587 Z9.581 I0 J1.413
X-68.5 Y-32.413 Z9.476 I0 J-1.413
X-68.5 Y-29.587 Z9.371 I0 J1.413
X-68.5 Y-32.413 Z9.267 I0 J-1.413
X-68.5 Y-29.587 Z9.162 I0 J1.413
X-68.5 Y-32.413 Z9.057 I0 J-1.413
X-68.5 Y-29.587 Z8.952 I0 J1.413
X-68.5 Y-32.413 Z8.848 I0 J-1.413
X-68.5 Y-29.587 Z8.743 I0 J1.413
X-68.5 Y-32.413 Z8.638 I0 J-1.413
X-68.5 Y-29.587 Z8.533 I0 J1.413
X-68.5 Y-32.413 Z8.429 I0 J-1.413
X-68.5 Y-29.587 Z8.324 I0 J1.413
X-68.5 Y-32.413 Z8.219 I0 J-1.413
X-68.5 Y-29.587 Z8.114 I0 J1.413
X-68.5 Y-32.413 Z8.01 I0 J-1.413
X-68.5 Y-29.587 Z7.905 I0 J1.413
X-68.5 Y-32.412 Z7.8 I0 J-1.413
X-68.5 Y-29.588 Z7.695 I0 J1.412
X-68.5 Y-32.412 Z7.59 I0 J-1.412
X-68.5 Y-29.588 Z7.486 I0 J1.412
X-68.5 Y-32.412 Z7.381 I0 J-1.412
X-68.5 Y-29.588 Z7.276 I0 J1.412
X-68.5 Y-32.412 Z7.171 I0 J-1.412
X-68.5 Y-29.588 Z7.067 I0 J1.412
X-68.5 Y-32.412 Z6.962 I0 J-1.412
X-68.5 Y-29.588 Z6.857 I0 J1.412
X-68.5 Y-32.412 Z6.752 I0 J-1.412
X-68.5 Y-29.588 Z6.648 I0 J1.412
X-68.5 Y-32.412 Z6.543 I0 J-1.412
X-68.5 Y-29.588 Z6.438 I0 J1.412
X-68.5 Y-32.412 Z6.333 I0 J-1.412
X-68.5 Y-29.588 Z6.229 I0 J1.412
X-68.5 Y-32.412 Z6.124 I0 J-1.412
X-68.5 Y-29.588 Z6.019 I0 J1.412
X-68.5 Y-32.412 Z5.914 I0 J-1.412
X-68.5 Y-29.588 Z5.81 I0 J1.412
X-68.5 Y-32.412 Z5.705 I0 J-1.412
X-68.5 Y-29.588 Z5.6 I0 J1.412
X-68.5 Y-32.412 Z5.495 I0 J-1.412
X-68.5 Y-29.588 Z5.39 I0 J1.412
X-68.5 Y-32.412 Z5.286 I0 J-1.412
X-68.5 Y-29.588 Z5.181 I0 J1.412
X-68.5 Y-32.412 Z5.076 I0 J-1.412
X-68.5 Y-29.588 Z4.971 I0 J1.412
X-68.5 Y-32.412 Z4.867 I0 J-1.412
X-68.5 Y-29.588 Z4.762 I0 J1.412
X-68.5 Y-32.412 Z4.657 I0 J-1.412
X-68.5 Y-29.588 Z4.552 I0 J1.412
X-68.5 Y-32.412 Z4.448 I0 J-1.412
X-68.5 Y-29.588 Z4.343 I0 J1.412
X-68.5 Y-32.412 Z4.238 I0 J-1.412
X-68.5 Y-29.588 Z4.133 I0 J1.412
X-68.5 Y-32.412 Z4.029 I0 J-1.412
X-68.5 Y-29.588 Z3.924 I0 J1.412
X-68.5 Y-32.412 Z3.819 I0 J-1.412
X-68.5 Y-29.588 Z3.714 I0 J1.412
X-68.5 Y-32.412 Z3.609 I0 J-1.412
X-68.5 Y-29.588 Z3.505 I0 J1.412
X-68.5 Y-32.412 Z3.4 I0 J-1.412
X-68.5 Y-29.588 Z3.295 I0 J1.412
X-68.5 Y-32.412 Z3.19 I0 J-1.412
X-68.5 Y-29.588 Z3.086 I0 J1.412
X-68.5 Y-32.412 Z2.981 I0 J-1.412
X-68.5 Y-29.588 Z2.876 I0 J1.412
X-68.5 Y-32.412 Z2.771 I0 J-1.412
X-68.5 Y-29.588 Z2.667 I0 J1.412
X-68.5 Y-32.412 Z2.562 I0 J-1.412
X-68.5 Y-29.588 Z2.457 I0 J1.412
X-68.5 Y-32.412 Z2.352 I0 J-1.412
X-68.5 Y-29.588 Z2.248 I0 J1.412
X-68.5 Y-32.412 Z2.143 I0 J-1.412
X-68.5 Y-29.588 Z2.038 I0 J1.412
X-68.5 Y-32.412 Z1.933 I0 J-1.412
X-68.5 Y-29.588 Z1.829 I0 J1.412
X-68.5 Y-32.412 Z1.724 I0 J-1.412
X-68.5 Y-29.588 Z1.619 I0 J1.412
X-68.5 Y-32.412 Z1.514 I0 J-1.412
X-68.5 Y-29.588 Z1.409 I0 J1.412
X-68.5 Y-32.412 Z1.305 I0 J-1.412
X-68.5 Y-29.588 Z1.2 I0 J1.412
X-68.5 Y-32.412 Z1.095 I0 J-1.412
X-68.5 Y-29.588 Z0.99 I0 J1.412
X-68.5 Y-32.412 Z0.886 I0 J-1.412
X-68.5 Y-29.588 Z0.781 I0 J1.412
X-68.5 Y-32.412 Z0.676 I0 J-1.412
X-68.5 Y-29.588 Z0.571 I0 J1.412
X-68.5 Y-32.412 Z0.467 I0 J-1.412
X-68.5 Y-29.588 Z0.362 I0 J1.412
X-68.5 Y-32.412 Z0.257 I0 J-1.412
X-68.5 Y-29.588 Z0.152 I0 J1.412
X-68.5 Y-32.412 Z0.048 I0 J-1.412
X-67.102 Y-31.203 Z0 I0 J1.412
X-69.898 Y-30.797 I-1.398 J0.203
X-67.102 Y-31.203 I1.398 J-0.203
X-67.371 Y-30.843 I-0.314 J0.046
G1 X-67.528 Y-30.82
X-67.598 Y-30.81 Z0.008
X-67.664 Y-30.8 Z0.031
X-67.724 Y-30.792 Z0.069
X-67.774 Y-30.784 Z0.12
X-67.811 Y-30.779 Z0.18
X-67.834 Y-30.776 Z0.247
X-67.842 Y-30.775 Z0.317
G0 Z18.1
X-55.682 Y-42.881
Z12
G1 Z10.318 F500
G19 G3 Y-42.564 Z10 J0.317 K0
G1 Y-42.405
G17 G3 X-56 Y-42.088 I-0.318 J0
X-56 Y-44.912 Z9.895 I0 J-1.412
X-56 Y-42.088 Z9.79 I0 J1.412
X-56 Y-44.912 Z9.686 I0 J-1.412
X-56 Y-42.088 Z9.581 I0 J1.412
X-56 Y-44.912 Z9.476 I0 J-1.412
X-56 Y-42.088 Z9.371 I0 J1.412
X-56 Y-44.912 Z9.267 I0 J-1.412
X-56 Y-42.088 Z9.162 I0 J1.412
X-56 Y-44.912 Z9.057 I0 J-1.412
X-56 Y-42.088 Z8.952 I0 J1.412
X-56 Y-44.912 Z8.848 I0 J-1.412
X-56 Y-42.088 Z8.743 I0 J1.412
X-56 Y-44.912 Z8.638 I0 J-1.412
X-56 Y-42.088 Z8.533 I0 J1.412
X-56 Y-44.912 Z8.429 I0 J-1.412
X-56 Y-42.088 Z8.324 I0 J1.412
X-56 Y-44.912 Z8.219 I0 J-1.412
X-56 Y-42.088 Z8.114 I0 J1.412
X-56 Y-44.912 Z8.01 I0 J-1.412
X-56 Y-42.088 Z7.905 I0 J1.412
X-56 Y-44.912 Z7.8 I0 J-1.412
X-56 Y-42.088 Z7.695 I0 J1.412
X-56 Y-44.912 Z7.59 I0 J-1.412
X-56 Y-42.088 Z7.486 I0 J1.412
X-56 Y-44.912 Z7.381 I0 J-1.412
X-56 Y-42.088 Z7.276 I0 J1.412
X-56 Y-44.912 Z7.171 I0 J-1.412
X-56 Y-42.088 Z7.067 I0 J1.412
X-56 Y-44.912 Z6.962 I0 J-1.412
X-56 Y-42.088 Z6.857 I0 J1.412
X-56 Y-44.912 Z6.752 I0 J-1.412
X-56 Y-42.088 Z6.648 I0 J1.412
X-56 Y-44.912 Z6.543 I0 J-1.412
X-56 Y-42.088 Z6.438 I0 J1.412
X-56 Y-44.912 Z6.333 I0 J-1.412
X-56 Y-42.088 Z6.229 I0 J1.412
X-56 Y-44.912 Z6.124 I0 J-1.412
X-56 Y-42.088 Z6.019 I0 J1.412
X-56 Y-44.912 Z5.914 I0 J-1.412
X-56 Y-42.088 Z5.81 I0 J1.412
X-56 Y-44.912 Z5.705 I0 J-1.412
X-56 Y-42.088 Z5.6 I0 J1.412
X-56 Y-44.912 Z5.495 I0 J-1.412
X-56 Y-42.088 Z5.39 I0 J1.412
X-56 Y-44.912 Z5.286 I0 J-1.412
X-56 Y-42.088 Z5.181 I0 J1.412
X-56 Y-44.912 Z5.076 I0 J-1.412
X-56 Y-42.088 Z4.971 I0 J1.412
X-56 Y-44.912 Z4.867 I0 J-1.412
X-56 Y-42.088 Z4.762 I0 J1.412
X-56 Y-44.912 Z4.657 I0 J-1.412
X-56 Y-42.088 Z4.552 I0 J1.412
X-56 Y-44.912 Z4.448 I0 J-1.412
X-56 Y-42.088 Z4.343 I0 J1.412
X-56 Y-44.912 Z4.238 I0 J-1.412
X-56 Y-42.088 Z4.133 I0 J1.412
X-56 Y-44.912 Z4.029 I0 J-1.412
X-56 Y-42.088 Z3.924 I0 J1.412
X-56 Y-44.912 Z3.819 I0 J-1.412
X-56 Y-42.088 Z3.714 I0 J1.412
X-56 Y-44.912 Z3.609 I0 J-1.412
X-56 Y-42.088 Z3.505 I0 J1.412
X-56 Y-44.912 Z3.4 I0 J-1.412
X-56 Y-42.088 Z3.295 I0 J1.412
X-56 Y-44.912 Z3.19 I0 J-1.412
X-56 Y-42.088 Z3.086 I0 J1.412
X-56 Y-44.912 Z2.981 I0 J-1.412
X-56 Y-42.088 Z2.876 I0 J1.412
X-56 Y-44.912 Z2.771 I0 J-1.412
X-56 Y-42.088 Z2.667 I0 J1.412
X-56 Y-44.912 Z2.562 I0 J-1.412
X-56 Y-42.088 Z2.457 I0 J1.412
X-56 Y-44.912 Z2.352 I0 J-1.412
X-56 Y-42.088 Z2.248 I0 J1.412
X-56 Y-44.912 Z2.143 I0 J-1.412
X-56 Y-42.088 Z2.038 I0 J1.412
X-56 Y-44.912 Z1.933 I0 J-1.412
X-56 Y-42.088 Z1.829 I0 J1.412
X-56 Y-44.912 Z1.724 I0 J-1.412
X-56 Y-42.088 Z1.619 I0 J1.412
X-56 Y-44.912 Z1.514 I0 J-1.412
X-56 Y-42.088 Z1.409 I0 J1.412
X-56 Y-44.912 Z1.305 I0 J-1.412
X-56 Y-42.088 Z1.2 I0 J1.412
X-56 Y-44.912 Z1.095 I0 J-1.412
X-56 Y-42.088 Z0.99 I0 J1.412
X-56 Y-44.912 Z0.886 I0 J-1.412
X-56 Y-42.088 Z0.781 I0 J1.412
X-56 Y-44.912 Z0.676 I0 J-1.412
X-56 Y-42.088 Z0.571 I0 J1.412
X-56 Y-44.912 Z0.467 I0 J-1.412
X-56 Y-42.088 Z0.362 I0 J1.412
X-56 Y-44.912 Z0.257 I0 J-1.412
X-56 Y-42.088 Z0.152 I0 J1.412
X-56 Y-44.912 Z0.048 I0 J-1.412
X-54.602 Y-43.703 Z0 I0 J1.412
X-57.398 Y-43.297 I-1.398 J0.203
X-54.602 Y-43.703 I1.398 J-0.203
X-54.871 Y-43.343 I-0.314 J0.046
G1 X-55.028 Y-43.32
X-55.098 Y-43.31 Z0.008
X-55.164 Y-43.3 Z0.031
X-55.224 Y-43.292 Z0.069
X-55.274 Y-43.284 Z0.12
X-55.311 Y-43.279 Z0.18
X-55.334 Y-43.276 Z0.247
X-55.342 Y-43.275 Z0.317
G0 Z18.1
X-68.183 Y-42.881
Z12
G1 Z10.318 F500
G19 G3 Y-42.564 Z10 J0.317 K0
G1 Y-42.405
G17 G3 X-68.5 Y-42.088 I-0.317 J0
X-68.5 Y-44.912 Z9.895 I0 J-1.412
X-68.5 Y-42.088 Z9.79 I0 J1.412
X-68.5 Y-44.912 Z9.686 I0 J-1.412
X-68.5 Y-42.088 Z9.581 I0 J1.412
X-68.5 Y-44.912 Z9.476 I0 J-1.412
X-68.5 Y-42.088 Z9.371 I0 J1.412
X-68.5 Y-44.912 Z9.267 I0 J-1.412
X-68.5 Y-42.088 Z9.162 I0 J1.412
X-68.5 Y-44.912 Z9.057 I0 J-1.412
X-68.5 Y-42.088 Z8.952 I0 J1.412
X-68.5 Y-44.912 Z8.848 I0 J-1.412
X-68.5 Y-42.088 Z8.743 I0 J1.412
X-68.5 Y-44.912 Z8.638 I0 J-1.412
X-68.5 Y-42.088 Z8.533 I0 J1.412
X-68.5 Y-44.912 Z8.429 I0 J-1.412
X-68.5 Y-42.088 Z8.324 I0 J1.412
X-68.5 Y-44.912 Z8.219 I0 J-1.412
X-68.5 Y-42.088 Z8.114 I0 J1.412
X-68.5 Y-44.912 Z8.01 I0 J-1.412
X-68.5 Y-42.088 Z7.905 I0 J1.412
X-68.5 Y-44.912 Z7.8 I0 J-1.412
X-68.5 Y-42.088 Z7.695 I0 J1.412
X-68.5 Y-44.912 Z7.59 I0 J-1.412
X-68.5 Y-42.088 Z7.486 I0 J1.412
X-68.5 Y-44.912 Z7.381 I0 J-1.412
X-68.5 Y-42.088 Z7.276 I0 J1.412
X-68.5 Y-44.912 Z7.171 I0 J-1.412
X-68.5 Y-42.088 Z7.067 I0 J1.412
X-68.5 Y-44.912 Z6.962 I0 J-1.412
X-68.5 Y-42.088 Z6.857 I0 J1.412
X-68.5 Y-44.912 Z6.752 I0 J-1.412
X-68.5 Y-42.088 Z6.648 I0 J1.412
X-68.5 Y-44.912 Z6.543 I0 J-1.412
X-68.5 Y-42.088 Z6.438 I0 J1.412
X-68.5 Y-44.912 Z6.333 I0 J-1.412
X-68.5 Y-42.088 Z6.229 I0 J1.412
X-68.5 Y-44.912 Z6.124 I0 J-1.412
X-68.5 Y-42.088 Z6.019 I0 J1.412
X-68.5 Y-44.912 Z5.914 I0 J-1.412
X-68.5 Y-42.088 Z5.81 I0 J1.412
X-68.5 Y-44.912 Z5.705 I0 J-1.412
X-68.5 Y-42.088 Z5.6 I0 J1.412
X-68.5 Y-44.912 Z5.495 I0 J-1.412
X-68.5 Y-42.088 Z5.39 I0 J1.412
X-68.5 Y-44.912 Z5.286 I0 J-1.412
X-68.5 Y-42.088 Z5.181 I0 J1.412
X-68.5 Y-44.912 Z5.076 I0 J-1.412
X-68.5 Y-42.088 Z4.971 I0 J1.412
X-68.5 Y-44.912 Z4.867 I0 J-1.412
X-68.5 Y-42.088 Z4.762 I0 J1.412
X-68.5 Y-44.912 Z4.657 I0 J-1.412
X-68.5 Y-42.088 Z4.552 I0 J1.412
X-68.5 Y-44.912 Z4.448 I0 J-1.412
X-68.5 Y-42.088 Z4.343 I0 J1.412
X-68.5 Y-44.912 Z4.238 I0 J-1.412
X-68.5 Y-42.088 Z4.133 I0 J1.412
X-68.5 Y-44.912 Z4.029 I0 J-1.412
X-68.5 Y-42.088 Z3.924 I0 J1.412
X-68.5 Y-44.912 Z3.819 I0 J-1.412
X-68.5 Y-42.088 Z3.714 I0 J1.412
X-68.5 Y-44.912 Z3.609 I0 J-1.412
X-68.5 Y-42.088 Z3.505 I0 J1.412
X-68.5 Y-44.912 Z3.4 I0 J-1.412
X-68.5 Y-42.088 Z3.295 I0 J1.412
X-68.5 Y-44.912 Z3.19 I0 J-1.412
X-68.5 Y-42.088 Z3.086 I0 J1.412
X-68.5 Y-44.912 Z2.981 I0 J-1.412
X-68.5 Y-42.088 Z2.876 I0 J1.412
X-68.5 Y-44.912 Z2.771 I0 J-1.412
X-68.5 Y-42.088 Z2.667 I0 J1.412
X-68.5 Y-44.912 Z2.562 I0 J-1.412
X-68.5 Y-42.088 Z2.457 I0 J1.412
X-68.5 Y-44.912 Z2.352 I0 J-1.412
X-68.5 Y-42.088 Z2.248 I0 J1.412
X-68.5 Y-44.912 Z2.143 I0 J-1.412
X-68.5 Y-42.088 Z2.038 I0 J1.412
X-68.5 Y-44.912 Z1.933 I0 J-1.412
X-68.5 Y-42.088 Z1.829 I0 J1.412
X-68.5 Y-44.912 Z1.724 I0 J-1.412
X-68.5 Y-42.088 Z1.619 I0 J1.412
X-68.5 Y-44.912 Z1.514 I0 J-1.412
X-68.5 Y-42.088 Z1.409 I0 J1.412
X-68.5 Y-44.912 Z1.305 I0 J-1.412
X-68.5 Y-42.088 Z1.2 I0 J1.412
X-68.5 Y-44.912 Z1.095 I0 J-1.412
X-68.5 Y-42.088 Z0.99 I0 J1.412
X-68.5 Y-44.912 Z0.886 I0 J-1.412
X-68.5 Y-42.088 Z0.781 I0 J1.412
X-68.5 Y-44.912 Z0.676 I0 J-1.412
X-68.5 Y-42.088 Z0.571 I0 J1.412
X-68.5 Y-44.912 Z0.467 I0 J-1.412
X-68.5 Y-42.088 Z0.362 I0 J1.412
X-68.5 Y-44.912 Z0.257 I0 J-1.412
X-68.5 Y-42.088 Z0.152 I0 J1.412
X-68.5 Y-44.912 Z0.048 I0 J-1.412
X-67.102 Y-43.703 Z0 I0 J1.412
X-69.898 Y-43.297 I-1.398 J0.203
X-67.102 Y-43.703 I1.398 J-0.203
X-67.371 Y-43.343 I-0.314 J0.046
G1 X-67.528 Y-43.32
X-67.598 Y-43.31 Z0.008
X-67.664 Y-43.3 Z0.031
X-67.724 Y-43.292 Z0.069
X-67.774 Y-43.284 Z0.12
X-67.811 Y-43.279 Z0.18
X-67.834 Y-43.276 Z0.247
X-67.842 Y-43.275 Z0.317
G0 Z18.1
X-80.683 Y-42.881
Z12
G1 Z10.318 F500
G19 G3 Y-42.564 Z10 J0.317 K0
G1 Y-42.405
G17 G3 X-81 Y-42.088 I-0.317 J0
X-81 Y-44.912 Z9.895 I0 J-1.412
X-81 Y-42.088 Z9.79 I0 J1.412
X-81 Y-44.912 Z9.686 I0 J-1.412
X-81 Y-42.088 Z9.581 I0 J1.412
X-81 Y-44.912 Z9.476 I0 J-1.412
X-81 Y-42.088 Z9.371 I0 J1.412
X-81 Y-44.912 Z9.267 I0 J-1.412
X-81 Y-42.088 Z9.162 I0 J1.412
X-81 Y-44.912 Z9.057 I0 J-1.412
X-81 Y-42.088 Z8.952 I0 J1.412
X-81 Y-44.912 Z8.848 I0 J-1.412
X-81 Y-42.088 Z8.743 I0 J1.412
X-81 Y-44.912 Z8.638 I0 J-1.412
X-81 Y-42.088 Z8.533 I0 J1.412
X-81 Y-44.912 Z8.429 I0 J-1.412
X-81 Y-42.088 Z8.324 I0 J1.412
X-81 Y-44.912 Z8.219 I0 J-1.412
X-81 Y-42.088 Z8.114 I0 J1.412
X-81 Y-44.912 Z8.01 I0 J-1.412
X-81 Y-42.088 Z7.905 I0 J1.412
X-81 Y-44.912 Z7.8 I0 J-1.412
X-81 Y-42.088 Z7.695 I0 J1.412
X-81 Y-44.912 Z7.59 I0 J-1.412
X-81 Y-42.088 Z7.486 I0 J1.412
X-81 Y-44.912 Z7.381 I0 J-1.412
X-81 Y-42.088 Z7.276 I0 J1.412
X-81 Y-44.912 Z7.171 I0 J-1.412
X-81 Y-42.088 Z7.067 I0 J1.412
X-81 Y-44.912 Z6.962 I0 J-1.412
X-81 Y-42.088 Z6.857 I0 J1.412
X-81 Y-44.912 Z6.752 I0 J-1.412
X-81 Y-42.088 Z6.648 I0 J1.412
X-81 Y-44.912 Z6.543 I0 J-1.412
X-81 Y-42.088 Z6.438 I0 J1.412
X-81 Y-44.912 Z6.333 I0 J-1.412
X-81 Y-42.088 Z6.229 I0 J1.412
X-81 Y-44.912 Z6.124 I0 J-1.412
X-81 Y-42.088 Z6.019 I0 J1.412
X-81 Y-44.912 Z5.914 I0 J-1.412
X-81 Y-42.088 Z5.81 I0 J1.412
X-81 Y-44.912 Z5.705 I0 J-1.412
X-81 Y-42.088 Z5.6 I0 J1.412
X-81 Y-44.912 Z5.495 I0 J-1.412
X-81 Y-42.088 Z5.39 I0 J1.412
X-81 Y-44.912 Z5.286 I0 J-1.412
X-81 Y-42.088 Z5.181 I0 J1.412
X-81 Y-44.912 Z5.076 I0 J-1.412
X-81 Y-42.088 Z4.971 I0 J1.412
X-81 Y-44.912 Z4.867 I0 J-1.412
X-81 Y-42.088 Z4.762 I0 J1.412
X-81 Y-44.912 Z4.657 I0 J-1.412
X-81 Y-42.088 Z4.552 I0 J1.412
X-81 Y-44.912 Z4.448 I0 J-1.412
X-81 Y-42.088 Z4.343 I0 J1.412
X-81 Y-44.912 Z4.238 I0 J-1.412
X-81 Y-42.088 Z4.133 I0 J1.412
X-81 Y-44.912 Z4.029 I0 J-1.412
X-81 Y-42.088 Z3.924 I0 J1.412
X-81 Y-44.912 Z3.819 I0 J-1.412
X-81 Y-42.088 Z3.714 I0 J1.412
X-81 Y-44.912 Z3.609 I0 J-1.412
X-81 Y-42.088 Z3.505 I0 J1.412
X-81 Y-44.912 Z3.4 I0 J-1.412
X-81 Y-42.088 Z3.295 I0 J1.412
X-81 Y-44.912 Z3.19 I0 J-1.412
X-81 Y-42.088 Z3.086 I0 J1.412
X-81 Y-44.912 Z2.981 I0 J-1.412
X-81 Y-42.088 Z2.876 I0 J1.412
X-81 Y-44.912 Z2.771 I0 J-1.412
X-81 Y-42.088 Z2.667 I0 J1.412
X-81 Y-44.912 Z2.562 I0 J-1.412
X-81 Y-42.088 Z2.457 I0 J1.412
X-81 Y-44.912 Z2.352 I0 J-1.412
X-81 Y-42.088 Z2.248 I0 J1.412
X-81 Y-44.912 Z2.143 I0 J-1.412
X-81 Y-42.088 Z2.038 I0 J1.412
X-81 Y-44.912 Z1.933 I0 J-1.412
X-81 Y-42.088 Z1.829 I0 J1.412
X-81 Y-44.912 Z1.724 I0 J-1.412
X-81 Y-42.088 Z1.619 I0 J1.412
X-81 Y-44.912 Z1.514 I0 J-1.412
X-81 Y-42.088 Z1.409 I0 J1.412
X-81 Y-44.912 Z1.305 I0 J-1.412
X-81 Y-42.088 Z1.2 I0 J1.412
X-81 Y-44.912 Z1.095 I0 J-1.412
X-81 Y-42.088 Z0.99 I0 J1.412
X-81 Y-44.912 Z0.886 I0 J-1.412
X-81 Y-42.088 Z0.781 I0 J1.412
X-81 Y-44.912 Z0.676 I0 J-1.412
X-81 Y-42.088 Z0.571 I0 J1.412
X-81 Y-44.912 Z0.467 I0 J-1.412
X-81 Y-42.088 Z0.362 I0 J1.412
X-81 Y-44.912 Z0.257 I0 J-1.412
X-81 Y-42.088 Z0.152 I0 J1.412
X-81 Y-44.912 Z0.048 I0 J-1.412
X-79.602 Y-43.703 Z0 I0 J1.412
X-82.398 Y-43.297 I-1.398 J0.203
X-79.602 Y-43.703 I1.398 J-0.203
X-79.871 Y-43.343 I-0.314 J0.046
G1 X-80.028 Y-43.32
X-80.098 Y-43.31 Z0.008
X-80.164 Y-43.3 Z0.031
X-80.224 Y-43.292 Z0.069
X-80.274 Y-43.284 Z0.12
X-80.311 Y-43.279 Z0.18
X-80.334 Y-43.276 Z0.247
X-80.342 Y-43.275 Z0.317
G0 Z18.1
X-93.183 Y-42.881
Z12
G1 Z10.318 F500
G19 G3 Y-42.564 Z10 J0.317 K0
G1 Y-42.405
G17 G3 X-93.5 Y-42.088 I-0.317 J0
X-93.5 Y-44.912 Z9.895 I0 J-1.412
X-93.5 Y-42.088 Z9.79 I0 J1.412
X-93.5 Y-44.912 Z9.686 I0 J-1.412
X-93.5 Y-42.088 Z9.581 I0 J1.412
X-93.5 Y-44.912 Z9.476 I0 J-1.412
X-93.5 Y-42.088 Z9.371 I0 J1.412
X-93.5 Y-44.912 Z9.267 I0 J-1.412
X-93.5 Y-42.088 Z9.162 I0 J1.412
X-93.5 Y-44.912 Z9.057 I0 J-1.412
X-93.5 Y-42.088 Z8.952 I0 J1.412
X-93.5 Y-44.912 Z8.848 I0 J-1.412
X-93.5 Y-42.088 Z8.743 I0 J1.412
X-93.5 Y-44.912 Z8.638 I0 J-1.412
X-93.5 Y-42.088 Z8.533 I0 J1.412
X-93.5 Y-44.912 Z8.429 I0 J-1.412
X-93.5 Y-42.088 Z8.324 I0 J1.412
X-93.5 Y-44.912 Z8.219 I0 J-1.412
X-93.5 Y-42.088 Z8.114 I0 J1.412
X-93.5 Y-44.912 Z8.01 I0 J-1.412
X-93.5 Y-42.088 Z7.905 I0 J1.412
X-93.5 Y-44.912 Z7.8 I0 J-1.412
X-93.5 Y-42.088 Z7.695 I0 J1.412
X-93.5 Y-44.912 Z7.59 I0 J-1.412
X-93.5 Y-42.088 Z7.486 I0 J1.412
X-93.5 Y-44.912 Z7.381 I0 J-1.412
X-93.5 Y-42.088 Z7.276 I0 J1.412
X-93.5 Y-44.912 Z7.171 I0 J-1.412
X-93.5 Y-42.088 Z7.067 I0 J1.412
X-93.5 Y-44.912 Z6.962 I0 J-1.412
X-93.5 Y-42.088 Z6.857 I0 J1.412
X-93.5 Y-44.912 Z6.752 I0 J-1.412
X-93.5 Y-42.088 Z6.648 I0 J1.412
X-93.5 Y-44.912 Z6.543 I0 J-1.412
X-93.5 Y-42.088 Z6.438 I0 J1.412
X-93.5 Y-44.912 Z6.333 I0 J-1.412
X-93.5 Y-42.088 Z6.229 I0 J1.412
X-93.5 Y-44.912 Z6.124 I0 J-1.412
X-93.5 Y-42.088 Z6.019 I0 J1.412
X-93.5 Y-44.912 Z5.914 I0 J-1.412
X-93.5 Y-42.088 Z5.81 I0 J1.412
X-93.5 Y-44.912 Z5.705 I0 J-1.412
X-93.5 Y-42.088 Z5.6 I0 J1.412
X-93.5 Y-44.912 Z5.495 I0 J-1.412
X-93.5 Y-42.088 Z5.39 I0 J1.412
X-93.5 Y-44.912 Z5.286 I0 J-1.412
X-93.5 Y-42.088 Z5.181 I0 J1.412
X-93.5 Y-44.912 Z5.076 I0 J-1.412
X-93.5 Y-42.088 Z4.971 I0 J1.412
X-93.5 Y-44.912 Z4.867 I0 J-1.412
X-93.5 Y-42.088 Z4.762 I0 J1.412
X-93.5 Y-44.912 Z4.657 I0 J-1.412
X-93.5 Y-42.088 Z4.552 I0 J1.412
X-93.5 Y-44.912 Z4.448 I0 J-1.412
X-93.5 Y-42.088 Z4.343 I0 J1.412
X-93.5 Y-44.912 Z4.238 I0 J-1.412
X-93.5 Y-42.088 Z4.133 I0 J1.412
X-93.5 Y-44.912 Z4.029 I0 J-1.412
X-93.5 Y-42.088 Z3.924 I0 J1.412
X-93.5 Y-44.912 Z3.819 I0 J-1.412
X-93.5 Y-42.088 Z3.714 I0 J1.412
X-93.5 Y-44.912 Z3.609 I0 J-1.412
X-93.5 Y-42.088 Z3.505 I0 J1.412
X-93.5 Y-44.912 Z3.4 I0 J-1.412
X-93.5 Y-42.088 Z3.295 I0 J1.412
X-93.5 Y-44.912 Z3.19 I0 J-1.412
X-93.5 Y-42.088 Z3.086 I0 J1.412
X-93.5 Y-44.912 Z2.981 I0 J-1.412
X-93.5 Y-42.088 Z2.876 I0 J1.412
X-93.5 Y-44.912 Z2.771 I0 J-1.412
X-93.5 Y-42.088 Z2.667 I0 J1.412
X-93.5 Y-44.912 Z2.562 I0 J-1.412
X-93.5 Y-42.088 Z2.457 I0 J1.412
X-93.5 Y-44.912 Z2.352 I0 J-1.412
X-93.5 Y-42.088 Z2.248 I0 J1.412
X-93.5 Y-44.912 Z2.143 I0 J-1.412
X-93.5 Y-42.088 Z2.038 I0 J1.412
X-93.5 Y-44.912 Z1.933 I0 J-1.412
X-93.5 Y-42.088 Z1.829 I0 J1.412
X-93.5 Y-44.912 Z1.724 I0 J-1.412
X-93.5 Y-42.088 Z1.619 I0 J1.412
X-93.5 Y-44.912 Z1.514 I0 J-1.412
X-93.5 Y-42.088 Z1.409 I0 J1.412
X-93.5 Y-44.912 Z1.305 I0 J-1.412
X-93.5 Y-42.088 Z1.2 I0 J1.412
X-93.5 Y-44.912 Z1.095 I0 J-1.412
X-93.5 Y-42.088 Z0.99 I0 J1.412
X-93.5 Y-44.912 Z0.886 I0 J-1.412
X-93.5 Y-42.088 Z0.781 I0 J1.412
X-93.5 Y-44.912 Z0.676 I0 J-1.412
X-93.5 Y-42.088 Z0.571 I0 J1.412
X-93.5 Y-44.912 Z0.467 I0 J-1.412
X-93.5 Y-42.088 Z0.362 I0 J1.412
X-93.5 Y-44.912 Z0.257 I0 J-1.412
X-93.5 Y-42.088 Z0.152 I0 J1.412
X-93.5 Y-44.912 Z0.048 I0 J-1.412
X-92.102 Y-43.703 Z0 I0 J1.412
X-94.898 Y-43.297 I-1.398 J0.203
X-92.102 Y-43.703 I1.398 J-0.203
X-92.371 Y-43.343 I-0.314 J0.046
G1 X-92.528 Y-43.32
X-92.598 Y-43.31 Z0.008
X-92.664 Y-43.3 Z0.031
X-92.724 Y-43.292 Z0.069
X-92.774 Y-43.284 Z0.12
X-92.811 Y-43.279 Z0.18
X-92.834 Y-43.276 Z0.247
X-92.842 Y-43.275 Z0.317
G0 Z18.1
X-105.683 Y-42.881
Z12
G1 Z10.318 F500
G19 G3 Y-42.564 Z10 J0.317 K0
G1 Y-42.405
G17 G3 X-106 Y-42.088 I-0.317 J0
X-106 Y-44.912 Z9.895 I0 J-1.412
X-106 Y-42.088 Z9.79 I0 J1.412
X-106 Y-44.912 Z9.686 I0 J-1.412
X-106 Y-42.088 Z9.581 I0 J1.412
X-106 Y-44.912 Z9.476 I0 J-1.412
X-106 Y-42.088 Z9.371 I0 J1.412
X-106 Y-44.912 Z9.267 I0 J-1.412
X-106 Y-42.088 Z9.162 I0 J1.412
X-106 Y-44.912 Z9.057 I0 J-1.412
X-106 Y-42.088 Z8.952 I0 J1.412
X-106 Y-44.912 Z8.848 I0 J-1.412
X-106 Y-42.088 Z8.743 I0 J1.412
X-106 Y-44.912 Z8.638 I0 J-1.412
X-106 Y-42.088 Z8.533 I0 J1.412
X-106 Y-44.912 Z8.429 I0 J-1.412
X-106 Y-42.088 Z8.324 I0 J1.412
X-106 Y-44.912 Z8.219 I0 J-1.412
X-106 Y-42.088 Z8.114 I0 J1.412
X-106 Y-44.912 Z8.01 I0 J-1.412
X-106 Y-42.088 Z7.905 I0 J1.412
X-106 Y-44.912 Z7.8 I0 J-1.412
X-106 Y-42.088 Z7.695 I0 J1.412
X-106 Y-44.912 Z7.59 I0 J-1.412
X-106 Y-42.088 Z7.486 I0 J1.412
X-106 Y-44.912 Z7.381 I0 J-1.412
X-106 Y-42.088 Z7.276 I0 J1.412
X-106 Y-44.912 Z7.171 I0 J-1.412
X-106 Y-42.088 Z7.067 I0 J1.412
X-106 Y-44.912 Z6.962 I0 J-1.412
X-106 Y-42.088 Z6.857 I0 J1.412
X-106 Y-44.912 Z6.752 I0 J-1.412
X-106 Y-42.088 Z6.648 I0 J1.412
X-106 Y-44.912 Z6.543 I0 J-1.412
X-106 Y-42.088 Z6.438 I0 J1.412
X-106 Y-44.912 Z6.333 I0 J-1.412
X-106 Y-42.088 Z6.229 I0 J1.412
X-106 Y-44.912 Z6.124 I0 J-1.412
X-106 Y-42.088 Z6.019 I0 J1.412
X-106 Y-44.912 Z5.914 I0 J-1.412
X-106 Y-42.088 Z5.81 I0 J1.412
X-106 Y-44.912 Z5.705 I0 J-1.412
X-106 Y-42.088 Z5.6 I0 J1.412
X-106 Y-44.912 Z5.495 I0 J-1.412
X-106 Y-42.088 Z5.39 I0 J1.412
X-106 Y-44.912 Z5.286 I0 J-1.412
X-106 Y-42.088 Z5.181 I0 J1.412
X-106 Y-44.912 Z5.076 I0 J-1.412
X-106 Y-42.088 Z4.971 I0 J1.412
X-106 Y-44.912 Z4.867 I0 J-1.412
X-106 Y-42.088 Z4.762 I0 J1.412
X-106 Y-44.912 Z4.657 I0 J-1.412
X-106 Y-42.088 Z4.552 I0 J1.412
X-106 Y-44.912 Z4.448 I0 J-1.412
X-106 Y-42.088 Z4.343 I0 J1.412
X-106 Y-44.912 Z4.238 I0 J-1.412
X-106 Y-42.088 Z4.133 I0 J1.412
X-106 Y-44.912 Z4.029 I0 J-1.412
X-106 Y-42.088 Z3.924 I0 J1.412
X-106 Y-44.912 Z3.819 I0 J-1.412
X-106 Y-42.088 Z3.714 I0 J1.412
X-106 Y-44.912 Z3.609 I0 J-1.412
X-106 Y-42.088 Z3.505 I0 J1.412
X-106 Y-44.912 Z3.4 I0 J-1.412
X-106 Y-42.088 Z3.295 I0 J1.412
X-106 Y-44.912 Z3.19 I0 J-1.412
X-106 Y-42.088 Z3.086 I0 J1.412
X-106 Y-44.912 Z2.981 I0 J-1.412
X-106 Y-42.088 Z2.876 I0 J1.412
X-106 Y-44.912 Z2.771 I0 J-1.412
X-106 Y-42.088 Z2.667 I0 J1.412
X-106 Y-44.912 Z2.562 I0 J-1.412
X-106 Y-42.088 Z2.457 I0 J1.412
X-106 Y-44.912 Z2.352 I0 J-1.412
X-106 Y-42.088 Z2.248 I0 J1.412
X-106 Y-44.912 Z2.143 I0 J-1.412
X-106 Y-42.088 Z2.038 I0 J1.412
X-106 Y-44.912 Z1.933 I0 J-1.412
X-106 Y-42.088 Z1.829 I0 J1.412
X-106 Y-44.912 Z1.724 I0 J-1.412
X-106 Y-42.088 Z1.619 I0 J1.412
X-106 Y-44.912 Z1.514 I0 J-1.412
X-106 Y-42.088 Z1.409 I0 J1.412
X-106 Y-44.912 Z1.305 I0 J-1.412
X-106 Y-42.088 Z1.2 I0 J1.412
X-106 Y-44.912 Z1.095 I0 J-1.412
X-106 Y-42.088 Z0.99 I0 J1.412
X-106 Y-44.912 Z0.886 I0 J-1.412
X-106 Y-42.088 Z0.781 I0 J1.412
X-106 Y-44.912 Z0.676 I0 J-1.412
X-106 Y-42.088 Z0.571 I0 J1.412
X-106 Y-44.912 Z0.467 I0 J-1.412
X-106 Y-42.088 Z0.362 I0 J1.412
X-106 Y-44.912 Z0.257 I0 J-1.412
X-106 Y-42.088 Z0.152 I0 J1.412
X-106 Y-44.912 Z0.048 I0 J-1.412
X-104.602 Y-43.703 Z0 I0 J1.412
X-107.398 Y-43.297 I-1.398 J0.203
X-104.602 Y-43.703 I1.398 J-0.203
X-104.871 Y-43.343 I-0.314 J0.046
G1 X-105.028 Y-43.32
X-105.098 Y-43.31 Z0.008
X-105.164 Y-43.3 Z0.031
X-105.224 Y-43.292 Z0.069
X-105.274 Y-43.284 Z0.12
X-105.311 Y-43.279 Z0.18
X-105.334 Y-43.276 Z0.247
X-105.342 Y-43.275 Z0.317
G0 Z18.1
X-105.683 Y-55.381
Z12
G1 Z10.318 F500
G19 G3 Y-55.064 Z10 J0.317 K0
G1 Y-54.905
G17 G3 X-106 Y-54.588 I-0.317 J0
X-106 Y-57.412 Z9.895 I0 J-1.412
X-106 Y-54.588 Z9.79 I0 J1.412
X-106 Y-57.412 Z9.686 I0 J-1.412
X-106 Y-54.588 Z9.581 I0 J1.412
X-106 Y-57.412 Z9.476 I0 J-1.412
X-106 Y-54.588 Z9.371 I0 J1.412
X-106 Y-57.412 Z9.267 I0 J-1.412
X-106 Y-54.588 Z9.162 I0 J1.412
X-106 Y-57.412 Z9.057 I0 J-1.412
X-106 Y-54.588 Z8.952 I0 J1.412
X-106 Y-57.412 Z8.848 I0 J-1.412
X-106 Y-54.588 Z8.743 I0 J1.412
X-106 Y-57.412 Z8.638 I0 J-1.412
X-106 Y-54.588 Z8.533 I0 J1.412
X-106 Y-57.412 Z8.429 I0 J-1.412
X-106 Y-54.588 Z8.324 I0 J1.412
X-106 Y-57.412 Z8.219 I0 J-1.412
X-106 Y-54.588 Z8.114 I0 J1.412
X-106 Y-57.412 Z8.01 I0 J-1.412
X-106 Y-54.588 Z7.905 I0 J1.412
X-106 Y-57.412 Z7.8 I0 J-1.412
X-106 Y-54.588 Z7.695 I0 J1.412
X-106 Y-57.412 Z7.59 I0 J-1.412
X-106 Y-54.588 Z7.486 I0 J1.412
X-106 Y-57.412 Z7.381 I0 J-1.412
X-106 Y-54.588 Z7.276 I0 J1.412
X-106 Y-57.412 Z7.171 I0 J-1.412
X-106 Y-54.588 Z7.067 I0 J1.412
X-106 Y-57.412 Z6.962 I0 J-1.412
X-106 Y-54.588 Z6.857 I0 J1.412
X-106 Y-57.412 Z6.752 I0 J-1.412
X-106 Y-54.588 Z6.648 I0 J1.412
X-106 Y-57.412 Z6.543 I0 J-1.412
X-106 Y-54.588 Z6.438 I0 J1.412
X-106 Y-57.412 Z6.333 I0 J-1.412
X-106 Y-54.588 Z6.229 I0 J1.412
X-106 Y-57.412 Z6.124 I0 J-1.412
X-106 Y-54.588 Z6.019 I0 J1.412
X-106 Y-57.412 Z5.914 I0 J-1.412
X-106 Y-54.588 Z5.81 I0 J1.412
X-106 Y-57.412 Z5.705 I0 J-1.412
X-106 Y-54.588 Z5.6 I0 J1.412
X-106 Y-57.412 Z5.495 I0 J-1.412
X-106 Y-54.588 Z5.39 I0 J1.412
X-106 Y-57.412 Z5.286 I0 J-1.412
X-106 Y-54.588 Z5.181 I0 J1.412
X-106 Y-57.412 Z5.076 I0 J-1.412
X-106 Y-54.588 Z4.971 I0 J1.412
X-106 Y-57.412 Z4.867 I0 J-1.412
X-106 Y-54.588 Z4.762 I0 J1.412
X-106 Y-57.412 Z4.657 I0 J-1.412
X-106 Y-54.588 Z4.552 I0 J1.412
X-106 Y-57.412 Z4.448 I0 J-1.412
X-106 Y-54.588 Z4.343 I0 J1.412
X-106 Y-57.412 Z4.238 I0 J-1.412
X-106 Y-54.588 Z4.133 I0 J1.412
X-106 Y-57.412 Z4.029 I0 J-1.412
X-106 Y-54.588 Z3.924 I0 J1.412
X-106 Y-57.412 Z3.819 I0 J-1.412
X-106 Y-54.588 Z3.714 I0 J1.412
X-106 Y-57.412 Z3.609 I0 J-1.412
X-106 Y-54.588 Z3.505 I0 J1.412
X-106 Y-57.412 Z3.4 I0 J-1.412
X-106 Y-54.588 Z3.295 I0 J1.412
X-106 Y-57.412 Z3.19 I0 J-1.412
X-106 Y-54.588 Z3.086 I0 J1.412
X-106 Y-57.412 Z2.981 I0 J-1.412
X-106 Y-54.588 Z2.876 I0 J1.412
X-106 Y-57.412 Z2.771 I0 J-1.412
X-106 Y-54.588 Z2.667 I0 J1.412
X-106 Y-57.412 Z2.562 I0 J-1.412
X-106 Y-54.588 Z2.457 I0 J1.412
X-106 Y-57.412 Z2.352 I0 J-1.412
X-106 Y-54.588 Z2.248 I0 J1.412
X-106 Y-57.412 Z2.143 I0 J-1.412
X-106 Y-54.588 Z2.038 I0 J1.412
X-106 Y-57.412 Z1.933 I0 J-1.412
X-106 Y-54.588 Z1.829 I0 J1.412
X-106 Y-57.412 Z1.724 I0 J-1.412
X-106 Y-54.588 Z1.619 I0 J1.412
X-106 Y-57.412 Z1.514 I0 J-1.412
X-106 Y-54.588 Z1.409 I0 J1.412
X-106 Y-57.412 Z1.305 I0 J-1.412
X-106 Y-54.588 Z1.2 I0 J1.412
X-106 Y-57.412 Z1.095 I0 J-1.412
X-106 Y-54.588 Z0.99 I0 J1.412
X-106 Y-57.412 Z0.886 I0 J-1.412
X-106 Y-54.588 Z0.781 I0 J1.412
X-106 Y-57.412 Z0.676 I0 J-1.412
X-106 Y-54.588 Z0.571 I0 J1.412
X-106 Y-57.412 Z0.467 I0 J-1.412
X-106 Y-54.588 Z0.362 I0 J1.412
X-106 Y-57.412 Z0.257 I0 J-1.412
X-106 Y-54.588 Z0.152 I0 J1.412
X-106 Y-57.412 Z0.048 I0 J-1.412
X-104.602 Y-56.203 Z0 I0 J1.412
X-107.398 Y-55.797 I-1.398 J0.203
X-104.602 Y-56.203 I1.398 J-0.203
X-104.871 Y-55.843 I-0.314 J0.046
G1 X-105.028 Y-55.82
X-105.098 Y-55.81 Z0.008
X-105.164 Y-55.8 Z0.031
X-105.224 Y-55.792 Z0.069
X-105.274 Y-55.784 Z0.12
X-105.311 Y-55.779 Z0.18
X-105.334 Y-55.776 Z0.247
X-105.342 Y-55.775 Z0.317
G0 Z18.1
X-93.183 Y-55.381
Z12
G1 Z10.318 F500
G19 G3 Y-55.064 Z10 J0.317 K0
G1 Y-54.905
G17 G3 X-93.5 Y-54.588 I-0.317 J0
X-93.5 Y-57.412 Z9.895 I0 J-1.412
X-93.5 Y-54.588 Z9.79 I0 J1.412
X-93.5 Y-57.412 Z9.686 I0 J-1.412
X-93.5 Y-54.588 Z9.581 I0 J1.412
X-93.5 Y-57.412 Z9.476 I0 J-1.412
X-93.5 Y-54.588 Z9.371 I0 J1.412
X-93.5 Y-57.412 Z9.267 I0 J-1.412
X-93.5 Y-54.588 Z9.162 I0 J1.412
X-93.5 Y-57.412 Z9.057 I0 J-1.412
X-93.5 Y-54.588 Z8.952 I0 J1.412
X-93.5 Y-57.412 Z8.848 I0 J-1.412
X-93.5 Y-54.588 Z8.743 I0 J1.412
X-93.5 Y-57.412 Z8.638 I0 J-1.412
X-93.5 Y-54.588 Z8.533 I0 J1.412
X-93.5 Y-57.412 Z8.429 I0 J-1.412
X-93.5 Y-54.588 Z8.324 I0 J1.412
X-93.5 Y-57.412 Z8.219 I0 J-1.412
X-93.5 Y-54.588 Z8.114 I0 J1.412
X-93.5 Y-57.412 Z8.01 I0 J-1.412
X-93.5 Y-54.588 Z7.905 I0 J1.412
X-93.5 Y-57.412 Z7.8 I0 J-1.412
X-93.5 Y-54.588 Z7.695 I0 J1.412
X-93.5 Y-57.412 Z7.59 I0 J-1.412
X-93.5 Y-54.588 Z7.486 I0 J1.412
X-93.5 Y-57.412 Z7.381 I0 J-1.412
X-93.5 Y-54.588 Z7.276 I0 J1.412
X-93.5 Y-57.412 Z7.171 I0 J-1.412
X-93.5 Y-54.588 Z7.067 I0 J1.412
X-93.5 Y-57.412 Z6.962 I0 J-1.412
X-93.5 Y-54.588 Z6.857 I0 J1.412
X-93.5 Y-57.412 Z6.752 I0 J-1.412
X-93.5 Y-54.588 Z6.648 I0 J1.412
X-93.5 Y-57.412 Z6.543 I0 J-1.412
X-93.5 Y-54.588 Z6.438 I0 J1.412
X-93.5 Y-57.412 Z6.333 I0 J-1.412
X-93.5 Y-54.588 Z6.229 I0 J1.412
X-93.5 Y-57.412 Z6.124 I0 J-1.412
X-93.5 Y-54.588 Z6.019 I0 J1.412
X-93.5 Y-57.412 Z5.914 I0 J-1.412
X-93.5 Y-54.588 Z5.81 I0 J1.412
X-93.5 Y-57.412 Z5.705 I0 J-1.412
X-93.5 Y-54.588 Z5.6 I0 J1.412
X-93.5 Y-57.412 Z5.495 I0 J-1.412
X-93.5 Y-54.588 Z5.39 I0 J1.412
X-93.5 Y-57.412 Z5.286 I0 J-1.412
X-93.5 Y-54.588 Z5.181 I0 J1.412
X-93.5 Y-57.412 Z5.076 I0 J-1.412
X-93.5 Y-54.588 Z4.971 I0 J1.412
X-93.5 Y-57.412 Z4.867 I0 J-1.412
X-93.5 Y-54.588 Z4.762 I0 J1.412
X-93.5 Y-57.412 Z4.657 I0 J-1.412
X-93.5 Y-54.588 Z4.552 I0 J1.412
X-93.5 Y-57.412 Z4.448 I0 J-1.412
X-93.5 Y-54.588 Z4.343 I0 J1.412
X-93.5 Y-57.412 Z4.238 I0 J-1.412
X-93.5 Y-54.588 Z4.133 I0 J1.412
X-93.5 Y-57.412 Z4.029 I0 J-1.412
X-93.5 Y-54.588 Z3.924 I0 J1.412
X-93.5 Y-57.412 Z3.819 I0 J-1.412
X-93.5 Y-54.588 Z3.714 I0 J1.412
X-93.5 Y-57.412 Z3.609 I0 J-1.412
X-93.5 Y-54.588 Z3.505 I0 J1.412
X-93.5 Y-57.412 Z3.4 I0 J-1.412
X-93.5 Y-54.588 Z3.295 I0 J1.412
X-93.5 Y-57.412 Z3.19 I0 J-1.412
X-93.5 Y-54.588 Z3.086 I0 J1.412
X-93.5 Y-57.412 Z2.981 I0 J-1.412
X-93.5 Y-54.588 Z2.876 I0 J1.412
X-93.5 Y-57.412 Z2.771 I0 J-1.412
X-93.5 Y-54.588 Z2.667 I0 J1.412
X-93.5 Y-57.412 Z2.562 I0 J-1.412
X-93.5 Y-54.588 Z2.457 I0 J1.412
X-93.5 Y-57.412 Z2.352 I0 J-1.412
X-93.5 Y-54.588 Z2.248 I0 J1.412
X-93.5 Y-57.412 Z2.143 I0 J-1.412
X-93.5 Y-54.588 Z2.038 I0 J1.412
X-93.5 Y-57.412 Z1.933 I0 J-1.412
X-93.5 Y-54.588 Z1.829 I0 J1.412
X-93.5 Y-57.412 Z1.724 I0 J-1.412
X-93.5 Y-54.588 Z1.619 I0 J1.412
X-93.5 Y-57.412 Z1.514 I0 J-1.412
X-93.5 Y-54.588 Z1.409 I0 J1.412
X-93.5 Y-57.412 Z1.305 I0 J-1.412
X-93.5 Y-54.588 Z1.2 I0 J1.412
X-93.5 Y-57.412 Z1.095 I0 J-1.412
X-93.5 Y-54.588 Z0.99 I0 J1.412
X-93.5 Y-57.412 Z0.886 I0 J-1.412
X-93.5 Y-54.588 Z0.781 I0 J1.412
X-93.5 Y-57.412 Z0.676 I0 J-1.412
X-93.5 Y-54.588 Z0.571 I0 J1.412
X-93.5 Y-57.412 Z0.467 I0 J-1.412
X-93.5 Y-54.588 Z0.362 I0 J1.412
X-93.5 Y-57.412 Z0.257 I0 J-1.412
X-93.5 Y-54.588 Z0.152 I0 J1.412
X-93.5 Y-57.412 Z0.048 I0 J-1.412
X-92.102 Y-56.203 Z0 I0 J1.412
X-94.898 Y-55.797 I-1.398 J0.203
X-92.102 Y-56.203 I1.398 J-0.203
X-92.371 Y-55.843 I-0.314 J0.046
G1 X-92.528 Y-55.82
X-92.598 Y-55.81 Z0.008
X-92.664 Y-55.8 Z0.031
X-92.724 Y-55.792 Z0.069
X-92.774 Y-55.784 Z0.12
X-92.811 Y-55.779 Z0.18
X-92.834 Y-55.776 Z0.247
X-92.842 Y-55.775 Z0.317
G0 Z18.1
X-80.683 Y-55.381
Z12
G1 Z10.318 F500
G19 G3 Y-55.064 Z10 J0.317 K0
G1 Y-54.905
G17 G3 X-81 Y-54.588 I-0.317 J0
X-81 Y-57.412 Z9.895 I0 J-1.412
X-81 Y-54.588 Z9.79 I0 J1.412
X-81 Y-57.412 Z9.686 I0 J-1.412
X-81 Y-54.588 Z9.581 I0 J1.412
X-81 Y-57.412 Z9.476 I0 J-1.412
X-81 Y-54.588 Z9.371 I0 J1.412
X-81 Y-57.412 Z9.267 I0 J-1.412
X-81 Y-54.588 Z9.162 I0 J1.412
X-81 Y-57.412 Z9.057 I0 J-1.412
X-81 Y-54.588 Z8.952 I0 J1.412
X-81 Y-57.412 Z8.848 I0 J-1.412
X-81 Y-54.588 Z8.743 I0 J1.412
X-81 Y-57.412 Z8.638 I0 J-1.412
X-81 Y-54.588 Z8.533 I0 J1.412
X-81 Y-57.412 Z8.429 I0 J-1.412
X-81 Y-54.588 Z8.324 I0 J1.412
X-81 Y-57.412 Z8.219 I0 J-1.412
X-81 Y-54.588 Z8.114 I0 J1.412
X-81 Y-57.412 Z8.01 I0 J-1.412
X-81 Y-54.588 Z7.905 I0 J1.412
X-81 Y-57.412 Z7.8 I0 J-1.412
X-81 Y-54.588 Z7.695 I0 J1.412
X-81 Y-57.412 Z7.59 I0 J-1.412
X-81 Y-54.588 Z7.486 I0 J1.412
X-81 Y-57.412 Z7.381 I0 J-1.412
X-81 Y-54.588 Z7.276 I0 J1.412
X-81 Y-57.412 Z7.171 I0 J-1.412
X-81 Y-54.588 Z7.067 I0 J1.412
X-81 Y-57.412 Z6.962 I0 J-1.412
X-81 Y-54.588 Z6.857 I0 J1.412
X-81 Y-57.412 Z6.752 I0 J-1.412
X-81 Y-54.588 Z6.648 I0 J1.412
X-81 Y-57.412 Z6.543 I0 J-1.412
X-81 Y-54.588 Z6.438 I0 J1.412
X-81 Y-57.412 Z6.333 I0 J-1.412
X-81 Y-54.588 Z6.229 I0 J1.412
X-81 Y-57.412 Z6.124 I0 J-1.412
X-81 Y-54.588 Z6.019 I0 J1.412
X-81 Y-57.412 Z5.914 I0 J-1.412
X-81 Y-54.588 Z5.81 I0 J1.412
X-81 Y-57.412 Z5.705 I0 J-1.412
X-81 Y-54.588 Z5.6 I0 J1.412
X-81 Y-57.412 Z5.495 I0 J-1.412
X-81 Y-54.588 Z5.39 I0 J1.412
X-81 Y-57.412 Z5.286 I0 J-1.412
X-81 Y-54.588 Z5.181 I0 J1.412
X-81 Y-57.412 Z5.076 I0 J-1.412
X-81 Y-54.588 Z4.971 I0 J1.412
X-81 Y-57.412 Z4.867 I0 J-1.412
X-81 Y-54.588 Z4.762 I0 J1.412
X-81 Y-57.412 Z4.657 I0 J-1.412
X-81 Y-54.588 Z4.552 I0 J1.412
X-81 Y-57.412 Z4.448 I0 J-1.412
X-81 Y-54.588 Z4.343 I0 J1.412
X-81 Y-57.412 Z4.238 I0 J-1.412
X-81 Y-54.588 Z4.133 I0 J1.412
X-81 Y-57.412 Z4.029 I0 J-1.412
X-81 Y-54.588 Z3.924 I0 J1.412
X-81 Y-57.412 Z3.819 I0 J-1.412
X-81 Y-54.588 Z3.714 I0 J1.412
X-81 Y-57.412 Z3.609 I0 J-1.412
X-81 Y-54.588 Z3.505 I0 J1.412
X-81 Y-57.412 Z3.4 I0 J-1.412
X-81 Y-54.588 Z3.295 I0 J1.412
X-81 Y-57.412 Z3.19 I0 J-1.412
X-81 Y-54.588 Z3.086 I0 J1.412
X-81 Y-57.412 Z2.981 I0 J-1.412
X-81 Y-54.588 Z2.876 I0 J1.412
X-81 Y-57.412 Z2.771 I0 J-1.412
X-81 Y-54.588 Z2.667 I0 J1.412
X-81 Y-57.412 Z2.562 I0 J-1.412
X-81 Y-54.588 Z2.457 I0 J1.412
X-81 Y-57.412 Z2.352 I0 J-1.412
X-81 Y-54.588 Z2.248 I0 J1.412
X-81 Y-57.412 Z2.143 I0 J-1.412
X-81 Y-54.588 Z2.038 I0 J1.412
X-81 Y-57.412 Z1.933 I0 J-1.412
X-81 Y-54.588 Z1.829 I0 J1.412
X-81 Y-57.412 Z1.724 I0 J-1.412
X-81 Y-54.588 Z1.619 I0 J1.412
X-81 Y-57.412 Z1.514 I0 J-1.412
X-81 Y-54.588 Z1.409 I0 J1.412
X-81 Y-57.412 Z1.305 I0 J-1.412
X-81 Y-54.588 Z1.2 I0 J1.412
X-81 Y-57.412 Z1.095 I0 J-1.412
X-81 Y-54.588 Z0.99 I0 J1.412
X-81 Y-57.412 Z0.886 I0 J-1.412
X-81 Y-54.588 Z0.781 I0 J1.412
X-81 Y-57.412 Z0.676 I0 J-1.412
X-81 Y-54.588 Z0.571 I0 J1.412
X-81 Y-57.412 Z0.467 I0 J-1.412
X-81 Y-54.588 Z0.362 I0 J1.412
X-81 Y-57.412 Z0.257 I0 J-1.412
X-81 Y-54.588 Z0.152 I0 J1.412
X-81 Y-57.412 Z0.048 I0 J-1.412
X-79.602 Y-56.203 Z0 I0 J1.412
X-82.398 Y-55.797 I-1.398 J0.203
X-79.602 Y-56.203 I1.398 J-0.203
X-79.871 Y-55.843 I-0.314 J0.046
G1 X-80.028 Y-55.82
X-80.098 Y-55.81 Z0.008
X-80.164 Y-55.8 Z0.031
X-80.224 Y-55.792 Z0.069
X-80.274 Y-55.784 Z0.12
X-80.311 Y-55.779 Z0.18
X-80.334 Y-55.776 Z0.247
X-80.342 Y-55.775 Z0.317
G0 Z18.1
X-68.183 Y-55.381
Z12
G1 Z10.318 F500
G19 G3 Y-55.064 Z10 J0.317 K0
G1 Y-54.905
G17 G3 X-68.5 Y-54.588 I-0.317 J0
X-68.5 Y-57.412 Z9.895 I0 J-1.412
X-68.5 Y-54.588 Z9.79 I0 J1.412
X-68.5 Y-57.412 Z9.686 I0 J-1.412
X-68.5 Y-54.588 Z9.581 I0 J1.412
X-68.5 Y-57.412 Z9.476 I0 J-1.412
X-68.5 Y-54.588 Z9.371 I0 J1.412
X-68.5 Y-57.412 Z9.267 I0 J-1.412
X-68.5 Y-54.588 Z9.162 I0 J1.412
X-68.5 Y-57.412 Z9.057 I0 J-1.412
X-68.5 Y-54.588 Z8.952 I0 J1.412
X-68.5 Y-57.412 Z8.848 I0 J-1.412
X-68.5 Y-54.588 Z8.743 I0 J1.412
X-68.5 Y-57.412 Z8.638 I0 J-1.412
X-68.5 Y-54.588 Z8.533 I0 J1.412
X-68.5 Y-57.412 Z8.429 I0 J-1.412
X-68.5 Y-54.588 Z8.324 I0 J1.412
X-68.5 Y-57.412 Z8.219 I0 J-1.412
X-68.5 Y-54.588 Z8.114 I0 J1.412
X-68.5 Y-57.412 Z8.01 I0 J-1.412
X-68.5 Y-54.588 Z7.905 I0 J1.412
X-68.5 Y-57.412 Z7.8 I0 J-1.412
X-68.5 Y-54.588 Z7.695 I0 J1.412
X-68.5 Y-57.412 Z7.59 I0 J-1.412
X-68.5 Y-54.588 Z7.486 I0 J1.412
X-68.5 Y-57.412 Z7.381 I0 J-1.412
X-68.5 Y-54.588 Z7.276 I0 J1.412
X-68.5 Y-57.412 Z7.171 I0 J-1.412
X-68.5 Y-54.588 Z7.067 I0 J1.412
X-68.5 Y-57.412 Z6.962 I0 J-1.412
X-68.5 Y-54.588 Z6.857 I0 J1.412
X-68.5 Y-57.412 Z6.752 I0 J-1.412
X-68.5 Y-54.588 Z6.648 I0 J1.412
X-68.5 Y-57.412 Z6.543 I0 J-1.412
X-68.5 Y-54.588 Z6.438 I0 J1.412
X-68.5 Y-57.412 Z6.333 I0 J-1.412
X-68.5 Y-54.588 Z6.229 I0 J1.412
X-68.5 Y-57.412 Z6.124 I0 J-1.412
X-68.5 Y-54.588 Z6.019 I0 J1.412
X-68.5 Y-57.412 Z5.914 I0 J-1.412
X-68.5 Y-54.588 Z5.81 I0 J1.412
X-68.5 Y-57.412 Z5.705 I0 J-1.412
X-68.5 Y-54.588 Z5.6 I0 J1.412
X-68.5 Y-57.412 Z5.495 I0 J-1.412
X-68.5 Y-54.588 Z5.39 I0 J1.412
X-68.5 Y-57.412 Z5.286 I0 J-1.412
X-68.5 Y-54.588 Z5.181 I0 J1.412
X-68.5 Y-57.412 Z5.076 I0 J-1.412
X-68.5 Y-54.588 Z4.971 I0 J1.412
X-68.5 Y-57.412 Z4.867 I0 J-1.412
X-68.5 Y-54.588 Z4.762 I0 J1.412
X-68.5 Y-57.412 Z4.657 I0 J-1.412
X-68.5 Y-54.588 Z4.552 I0 J1.412
X-68.5 Y-57.412 Z4.448 I0 J-1.412
X-68.5 Y-54.588 Z4.343 I0 J1.412
X-68.5 Y-57.412 Z4.238 I0 J-1.412
X-68.5 Y-54.588 Z4.133 I0 J1.412
X-68.5 Y-57.412 Z4.029 I0 J-1.412
X-68.5 Y-54.588 Z3.924 I0 J1.412
X-68.5 Y-57.412 Z3.819 I0 J-1.412
X-68.5 Y-54.588 Z3.714 I0 J1.412
X-68.5 Y-57.412 Z3.609 I0 J-1.412
X-68.5 Y-54.588 Z3.505 I0 J1.412
X-68.5 Y-57.412 Z3.4 I0 J-1.412
X-68.5 Y-54.588 Z3.295 I0 J1.412
X-68.5 Y-57.412 Z3.19 I0 J-1.412
X-68.5 Y-54.588 Z3.086 I0 J1.412
X-68.5 Y-57.412 Z2.981 I0 J-1.412
X-68.5 Y-54.588 Z2.876 I0 J1.412
X-68.5 Y-57.412 Z2.771 I0 J-1.412
X-68.5 Y-54.588 Z2.667 I0 J1.412
X-68.5 Y-57.412 Z2.562 I0 J-1.412
X-68.5 Y-54.588 Z2.457 I0 J1.412
X-68.5 Y-57.412 Z2.352 I0 J-1.412
X-68.5 Y-54.588 Z2.248 I0 J1.412
X-68.5 Y-57.412 Z2.143 I0 J-1.412
X-68.5 Y-54.588 Z2.038 I0 J1.412
X-68.5 Y-57.412 Z1.933 I0 J-1.412
X-68.5 Y-54.588 Z1.829 I0 J1.412
X-68.5 Y-57.412 Z1.724 I0 J-1.412
X-68.5 Y-54.588 Z1.619 I0 J1.412
X-68.5 Y-57.412 Z1.514 I0 J-1.412
X-68.5 Y-54.588 Z1.409 I0 J1.412
X-68.5 Y-57.412 Z1.305 I0 J-1.412
X-68.5 Y-54.588 Z1.2 I0 J1.412
X-68.5 Y-57.412 Z1.095 I0 J-1.412
X-68.5 Y-54.588 Z0.99 I0 J1.412
X-68.5 Y-57.412 Z0.886 I0 J-1.412
X-68.5 Y-54.588 Z0.781 I0 J1.412
X-68.5 Y-57.412 Z0.676 I0 J-1.412
X-68.5 Y-54.588 Z0.571 I0 J1.412
X-68.5 Y-57.412 Z0.467 I0 J-1.412
X-68.5 Y-54.588 Z0.362 I0 J1.412
X-68.5 Y-57.412 Z0.257 I0 J-1.412
X-68.5 Y-54.588 Z0.152 I0 J1.412
X-68.5 Y-57.412 Z0.048 I0 J-1.412
X-67.102 Y-56.203 Z0 I0 J1.412
X-69.898 Y-55.797 I-1.398 J0.203
X-67.102 Y-56.203 I1.398 J-0.203
X-67.371 Y-55.843 I-0.314 J0.046
G1 X-67.528 Y-55.82
X-67.598 Y-55.81 Z0.008
X-67.664 Y-55.8 Z0.031
X-67.724 Y-55.792 Z0.069
X-67.774 Y-55.784 Z0.12
X-67.811 Y-55.779 Z0.18
X-67.834 Y-55.776 Z0.247
X-67.842 Y-55.775 Z0.317
G0 Z18.1
X-55.682 Y-55.381
Z12
G1 Z10.318 F500
G19 G3 Y-55.064 Z10 J0.317 K0
G1 Y-54.905
G17 G3 X-56 Y-54.588 I-0.318 J0
X-56 Y-57.412 Z9.895 I0 J-1.412
X-56 Y-54.588 Z9.79 I0 J1.412
X-56 Y-57.412 Z9.686 I0 J-1.412
X-56 Y-54.588 Z9.581 I0 J1.412
X-56 Y-57.412 Z9.476 I0 J-1.412
X-56 Y-54.588 Z9.371 I0 J1.412
X-56 Y-57.412 Z9.267 I0 J-1.412
X-56 Y-54.588 Z9.162 I0 J1.412
X-56 Y-57.412 Z9.057 I0 J-1.412
X-56 Y-54.588 Z8.952 I0 J1.412
X-56 Y-57.412 Z8.848 I0 J-1.412
X-56 Y-54.588 Z8.743 I0 J1.412
X-56 Y-57.412 Z8.638 I0 J-1.412
X-56 Y-54.588 Z8.533 I0 J1.412
X-56 Y-57.412 Z8.429 I0 J-1.412
X-56 Y-54.588 Z8.324 I0 J1.412
X-56 Y-57.412 Z8.219 I0 J-1.412
X-56 Y-54.588 Z8.114 I0 J1.412
X-56 Y-57.412 Z8.01 I0 J-1.412
X-56 Y-54.588 Z7.905 I0 J1.412
X-56 Y-57.412 Z7.8 I0 J-1.412
X-56 Y-54.588 Z7.695 I0 J1.412
X-56 Y-57.412 Z7.59 I0 J-1.412
X-56 Y-54.588 Z7.486 I0 J1.412
X-56 Y-57.412 Z7.381 I0 J-1.412
X-56 Y-54.588 Z7.276 I0 J1.412
X-56 Y-57.412 Z7.171 I0 J-1.412
X-56 Y-54.588 Z7.067 I0 J1.412
X-56 Y-57.412 Z6.962 I0 J-1.412
X-56 Y-54.588 Z6.857 I0 J1.412
X-56 Y-57.412 Z6.752 I0 J-1.412
X-56 Y-54.588 Z6.648 I0 J1.412
X-56 Y-57.412 Z6.543 I0 J-1.412
X-56 Y-54.588 Z6.438 I0 J1.412
X-56 Y-57.412 Z6.333 I0 J-1.412
X-56 Y-54.588 Z6.229 I0 J1.412
X-56 Y-57.412 Z6.124 I0 J-1.412
X-56 Y-54.588 Z6.019 I0 J1.412
X-56 Y-57.412 Z5.914 I0 J-1.412
X-56 Y-54.588 Z5.81 I0 J1.412
X-56 Y-57.412 Z5.705 I0 J-1.412
X-56 Y-54.588 Z5.6 I0 J1.412
X-56 Y-57.412 Z5.495 I0 J-1.412
X-56 Y-54.588 Z5.39 I0 J1.412
X-56 Y-57.412 Z5.286 I0 J-1.412
X-56 Y-54.588 Z5.181 I0 J1.412
X-56 Y-57.412 Z5.076 I0 J-1.412
X-56 Y-54.588 Z4.971 I0 J1.412
X-56 Y-57.412 Z4.867 I0 J-1.412
X-56 Y-54.588 Z4.762 I0 J1.412
X-56 Y-57.412 Z4.657 I0 J-1.412
X-56 Y-54.588 Z4.552 I0 J1.412
X-56 Y-57.412 Z4.448 I0 J-1.412
X-56 Y-54.588 Z4.343 I0 J1.412
X-56 Y-57.412 Z4.238 I0 J-1.412
X-56 Y-54.588 Z4.133 I0 J1.412
X-56 Y-57.412 Z4.029 I0 J-1.412
X-56 Y-54.588 Z3.924 I0 J1.412
X-56 Y-57.412 Z3.819 I0 J-1.412
X-56 Y-54.588 Z3.714 I0 J1.412
X-56 Y-57.412 Z3.609 I0 J-1.412
X-56 Y-54.588 Z3.505 I0 J1.412
X-56 Y-57.412 Z3.4 I0 J-1.412
X-56 Y-54.588 Z3.295 I0 J1.412
X-56 Y-57.412 Z3.19 I0 J-1.412
X-56 Y-54.588 Z3.086 I0 J1.412
X-56 Y-57.412 Z2.981 I0 J-1.412
X-56 Y-54.588 Z2.876 I0 J1.412
X-56 Y-57.412 Z2.771 I0 J-1.412
X-56 Y-54.588 Z2.667 I0 J1.412
X-56 Y-57.412 Z2.562 I0 J-1.412
X-56 Y-54.588 Z2.457 I0 J1.412
X-56 Y-57.412 Z2.352 I0 J-1.412
X-56 Y-54.588 Z2.248 I0 J1.412
X-56 Y-57.412 Z2.143 I0 J-1.412
X-56 Y-54.588 Z2.038 I0 J1.412
X-56 Y-57.412 Z1.933 I0 J-1.412
X-56 Y-54.588 Z1.829 I0 J1.412
X-56 Y-57.412 Z1.724 I0 J-1.412
X-56 Y-54.588 Z1.619 I0 J1.412
X-56 Y-57.412 Z1.514 I0 J-1.412
X-56 Y-54.588 Z1.409 I0 J1.412
X-56 Y-57.412 Z1.305 I0 J-1.412
X-56 Y-54.588 Z1.2 I0 J1.412
X-56 Y-57.412 Z1.095 I0 J-1.412
X-56 Y-54.588 Z0.99 I0 J1.412
X-56 Y-57.412 Z0.886 I0 J-1.412
X-56 Y-54.588 Z0.781 I0 J1.412
X-56 Y-57.412 Z0.676 I0 J-1.412
X-56 Y-54.588 Z0.571 I0 J1.412
X-56 Y-57.412 Z0.467 I0 J-1.412
X-56 Y-54.588 Z0.362 I0 J1.412
X-56 Y-57.412 Z0.257 I0 J-1.412
X-56 Y-54.588 Z0.152 I0 J1.412
X-56 Y-57.412 Z0.048 I0 J-1.412
X-54.602 Y-56.203 Z0 I0 J1.412
X-57.398 Y-55.797 I-1.398 J0.203
X-54.602 Y-56.203 I1.398 J-0.203
X-54.871 Y-55.843 I-0.314 J0.046
G1 X-55.028 Y-55.82
X-55.098 Y-55.81 Z0.008
X-55.164 Y-55.8 Z0.031
X-55.224 Y-55.792 Z0.069
X-55.274 Y-55.784 Z0.12
X-55.311 Y-55.779 Z0.18
X-55.334 Y-55.776 Z0.247
X-55.342 Y-55.775 Z0.317
G0 Z18.1
X-43.182 Y-55.381
Z12
G1 Z10.318 F500
G19 G3 Y-55.064 Z10 J0.317 K0
G1 Y-54.905
G17 G3 X-43.5 Y-54.588 I-0.318 J0
X-43.5 Y-57.412 Z9.895 I0 J-1.412
X-43.5 Y-54.588 Z9.79 I0 J1.412
X-43.5 Y-57.412 Z9.686 I0 J-1.412
X-43.5 Y-54.588 Z9.581 I0 J1.412
X-43.5 Y-57.412 Z9.476 I0 J-1.412
X-43.5 Y-54.588 Z9.371 I0 J1.412
X-43.5 Y-57.412 Z9.267 I0 J-1.412
X-43.5 Y-54.588 Z9.162 I0 J1.412
X-43.5 Y-57.412 Z9.057 I0 J-1.412
X-43.5 Y-54.588 Z8.952 I0 J1.412
X-43.5 Y-57.412 Z8.848 I0 J-1.412
X-43.5 Y-54.588 Z8.743 I0 J1.412
X-43.5 Y-57.412 Z8.638 I0 J-1.412
X-43.5 Y-54.588 Z8.533 I0 J1.412
X-43.5 Y-57.412 Z8.429 I0 J-1.412
X-43.5 Y-54.588 Z8.324 I0 J1.412
X-43.5 Y-57.412 Z8.219 I0 J-1.412
X-43.5 Y-54.588 Z8.114 I0 J1.412
X-43.5 Y-57.412 Z8.01 I0 J-1.412
X-43.5 Y-54.588 Z7.905 I0 J1.412
X-43.5 Y-57.412 Z7.8 I0 J-1.412
X-43.5 Y-54.588 Z7.695 I0 J1.412
X-43.5 Y-57.412 Z7.59 I0 J-1.412
X-43.5 Y-54.588 Z7.486 I0 J1.412
X-43.5 Y-57.412 Z7.381 I0 J-1.412
X-43.5 Y-54.588 Z7.276 I0 J1.412
X-43.5 Y-57.412 Z7.171 I0 J-1.412
X-43.5 Y-54.588 Z7.067 I0 J1.412
X-43.5 Y-57.412 Z6.962 I0 J-1.412
X-43.5 Y-54.588 Z6.857 I0 J1.412
X-43.5 Y-57.412 Z6.752 I0 J-1.412
X-43.5 Y-54.588 Z6.648 I0 J1.412
X-43.5 Y-57.412 Z6.543 I0 J-1.412
X-43.5 Y-54.588 Z6.438 I0 J1.412
X-43.5 Y-57.412 Z6.333 I0 J-1.412
X-43.5 Y-54.588 Z6.229 I0 J1.412
X-43.5 Y-57.412 Z6.124 I0 J-1.412
X-43.5 Y-54.588 Z6.019 I0 J1.412
X-43.5 Y-57.412 Z5.914 I0 J-1.412
X-43.5 Y-54.588 Z5.81 I0 J1.412
X-43.5 Y-57.412 Z5.705 I0 J-1.412
X-43.5 Y-54.588 Z5.6 I0 J1.412
X-43.5 Y-57.412 Z5.495 I0 J-1.412
X-43.5 Y-54.588 Z5.39 I0 J1.412
X-43.5 Y-57.412 Z5.286 I0 J-1.412
X-43.5 Y-54.588 Z5.181 I0 J1.412
X-43.5 Y-57.412 Z5.076 I0 J-1.412
X-43.5 Y-54.588 Z4.971 I0 J1.412
X-43.5 Y-57.412 Z4.867 I0 J-1.412
X-43.5 Y-54.588 Z4.762 I0 J1.412
X-43.5 Y-57.412 Z4.657 I0 J-1.412
X-43.5 Y-54.588 Z4.552 I0 J1.412
X-43.5 Y-57.412 Z4.448 I0 J-1.412
X-43.5 Y-54.588 Z4.343 I0 J1.412
X-43.5 Y-57.412 Z4.238 I0 J-1.412
X-43.5 Y-54.588 Z4.133 I0 J1.412
X-43.5 Y-57.412 Z4.029 I0 J-1.412
X-43.5 Y-54.588 Z3.924 I0 J1.412
X-43.5 Y-57.412 Z3.819 I0 J-1.412
X-43.5 Y-54.588 Z3.714 I0 J1.412
X-43.5 Y-57.412 Z3.609 I0 J-1.412
X-43.5 Y-54.588 Z3.505 I0 J1.412
X-43.5 Y-57.412 Z3.4 I0 J-1.412
X-43.5 Y-54.588 Z3.295 I0 J1.412
X-43.5 Y-57.412 Z3.19 I0 J-1.412
X-43.5 Y-54.588 Z3.086 I0 J1.412
X-43.5 Y-57.412 Z2.981 I0 J-1.412
