(chamfer1)
(T2 D=3 CR=0 TAPER=45deg - ZMIN=9 - chamfer mill)
G90 G94
G17
G21
G28 G91 Z0
G90

(2D Chamfer2 2)
T2
S15000 M3
G17 G90 G94
G54
G0 X-53.76 Y-30.786
Z28.1
G0 Z15.1
G1 Z12.1 F300
Z9
X-53.462 Y-30.758
G3 X-58.538 Y-31.242 I-2.538 J-0.242 F500
X-53.462 Y-30.758 I2.538 J0.242
G1 X-53.76 Y-30.786 F300
G0 Z18.1
X-53.75 Y-18.5
Z15.1
G1 Z12.1 F300
Z9
X-53.45
G3 X-58.55 Y-18.5 I-2.55 J0 F500
X-53.45 Y-18.5 I2.55 J0
G1 X-53.75 F300
G0 Z18.1
Y-6
Z15.1
G1 Z12.1 F300
Z9
X-53.45
G3 X-58.55 Y-6 I-2.55 J0 F500
X-53.45 Y-6 I2.55 J0
G1 X-53.75 F300
G0 Z18.1
X-119 Y-0.25
Z15.1
G1 Z12.1 F300
Z9
Y-0.55
X-3 F500
G2 X-0.55 Y-3 I0 J-2.45
G1 Y-59
G2 X-3 Y-61.45 I-2.45 J0
G1 X-119
G2 X-121.45 Y-59 I0 J2.45
G1 Y-3
G2 X-119 Y-0.55 I2.45 J0
G1 Y-0.25 F300
G0 Z18.1
X-103.75 Y-6
Z15.1
G1 Z12.1 F300
Z9
X-103.45
G3 X-108.55 Y-6 I-2.55 J0 F500
X-103.45 Y-6 I2.55 J0
G1 X-103.75 F300
G0 Z18.1
X-91.25
Z15.1
G1 Z12.1 F300
Z9
X-90.95
G3 X-96.05 Y-6 I-2.55 J0 F500
X-90.95 Y-6 I2.55 J0
G1 X-91.25 F300
G0 Z18.1
X-78.75
Z15.1
G1 Z12.1 F300
Z9
X-78.45
G3 X-83.55 Y-6 I-2.55 J0 F500
X-78.45 Y-6 I2.55 J0
G1 X-78.75 F300
G0 Z18.1
X-66.25
Z15.1
G1 Z12.1 F300
Z9
X-65.95
G3 X-71.05 Y-6 I-2.55 J0 F500
X-65.95 Y-6 I2.55 J0
G1 X-66.25 F300
G0 Z18.1
Y-18.5
Z15.1
G1 Z12.1 F300
Z9
X-65.95
G3 X-71.05 Y-18.5 I-2.55 J0 F500
X-65.95 Y-18.5 I2.55 J0
G1 X-66.25 F300
G0 Z18.1
Y-31
Z15.1
G1 Z12.1 F300
Z9
X-65.95
G3 X-71.05 Y-31 I-2.55 J0 F500
X-65.95 Y-31 I2.55 J0
G1 X-66.25 F300
G0 Z18.1
Y-43.5
Z15.1
G1 Z12.1 F300
Z9
X-65.95
G3 X-71.05 Y-43.5 I-2.55 J0 F500
X-65.95 Y-43.5 I2.55 J0
G1 X-66.25 F300
G0 Z18.1
X-53.75
Z15.1
G1 Z12.1 F300
Z9
X-53.45
G3 X-58.55 Y-43.5 I-2.55 J0 F500
X-53.45 Y-43.5 I2.55 J0
G1 X-53.75 F300
G0 Z18.1
Y-56
Z15.1
G1 Z12.1 F300
Z9
X-53.45
G3 X-58.55 Y-56 I-2.55 J0 F500
X-53.45 Y-56 I2.55 J0
G1 X-53.75 F300
G0 Z18.1
X-41.25
Z15.1
G1 Z12.1 F300
Z9
X-40.95
G3 X-46.05 Y-56 I-2.55 J0 F500
X-40.95 Y-56 I2.55 J0
G1 X-41.25 F300
G0 Z18.1
X-28.75
Z15.1
G1 Z12.1 F300
Z9
X-28.45
G3 X-33.55 Y-56 I-2.55 J0 F500
X-28.45 Y-56 I2.55 J0
G1 X-28.75 F300
G0 Z18.1
X-16.25
Z15.1
G1 Z12.1 F300
Z9
X-15.95
G3 X-21.05 Y-56 I-2.55 J0 F500
X-15.95 Y-56 I2.55 J0
G1 X-16.25 F300
G0 Z18.1
X-3.75
Z15.1
G1 Z12.1 F300
Z9
X-3.45
G3 X-8.55 Y-56 I-2.55 J0 F500
X-3.45 Y-56 I2.55 J0
G1 X-3.75 F300
G0 Z18.1
X-39.25 Y-31
Z15.1
G1 Z12.1 F300
Z9
X-38.95
G3 X-43.05 Y-31 I-2.05 J0 F500
X-38.95 Y-31 I2.05 J0
G1 X-39.25 F300
G0 Z18.1
X-41.25 Y-6
Z15.1
G1 Z12.1 F300
Z9
X-40.95
G3 X-46.05 Y-6 I-2.55 J0 F500
X-40.95 Y-6 I2.55 J0
G1 X-41.25 F300
G0 Z18.1
X-28.75
Z15.1
G1 Z12.1 F300
Z9
X-28.45
G3 X-33.55 Y-6 I-2.55 J0 F500
X-28.45 Y-6 I2.55 J0
G1 X-28.75 F300
G0 Z18.1
X-16.26 Y-5.786
Z15.1
G1 Z12.1 F300
Z9
X-15.962 Y-5.758
G3 X-21.038 Y-6.242 I-2.538 J-0.242 F500
X-15.962 Y-5.758 I2.538 J0.242
G1 X-16.26 Y-5.786 F300
G0 Z18.1
X-3.75 Y-6
Z15.1
G1 Z12.1 F300
Z9
X-3.45
G3 X-8.55 Y-6 I-2.55 J0 F500
X-3.45 Y-6 I2.55 J0
G1 X-3.75 F300
G0 Z18.1
X-78.75 Y-18.5
Z15.1
G1 Z12.1 F300
Z9
X-78.45
G3 X-83.55 Y-18.5 I-2.55 J0 F500
X-78.45 Y-18.5 I2.55 J0
G1 X-78.75 F300
G0 Z18.1
X-91.25
Z15.1
G1 Z12.1 F300
Z9
X-90.95
G3 X-96.05 Y-18.5 I-2.55 J0 F500
X-90.95 Y-18.5 I2.55 J0
G1 X-91.25 F300
G0 Z18.1
Y-31
Z15.1
G1 Z12.1 F300
Z9
X-90.95
G3 X-96.05 Y-31 I-2.55 J0 F500
X-90.95 Y-31 I2.55 J0
G1 X-91.25 F300
G0 Z18.1
Y-43.5
Z15.1
G1 Z12.1 F300
Z9
X-90.95
G3 X-96.05 Y-43.5 I-2.55 J0 F500
X-90.95 Y-43.5 I2.55 J0
G1 X-91.25 F300
G0 Z18.1
X-78.76 Y-43.286
Z15.1
G1 Z12.1 F300
Z9
X-78.462 Y-43.258
G3 X-83.538 Y-43.742 I-2.538 J-0.242 F500
X-78.462 Y-43.258 I2.538 J0.242
G1 X-78.76 Y-43.286 F300
G0 Z18.1
X-78.75 Y-56
Z15.1
G1 Z12.1 F300
Z9
X-78.45
G3 X-83.55 Y-56 I-2.55 J0 F500
X-78.45 Y-56 I2.55 J0
G1 X-78.75 F300
G0 Z18.1
X-66.25
Z15.1
G1 Z12.1 F300
Z9
X-65.95
G3 X-71.05 Y-56 I-2.55 J0 F500
X-65.95 Y-56 I2.55 J0
G1 X-66.25 F300
G0 Z18.1
X-91.25
Z15.1
G1 Z12.1 F300
Z9
X-90.95
G3 X-96.05 Y-56 I-2.55 J0 F500
X-90.95 Y-56 I2.55 J0
G1 X-91.25 F300
G0 Z18.1
X-103.75
Z15.1
G1 Z12.1 F300
Z9
X-103.45
G3 X-108.55 Y-56 I-2.55 J0 F500
X-103.45 Y-56 I2.55 J0
G1 X-103.75 F300
G0 Z18.1
X-103.76 Y-43.286
Z15.1
G1 Z12.1 F300
Z9
X-103.462 Y-43.258
G3 X-108.538 Y-43.742 I-2.538 J-0.242 F500
X-103.462 Y-43.258 I2.538 J0.242
G1 X-103.76 Y-43.286 F300
G0 Z18.1
X-103.75 Y-31
Z15.1
G1 Z12.1 F300
Z9
X-103.45
G3 X-108.55 Y-31 I-2.55 J0 F500
X-103.45 Y-31 I2.55 J0
G1 X-103.75 F300
G0 Z18.1
Y-18.5
Z15.1
G1 Z12.1 F300
Z9
X-103.45
G3 X-108.55 Y-18.5 I-2.55 J0 F500
X-103.45 Y-18.5 I2.55 J0
G1 X-103.75 F300
G0 Z28.1
G28 G91 Z0
G90
G28 G91 X0 Y0
G90
M5
M30
