(adap1)
(T1  D=4 CR=0 - ZMIN=5 - flat end mill)
G90 G94
G17
G21
G28 G91 Z0
G90

(Adaptive5)
T1
S18000 M3
G54
G0 X34.982 Y-15.103
Z28
Z18
Z11.95
G1 Z11.55 F600
Z9.55
G3 X37.18 Y-15.019 I1.054 J1.226
G1 X37.162 Y-15.005 F1300
X37.144 Y-14.993
X37.107 Y-14.972
X37.071 Y-14.957
X37.034 Y-14.946
X36.998 Y-14.938
X36.341 Y-14.851
X36.177 Y-14.821
X36.013 Y-14.781
X35.849 Y-14.73
X35.685 Y-14.663
X34.865 Y-14.322
X34.701 Y-14.242
X34.631 Y-14.204
X34.409 Y-14.098
X34.049 Y-13.959
X33.559 Y-13.815
X32.853 Y-13.666
X32.136 Y-13.575
X31.417 Y-13.518
X30.696 Y-13.482
X29.974 Y-13.46
X29.252 Y-13.446
X28.53 Y-13.438
X27.808 Y-13.432
X27.086 Y-13.429
X25.642 Y-13.426
X22.754 Y-13.425
X-15.511 Y-13.44
X-16.233
X-16.339 Y-13.452
X-16.44 Y-13.486
X-16.531 Y-13.541
X-16.817 Y-13.761
X-16.981 Y-13.884
X-17.343 Y-14.154
X-17.377 Y-14.173
X-17.802 Y-14.372
X-17.966 Y-14.444
X-18.458 Y-14.648
X-18.504 Y-14.665
X-18.909 Y-14.806
X-19.278 Y-14.864
X-19.442 Y-14.89
X-19.77 Y-14.933
X-19.852 Y-14.948
X-19.893 Y-14.961
G3 X-20.108 Y-15.264 I0.182 J-0.356 F800
G1 X-20.112 Y-15.318 Z9.554
X-20.098 Y-15.378 Z9.568
X-20.085 Y-15.436 Z9.591
X-20.073 Y-15.49 Z9.624
X-20.038 Y-15.535 Z9.674
X-20.01 Y-15.572 Z9.734
X-19.989 Y-15.599 Z9.801
X-19.976 Y-15.616 Z9.874
X-19.971 Y-15.622 Z9.949
G0 Z18
X33.894 Y-13.932
Z11.95
G1 Z11.55 F600
Z9.55
G3 X34.631 Y-14.204 I1.123 J1.906
G1 X34.537 Y-14.153 F1300
X34.373 Y-14.038
X34.333 Y-14.009
X34.044 Y-13.789
X33.552 Y-13.41
X33.486 Y-13.354
X33.311 Y-13.19
X33.125 Y-13.028
X32.944 Y-12.894
X32.724 Y-12.757
X32.437 Y-12.609
X32.078 Y-12.459
X31.596 Y-12.302
X30.926 Y-12.141
X30.213 Y-12.03
X29.494 Y-11.958
X28.774 Y-11.911
X28.053 Y-11.88
X27.331 Y-11.86
X26.609 Y-11.847
X25.887 Y-11.839
X25.165 Y-11.834
X24.443 Y-11.831
X22.999 Y-11.827
X20.111 Y-11.826
X-14.38 Y-11.839
X-14.622 Y-11.871
X-14.847 Y-11.964
X-15.04 Y-12.113
X-15.997 Y-13.07
X-16.161 Y-13.226
X-16.325 Y-13.38
X-16.531 Y-13.541
G3 X-16.464 Y-14.203 I0.255 J-0.308 F800
G1 X-16.395 Y-14.24 Z9.558
X-16.329 Y-14.275 Z9.58
X-16.268 Y-14.307 Z9.617
X-16.214 Y-14.336 Z9.667
X-16.17 Y-14.359 Z9.728
X-16.138 Y-14.376 Z9.797
X-16.117 Y-14.387 Z9.872
X-16.111 Y-14.391 Z9.95
G0 Z18
X33.806 Y-14.258
Z10.35
G1 Z9.95 F600
X33.804 Y-14.251 Z9.872
X33.798 Y-14.229 Z9.797
X33.788 Y-14.193 Z9.728
X33.775 Y-14.145 Z9.667
X33.759 Y-14.087 Z9.617
X33.74 Y-14.02 Z9.58
X33.721 Y-13.948 Z9.558
X33.7 Y-13.873 Z9.55
G3 X33.311 Y-13.19 I-1.526 J-0.418
G1 X33.224 Y-13.106 F1300
X31.833 Y-11.715
X31.642 Y-11.543
X31.46 Y-11.402
X31.223 Y-11.249
X30.938 Y-11.095
X30.565 Y-10.932
X30.09 Y-10.767
X29.436 Y-10.598
X28.725 Y-10.473
X28.008 Y-10.39
X27.288 Y-10.335
X26.567 Y-10.298
X25.845 Y-10.273
X25.123 Y-10.257
X24.401 Y-10.246
X23.679 Y-10.239
X22.958 Y-10.234
X22.236 Y-10.231
X20.792 Y-10.228
X17.904 Y-10.227
X-12.78 Y-10.239
X-13.021 Y-10.27
X-13.246 Y-10.364
X-13.439 Y-10.512
X-15.04 Y-12.113
G3 X-15.147 Y-12.385 I0.293 J-0.273 F800
G1 X-15.145 Y-12.428
X-15.138 Y-12.47
X-15.113 Y-12.525 Z9.555
X-15.088 Y-12.579 Z9.569
X-15.064 Y-12.63 Z9.592
X-15.022 Y-12.664 Z9.624
X-14.985 Y-12.695 Z9.665
X-14.954 Y-12.721 Z9.713
X-14.928 Y-12.742 Z9.767
X-14.906 Y-12.752 Z9.825
X-14.892 Y-12.758 Z9.887
X-14.887 Y-12.76 Z9.95
G0 Z18
X32.308 Y-12.792
Z10.35
G1 Z9.95 F600
X32.307 Y-12.785 Z9.872
X32.301 Y-12.763 Z9.797
X32.292 Y-12.727 Z9.728
X32.28 Y-12.679 Z9.667
X32.265 Y-12.62 Z9.617
X32.248 Y-12.553 Z9.58
X32.229 Y-12.48 Z9.558
X32.21 Y-12.405 Z9.55
G3 X31.833 Y-11.715 I-1.534 J-0.39
G1 X30.271 Y-10.153 F1300
X30.075 Y-9.976
X29.886 Y-9.83
X29.645 Y-9.674
X29.353 Y-9.517
X28.974 Y-9.35
X28.482 Y-9.18
X27.815 Y-9.007
X27.104 Y-8.883
X26.387 Y-8.799
X25.667 Y-8.743
X24.946 Y-8.704
X24.225 Y-8.679
X23.503 Y-8.661
X22.781 Y-8.649
X22.059 Y-8.642
X21.337 Y-8.636
X20.615 Y-8.633
X19.171 Y-8.629
X17.005 Y-8.628
X8.341 Y-8.63
X-11.153 Y-8.638
X-11.192 Y-8.639
X-11.429 Y-8.673
X-11.65 Y-8.766
X-11.839 Y-8.912
X-13.439 Y-10.512
G3 X-13.547 Y-10.785 I0.293 J-0.273 F800
G1 X-13.544 Y-10.827
X-13.538 Y-10.869
X-13.512 Y-10.924 Z9.555
X-13.487 Y-10.978 Z9.569
X-13.463 Y-11.029 Z9.592
X-13.422 Y-11.064 Z9.624
X-13.385 Y-11.094 Z9.665
X-13.353 Y-11.12 Z9.713
X-13.328 Y-11.142 Z9.767
X-13.305 Y-11.151 Z9.825
X-13.291 Y-11.157 Z9.887
X-13.287 Y-11.159 Z9.95
G0 Z18
X30.746 Y-11.23
Z10.35
G1 Z9.95 F600
X30.744 Y-11.222 Z9.872
X30.738 Y-11.2 Z9.797
X30.729 Y-11.165 Z9.728
X30.717 Y-11.116 Z9.667
X30.702 Y-11.058 Z9.617
X30.685 Y-10.991 Z9.58
X30.666 Y-10.918 Z9.558
X30.647 Y-10.842 Z9.55
G3 X30.271 Y-10.153 I-1.534 J-0.39
G1 X28.72 Y-8.602 F1300
X28.484 Y-8.389
X28.294 Y-8.243
X28.051 Y-8.085
X27.757 Y-7.927
X27.375 Y-7.759
X26.88 Y-7.587
X26.206 Y-7.413
X25.495 Y-7.289
X24.778 Y-7.204
X24.058 Y-7.147
X23.337 Y-7.108
X22.616 Y-7.082
X21.894 Y-7.064
X21.172 Y-7.052
X20.45 Y-7.044
X19.728 Y-7.038
X19.006 Y-7.034
X17.562 Y-7.03
X15.396 Y-7.029
X8.176 Y-7.03
X-9.578 Y-7.037
X-9.82 Y-7.069
X-10.045 Y-7.162
X-10.238 Y-7.311
X-11.839 Y-8.912
G3 X-11.947 Y-9.184 I0.293 J-0.273 F800
G1 Y-9.185
X-11.944 Y-9.227
X-11.938 Y-9.269
X-11.912 Y-9.324 Z9.555
X-11.887 Y-9.378 Z9.569
X-11.863 Y-9.429 Z9.592
X-11.822 Y-9.463 Z9.624
X-11.785 Y-9.494 Z9.665
X-11.753 Y-9.52 Z9.713
X-11.727 Y-9.541 Z9.767
X-11.705 Y-9.551 Z9.825
X-11.691 Y-9.557 Z9.887
X-11.687 Y-9.559 Z9.95
G0 Z18
X29.195 Y-9.679
Z10.35
G1 Z9.95 F600
X29.193 Y-9.672 Z9.872
X29.188 Y-9.65 Z9.797
X29.179 Y-9.614 Z9.728
X29.166 Y-9.566 Z9.667
X29.151 Y-9.507 Z9.617
X29.134 Y-9.44 Z9.58
X29.116 Y-9.367 Z9.558
X29.097 Y-9.292 Z9.55
G3 X28.72 Y-8.602 I-1.534 J-0.39
G1 X27.082 Y-6.964 F1300
X26.897 Y-6.797
X26.707 Y-6.65
X26.462 Y-6.492
X26.168 Y-6.333
X25.783 Y-6.164
X25.286 Y-5.992
X24.609 Y-5.817
X23.897 Y-5.692
X23.18 Y-5.608
X22.461 Y-5.55
X21.74 Y-5.511
X21.018 Y-5.484
X20.297 Y-5.466
X19.575 Y-5.453
X18.853 Y-5.445
X18.131 Y-5.439
X17.409 Y-5.435
X15.965 Y-5.431
X13.799 Y-5.429
X7.301 Y-5.431
X-7.861 Y-5.437
X-7.986 Y-5.438
X-8.225 Y-5.471
X-8.447 Y-5.564
X-8.638 Y-5.711
X-10.238 Y-7.311
G3 X-10.345 Y-7.583 I0.293 J-0.273 F800
G1 Y-7.584
X-10.343 Y-7.626
X-10.336 Y-7.668
X-10.311 Y-7.723 Z9.555
X-10.286 Y-7.777 Z9.569
X-10.262 Y-7.828 Z9.592
X-10.221 Y-7.862 Z9.624
X-10.183 Y-7.893 Z9.665
X-10.152 Y-7.919 Z9.713
X-10.126 Y-7.94 Z9.767
X-10.104 Y-7.95 Z9.825
X-10.09 Y-7.956 Z9.887
X-10.086 Y-7.958 Z9.95
G0 Z18
X27.557 Y-8.041
Z10.35
G1 Z9.95 F600
X27.555 Y-8.033 Z9.872
X27.549 Y-8.011 Z9.797
X27.54 Y-7.975 Z9.728
X27.528 Y-7.927 Z9.667
X27.513 Y-7.868 Z9.617
X27.496 Y-7.801 Z9.58
X27.477 Y-7.729 Z9.558
X27.458 Y-7.653 Z9.55
G3 X27.082 Y-6.964 I-1.534 J-0.39
G1 X25.607 Y-5.489 F1300
X25.513 Y-5.401
X25.349 Y-5.254
X25.151 Y-5.095
X24.921 Y-4.938
X24.645 Y-4.782
X24.284 Y-4.613
X24.256 Y-4.602
X24.189 Y-4.58
X24.121 Y-4.564
X24.052 Y-4.552
G3 X23.615 Y-4.911 Z9.75 I-0.038 J-0.398 F800
G1 X23.614 Y-4.974
X23.623 Y-5.037
G3 X23.818 Y-5.299 I0.39 J0.087 F1300
G1 X24.877 Y-5.892
G3 X25.262 Y-5.896 I0.196 J0.349
G1 X25.315 Y-5.862 F600
X25.362 Y-5.82
G3 X25.349 Y-5.254 Z9.55 I-0.289 J0.276
G1 X25.06 Y-4.998 F1300
X24.847 Y-4.834
X24.77 Y-4.781
X24.693 Y-4.746
X24.364 Y-4.61
X24.282 Y-4.584
X24.2 Y-4.571
X23.872 Y-4.528
X23.708 Y-4.511
X23.216 Y-4.501
X22.888 Y-4.5
X-6.153
X-6.317 Y-4.503
X-6.809 Y-4.547
X-6.973 Y-4.567
X-7.055 Y-4.577
X-7.096 Y-4.585
X-7.137 Y-4.597
X-7.317 Y-4.67
X-7.547 Y-4.765
X-7.588 Y-4.786
X-7.629 Y-4.813
X-7.656 Y-4.834
X-7.863 Y-4.998
X-8.121 Y-5.204
X-8.252 Y-5.325
X-8.638 Y-5.711
G3 X-8.746 Y-5.984 I0.293 J-0.273 F800
G1 X-8.743 Y-6.026
X-8.737 Y-6.068
X-8.711 Y-6.123 Z9.555
X-8.686 Y-6.177 Z9.569
X-8.662 Y-6.228 Z9.592
X-8.621 Y-6.263 Z9.624
X-8.584 Y-6.293 Z9.665
X-8.552 Y-6.32 Z9.713
X-8.527 Y-6.341 Z9.767
X-8.504 Y-6.35 Z9.825
X-8.49 Y-6.356 Z9.887
X-8.486 Y-6.358 Z9.95
G0 Z18
X34.982 Y-15.103
Z11.5
G1 Z11.1 F600
Z9.1
G3 X37.18 Y-15.019 I1.054 J1.226
G1 X37.162 Y-15.005 F1300
X37.144 Y-14.993
X37.107 Y-14.972
X37.071 Y-14.957
X37.034 Y-14.946
X36.998 Y-14.938
X36.341 Y-14.851
X36.177 Y-14.821
X36.013 Y-14.781
X35.849 Y-14.73
X35.685 Y-14.663
X34.865 Y-14.322
X34.701 Y-14.242
X34.631 Y-14.204
X34.409 Y-14.098
X34.049 Y-13.959
X33.559 Y-13.815
X32.853 Y-13.666
X32.136 Y-13.575
X31.417 Y-13.518
X30.696 Y-13.482
X29.974 Y-13.46
X29.252 Y-13.446
X28.53 Y-13.438
X27.808 Y-13.432
X27.086 Y-13.429
X25.642 Y-13.426
X22.754 Y-13.425
X-15.511 Y-13.44
X-16.233
X-16.339 Y-13.452
X-16.44 Y-13.486
X-16.531 Y-13.541
X-16.817 Y-13.761
X-16.981 Y-13.884
X-17.343 Y-14.154
X-17.377 Y-14.173
X-17.802 Y-14.372
X-17.966 Y-14.444
X-18.458 Y-14.648
X-18.504 Y-14.665
X-18.909 Y-14.806
X-19.278 Y-14.864
X-19.442 Y-14.89
X-19.77 Y-14.933
X-19.852 Y-14.948
X-19.893 Y-14.961
G3 X-20.108 Y-15.264 I0.182 J-0.356 F800
G1 X-20.112 Y-15.318 Z9.104
X-20.098 Y-15.378 Z9.118
X-20.085 Y-15.436 Z9.141
X-20.073 Y-15.49 Z9.174
X-20.038 Y-15.535 Z9.224
X-20.01 Y-15.572 Z9.284
X-19.989 Y-15.599 Z9.351
X-19.976 Y-15.616 Z9.424
X-19.971 Y-15.622 Z9.499
G0 Z18
X33.894 Y-13.932
Z11.5
G1 Z11.1 F600
Z9.1
G3 X34.631 Y-14.204 I1.123 J1.906
G1 X34.537 Y-14.153 F1300
X34.373 Y-14.038
X34.333 Y-14.009
X34.044 Y-13.789
X33.552 Y-13.41
X33.486 Y-13.354
X33.311 Y-13.19
X33.125 Y-13.028
X32.944 Y-12.894
X32.724 Y-12.757
X32.437 Y-12.609
X32.078 Y-12.459
X31.596 Y-12.302
X30.926 Y-12.141
X30.213 Y-12.03
X29.494 Y-11.958
X28.774 Y-11.911
X28.053 Y-11.88
X27.331 Y-11.86
X26.609 Y-11.847
X25.887 Y-11.839
X25.165 Y-11.834
X24.443 Y-11.831
X22.999 Y-11.827
X20.111 Y-11.826
X-14.38 Y-11.839
X-14.622 Y-11.871
X-14.847 Y-11.964
X-15.04 Y-12.113
X-15.997 Y-13.07
X-16.161 Y-13.226
X-16.325 Y-13.38
X-16.531 Y-13.541
G3 X-16.675 Y-13.883 I0.255 J-0.308 F800
G1 X-16.657 Y-13.941 Z9.105
X-16.639 Y-13.997 Z9.119
X-16.622 Y-14.051 Z9.142
X-16.585 Y-14.091 Z9.174
X-16.553 Y-14.126 Z9.215
X-16.525 Y-14.156 Z9.263
X-16.502 Y-14.18 Z9.317
X-16.481 Y-14.193 Z9.375
X-16.468 Y-14.201 Z9.437
X-16.464 Y-14.203 Z9.5
G0 Z9.9
X33.806 Y-14.258
G1 Z9.5 F600
X33.804 Y-14.251 Z9.422
X33.798 Y-14.229 Z9.347
X33.788 Y-14.193 Z9.278
X33.775 Y-14.145 Z9.217
X33.759 Y-14.087 Z9.167
X33.74 Y-14.02 Z9.13
X33.721 Y-13.948 Z9.108
X33.7 Y-13.873 Z9.1
G3 X33.311 Y-13.19 I-1.526 J-0.418
G1 X33.224 Y-13.106 F1300
X31.833 Y-11.715
X31.642 Y-11.543
X31.46 Y-11.402
X31.223 Y-11.249
X30.938 Y-11.095
X30.565 Y-10.932
X30.09 Y-10.767
X29.436 Y-10.598
X28.725 Y-10.473
X28.008 Y-10.39
X27.288 Y-10.335
X26.567 Y-10.298
X25.845 Y-10.273
X25.123 Y-10.257
X24.401 Y-10.246
X23.679 Y-10.239
X22.958 Y-10.234
X22.236 Y-10.231
X20.792 Y-10.228
X17.904 Y-10.227
X-12.78 Y-10.239
X-13.021 Y-10.27
X-13.246 Y-10.364
X-13.439 Y-10.512
X-15.04 Y-12.113
G3 X-15.147 Y-12.385 I0.293 J-0.273 F800
G1 X-15.145 Y-12.428
X-15.138 Y-12.47
X-15.113 Y-12.525 Z9.105
X-15.088 Y-12.579 Z9.119
X-15.064 Y-12.63 Z9.142
X-15.022 Y-12.664 Z9.174
X-14.985 Y-12.695 Z9.215
X-14.954 Y-12.721 Z9.263
X-14.928 Y-12.742 Z9.317
X-14.906 Y-12.752 Z9.375
X-14.892 Y-12.758 Z9.437
X-14.887 Y-12.76 Z9.5
G0 Z9.9
X32.308 Y-12.792
G1 Z9.5 F600
X32.307 Y-12.785 Z9.422
X32.301 Y-12.763 Z9.347
X32.292 Y-12.727 Z9.278
X32.28 Y-12.679 Z9.217
X32.265 Y-12.62 Z9.167
X32.248 Y-12.553 Z9.13
X32.229 Y-12.48 Z9.108
X32.21 Y-12.405 Z9.1
G3 X31.833 Y-11.715 I-1.534 J-0.39
G1 X30.271 Y-10.153 F1300
X30.075 Y-9.976
X29.886 Y-9.83
X29.645 Y-9.674
X29.353 Y-9.517
X28.974 Y-9.35
X28.482 Y-9.18
X27.815 Y-9.007
X27.104 Y-8.883
X26.387 Y-8.799
X25.667 Y-8.743
X24.946 Y-8.704
X24.225 Y-8.679
X23.503 Y-8.661
X22.781 Y-8.649
X22.059 Y-8.642
X21.337 Y-8.636
X20.615 Y-8.633
X19.171 Y-8.629
X17.005 Y-8.628
X8.341 Y-8.63
X-11.153 Y-8.638
X-11.192 Y-8.639
X-11.429 Y-8.673
X-11.65 Y-8.766
X-11.839 Y-8.912
X-13.439 Y-10.512
G3 X-13.547 Y-10.785 I0.293 J-0.273 F800
G1 X-13.544 Y-10.827
X-13.538 Y-10.869
X-13.512 Y-10.924 Z9.105
X-13.487 Y-10.978 Z9.119
X-13.463 Y-11.029 Z9.142
X-13.422 Y-11.064 Z9.174
X-13.385 Y-11.094 Z9.215
X-13.353 Y-11.12 Z9.263
X-13.328 Y-11.142 Z9.317
X-13.305 Y-11.151 Z9.375
X-13.291 Y-11.157 Z9.437
X-13.287 Y-11.159 Z9.5
G0 Z9.9
X30.746 Y-11.23
G1 Z9.5 F600
X30.744 Y-11.222 Z9.422
X30.738 Y-11.2 Z9.347
X30.729 Y-11.165 Z9.278
X30.717 Y-11.116 Z9.217
X30.702 Y-11.058 Z9.167
X30.685 Y-10.991 Z9.13
X30.666 Y-10.918 Z9.108
X30.647 Y-10.842 Z9.1
G3 X30.271 Y-10.153 I-1.534 J-0.39
G1 X28.72 Y-8.602 F1300
X28.484 Y-8.389
X28.294 Y-8.243
X28.051 Y-8.085
X27.757 Y-7.927
X27.375 Y-7.759
X26.88 Y-7.587
X26.206 Y-7.413
X25.495 Y-7.289
X24.778 Y-7.204
X24.058 Y-7.147
X23.337 Y-7.108
X22.616 Y-7.082
X21.894 Y-7.064
X21.172 Y-7.052
X20.45 Y-7.044
X19.728 Y-7.038
X19.006 Y-7.034
X17.562 Y-7.03
X15.396 Y-7.029
X8.176 Y-7.03
X-9.578 Y-7.037
X-9.82 Y-7.069
X-10.045 Y-7.162
X-10.238 Y-7.311
X-11.839 Y-8.912
G3 X-11.947 Y-9.184 I0.293 J-0.273 F800
G1 Y-9.185
X-11.944 Y-9.227
X-11.938 Y-9.269
X-11.912 Y-9.324 Z9.105
X-11.887 Y-9.378 Z9.119
X-11.863 Y-9.429 Z9.142
X-11.822 Y-9.463 Z9.174
X-11.785 Y-9.494 Z9.215
X-11.753 Y-9.52 Z9.263
X-11.727 Y-9.541 Z9.317
X-11.705 Y-9.551 Z9.375
X-11.691 Y-9.557 Z9.437
X-11.687 Y-9.559 Z9.5
G0 Z9.9
X29.195 Y-9.679
G1 Z9.5 F600
X29.193 Y-9.672 Z9.422
X29.188 Y-9.65 Z9.347
X29.179 Y-9.614 Z9.278
X29.166 Y-9.566 Z9.217
X29.151 Y-9.507 Z9.167
X29.134 Y-9.44 Z9.13
X29.116 Y-9.367 Z9.108
X29.097 Y-9.292 Z9.1
G3 X28.72 Y-8.602 I-1.534 J-0.39
G1 X27.082 Y-6.964 F1300
X26.897 Y-6.797
X26.707 Y-6.65
X26.462 Y-6.492
X26.168 Y-6.333
X25.783 Y-6.164
X25.286 Y-5.992
X24.609 Y-5.817
X23.897 Y-5.692
X23.18 Y-5.608
X22.461 Y-5.55
X21.74 Y-5.511
X21.018 Y-5.484
X20.297 Y-5.466
X19.575 Y-5.453
X18.853 Y-5.445
X18.131 Y-5.439
X17.409 Y-5.435
X15.965 Y-5.431
X13.799 Y-5.429
X7.301 Y-5.431
X-7.861 Y-5.437
X-7.986 Y-5.438
X-8.225 Y-5.471
X-8.447 Y-5.564
X-8.638 Y-5.711
X-10.238 Y-7.311
G3 X-10.345 Y-7.583 I0.293 J-0.273 F800
G1 Y-7.584
X-10.343 Y-7.626
X-10.336 Y-7.668
X-10.311 Y-7.723 Z9.105
X-10.286 Y-7.777 Z9.119
X-10.262 Y-7.828 Z9.142
X-10.221 Y-7.862 Z9.174
X-10.183 Y-7.893 Z9.215
X-10.152 Y-7.919 Z9.263
X-10.126 Y-7.94 Z9.317
X-10.104 Y-7.95 Z9.375
X-10.09 Y-7.956 Z9.437
X-10.086 Y-7.958 Z9.5
G0 Z9.9
X27.557 Y-8.041
G1 Z9.5 F600
X27.555 Y-8.033 Z9.422
X27.549 Y-8.011 Z9.347
X27.54 Y-7.975 Z9.278
X27.528 Y-7.927 Z9.217
X27.513 Y-7.868 Z9.167
X27.496 Y-7.801 Z9.13
X27.477 Y-7.729 Z9.108
X27.458 Y-7.653 Z9.1
G3 X27.082 Y-6.964 I-1.534 J-0.39
G1 X25.607 Y-5.489 F1300
X25.513 Y-5.401
X25.349 Y-5.254
X25.151 Y-5.095
X24.921 Y-4.938
X24.645 Y-4.782
X24.284 Y-4.613
X24.256 Y-4.602
X24.189 Y-4.58
X24.121 Y-4.564
X24.052 Y-4.552
G3 X23.615 Y-4.911 Z9.3 I-0.038 J-0.398 F800
G1 X23.614 Y-4.974
X23.623 Y-5.037
G3 X23.818 Y-5.299 I0.39 J0.087 F1300
G1 X24.877 Y-5.892
G3 X25.262 Y-5.896 I0.196 J0.349
G1 X25.315 Y-5.862 F600
X25.362 Y-5.82
G3 X25.349 Y-5.254 Z9.1 I-0.289 J0.276
G1 X25.06 Y-4.998 F1300
X24.847 Y-4.834
X24.77 Y-4.781
X24.693 Y-4.746
X24.364 Y-4.61
X24.282 Y-4.584
X24.2 Y-4.571
X23.872 Y-4.528
X23.708 Y-4.511
X23.216 Y-4.501
X22.888 Y-4.5
X-6.153
X-6.317 Y-4.503
X-6.809 Y-4.547
X-6.973 Y-4.567
X-7.055 Y-4.577
X-7.096 Y-4.585
X-7.137 Y-4.597
X-7.317 Y-4.67
X-7.547 Y-4.765
X-7.588 Y-4.786
X-7.629 Y-4.813
X-7.656 Y-4.834
X-7.863 Y-4.998
X-8.121 Y-5.204
X-8.252 Y-5.325
X-8.638 Y-5.711
G3 X-8.746 Y-5.984 I0.293 J-0.273 F800
G1 X-8.743 Y-6.026
X-8.737 Y-6.068
X-8.711 Y-6.123 Z9.105
X-8.686 Y-6.177 Z9.119
X-8.662 Y-6.228 Z9.142
X-8.621 Y-6.263 Z9.174
X-8.584 Y-6.293 Z9.215
X-8.552 Y-6.32 Z9.263
X-8.527 Y-6.341 Z9.317
X-8.504 Y-6.35 Z9.375
X-8.49 Y-6.356 Z9.437
X-8.486 Y-6.358 Z9.5
G0 Z18
X34.982 Y-15.103
Z11.05
G1 Z10.65 F600
Z8.65
G3 X37.18 Y-15.019 I1.054 J1.226
G1 X37.162 Y-15.005 F1300
X37.144 Y-14.993
X37.107 Y-14.972
X37.071 Y-14.957
X37.034 Y-14.946
X36.998 Y-14.938
X36.341 Y-14.851
X36.177 Y-14.821
X36.013 Y-14.781
X35.849 Y-14.73
X35.685 Y-14.663
X34.865 Y-14.322
X34.701 Y-14.242
X34.631 Y-14.204
X34.409 Y-14.098
X34.049 Y-13.959
X33.559 Y-13.815
X32.853 Y-13.666
X32.136 Y-13.575
X31.417 Y-13.518
X30.696 Y-13.482
X29.974 Y-13.46
X29.252 Y-13.446
X28.53 Y-13.438
X27.808 Y-13.432
X27.086 Y-13.429
X25.642 Y-13.426
X22.754 Y-13.425
X-15.511 Y-13.44
X-16.233
X-16.339 Y-13.452
X-16.44 Y-13.486
X-16.531 Y-13.541
X-16.817 Y-13.761
X-16.981 Y-13.884
X-17.343 Y-14.154
X-17.377 Y-14.173
X-17.802 Y-14.372
X-17.966 Y-14.444
X-18.458 Y-14.648
X-18.504 Y-14.665
X-18.909 Y-14.806
X-19.278 Y-14.864
X-19.442 Y-14.89
X-19.77 Y-14.933
X-19.852 Y-14.948
X-19.893 Y-14.961
G3 X-20.108 Y-15.264 I0.182 J-0.356 F800
G1 X-20.112 Y-15.318 Z8.654
X-20.098 Y-15.378 Z8.668
X-20.085 Y-15.436 Z8.691
X-20.073 Y-15.49 Z8.724
X-20.038 Y-15.535 Z8.774
X-20.01 Y-15.572 Z8.834
X-19.989 Y-15.599 Z8.901
X-19.976 Y-15.616 Z8.974
X-19.971 Y-15.622 Z9.049
G0 Z18
X33.894 Y-13.932
Z11.05
G1 Z10.65 F600
Z8.65
G3 X34.631 Y-14.204 I1.123 J1.906
G1 X34.537 Y-14.153 F1300
X34.373 Y-14.038
X34.333 Y-14.009
X34.044 Y-13.789
X33.552 Y-13.41
X33.486 Y-13.354
X33.311 Y-13.19
X33.125 Y-13.028
X32.944 Y-12.894
X32.724 Y-12.757
X32.437 Y-12.609
X32.078 Y-12.459
X31.596 Y-12.302
X30.926 Y-12.141
X30.213 Y-12.03
X29.494 Y-11.958
X28.774 Y-11.911
X28.053 Y-11.88
X27.331 Y-11.86
X26.609 Y-11.847
X25.887 Y-11.839
X25.165 Y-11.834
X24.443 Y-11.831
X22.999 Y-11.827
X20.111 Y-11.826
X-14.38 Y-11.839
X-14.622 Y-11.871
X-14.847 Y-11.964
X-15.04 Y-12.113
X-15.997 Y-13.07
X-16.161 Y-13.226
X-16.325 Y-13.38
X-16.531 Y-13.541
G3 X-16.675 Y-13.883 I0.255 J-0.308 F800
G1 X-16.657 Y-13.941 Z8.655
X-16.639 Y-13.997 Z8.669
X-16.622 Y-14.051 Z8.692
X-16.585 Y-14.091 Z8.724
X-16.553 Y-14.126 Z8.765
X-16.525 Y-14.156 Z8.813
X-16.502 Y-14.18 Z8.867
X-16.481 Y-14.193 Z8.925
X-16.468 Y-14.201 Z8.987
X-16.464 Y-14.203 Z9.05
G0 Z9.45
X33.806 Y-14.258
G1 Z9.05 F600
X33.804 Y-14.251 Z8.972
X33.798 Y-14.229 Z8.897
X33.788 Y-14.193 Z8.828
X33.775 Y-14.145 Z8.767
X33.759 Y-14.087 Z8.717
X33.74 Y-14.02 Z8.68
X33.721 Y-13.948 Z8.658
X33.7 Y-13.873 Z8.65
G3 X33.311 Y-13.19 I-1.526 J-0.418
G1 X33.224 Y-13.106 F1300
X31.833 Y-11.715
X31.642 Y-11.543
X31.46 Y-11.402
X31.223 Y-11.249
X30.938 Y-11.095
X30.565 Y-10.932
X30.09 Y-10.767
X29.436 Y-10.598
X28.725 Y-10.473
X28.008 Y-10.39
X27.288 Y-10.335
X26.567 Y-10.298
X25.845 Y-10.273
X25.123 Y-10.257
X24.401 Y-10.246
X23.679 Y-10.239
X22.958 Y-10.234
X22.236 Y-10.231
X20.792 Y-10.228
X17.904 Y-10.227
X-12.78 Y-10.239
X-13.021 Y-10.27
X-13.246 Y-10.364
X-13.439 Y-10.512
X-15.04 Y-12.113
G3 X-15.147 Y-12.385 I0.293 J-0.273 F800
G1 X-15.145 Y-12.428
X-15.138 Y-12.47
X-15.113 Y-12.525 Z8.655
X-15.088 Y-12.579 Z8.669
X-15.064 Y-12.63 Z8.692
X-15.022 Y-12.664 Z8.724
X-14.985 Y-12.695 Z8.765
X-14.954 Y-12.721 Z8.813
X-14.928 Y-12.742 Z8.867
X-14.906 Y-12.752 Z8.925
X-14.892 Y-12.758 Z8.987
X-14.887 Y-12.76 Z9.05
G0 Z9.45
X32.308 Y-12.792
G1 Z9.05 F600
X32.307 Y-12.785 Z8.972
X32.301 Y-12.763 Z8.897
X32.292 Y-12.727 Z8.828
X32.28 Y-12.679 Z8.767
X32.265 Y-12.62 Z8.717
X32.248 Y-12.553 Z8.68
X32.229 Y-12.48 Z8.658
X32.21 Y-12.405 Z8.65
G3 X31.833 Y-11.715 I-1.534 J-0.39
G1 X30.271 Y-10.153 F1300
X30.075 Y-9.976
X29.886 Y-9.83
X29.645 Y-9.674
X29.353 Y-9.517
X28.974 Y-9.35
X28.482 Y-9.18
X27.815 Y-9.007
X27.104 Y-8.883
X26.387 Y-8.799
X25.667 Y-8.743
X24.946 Y-8.704
X24.225 Y-8.679
X23.503 Y-8.661
X22.781 Y-8.649
X22.059 Y-8.642
X21.337 Y-8.636
X20.615 Y-8.633
X19.171 Y-8.629
X17.005 Y-8.628
X8.341 Y-8.63
X-11.153 Y-8.638
X-11.192 Y-8.639
X-11.429 Y-8.673
X-11.65 Y-8.766
X-11.839 Y-8.912
X-13.439 Y-10.512
G3 X-13.547 Y-10.785 I0.293 J-0.273 F800
G1 X-13.544 Y-10.827
X-13.538 Y-10.869
X-13.512 Y-10.924 Z8.655
X-13.487 Y-10.978 Z8.669
X-13.463 Y-11.029 Z8.692
X-13.422 Y-11.064 Z8.724
X-13.385 Y-11.094 Z8.765
X-13.353 Y-11.12 Z8.813
X-13.328 Y-11.142 Z8.867
X-13.305 Y-11.151 Z8.925
X-13.291 Y-11.157 Z8.987
X-13.287 Y-11.159 Z9.05
G0 Z9.45
X30.746 Y-11.23
G1 Z9.05 F600
X30.744 Y-11.222 Z8.972
X30.738 Y-11.2 Z8.897
X30.729 Y-11.165 Z8.828
X30.717 Y-11.116 Z8.767
X30.702 Y-11.058 Z8.717
X30.685 Y-10.991 Z8.68
X30.666 Y-10.918 Z8.658
X30.647 Y-10.842 Z8.65
G3 X30.271 Y-10.153 I-1.534 J-0.39
G1 X28.72 Y-8.602 F1300
X28.484 Y-8.389
X28.294 Y-8.243
X28.051 Y-8.085
X27.757 Y-7.927
X27.375 Y-7.759
X26.88 Y-7.587
X26.206 Y-7.413
X25.495 Y-7.289
X24.778 Y-7.204
X24.058 Y-7.147
X23.337 Y-7.108
X22.616 Y-7.082
X21.894 Y-7.064
X21.172 Y-7.052
X20.45 Y-7.044
X19.728 Y-7.038
X19.006 Y-7.034
X17.562 Y-7.03
X15.396 Y-7.029
X8.176 Y-7.03
X-9.578 Y-7.037
X-9.82 Y-7.069
X-10.045 Y-7.162
X-10.238 Y-7.311
X-11.839 Y-8.912
G3 X-11.947 Y-9.184 I0.293 J-0.273 F800
G1 Y-9.185
X-11.944 Y-9.227
X-11.938 Y-9.269
X-11.912 Y-9.324 Z8.655
X-11.887 Y-9.378 Z8.669
X-11.863 Y-9.429 Z8.692
X-11.822 Y-9.463 Z8.724
X-11.785 Y-9.494 Z8.765
X-11.753 Y-9.52 Z8.813
X-11.727 Y-9.541 Z8.867
X-11.705 Y-9.551 Z8.925
X-11.691 Y-9.557 Z8.987
X-11.687 Y-9.559 Z9.05
G0 Z9.45
X29.195 Y-9.679
G1 Z9.05 F600
X29.193 Y-9.672 Z8.972
X29.188 Y-9.65 Z8.897
X29.179 Y-9.614 Z8.828
X29.166 Y-9.566 Z8.767
X29.151 Y-9.507 Z8.717
X29.134 Y-9.44 Z8.68
X29.116 Y-9.367 Z8.658
X29.097 Y-9.292 Z8.65
G3 X28.72 Y-8.602 I-1.534 J-0.39
G1 X27.082 Y-6.964 F1300
X26.897 Y-6.797
X26.707 Y-6.65
X26.462 Y-6.492
X26.168 Y-6.333
X25.783 Y-6.164
X25.286 Y-5.992
X24.609 Y-5.817
X23.897 Y-5.692
X23.18 Y-5.608
X22.461 Y-5.55
X21.74 Y-5.511
X21.018 Y-5.484
X20.297 Y-5.466
X19.575 Y-5.453
X18.853 Y-5.445
X18.131 Y-5.439
X17.409 Y-5.435
X15.965 Y-5.431
X13.799 Y-5.429
X7.301 Y-5.431
X-7.861 Y-5.437
X-7.986 Y-5.438
X-8.225 Y-5.471
X-8.447 Y-5.564
X-8.638 Y-5.711
X-10.238 Y-7.311
G3 X-10.345 Y-7.583 I0.293 J-0.273 F800
G1 Y-7.584
X-10.343 Y-7.626
X-10.336 Y-7.668
X-10.311 Y-7.723 Z8.655
X-10.286 Y-7.777 Z8.669
X-10.262 Y-7.828 Z8.692
X-10.221 Y-7.862 Z8.724
X-10.183 Y-7.893 Z8.765
X-10.152 Y-7.919 Z8.813
X-10.126 Y-7.94 Z8.867
X-10.104 Y-7.95 Z8.925
X-10.09 Y-7.956 Z8.987
X-10.086 Y-7.958 Z9.05
G0 Z9.45
X27.557 Y-8.041
G1 Z9.05 F600
X27.555 Y-8.033 Z8.972
X27.549 Y-8.011 Z8.897
X27.54 Y-7.975 Z8.828
X27.528 Y-7.927 Z8.767
X27.513 Y-7.868 Z8.717
X27.496 Y-7.801 Z8.68
X27.477 Y-7.729 Z8.658
X27.458 Y-7.653 Z8.65
G3 X27.082 Y-6.964 I-1.534 J-0.39
G1 X25.607 Y-5.489 F1300
X25.513 Y-5.401
X25.349 Y-5.254
X25.151 Y-5.095
X24.921 Y-4.938
X24.645 Y-4.782
X24.284 Y-4.613
X24.256 Y-4.602
X24.189 Y-4.58
X24.121 Y-4.564
X24.052 Y-4.552
G3 X23.615 Y-4.911 Z8.85 I-0.038 J-0.398 F800
G1 X23.614 Y-4.974
X23.623 Y-5.037
G3 X23.818 Y-5.299 I0.39 J0.087 F1300
G1 X24.877 Y-5.892
G3 X25.262 Y-5.896 I0.196 J0.349
G1 X25.315 Y-5.862 F600
X25.362 Y-5.82
G3 X25.349 Y-5.254 Z8.65 I-0.289 J0.276
G1 X25.06 Y-4.998 F1300
X24.847 Y-4.834
X24.77 Y-4.781
X24.693 Y-4.746
X24.364 Y-4.61
X24.282 Y-4.584
X24.2 Y-4.571
X23.872 Y-4.528
X23.708 Y-4.511
X23.216 Y-4.501
X22.888 Y-4.5
X-6.153
X-6.317 Y-4.503
X-6.809 Y-4.547
X-6.973 Y-4.567
X-7.055 Y-4.577
X-7.096 Y-4.585
X-7.137 Y-4.597
X-7.317 Y-4.67
X-7.547 Y-4.765
X-7.588 Y-4.786
X-7.629 Y-4.813
X-7.656 Y-4.834
X-7.863 Y-4.998
X-8.121 Y-5.204
X-8.252 Y-5.325
X-8.638 Y-5.711
G3 X-8.746 Y-5.984 I0.293 J-0.273 F800
G1 X-8.743 Y-6.026
X-8.737 Y-6.068
X-8.711 Y-6.123 Z8.655
X-8.686 Y-6.177 Z8.669
X-8.662 Y-6.228 Z8.692
X-8.621 Y-6.263 Z8.724
X-8.584 Y-6.293 Z8.765
X-8.552 Y-6.32 Z8.813
X-8.527 Y-6.341 Z8.867
X-8.504 Y-6.35 Z8.925
X-8.49 Y-6.356 Z8.987
X-8.486 Y-6.358 Z9.05
G0 Z18
X34.982 Y-15.103
Z10.6
G1 Z10.2 F600
Z8.2
G3 X37.18 Y-15.019 I1.054 J1.226
G1 X37.162 Y-15.005 F1300
X37.144 Y-14.993
X37.107 Y-14.972
X37.071 Y-14.957
X37.034 Y-14.946
X36.998 Y-14.938
X36.341 Y-14.851
X36.177 Y-14.821
X36.013 Y-14.781
X35.849 Y-14.73
X35.685 Y-14.663
X34.865 Y-14.322
X34.701 Y-14.242
X34.631 Y-14.204
X34.409 Y-14.098
X34.049 Y-13.959
X33.559 Y-13.815
X32.853 Y-13.666
X32.136 Y-13.575
X31.417 Y-13.518
X30.696 Y-13.482
X29.974 Y-13.46
X29.252 Y-13.446
X28.53 Y-13.438
X27.808 Y-13.432
X27.086 Y-13.429
X25.642 Y-13.426
X22.754 Y-13.425
X-15.511 Y-13.44
X-16.233
X-16.339 Y-13.452
X-16.44 Y-13.486
X-16.531 Y-13.541
X-16.817 Y-13.761
X-16.981 Y-13.884
X-17.343 Y-14.154
X-17.377 Y-14.173
X-17.802 Y-14.372
X-17.966 Y-14.444
X-18.458 Y-14.648
X-18.504 Y-14.665
X-18.909 Y-14.806
X-19.278 Y-14.864
X-19.442 Y-14.89
X-19.77 Y-14.933
X-19.852 Y-14.948
X-19.893 Y-14.961
G3 X-20.108 Y-15.264 I0.182 J-0.356 F800
G1 X-20.112 Y-15.318 Z8.204
X-20.098 Y-15.378 Z8.218
X-20.085 Y-15.436 Z8.241
X-20.073 Y-15.49 Z8.274
X-20.038 Y-15.535 Z8.324
X-20.01 Y-15.572 Z8.384
X-19.989 Y-15.599 Z8.451
X-19.976 Y-15.616 Z8.524
X-19.971 Y-15.622 Z8.599
G0 Z18
X33.894 Y-13.932
Z10.6
G1 Z10.2 F600
Z8.2
G3 X34.631 Y-14.204 I1.123 J1.906
G1 X34.537 Y-14.153 F1300
X34.373 Y-14.038
X34.333 Y-14.009
X34.044 Y-13.789
X33.552 Y-13.41
X33.486 Y-13.354
X33.311 Y-13.19
X33.125 Y-13.028
X32.944 Y-12.894
X32.724 Y-12.757
X32.437 Y-12.609
X32.078 Y-12.459
X31.596 Y-12.302
X30.926 Y-12.141
X30.213 Y-12.03
X29.494 Y-11.958
X28.774 Y-11.911
X28.053 Y-11.88
X27.331 Y-11.86
X26.609 Y-11.847
X25.887 Y-11.839
X25.165 Y-11.834
X24.443 Y-11.831
X22.999 Y-11.827
X20.111 Y-11.826
X-14.38 Y-11.839
X-14.622 Y-11.871
X-14.847 Y-11.964
X-15.04 Y-12.113
X-15.997 Y-13.07
X-16.161 Y-13.226
X-16.325 Y-13.38
X-16.531 Y-13.541
G3 X-16.675 Y-13.883 I0.255 J-0.308 F800
G1 X-16.657 Y-13.941 Z8.205
X-16.639 Y-13.997 Z8.219
X-16.622 Y-14.051 Z8.242
X-16.585 Y-14.091 Z8.274
X-16.553 Y-14.126 Z8.315
X-16.525 Y-14.156 Z8.363
X-16.502 Y-14.18 Z8.417
X-16.481 Y-14.193 Z8.475
X-16.468 Y-14.201 Z8.537
X-16.464 Y-14.203 Z8.6
G0 Z9
X33.806 Y-14.258
G1 Z8.6 F600
X33.804 Y-14.251 Z8.522
X33.798 Y-14.229 Z8.447
X33.788 Y-14.193 Z8.378
X33.775 Y-14.145 Z8.317
X33.759 Y-14.087 Z8.267
X33.74 Y-14.02 Z8.23
X33.721 Y-13.948 Z8.208
X33.7 Y-13.873 Z8.2
G3 X33.311 Y-13.19 I-1.526 J-0.418
G1 X33.224 Y-13.106 F1300
X31.833 Y-11.715
X31.642 Y-11.543
X31.46 Y-11.402
X31.223 Y-11.249
X30.938 Y-11.095
X30.565 Y-10.932
X30.09 Y-10.767
X29.436 Y-10.598
X28.725 Y-10.473
X28.008 Y-10.39
X27.288 Y-10.335
X26.567 Y-10.298
X25.845 Y-10.273
X25.123 Y-10.257
X24.401 Y-10.246
X23.679 Y-10.239
X22.958 Y-10.234
X22.236 Y-10.231
X20.792 Y-10.228
X17.904 Y-10.227
X-12.78 Y-10.239
X-13.021 Y-10.27
X-13.246 Y-10.364
X-13.439 Y-10.512
X-15.04 Y-12.113
G3 X-15.147 Y-12.385 I0.293 J-0.273 F800
G1 X-15.145 Y-12.428
X-15.138 Y-12.47
X-15.113 Y-12.525 Z8.205
X-15.088 Y-12.579 Z8.219
X-15.064 Y-12.63 Z8.242
X-15.022 Y-12.664 Z8.274
X-14.985 Y-12.695 Z8.315
X-14.954 Y-12.721 Z8.363
X-14.928 Y-12.742 Z8.417
X-14.906 Y-12.752 Z8.475
X-14.892 Y-12.758 Z8.537
X-14.887 Y-12.76 Z8.6
G0 Z9
X32.308 Y-12.792
G1 Z8.6 F600
X32.307 Y-12.785 Z8.522
X32.301 Y-12.763 Z8.447
X32.292 Y-12.727 Z8.378
X32.28 Y-12.679 Z8.317
X32.265 Y-12.62 Z8.267
X32.248 Y-12.553 Z8.23
X32.229 Y-12.48 Z8.208
X32.21 Y-12.405 Z8.2
G3 X31.833 Y-11.715 I-1.534 J-0.39
G1 X30.271 Y-10.153 F1300
X30.075 Y-9.976
X29.886 Y-9.83
X29.645 Y-9.674
X29.353 Y-9.517
X28.974 Y-9.35
X28.482 Y-9.18
X27.815 Y-9.007
X27.104 Y-8.883
X26.387 Y-8.799
X25.667 Y-8.743
X24.946 Y-8.704
X24.225 Y-8.679
X23.503 Y-8.661
X22.781 Y-8.649
X22.059 Y-8.642
X21.337 Y-8.636
X20.615 Y-8.633
X19.171 Y-8.629
X17.005 Y-8.628
X8.341 Y-8.63
X-11.153 Y-8.638
X-11.192 Y-8.639
X-11.429 Y-8.673
X-11.65 Y-8.766
X-11.839 Y-8.912
X-13.439 Y-10.512
G3 X-13.547 Y-10.785 I0.293 J-0.273 F800
G1 X-13.544 Y-10.827
X-13.538 Y-10.869
X-13.512 Y-10.924 Z8.205
X-13.487 Y-10.978 Z8.219
X-13.463 Y-11.029 Z8.242
X-13.422 Y-11.064 Z8.274
X-13.385 Y-11.094 Z8.315
X-13.353 Y-11.12 Z8.363
X-13.328 Y-11.142 Z8.417
X-13.305 Y-11.151 Z8.475
X-13.291 Y-11.157 Z8.537
X-13.287 Y-11.159 Z8.6
G0 Z9
X30.746 Y-11.23
G1 Z8.6 F600
X30.744 Y-11.222 Z8.522
X30.738 Y-11.2 Z8.447
X30.729 Y-11.165 Z8.378
X30.717 Y-11.116 Z8.317
X30.702 Y-11.058 Z8.267
X30.685 Y-10.991 Z8.23
X30.666 Y-10.918 Z8.208
X30.647 Y-10.842 Z8.2
G3 X30.271 Y-10.153 I-1.534 J-0.39
G1 X28.72 Y-8.602 F1300
X28.484 Y-8.389
X28.294 Y-8.243
X28.051 Y-8.085
X27.757 Y-7.927
X27.375 Y-7.759
X26.88 Y-7.587
X26.206 Y-7.413
X25.495 Y-7.289
X24.778 Y-7.204
X24.058 Y-7.147
X23.337 Y-7.108
X22.616 Y-7.082
X21.894 Y-7.064
X21.172 Y-7.052
X20.45 Y-7.044
X19.728 Y-7.038
X19.006 Y-7.034
X17.562 Y-7.03
X15.396 Y-7.029
X8.176 Y-7.03
X-9.578 Y-7.037
X-9.82 Y-7.069
X-10.045 Y-7.162
X-10.238 Y-7.311
X-11.839 Y-8.912
G3 X-11.947 Y-9.184 I0.293 J-0.273 F800
G1 Y-9.185
X-11.944 Y-9.227
X-11.938 Y-9.269
X-11.912 Y-9.324 Z8.205
X-11.887 Y-9.378 Z8.219
X-11.863 Y-9.429 Z8.242
X-11.822 Y-9.463 Z8.274
X-11.785 Y-9.494 Z8.315
X-11.753 Y-9.52 Z8.363
X-11.727 Y-9.541 Z8.417
X-11.705 Y-9.551 Z8.475
X-11.691 Y-9.557 Z8.537
X-11.687 Y-9.559 Z8.6
G0 Z9
X29.195 Y-9.679
G1 Z8.6 F600
X29.193 Y-9.672 Z8.522
X29.188 Y-9.65 Z8.447
X29.179 Y-9.614 Z8.378
X29.166 Y-9.566 Z8.317
X29.151 Y-9.507 Z8.267
X29.134 Y-9.44 Z8.23
X29.116 Y-9.367 Z8.208
X29.097 Y-9.292 Z8.2
G3 X28.72 Y-8.602 I-1.534 J-0.39
G1 X27.082 Y-6.964 F1300
X26.897 Y-6.797
X26.707 Y-6.65
X26.462 Y-6.492
X26.168 Y-6.333
X25.783 Y-6.164
X25.286 Y-5.992
X24.609 Y-5.817
X23.897 Y-5.692
X23.18 Y-5.608
X22.461 Y-5.55
X21.74 Y-5.511
X21.018 Y-5.484
X20.297 Y-5.466
X19.575 Y-5.453
X18.853 Y-5.445
X18.131 Y-5.439
X17.409 Y-5.435
X15.965 Y-5.431
X13.799 Y-5.429
X7.301 Y-5.431
X-7.861 Y-5.437
X-7.986 Y-5.438
X-8.225 Y-5.471
X-8.447 Y-5.564
X-8.638 Y-5.711
X-10.238 Y-7.311
G3 X-10.345 Y-7.583 I0.293 J-0.273 F800
G1 Y-7.584
X-10.343 Y-7.626
X-10.336 Y-7.668
X-10.311 Y-7.723 Z8.205
X-10.286 Y-7.777 Z8.219
X-10.262 Y-7.828 Z8.242
X-10.221 Y-7.862 Z8.274
X-10.183 Y-7.893 Z8.315
X-10.152 Y-7.919 Z8.363
X-10.126 Y-7.94 Z8.417
X-10.104 Y-7.95 Z8.475
X-10.09 Y-7.956 Z8.537
X-10.086 Y-7.958 Z8.6
G0 Z9
X27.557 Y-8.041
G1 Z8.6 F600
X27.555 Y-8.033 Z8.522
X27.549 Y-8.011 Z8.447
X27.54 Y-7.975 Z8.378
X27.528 Y-7.927 Z8.317
X27.513 Y-7.868 Z8.267
X27.496 Y-7.801 Z8.23
X27.477 Y-7.729 Z8.208
X27.458 Y-7.653 Z8.2
G3 X27.082 Y-6.964 I-1.534 J-0.39
G1 X25.607 Y-5.489 F1300
X25.513 Y-5.401
X25.349 Y-5.254
X25.151 Y-5.095
X24.921 Y-4.938
X24.645 Y-4.782
X24.284 Y-4.613
X24.256 Y-4.602
X24.189 Y-4.58
X24.121 Y-4.564
X24.052 Y-4.552
G3 X23.615 Y-4.911 Z8.4 I-0.038 J-0.398 F800
G1 X23.614 Y-4.974
X23.623 Y-5.037
G3 X23.818 Y-5.299 I0.39 J0.087 F1300
G1 X24.877 Y-5.892
G3 X25.262 Y-5.896 I0.196 J0.349
G1 X25.315 Y-5.862 F600
X25.362 Y-5.82
G3 X25.349 Y-5.254 Z8.2 I-0.289 J0.276
G1 X25.06 Y-4.998 F1300
X24.847 Y-4.834
X24.77 Y-4.781
X24.693 Y-4.746
X24.364 Y-4.61
X24.282 Y-4.584
X24.2 Y-4.571
X23.872 Y-4.528
X23.708 Y-4.511
X23.216 Y-4.501
X22.888 Y-4.5
X-6.153
X-6.317 Y-4.503
X-6.809 Y-4.547
X-6.973 Y-4.567
X-7.055 Y-4.577
X-7.096 Y-4.585
X-7.137 Y-4.597
X-7.317 Y-4.67
X-7.547 Y-4.765
X-7.588 Y-4.786
X-7.629 Y-4.813
X-7.656 Y-4.834
X-7.863 Y-4.998
X-8.121 Y-5.204
X-8.252 Y-5.325
X-8.638 Y-5.711
G3 X-8.746 Y-5.984 I0.293 J-0.273 F800
G1 X-8.743 Y-6.026
X-8.737 Y-6.068
X-8.711 Y-6.123 Z8.205
X-8.686 Y-6.177 Z8.219
X-8.662 Y-6.228 Z8.242
X-8.621 Y-6.263 Z8.274
X-8.584 Y-6.293 Z8.315
X-8.552 Y-6.32 Z8.363
X-8.527 Y-6.341 Z8.417
X-8.504 Y-6.35 Z8.475
X-8.49 Y-6.356 Z8.537
X-8.486 Y-6.358 Z8.6
G0 Z18
X34.982 Y-15.103
Z10.15
G1 Z9.75 F600
Z7.75
G3 X37.18 Y-15.019 I1.054 J1.226
G1 X37.162 Y-15.005 F1300
X37.144 Y-14.993
X37.107 Y-14.972
X37.071 Y-14.957
X37.034 Y-14.946
X36.998 Y-14.938
X36.341 Y-14.851
X36.177 Y-14.821
X36.013 Y-14.781
X35.849 Y-14.73
X35.685 Y-14.663
X34.865 Y-14.322
X34.701 Y-14.242
X34.631 Y-14.204
X34.409 Y-14.098
X34.049 Y-13.959
X33.559 Y-13.815
X32.853 Y-13.666
X32.136 Y-13.575
X31.417 Y-13.518
X30.696 Y-13.482
X29.974 Y-13.46
X29.252 Y-13.446
X28.53 Y-13.438
X27.808 Y-13.432
X27.086 Y-13.429
X25.642 Y-13.426
X22.754 Y-13.425
X-15.511 Y-13.44
X-16.233
X-16.339 Y-13.452
X-16.44 Y-13.486
X-16.531 Y-13.541
X-16.817 Y-13.761
X-16.981 Y-13.884
X-17.343 Y-14.154
X-17.377 Y-14.173
X-17.802 Y-14.372
X-17.966 Y-14.444
X-18.458 Y-14.648
X-18.504 Y-14.665
X-18.909 Y-14.806
X-19.278 Y-14.864
X-19.442 Y-14.89
X-19.77 Y-14.933
X-19.852 Y-14.948
X-19.893 Y-14.961
G3 X-20.108 Y-15.264 I0.182 J-0.356 F800
G1 X-20.112 Y-15.318 Z7.754
X-20.098 Y-15.378 Z7.768
X-20.085 Y-15.436 Z7.791
X-20.073 Y-15.49 Z7.824
X-20.038 Y-15.535 Z7.874
X-20.01 Y-15.572 Z7.934
X-19.989 Y-15.599 Z8.001
X-19.976 Y-15.616 Z8.074
X-19.971 Y-15.622 Z8.149
G0 Z18
X33.894 Y-13.932
Z10.15
G1 Z9.75 F600
Z7.75
G3 X34.631 Y-14.204 I1.123 J1.906
G1 X34.537 Y-14.153 F1300
X34.373 Y-14.038
X34.333 Y-14.009
X34.044 Y-13.789
X33.552 Y-13.41
X33.486 Y-13.354
X33.311 Y-13.19
X33.125 Y-13.028
X32.944 Y-12.894
X32.724 Y-12.757
X32.437 Y-12.609
X32.078 Y-12.459
X31.596 Y-12.302
X30.926 Y-12.141
X30.213 Y-12.03
X29.494 Y-11.958
X28.774 Y-11.911
X28.053 Y-11.88
X27.331 Y-11.86
X26.609 Y-11.847
X25.887 Y-11.839
X25.165 Y-11.834
X24.443 Y-11.831
X22.999 Y-11.827
X20.111 Y-11.826
X-14.38 Y-11.839
X-14.622 Y-11.871
X-14.847 Y-11.964
X-15.04 Y-12.113
X-15.997 Y-13.07
X-16.161 Y-13.226
X-16.325 Y-13.38
X-16.531 Y-13.541
G3 X-16.675 Y-13.883 I0.255 J-0.308 F800
G1 X-16.657 Y-13.941 Z7.755
X-16.639 Y-13.997 Z7.769
X-16.622 Y-14.051 Z7.792
X-16.585 Y-14.091 Z7.824
X-16.553 Y-14.126 Z7.865
X-16.525 Y-14.156 Z7.913
X-16.502 Y-14.18 Z7.967
X-16.481 Y-14.193 Z8.025
X-16.468 Y-14.201 Z8.087
X-16.464 Y-14.203 Z8.15
G0 Z8.55
X33.806 Y-14.258
G1 Z8.15 F600
X33.804 Y-14.251 Z8.072
X33.798 Y-14.229 Z7.997
X33.788 Y-14.193 Z7.928
X33.775 Y-14.145 Z7.867
X33.759 Y-14.087 Z7.817
X33.74 Y-14.02 Z7.78
X33.721 Y-13.948 Z7.758
X33.7 Y-13.873 Z7.75
G3 X33.311 Y-13.19 I-1.526 J-0.418
G1 X33.224 Y-13.106 F1300
X31.833 Y-11.715
X31.642 Y-11.543
X31.46 Y-11.402
X31.223 Y-11.249
X30.938 Y-11.095
X30.565 Y-10.932
X30.09 Y-10.767
X29.436 Y-10.598
X28.725 Y-10.473
X28.008 Y-10.39
X27.288 Y-10.335
X26.567 Y-10.298
X25.845 Y-10.273
X25.123 Y-10.257
X24.401 Y-10.246
X23.679 Y-10.239
X22.958 Y-10.234
X22.236 Y-10.231
X20.792 Y-10.228
X17.904 Y-10.227
X-12.78 Y-10.239
X-13.021 Y-10.27
X-13.246 Y-10.364
X-13.439 Y-10.512
X-15.04 Y-12.113
G3 X-15.147 Y-12.385 I0.293 J-0.273 F800
G1 X-15.145 Y-12.428
X-15.138 Y-12.47
X-15.113 Y-12.525 Z7.755
X-15.088 Y-12.579 Z7.769
X-15.064 Y-12.63 Z7.792
X-15.022 Y-12.664 Z7.824
X-14.985 Y-12.695 Z7.865
X-14.954 Y-12.721 Z7.913
X-14.928 Y-12.742 Z7.967
X-14.906 Y-12.752 Z8.025
X-14.892 Y-12.758 Z8.087
X-14.887 Y-12.76 Z8.15
G0 Z8.55
X32.308 Y-12.792
G1 Z8.15 F600
X32.307 Y-12.785 Z8.072
X32.301 Y-12.763 Z7.997
X32.292 Y-12.727 Z7.928
X32.28 Y-12.679 Z7.867
X32.265 Y-12.62 Z7.817
X32.248 Y-12.553 Z7.78
X32.229 Y-12.48 Z7.758
X32.21 Y-12.405 Z7.75
G3 X31.833 Y-11.715 I-1.534 J-0.39
G1 X30.271 Y-10.153 F1300
X30.075 Y-9.976
X29.886 Y-9.83
X29.645 Y-9.674
X29.353 Y-9.517
X28.974 Y-9.35
X28.482 Y-9.18
X27.815 Y-9.007
X27.104 Y-8.883
X26.387 Y-8.799
X25.667 Y-8.743
X24.946 Y-8.704
X24.225 Y-8.679
X23.503 Y-8.661
X22.781 Y-8.649
X22.059 Y-8.642
X21.337 Y-8.636
X20.615 Y-8.633
X19.171 Y-8.629
X17.005 Y-8.628
X8.341 Y-8.63
X-11.153 Y-8.638
X-11.192 Y-8.639
X-11.429 Y-8.673
X-11.65 Y-8.766
X-11.839 Y-8.912
X-13.439 Y-10.512
G3 X-13.547 Y-10.785 I0.293 J-0.273 F800
G1 X-13.544 Y-10.827
X-13.538 Y-10.869
X-13.512 Y-10.924 Z7.755
X-13.487 Y-10.978 Z7.769
X-13.463 Y-11.029 Z7.792
X-13.422 Y-11.064 Z7.824
X-13.385 Y-11.094 Z7.865
X-13.353 Y-11.12 Z7.913
X-13.328 Y-11.142 Z7.967
X-13.305 Y-11.151 Z8.025
X-13.291 Y-11.157 Z8.087
X-13.287 Y-11.159 Z8.15
G0 Z8.55
X30.746 Y-11.23
G1 Z8.15 F600
X30.744 Y-11.222 Z8.072
X30.738 Y-11.2 Z7.997
X30.729 Y-11.165 Z7.928
X30.717 Y-11.116 Z7.867
X30.702 Y-11.058 Z7.817
X30.685 Y-10.991 Z7.78
X30.666 Y-10.918 Z7.758
X30.647 Y-10.842 Z7.75
G3 X30.271 Y-10.153 I-1.534 J-0.39
G1 X28.72 Y-8.602 F1300
X28.484 Y-8.389
X28.294 Y-8.243
X28.051 Y-8.085
X27.757 Y-7.927
X27.375 Y-7.759
X26.88 Y-7.587
X26.206 Y-7.413
X25.495 Y-7.289
X24.778 Y-7.204
X24.058 Y-7.147
X23.337 Y-7.108
X22.616 Y-7.082
X21.894 Y-7.064
X21.172 Y-7.052
X20.45 Y-7.044
X19.728 Y-7.038
X19.006 Y-7.034
X17.562 Y-7.03
X15.396 Y-7.029
X8.176 Y-7.03
X-9.578 Y-7.037
X-9.82 Y-7.069
X-10.045 Y-7.162
X-10.238 Y-7.311
X-11.839 Y-8.912
G3 X-11.947 Y-9.184 I0.293 J-0.273 F800
G1 Y-9.185
X-11.944 Y-9.227
X-11.938 Y-9.269
X-11.912 Y-9.324 Z7.755
X-11.887 Y-9.378 Z7.769
X-11.863 Y-9.429 Z7.792
X-11.822 Y-9.463 Z7.824
X-11.785 Y-9.494 Z7.865
X-11.753 Y-9.52 Z7.913
X-11.727 Y-9.541 Z7.967
X-11.705 Y-9.551 Z8.025
X-11.691 Y-9.557 Z8.087
X-11.687 Y-9.559 Z8.15
G0 Z8.55
X29.195 Y-9.679
G1 Z8.15 F600
X29.193 Y-9.672 Z8.072
X29.188 Y-9.65 Z7.997
X29.179 Y-9.614 Z7.928
X29.166 Y-9.566 Z7.867
X29.151 Y-9.507 Z7.817
X29.134 Y-9.44 Z7.78
X29.116 Y-9.367 Z7.758
X29.097 Y-9.292 Z7.75
G3 X28.72 Y-8.602 I-1.534 J-0.39
G1 X27.082 Y-6.964 F1300
X26.897 Y-6.797
X26.707 Y-6.65
X26.462 Y-6.492
X26.168 Y-6.333
X25.783 Y-6.164
X25.286 Y-5.992
X24.609 Y-5.817
X23.897 Y-5.692
X23.18 Y-5.608
X22.461 Y-5.55
X21.74 Y-5.511
X21.018 Y-5.484
X20.297 Y-5.466
X19.575 Y-5.453
X18.853 Y-5.445
X18.131 Y-5.439
X17.409 Y-5.435
X15.965 Y-5.431
X13.799 Y-5.429
X7.301 Y-5.431
X-7.861 Y-5.437
X-7.986 Y-5.438
X-8.225 Y-5.471
X-8.447 Y-5.564
X-8.638 Y-5.711
X-10.238 Y-7.311
G3 X-10.345 Y-7.583 I0.293 J-0.273 F800
G1 Y-7.584
X-10.343 Y-7.626
X-10.336 Y-7.668
X-10.311 Y-7.723 Z7.755
X-10.286 Y-7.777 Z7.769
X-10.262 Y-7.828 Z7.792
X-10.221 Y-7.862 Z7.824
X-10.183 Y-7.893 Z7.865
X-10.152 Y-7.919 Z7.913
X-10.126 Y-7.94 Z7.967
X-10.104 Y-7.95 Z8.025
X-10.09 Y-7.956 Z8.087
X-10.086 Y-7.958 Z8.15
G0 Z8.55
X27.557 Y-8.041
G1 Z8.15 F600
X27.555 Y-8.033 Z8.072
X27.549 Y-8.011 Z7.997
X27.54 Y-7.975 Z7.928
X27.528 Y-7.927 Z7.867
X27.513 Y-7.868 Z7.817
X27.496 Y-7.801 Z7.78
X27.477 Y-7.729 Z7.758
X27.458 Y-7.653 Z7.75
G3 X27.082 Y-6.964 I-1.534 J-0.39
G1 X25.607 Y-5.489 F1300
X25.513 Y-5.401
X25.349 Y-5.254
X25.151 Y-5.095
X24.921 Y-4.938
X24.645 Y-4.782
X24.284 Y-4.613
X24.256 Y-4.602
X24.189 Y-4.58
X24.121 Y-4.564
X24.052 Y-4.552
G3 X23.615 Y-4.911 Z7.95 I-0.038 J-0.398 F800
G1 X23.614 Y-4.974
X23.623 Y-5.037
G3 X23.818 Y-5.299 I0.39 J0.087 F1300
G1 X24.877 Y-5.892
G3 X25.262 Y-5.896 I0.196 J0.349
G1 X25.315 Y-5.862 F600
X25.362 Y-5.82
G3 X25.349 Y-5.254 Z7.75 I-0.289 J0.276
G1 X25.06 Y-4.998 F1300
X24.847 Y-4.834
X24.77 Y-4.781
X24.693 Y-4.746
X24.364 Y-4.61
X24.282 Y-4.584
X24.2 Y-4.571
X23.872 Y-4.528
X23.708 Y-4.511
X23.216 Y-4.501
X22.888 Y-4.5
X-6.153
X-6.317 Y-4.503
X-6.809 Y-4.547
X-6.973 Y-4.567
X-7.055 Y-4.577
X-7.096 Y-4.585
X-7.137 Y-4.597
X-7.317 Y-4.67
X-7.547 Y-4.765
X-7.588 Y-4.786
X-7.629 Y-4.813
X-7.656 Y-4.834
X-7.863 Y-4.998
X-8.121 Y-5.204
X-8.252 Y-5.325
X-8.638 Y-5.711
G3 X-8.746 Y-5.984 I0.293 J-0.273 F800
G1 X-8.743 Y-6.026
X-8.737 Y-6.068
X-8.711 Y-6.123 Z7.755
X-8.686 Y-6.177 Z7.769
X-8.662 Y-6.228 Z7.792
X-8.621 Y-6.263 Z7.824
X-8.584 Y-6.293 Z7.865
X-8.552 Y-6.32 Z7.913
X-8.527 Y-6.341 Z7.967
X-8.504 Y-6.35 Z8.025
X-8.49 Y-6.356 Z8.087
X-8.486 Y-6.358 Z8.15
G0 Z9.7
X34.982 Y-15.103
G1 Z9.3 F600
Z7.3
G3 X37.18 Y-15.019 I1.054 J1.226
G1 X37.162 Y-15.005 F1300
X37.144 Y-14.993
X37.107 Y-14.972
X37.071 Y-14.957
X37.034 Y-14.946
X36.998 Y-14.938
X36.341 Y-14.851
X36.177 Y-14.821
X36.013 Y-14.781
X35.849 Y-14.73
X35.685 Y-14.663
X34.865 Y-14.322
X34.701 Y-14.242
X34.631 Y-14.204
X34.409 Y-14.098
X34.049 Y-13.959
X33.559 Y-13.815
X32.853 Y-13.666
X32.136 Y-13.575
X31.417 Y-13.518
X30.696 Y-13.482
X29.974 Y-13.46
X29.252 Y-13.446
X28.53 Y-13.438
X27.808 Y-13.432
X27.086 Y-13.429
X25.642 Y-13.426
X22.754 Y-13.425
X-15.511 Y-13.44
X-16.233
X-16.339 Y-13.452
X-16.44 Y-13.486
X-16.531 Y-13.541
X-16.817 Y-13.761
X-16.981 Y-13.884
X-17.343 Y-14.154
X-17.377 Y-14.173
X-17.802 Y-14.372
X-17.966 Y-14.444
X-18.458 Y-14.648
X-18.504 Y-14.665
X-18.909 Y-14.806
X-19.278 Y-14.864
X-19.442 Y-14.89
X-19.77 Y-14.933
X-19.852 Y-14.948
X-19.893 Y-14.961
G3 X-20.108 Y-15.264 I0.182 J-0.356 F800
G1 X-20.112 Y-15.318 Z7.304
X-20.098 Y-15.378 Z7.318
X-20.085 Y-15.436 Z7.341
X-20.073 Y-15.49 Z7.374
X-20.038 Y-15.535 Z7.424
X-20.01 Y-15.572 Z7.484
X-19.989 Y-15.599 Z7.551
X-19.976 Y-15.616 Z7.624
X-19.971 Y-15.622 Z7.699
G0 Z18
X33.894 Y-13.932
Z9.7
G1 Z9.3 F600
Z7.3
G3 X34.631 Y-14.204 I1.123 J1.906
G1 X34.537 Y-14.153 F1300
X34.373 Y-14.038
X34.333 Y-14.009
X34.044 Y-13.789
X33.552 Y-13.41
X33.486 Y-13.354
X33.311 Y-13.19
X33.125 Y-13.028
X32.944 Y-12.894
X32.724 Y-12.757
X32.437 Y-12.609
X32.078 Y-12.459
X31.596 Y-12.302
X30.926 Y-12.141
X30.213 Y-12.03
X29.494 Y-11.958
X28.774 Y-11.911
X28.053 Y-11.88
X27.331 Y-11.86
X26.609 Y-11.847
X25.887 Y-11.839
X25.165 Y-11.834
X24.443 Y-11.831
X22.999 Y-11.827
X20.111 Y-11.826
X-14.38 Y-11.839
X-14.622 Y-11.871
X-14.847 Y-11.964
X-15.04 Y-12.113
X-15.997 Y-13.07
X-16.161 Y-13.226
X-16.325 Y-13.38
X-16.531 Y-13.541
G3 X-16.675 Y-13.883 I0.255 J-0.308 F800
G1 X-16.657 Y-13.941 Z7.305
X-16.639 Y-13.997 Z7.319
X-16.622 Y-14.051 Z7.342
X-16.585 Y-14.091 Z7.374
X-16.553 Y-14.126 Z7.415
X-16.525 Y-14.156 Z7.463
X-16.502 Y-14.18 Z7.517
X-16.481 Y-14.193 Z7.575
X-16.468 Y-14.201 Z7.637
X-16.464 Y-14.203 Z7.7
G0 Z8.1
X33.806 Y-14.258
G1 Z7.7 F600
X33.804 Y-14.251 Z7.622
X33.798 Y-14.229 Z7.547
X33.788 Y-14.193 Z7.478
X33.775 Y-14.145 Z7.417
X33.759 Y-14.087 Z7.367
X33.74 Y-14.02 Z7.33
X33.721 Y-13.948 Z7.308
X33.7 Y-13.873 Z7.3
G3 X33.311 Y-13.19 I-1.526 J-0.418
G1 X33.224 Y-13.106 F1300
X31.833 Y-11.715
X31.642 Y-11.543
X31.46 Y-11.402
X31.223 Y-11.249
X30.938 Y-11.095
X30.565 Y-10.932
X30.09 Y-10.767
X29.436 Y-10.598
X28.725 Y-10.473
X28.008 Y-10.39
X27.288 Y-10.335
X26.567 Y-10.298
X25.845 Y-10.273
X25.123 Y-10.257
X24.401 Y-10.246
X23.679 Y-10.239
X22.958 Y-10.234
X22.236 Y-10.231
X20.792 Y-10.228
X17.904 Y-10.227
X-12.78 Y-10.239
X-13.021 Y-10.27
X-13.246 Y-10.364
X-13.439 Y-10.512
X-15.04 Y-12.113
G3 X-15.147 Y-12.385 I0.293 J-0.273 F800
G1 X-15.145 Y-12.428
X-15.138 Y-12.47
X-15.113 Y-12.525 Z7.305
X-15.088 Y-12.579 Z7.319
X-15.064 Y-12.63 Z7.342
X-15.022 Y-12.664 Z7.374
X-14.985 Y-12.695 Z7.415
X-14.954 Y-12.721 Z7.463
X-14.928 Y-12.742 Z7.517
X-14.906 Y-12.752 Z7.575
X-14.892 Y-12.758 Z7.637
X-14.887 Y-12.76 Z7.7
G0 Z8.1
X32.308 Y-12.792
G1 Z7.7 F600
X32.307 Y-12.785 Z7.622
X32.301 Y-12.763 Z7.547
X32.292 Y-12.727 Z7.478
X32.28 Y-12.679 Z7.417
X32.265 Y-12.62 Z7.367
X32.248 Y-12.553 Z7.33
X32.229 Y-12.48 Z7.308
X32.21 Y-12.405 Z7.3
G3 X31.833 Y-11.715 I-1.534 J-0.39
G1 X30.271 Y-10.153 F1300
X30.075 Y-9.976
X29.886 Y-9.83
X29.645 Y-9.674
X29.353 Y-9.517
X28.974 Y-9.35
X28.482 Y-9.18
X27.815 Y-9.007
X27.104 Y-8.883
X26.387 Y-8.799
X25.667 Y-8.743
X24.946 Y-8.704
X24.225 Y-8.679
X23.503 Y-8.661
X22.781 Y-8.649
X22.059 Y-8.642
X21.337 Y-8.636
X20.615 Y-8.633
X19.171 Y-8.629
X17.005 Y-8.628
X8.341 Y-8.63
X-11.153 Y-8.638
X-11.192 Y-8.639
X-11.429 Y-8.673
X-11.65 Y-8.766
X-11.839 Y-8.912
X-13.439 Y-10.512
G3 X-13.547 Y-10.785 I0.293 J-0.273 F800
G1 X-13.544 Y-10.827
X-13.538 Y-10.869
X-13.512 Y-10.924 Z7.305
X-13.487 Y-10.978 Z7.319
X-13.463 Y-11.029 Z7.342
X-13.422 Y-11.064 Z7.374
X-13.385 Y-11.094 Z7.415
X-13.353 Y-11.12 Z7.463
X-13.328 Y-11.142 Z7.517
X-13.305 Y-11.151 Z7.575
X-13.291 Y-11.157 Z7.637
X-13.287 Y-11.159 Z7.7
G0 Z8.1
X30.746 Y-11.23
G1 Z7.7 F600
X30.744 Y-11.222 Z7.622
X30.738 Y-11.2 Z7.547
X30.729 Y-11.165 Z7.478
X30.717 Y-11.116 Z7.417
X30.702 Y-11.058 Z7.367
X30.685 Y-10.991 Z7.33
X30.666 Y-10.918 Z7.308
X30.647 Y-10.842 Z7.3
G3 X30.271 Y-10.153 I-1.534 J-0.39
G1 X28.72 Y-8.602 F1300
X28.484 Y-8.389
X28.294 Y-8.243
X28.051 Y-8.085
X27.757 Y-7.927
X27.375 Y-7.759
X26.88 Y-7.587
X26.206 Y-7.413
X25.495 Y-7.289
X24.778 Y-7.204
X24.058 Y-7.147
X23.337 Y-7.108
X22.616 Y-7.082
X21.894 Y-7.064
X21.172 Y-7.052
X20.45 Y-7.044
X19.728 Y-7.038
X19.006 Y-7.034
X17.562 Y-7.03
X15.396 Y-7.029
X8.176 Y-7.03
X-9.578 Y-7.037
X-9.82 Y-7.069
X-10.045 Y-7.162
X-10.238 Y-7.311
X-11.839 Y-8.912
G3 X-11.947 Y-9.184 I0.293 J-0.273 F800
G1 Y-9.185
X-11.944 Y-9.227
X-11.938 Y-9.269
X-11.912 Y-9.324 Z7.305
X-11.887 Y-9.378 Z7.319
X-11.863 Y-9.429 Z7.342
X-11.822 Y-9.463 Z7.374
X-11.785 Y-9.494 Z7.415
X-11.753 Y-9.52 Z7.463
X-11.727 Y-9.541 Z7.517
X-11.705 Y-9.551 Z7.575
X-11.691 Y-9.557 Z7.637
X-11.687 Y-9.559 Z7.7
G0 Z8.1
X29.195 Y-9.679
G1 Z7.7 F600
X29.193 Y-9.672 Z7.622
X29.188 Y-9.65 Z7.547
X29.179 Y-9.614 Z7.478
X29.166 Y-9.566 Z7.417
X29.151 Y-9.507 Z7.367
X29.134 Y-9.44 Z7.33
X29.116 Y-9.367 Z7.308
X29.097 Y-9.292 Z7.3
G3 X28.72 Y-8.602 I-1.534 J-0.39
G1 X27.082 Y-6.964 F1300
X26.897 Y-6.797
X26.707 Y-6.65
X26.462 Y-6.492
X26.168 Y-6.333
X25.783 Y-6.164
X25.286 Y-5.992
X24.609 Y-5.817
X23.897 Y-5.692
X23.18 Y-5.608
X22.461 Y-5.55
X21.74 Y-5.511
X21.018 Y-5.484
X20.297 Y-5.466
X19.575 Y-5.453
X18.853 Y-5.445
X18.131 Y-5.439
X17.409 Y-5.435
X15.965 Y-5.431
X13.799 Y-5.429
X7.301 Y-5.431
X-7.861 Y-5.437
X-7.986 Y-5.438
X-8.225 Y-5.471
X-8.447 Y-5.564
X-8.638 Y-5.711
X-10.238 Y-7.311
G3 X-10.345 Y-7.583 I0.293 J-0.273 F800
G1 Y-7.584
X-10.343 Y-7.626
X-10.336 Y-7.668
X-10.311 Y-7.723 Z7.305
X-10.286 Y-7.777 Z7.319
X-10.262 Y-7.828 Z7.342
X-10.221 Y-7.862 Z7.374
X-10.183 Y-7.893 Z7.415
X-10.152 Y-7.919 Z7.463
X-10.126 Y-7.94 Z7.517
X-10.104 Y-7.95 Z7.575
X-10.09 Y-7.956 Z7.637
X-10.086 Y-7.958 Z7.7
G0 Z8.1
X27.557 Y-8.041
G1 Z7.7 F600
X27.555 Y-8.033 Z7.622
X27.549 Y-8.011 Z7.547
X27.54 Y-7.975 Z7.478
X27.528 Y-7.927 Z7.417
X27.513 Y-7.868 Z7.367
X27.496 Y-7.801 Z7.33
X27.477 Y-7.729 Z7.308
X27.458 Y-7.653 Z7.3
G3 X27.082 Y-6.964 I-1.534 J-0.39
G1 X25.607 Y-5.489 F1300
X25.513 Y-5.401
X25.349 Y-5.254
X25.151 Y-5.095
X24.921 Y-4.938
X24.645 Y-4.782
X24.284 Y-4.613
X24.256 Y-4.602
X24.189 Y-4.58
X24.121 Y-4.564
X24.052 Y-4.552
G3 X23.615 Y-4.911 Z7.5 I-0.038 J-0.398 F800
G1 X23.614 Y-4.974
X23.623 Y-5.037
G3 X23.818 Y-5.299 I0.39 J0.087 F1300
G1 X24.877 Y-5.892
G3 X25.262 Y-5.896 I0.196 J0.349
G1 X25.315 Y-5.862 F600
X25.362 Y-5.82
G3 X25.349 Y-5.254 Z7.3 I-0.289 J0.276
G1 X25.06 Y-4.998 F1300
X24.847 Y-4.834
X24.77 Y-4.781
X24.693 Y-4.746
X24.364 Y-4.61
X24.282 Y-4.584
X24.2 Y-4.571
X23.872 Y-4.528
X23.708 Y-4.511
X23.216 Y-4.501
X22.888 Y-4.5
X-6.153
X-6.317 Y-4.503
X-6.809 Y-4.547
X-6.973 Y-4.567
X-7.055 Y-4.577
X-7.096 Y-4.585
X-7.137 Y-4.597
X-7.317 Y-4.67
X-7.547 Y-4.765
X-7.588 Y-4.786
X-7.629 Y-4.813
X-7.656 Y-4.834
X-7.863 Y-4.998
X-8.121 Y-5.204
X-8.252 Y-5.325
X-8.638 Y-5.711
G3 X-8.746 Y-5.984 I0.293 J-0.273 F800
G1 X-8.743 Y-6.026
X-8.737 Y-6.068
X-8.711 Y-6.123 Z7.305
X-8.686 Y-6.177 Z7.319
X-8.662 Y-6.228 Z7.342
X-8.621 Y-6.263 Z7.374
X-8.584 Y-6.293 Z7.415
X-8.552 Y-6.32 Z7.463
X-8.527 Y-6.341 Z7.517
X-8.504 Y-6.35 Z7.575
X-8.49 Y-6.356 Z7.637
X-8.486 Y-6.358 Z7.7
G0 Z9.25
X34.982 Y-15.103
G1 Z8.85 F600
Z6.85
G3 X37.18 Y-15.019 I1.054 J1.226
G1 X37.162 Y-15.005 F1300
X37.144 Y-14.993
X37.107 Y-14.972
X37.071 Y-14.957
X37.034 Y-14.946
X36.998 Y-14.938
X36.341 Y-14.851
X36.177 Y-14.821
X36.013 Y-14.781
X35.849 Y-14.73
X35.685 Y-14.663
X34.865 Y-14.322
X34.701 Y-14.242
X34.631 Y-14.204
X34.409 Y-14.098
X34.049 Y-13.959
X33.559 Y-13.815
X32.853 Y-13.666
X32.136 Y-13.575
X31.417 Y-13.518
X30.696 Y-13.482
X29.974 Y-13.46
X29.252 Y-13.446
X28.53 Y-13.438
X27.808 Y-13.432
X27.086 Y-13.429
X25.642 Y-13.426
X22.754 Y-13.425
X-15.511 Y-13.44
X-16.233
X-16.339 Y-13.452
X-16.44 Y-13.486
X-16.531 Y-13.541
X-16.817 Y-13.761
X-16.981 Y-13.884
X-17.343 Y-14.154
X-17.377 Y-14.173
X-17.802 Y-14.372
X-17.966 Y-14.444
X-18.458 Y-14.648
X-18.504 Y-14.665
X-18.909 Y-14.806
X-19.278 Y-14.864
X-19.442 Y-14.89
X-19.77 Y-14.933
X-19.852 Y-14.948
X-19.893 Y-14.961
G3 X-20.108 Y-15.264 I0.182 J-0.356 F800
G1 X-20.112 Y-15.318 Z6.854
X-20.098 Y-15.378 Z6.868
X-20.085 Y-15.436 Z6.891
X-20.073 Y-15.49 Z6.924
X-20.038 Y-15.535 Z6.974
X-20.01 Y-15.572 Z7.034
X-19.989 Y-15.599 Z7.101
X-19.976 Y-15.616 Z7.174
X-19.971 Y-15.622 Z7.249
G0 Z18
X33.894 Y-13.932
Z9.25
G1 Z8.85 F600
Z6.85
G3 X34.631 Y-14.204 I1.123 J1.906
G1 X34.537 Y-14.153 F1300
X34.373 Y-14.038
X34.333 Y-14.009
X34.044 Y-13.789
X33.552 Y-13.41
X33.486 Y-13.354
X33.311 Y-13.19
X33.125 Y-13.028
X32.944 Y-12.894
X32.724 Y-12.757
X32.437 Y-12.609
X32.078 Y-12.459
X31.596 Y-12.302
X30.926 Y-12.141
X30.213 Y-12.03
X29.494 Y-11.958
X28.774 Y-11.911
X28.053 Y-11.88
X27.331 Y-11.86
X26.609 Y-11.847
X25.887 Y-11.839
X25.165 Y-11.834
X24.443 Y-11.831
X22.999 Y-11.827
X20.111 Y-11.826
X-14.38 Y-11.839
X-14.622 Y-11.871
X-14.847 Y-11.964
X-15.04 Y-12.113
X-15.997 Y-13.07
X-16.161 Y-13.226
X-16.325 Y-13.38
X-16.531 Y-13.541
G3 X-16.675 Y-13.883 I0.255 J-0.308 F800
G1 X-16.657 Y-13.941 Z6.855
X-16.639 Y-13.997 Z6.869
X-16.622 Y-14.051 Z6.892
X-16.585 Y-14.091 Z6.924
X-16.553 Y-14.126 Z6.965
X-16.525 Y-14.156 Z7.013
X-16.502 Y-14.18 Z7.067
X-16.481 Y-14.193 Z7.125
X-16.468 Y-14.201 Z7.187
X-16.464 Y-14.203 Z7.25
G0 Z7.65
X33.806 Y-14.258
G1 Z7.25 F600
X33.804 Y-14.251 Z7.172
X33.798 Y-14.229 Z7.097
X33.788 Y-14.193 Z7.028
X33.775 Y-14.145 Z6.967
X33.759 Y-14.087 Z6.917
X33.74 Y-14.02 Z6.88
X33.721 Y-13.948 Z6.858
X33.7 Y-13.873 Z6.85
G3 X33.311 Y-13.19 I-1.526 J-0.418
G1 X33.224 Y-13.106 F1300
X31.833 Y-11.715
X31.642 Y-11.543
X31.46 Y-11.402
X31.223 Y-11.249
X30.938 Y-11.095
X30.565 Y-10.932
X30.09 Y-10.767
X29.436 Y-10.598
X28.725 Y-10.473
X28.008 Y-10.39
X27.288 Y-10.335
X26.567 Y-10.298
X25.845 Y-10.273
X25.123 Y-10.257
X24.401 Y-10.246
X23.679 Y-10.239
X22.958 Y-10.234
X22.236 Y-10.231
X20.792 Y-10.228
X17.904 Y-10.227
X-12.78 Y-10.239
X-13.021 Y-10.27
X-13.246 Y-10.364
X-13.439 Y-10.512
X-15.04 Y-12.113
G3 X-15.147 Y-12.385 I0.293 J-0.273 F800
G1 X-15.145 Y-12.428
X-15.138 Y-12.47
X-15.113 Y-12.525 Z6.855
X-15.088 Y-12.579 Z6.869
X-15.064 Y-12.63 Z6.892
X-15.022 Y-12.664 Z6.924
X-14.985 Y-12.695 Z6.965
X-14.954 Y-12.721 Z7.013
X-14.928 Y-12.742 Z7.067
X-14.906 Y-12.752 Z7.125
X-14.892 Y-12.758 Z7.187
X-14.887 Y-12.76 Z7.25
G0 Z7.65
X32.308 Y-12.792
G1 Z7.25 F600
X32.307 Y-12.785 Z7.172
X32.301 Y-12.763 Z7.097
X32.292 Y-12.727 Z7.028
X32.28 Y-12.679 Z6.967
X32.265 Y-12.62 Z6.917
X32.248 Y-12.553 Z6.88
X32.229 Y-12.48 Z6.858
X32.21 Y-12.405 Z6.85
G3 X31.833 Y-11.715 I-1.534 J-0.39
G1 X30.271 Y-10.153 F1300
X30.075 Y-9.976
X29.886 Y-9.83
X29.645 Y-9.674
X29.353 Y-9.517
X28.974 Y-9.35
X28.482 Y-9.18
X27.815 Y-9.007
X27.104 Y-8.883
X26.387 Y-8.799
X25.667 Y-8.743
X24.946 Y-8.704
X24.225 Y-8.679
X23.503 Y-8.661
X22.781 Y-8.649
X22.059 Y-8.642
X21.337 Y-8.636
X20.615 Y-8.633
X19.171 Y-8.629
X17.005 Y-8.628
X8.341 Y-8.63
X-11.153 Y-8.638
X-11.192 Y-8.639
X-11.429 Y-8.673
X-11.65 Y-8.766
X-11.839 Y-8.912
X-13.439 Y-10.512
G3 X-13.547 Y-10.785 I0.293 J-0.273 F800
G1 X-13.544 Y-10.827
X-13.538 Y-10.869
X-13.512 Y-10.924 Z6.855
X-13.487 Y-10.978 Z6.869
X-13.463 Y-11.029 Z6.892
X-13.422 Y-11.064 Z6.924
X-13.385 Y-11.094 Z6.965
X-13.353 Y-11.12 Z7.013
X-13.328 Y-11.142 Z7.067
X-13.305 Y-11.151 Z7.125
X-13.291 Y-11.157 Z7.187
X-13.287 Y-11.159 Z7.25
G0 Z7.65
X30.746 Y-11.23
G1 Z7.25 F600
X30.744 Y-11.222 Z7.172
X30.738 Y-11.2 Z7.097
X30.729 Y-11.165 Z7.028
X30.717 Y-11.116 Z6.967
X30.702 Y-11.058 Z6.917
X30.685 Y-10.991 Z6.88
X30.666 Y-10.918 Z6.858
X30.647 Y-10.842 Z6.85
G3 X30.271 Y-10.153 I-1.534 J-0.39
G1 X28.72 Y-8.602 F1300
X28.484 Y-8.389
X28.294 Y-8.243
X28.051 Y-8.085
X27.757 Y-7.927
X27.375 Y-7.759
X26.88 Y-7.587
X26.206 Y-7.413
X25.495 Y-7.289
X24.778 Y-7.204
X24.058 Y-7.147
X23.337 Y-7.108
X22.616 Y-7.082
X21.894 Y-7.064
X21.172 Y-7.052
X20.45 Y-7.044
X19.728 Y-7.038
X19.006 Y-7.034
X17.562 Y-7.03
X15.396 Y-7.029
X8.176 Y-7.03
X-9.578 Y-7.037
X-9.82 Y-7.069
X-10.045 Y-7.162
X-10.238 Y-7.311
X-11.839 Y-8.912
G3 X-11.947 Y-9.184 I0.293 J-0.273 F800
G1 Y-9.185
X-11.944 Y-9.227
X-11.938 Y-9.269
X-11.912 Y-9.324 Z6.855
X-11.887 Y-9.378 Z6.869
X-11.863 Y-9.429 Z6.892
X-11.822 Y-9.463 Z6.924
X-11.785 Y-9.494 Z6.965
X-11.753 Y-9.52 Z7.013
X-11.727 Y-9.541 Z7.067
X-11.705 Y-9.551 Z7.125
X-11.691 Y-9.557 Z7.187
X-11.687 Y-9.559 Z7.25
G0 Z7.65
X29.195 Y-9.679
G1 Z7.25 F600
X29.193 Y-9.672 Z7.172
X29.188 Y-9.65 Z7.097
X29.179 Y-9.614 Z7.028
X29.166 Y-9.566 Z6.967
X29.151 Y-9.507 Z6.917
X29.134 Y-9.44 Z6.88
X29.116 Y-9.367 Z6.858
X29.097 Y-9.292 Z6.85
G3 X28.72 Y-8.602 I-1.534 J-0.39
G1 X27.082 Y-6.964 F1300
X26.897 Y-6.797
X26.707 Y-6.65
X26.462 Y-6.492
X26.168 Y-6.333
X25.783 Y-6.164
X25.286 Y-5.992
X24.609 Y-5.817
X23.897 Y-5.692
X23.18 Y-5.608
X22.461 Y-5.55
X21.74 Y-5.511
X21.018 Y-5.484
X20.297 Y-5.466
X19.575 Y-5.453
X18.853 Y-5.445
X18.131 Y-5.439
X17.409 Y-5.435
X15.965 Y-5.431
X13.799 Y-5.429
X7.301 Y-5.431
X-7.861 Y-5.437
X-7.986 Y-5.438
X-8.225 Y-5.471
X-8.447 Y-5.564
X-8.638 Y-5.711
X-10.238 Y-7.311
G3 X-10.345 Y-7.583 I0.293 J-0.273 F800
G1 Y-7.584
X-10.343 Y-7.626
X-10.336 Y-7.668
X-10.311 Y-7.723 Z6.855
X-10.286 Y-7.777 Z6.869
X-10.262 Y-7.828 Z6.892
X-10.221 Y-7.862 Z6.924
X-10.183 Y-7.893 Z6.965
X-10.152 Y-7.919 Z7.013
X-10.126 Y-7.94 Z7.067
X-10.104 Y-7.95 Z7.125
X-10.09 Y-7.956 Z7.187
X-10.086 Y-7.958 Z7.25
G0 Z7.65
X27.557 Y-8.041
G1 Z7.25 F600
X27.555 Y-8.033 Z7.172
X27.549 Y-8.011 Z7.097
X27.54 Y-7.975 Z7.028
X27.528 Y-7.927 Z6.967
X27.513 Y-7.868 Z6.917
X27.496 Y-7.801 Z6.88
X27.477 Y-7.729 Z6.858
X27.458 Y-7.653 Z6.85
G3 X27.082 Y-6.964 I-1.534 J-0.39
G1 X25.607 Y-5.489 F1300
X25.513 Y-5.401
X25.349 Y-5.254
X25.151 Y-5.095
X24.921 Y-4.938
X24.645 Y-4.782
X24.284 Y-4.613
X24.256 Y-4.602
X24.189 Y-4.58
X24.121 Y-4.564
X24.052 Y-4.552
G3 X23.615 Y-4.911 Z7.05 I-0.038 J-0.398 F800
G1 X23.614 Y-4.974
X23.623 Y-5.037
G3 X23.818 Y-5.299 I0.39 J0.087 F1300
G1 X24.877 Y-5.892
G3 X25.262 Y-5.896 I0.196 J0.349
G1 X25.315 Y-5.862 F600
X25.362 Y-5.82
G3 X25.349 Y-5.254 Z6.85 I-0.289 J0.276
G1 X25.06 Y-4.998 F1300
X24.847 Y-4.834
X24.77 Y-4.781
X24.693 Y-4.746
X24.364 Y-4.61
X24.282 Y-4.584
X24.2 Y-4.571
X23.872 Y-4.528
X23.708 Y-4.511
X23.216 Y-4.501
X22.888 Y-4.5
X-6.153
X-6.317 Y-4.503
X-6.809 Y-4.547
X-6.973 Y-4.567
X-7.055 Y-4.577
X-7.096 Y-4.585
X-7.137 Y-4.597
X-7.317 Y-4.67
X-7.547 Y-4.765
X-7.588 Y-4.786
X-7.629 Y-4.813
X-7.656 Y-4.834
X-7.863 Y-4.998
X-8.121 Y-5.204
X-8.252 Y-5.325
X-8.638 Y-5.711
G3 X-8.746 Y-5.984 I0.293 J-0.273 F800
G1 X-8.743 Y-6.026
X-8.737 Y-6.068
X-8.711 Y-6.123 Z6.855
X-8.686 Y-6.177 Z6.869
X-8.662 Y-6.228 Z6.892
X-8.621 Y-6.263 Z6.924
X-8.584 Y-6.293 Z6.965
X-8.552 Y-6.32 Z7.013
X-8.527 Y-6.341 Z7.067
X-8.504 Y-6.35 Z7.125
X-8.49 Y-6.356 Z7.187
X-8.486 Y-6.358 Z7.25
G0 Z8.8
X34.982 Y-15.103
G1 Z8.4 F600
Z6.4
G3 X37.18 Y-15.019 I1.054 J1.226
G1 X37.162 Y-15.005 F1300
X37.144 Y-14.993
X37.107 Y-14.972
X37.071 Y-14.957
X37.034 Y-14.946
X36.998 Y-14.938
X36.341 Y-14.851
X36.177 Y-14.821
X36.013 Y-14.781
X35.849 Y-14.73
X35.685 Y-14.663
X34.865 Y-14.322
X34.701 Y-14.242
X34.631 Y-14.204
X34.409 Y-14.098
X34.049 Y-13.959
X33.559 Y-13.815
X32.853 Y-13.666
X32.136 Y-13.575
X31.417 Y-13.518
X30.696 Y-13.482
X29.974 Y-13.46
X29.252 Y-13.446
X28.53 Y-13.438
X27.808 Y-13.432
X27.086 Y-13.429
X25.642 Y-13.426
X22.754 Y-13.425
X-15.511 Y-13.44
X-16.233
X-16.339 Y-13.452
X-16.44 Y-13.486
X-16.531 Y-13.541
X-16.817 Y-13.761
X-16.981 Y-13.884
X-17.343 Y-14.154
X-17.377 Y-14.173
X-17.802 Y-14.372
X-17.966 Y-14.444
X-18.458 Y-14.648
X-18.504 Y-14.665
X-18.909 Y-14.806
X-19.278 Y-14.864
X-19.442 Y-14.89
X-19.77 Y-14.933
X-19.852 Y-14.948
X-19.893 Y-14.961
G3 X-20.108 Y-15.264 I0.182 J-0.356 F800
G1 X-20.112 Y-15.318 Z6.404
X-20.098 Y-15.378 Z6.418
X-20.085 Y-15.436 Z6.441
X-20.073 Y-15.49 Z6.474
X-20.038 Y-15.535 Z6.524
X-20.01 Y-15.572 Z6.584
X-19.989 Y-15.599 Z6.651
X-19.976 Y-15.616 Z6.724
X-19.971 Y-15.622 Z6.799
G0 Z18
X33.894 Y-13.932
Z8.8
G1 Z8.4 F600
Z6.4
G3 X34.631 Y-14.204 I1.123 J1.906
G1 X34.537 Y-14.153 F1300
X34.373 Y-14.038
X34.333 Y-14.009
X34.044 Y-13.789
X33.552 Y-13.41
X33.486 Y-13.354
X33.311 Y-13.19
X33.125 Y-13.028
X32.944 Y-12.894
X32.724 Y-12.757
X32.437 Y-12.609
X32.078 Y-12.459
X31.596 Y-12.302
X30.926 Y-12.141
X30.213 Y-12.03
X29.494 Y-11.958
X28.774 Y-11.911
X28.053 Y-11.88
X27.331 Y-11.86
X26.609 Y-11.847
X25.887 Y-11.839
X25.165 Y-11.834
X24.443 Y-11.831
X22.999 Y-11.827
X20.111 Y-11.826
X-14.38 Y-11.839
X-14.622 Y-11.871
X-14.847 Y-11.964
X-15.04 Y-12.113
X-15.997 Y-13.07
X-16.161 Y-13.226
X-16.325 Y-13.38
X-16.531 Y-13.541
G3 X-16.675 Y-13.883 I0.255 J-0.308 F800
G1 X-16.657 Y-13.941 Z6.405
X-16.639 Y-13.997 Z6.419
X-16.622 Y-14.051 Z6.442
X-16.585 Y-14.091 Z6.474
X-16.553 Y-14.126 Z6.515
X-16.525 Y-14.156 Z6.563
X-16.502 Y-14.18 Z6.617
X-16.481 Y-14.193 Z6.675
X-16.468 Y-14.201 Z6.737
X-16.464 Y-14.203 Z6.8
G0 Z7.2
X33.806 Y-14.258
G1 Z6.8 F600
X33.804 Y-14.251 Z6.722
X33.798 Y-14.229 Z6.647
X33.788 Y-14.193 Z6.578
X33.775 Y-14.145 Z6.517
X33.759 Y-14.087 Z6.467
X33.74 Y-14.02 Z6.43
X33.721 Y-13.948 Z6.408
X33.7 Y-13.873 Z6.4
G3 X33.311 Y-13.19 I-1.526 J-0.418
G1 X33.224 Y-13.106 F1300
X31.833 Y-11.715
X31.642 Y-11.543
X31.46 Y-11.402
X31.223 Y-11.249
X30.938 Y-11.095
X30.565 Y-10.932
X30.09 Y-10.767
X29.436 Y-10.598
X28.725 Y-10.473
X28.008 Y-10.39
X27.288 Y-10.335
X26.567 Y-10.298
X25.845 Y-10.273
X25.123 Y-10.257
X24.401 Y-10.246
X23.679 Y-10.239
X22.958 Y-10.234
X22.236 Y-10.231
X20.792 Y-10.228
X17.904 Y-10.227
X-12.78 Y-10.239
X-13.021 Y-10.27
X-13.246 Y-10.364
X-13.439 Y-10.512
X-15.04 Y-12.113
G3 X-15.147 Y-12.385 I0.293 J-0.273 F800
G1 X-15.145 Y-12.428
X-15.138 Y-12.47
X-15.113 Y-12.525 Z6.405
X-15.088 Y-12.579 Z6.419
X-15.064 Y-12.63 Z6.442
X-15.022 Y-12.664 Z6.474
X-14.985 Y-12.695 Z6.515
X-14.954 Y-12.721 Z6.563
X-14.928 Y-12.742 Z6.617
X-14.906 Y-12.752 Z6.675
X-14.892 Y-12.758 Z6.737
X-14.887 Y-12.76 Z6.8
G0 Z7.2
X32.308 Y-12.792
G1 Z6.8 F600
X32.307 Y-12.785 Z6.722
X32.301 Y-12.763 Z6.647
X32.292 Y-12.727 Z6.578
X32.28 Y-12.679 Z6.517
X32.265 Y-12.62 Z6.467
X32.248 Y-12.553 Z6.43
X32.229 Y-12.48 Z6.408
X32.21 Y-12.405 Z6.4
G3 X31.833 Y-11.715 I-1.534 J-0.39
G1 X30.271 Y-10.153 F1300
X30.075 Y-9.976
X29.886 Y-9.83
X29.645 Y-9.674
X29.353 Y-9.517
X28.974 Y-9.35
X28.482 Y-9.18
X27.815 Y-9.007
X27.104 Y-8.883
X26.387 Y-8.799
X25.667 Y-8.743
X24.946 Y-8.704
X24.225 Y-8.679
X23.503 Y-8.661
X22.781 Y-8.649
X22.059 Y-8.642
X21.337 Y-8.636
X20.615 Y-8.633
X19.171 Y-8.629
X17.005 Y-8.628
X8.341 Y-8.63
X-11.153 Y-8.638
X-11.192 Y-8.639
X-11.429 Y-8.673
X-11.65 Y-8.766
X-11.839 Y-8.912
X-13.439 Y-10.512
G3 X-13.547 Y-10.785 I0.293 J-0.273 F800
G1 X-13.544 Y-10.827
X-13.538 Y-10.869
X-13.512 Y-10.924 Z6.405
X-13.487 Y-10.978 Z6.419
X-13.463 Y-11.029 Z6.442
X-13.422 Y-11.064 Z6.474
X-13.385 Y-11.094 Z6.515
X-13.353 Y-11.12 Z6.563
X-13.328 Y-11.142 Z6.617
X-13.305 Y-11.151 Z6.675
X-13.291 Y-11.157 Z6.737
X-13.287 Y-11.159 Z6.8
G0 Z7.2
X30.746 Y-11.23
G1 Z6.8 F600
X30.744 Y-11.222 Z6.722
X30.738 Y-11.2 Z6.647
X30.729 Y-11.165 Z6.578
X30.717 Y-11.116 Z6.517
X30.702 Y-11.058 Z6.467
X30.685 Y-10.991 Z6.43
X30.666 Y-10.918 Z6.408
X30.647 Y-10.842 Z6.4
G3 X30.271 Y-10.153 I-1.534 J-0.39
G1 X28.72 Y-8.602 F1300
X28.484 Y-8.389
X28.294 Y-8.243
X28.051 Y-8.085
X27.757 Y-7.927
X27.375 Y-7.759
X26.88 Y-7.587
X26.206 Y-7.413
X25.495 Y-7.289
X24.778 Y-7.204
X24.058 Y-7.147
X23.337 Y-7.108
X22.616 Y-7.082
X21.894 Y-7.064
X21.172 Y-7.052
X20.45 Y-7.044
X19.728 Y-7.038
X19.006 Y-7.034
X17.562 Y-7.03
X15.396 Y-7.029
X8.176 Y-7.03
X-9.578 Y-7.037
X-9.82 Y-7.069
X-10.045 Y-7.162
X-10.238 Y-7.311
X-11.839 Y-8.912
G3 X-11.947 Y-9.184 I0.293 J-0.273 F800
G1 Y-9.185
X-11.944 Y-9.227
X-11.938 Y-9.269
X-11.912 Y-9.324 Z6.405
X-11.887 Y-9.378 Z6.419
X-11.863 Y-9.429 Z6.442
X-11.822 Y-9.463 Z6.474
X-11.785 Y-9.494 Z6.515
X-11.753 Y-9.52 Z6.563
X-11.727 Y-9.541 Z6.617
X-11.705 Y-9.551 Z6.675
X-11.691 Y-9.557 Z6.737
X-11.687 Y-9.559 Z6.8
G0 Z7.2
X29.195 Y-9.679
G1 Z6.8 F600
X29.193 Y-9.672 Z6.722
X29.188 Y-9.65 Z6.647
X29.179 Y-9.614 Z6.578
X29.166 Y-9.566 Z6.517
X29.151 Y-9.507 Z6.467
X29.134 Y-9.44 Z6.43
X29.116 Y-9.367 Z6.408
X29.097 Y-9.292 Z6.4
G3 X28.72 Y-8.602 I-1.534 J-0.39
G1 X27.082 Y-6.964 F1300
X26.897 Y-6.797
X26.707 Y-6.65
X26.462 Y-6.492
X26.168 Y-6.333
X25.783 Y-6.164
X25.286 Y-5.992
X24.609 Y-5.817
X23.897 Y-5.692
X23.18 Y-5.608
X22.461 Y-5.55
X21.74 Y-5.511
X21.018 Y-5.484
X20.297 Y-5.466
X19.575 Y-5.453
X18.853 Y-5.445
X18.131 Y-5.439
X17.409 Y-5.435
X15.965 Y-5.431
X13.799 Y-5.429
X7.301 Y-5.431
X-7.861 Y-5.437
X-7.986 Y-5.438
X-8.225 Y-5.471
X-8.447 Y-5.564
X-8.638 Y-5.711
X-10.238 Y-7.311
G3 X-10.345 Y-7.583 I0.293 J-0.273 F800
G1 Y-7.584
X-10.343 Y-7.626
X-10.336 Y-7.668
X-10.311 Y-7.723 Z6.405
X-10.286 Y-7.777 Z6.419
X-10.262 Y-7.828 Z6.442
X-10.221 Y-7.862 Z6.474
X-10.183 Y-7.893 Z6.515
X-10.152 Y-7.919 Z6.563
X-10.126 Y-7.94 Z6.617
X-10.104 Y-7.95 Z6.675
X-10.09 Y-7.956 Z6.737
X-10.086 Y-7.958 Z6.8
G0 Z7.2
X27.557 Y-8.041
G1 Z6.8 F600
X27.555 Y-8.033 Z6.722
X27.549 Y-8.011 Z6.647
X27.54 Y-7.975 Z6.578
X27.528 Y-7.927 Z6.517
X27.513 Y-7.868 Z6.467
X27.496 Y-7.801 Z6.43
X27.477 Y-7.729 Z6.408
X27.458 Y-7.653 Z6.4
G3 X27.082 Y-6.964 I-1.534 J-0.39
G1 X25.607 Y-5.489 F1300
X25.513 Y-5.401
X25.349 Y-5.254
X25.151 Y-5.095
X24.921 Y-4.938
X24.645 Y-4.782
X24.284 Y-4.613
X24.256 Y-4.602
X24.189 Y-4.58
X24.121 Y-4.564
X24.052 Y-4.552
G3 X23.615 Y-4.911 Z6.6 I-0.038 J-0.398 F800
G1 X23.614 Y-4.974
X23.623 Y-5.037
G3 X23.818 Y-5.299 I0.39 J0.087 F1300
G1 X24.877 Y-5.892
G3 X25.262 Y-5.896 I0.196 J0.349
G1 X25.315 Y-5.862 F600
X25.362 Y-5.82
G3 X25.349 Y-5.254 Z6.4 I-0.289 J0.276
G1 X25.06 Y-4.998 F1300
X24.847 Y-4.834
X24.77 Y-4.781
X24.693 Y-4.746
X24.364 Y-4.61
X24.282 Y-4.584
X24.2 Y-4.571
X23.872 Y-4.528
X23.708 Y-4.511
X23.216 Y-4.501
X22.888 Y-4.5
X-6.153
X-6.317 Y-4.503
X-6.809 Y-4.547
X-6.973 Y-4.567
X-7.055 Y-4.577
X-7.096 Y-4.585
X-7.137 Y-4.597
X-7.317 Y-4.67
X-7.547 Y-4.765
X-7.588 Y-4.786
X-7.629 Y-4.813
X-7.656 Y-4.834
X-7.863 Y-4.998
X-8.121 Y-5.204
X-8.252 Y-5.325
X-8.638 Y-5.711
G3 X-8.746 Y-5.984 I0.293 J-0.273 F800
G1 X-8.743 Y-6.026
X-8.737 Y-6.068
X-8.711 Y-6.123 Z6.405
X-8.686 Y-6.177 Z6.419
X-8.662 Y-6.228 Z6.442
X-8.621 Y-6.263 Z6.474
X-8.584 Y-6.293 Z6.515
X-8.552 Y-6.32 Z6.563
X-8.527 Y-6.341 Z6.617
X-8.504 Y-6.35 Z6.675
X-8.49 Y-6.356 Z6.737
X-8.486 Y-6.358 Z6.8
G0 Z8.35
X34.982 Y-15.103
G1 Z7.95 F600
Z5.95
G3 X37.18 Y-15.019 I1.054 J1.226
G1 X37.162 Y-15.005 F1300
X37.144 Y-14.993
X37.107 Y-14.972
X37.071 Y-14.957
X37.034 Y-14.946
X36.998 Y-14.938
X36.341 Y-14.851
X36.177 Y-14.821
X36.013 Y-14.781
X35.849 Y-14.73
X35.685 Y-14.663
X34.865 Y-14.322
X34.701 Y-14.242
X34.631 Y-14.204
X34.409 Y-14.098
X34.049 Y-13.959
X33.559 Y-13.815
X32.853 Y-13.666
X32.136 Y-13.575
X31.417 Y-13.518
X30.696 Y-13.482
X29.974 Y-13.46
X29.252 Y-13.446
X28.53 Y-13.438
X27.808 Y-13.432
X27.086 Y-13.429
X25.642 Y-13.426
X22.754 Y-13.425
X-15.511 Y-13.44
X-16.233
X-16.339 Y-13.452
X-16.44 Y-13.486
X-16.531 Y-13.541
X-16.817 Y-13.761
X-16.981 Y-13.884
X-17.343 Y-14.154
X-17.377 Y-14.173
X-17.802 Y-14.372
X-17.966 Y-14.444
X-18.458 Y-14.648
X-18.504 Y-14.665
X-18.909 Y-14.806
X-19.278 Y-14.864
X-19.442 Y-14.89
X-19.77 Y-14.933
X-19.852 Y-14.948
X-19.893 Y-14.961
G3 X-20.108 Y-15.264 I0.182 J-0.356 F800
G1 X-20.112 Y-15.318 Z5.954
X-20.098 Y-15.378 Z5.968
X-20.085 Y-15.436 Z5.991
X-20.073 Y-15.49 Z6.024
X-20.038 Y-15.535 Z6.074
X-20.01 Y-15.572 Z6.134
X-19.989 Y-15.599 Z6.201
X-19.976 Y-15.616 Z6.274
X-19.971 Y-15.622 Z6.349
G0 Z18
X33.894 Y-13.932
Z8.35
G1 Z7.95 F600
Z5.95
G3 X34.631 Y-14.204 I1.123 J1.906
G1 X34.537 Y-14.153 F1300
X34.373 Y-14.038
X34.333 Y-14.009
X34.044 Y-13.789
X33.552 Y-13.41
X33.486 Y-13.354
X33.311 Y-13.19
X33.125 Y-13.028
X32.944 Y-12.894
X32.724 Y-12.757
X32.437 Y-12.609
X32.078 Y-12.459
X31.596 Y-12.302
X30.926 Y-12.141
X30.213 Y-12.03
X29.494 Y-11.958
X28.774 Y-11.911
X28.053 Y-11.88
X27.331 Y-11.86
X26.609 Y-11.847
X25.887 Y-11.839
X25.165 Y-11.834
X24.443 Y-11.831
X22.999 Y-11.827
X20.111 Y-11.826
X-14.38 Y-11.839
X-14.622 Y-11.871
X-14.847 Y-11.964
X-15.04 Y-12.113
X-15.997 Y-13.07
X-16.161 Y-13.226
X-16.325 Y-13.38
X-16.531 Y-13.541
G3 X-16.675 Y-13.883 I0.255 J-0.308 F800
G1 X-16.657 Y-13.941 Z5.955
X-16.639 Y-13.997 Z5.969
X-16.622 Y-14.051 Z5.992
X-16.585 Y-14.091 Z6.024
X-16.553 Y-14.126 Z6.065
X-16.525 Y-14.156 Z6.113
X-16.502 Y-14.18 Z6.167
X-16.481 Y-14.193 Z6.225
X-16.468 Y-14.201 Z6.287
X-16.464 Y-14.203 Z6.35
G0 Z6.75
X33.806 Y-14.258
G1 Z6.35 F600
X33.804 Y-14.251 Z6.272
X33.798 Y-14.229 Z6.197
X33.788 Y-14.193 Z6.128
X33.775 Y-14.145 Z6.067
X33.759 Y-14.087 Z6.017
X33.74 Y-14.02 Z5.98
X33.721 Y-13.948 Z5.958
X33.7 Y-13.873 Z5.95
G3 X33.311 Y-13.19 I-1.526 J-0.418
G1 X33.224 Y-13.106 F1300
X31.833 Y-11.715
X31.642 Y-11.543
X31.46 Y-11.402
X31.223 Y-11.249
X30.938 Y-11.095
X30.565 Y-10.932
X30.09 Y-10.767
X29.436 Y-10.598
X28.725 Y-10.473
X28.008 Y-10.39
X27.288 Y-10.335
X26.567 Y-10.298
X25.845 Y-10.273
X25.123 Y-10.257
X24.401 Y-10.246
X23.679 Y-10.239
X22.958 Y-10.234
X22.236 Y-10.231
X20.792 Y-10.228
X17.904 Y-10.227
X-12.78 Y-10.239
X-13.021 Y-10.27
X-13.246 Y-10.364
X-13.439 Y-10.512
X-15.04 Y-12.113
G3 X-15.147 Y-12.385 I0.293 J-0.273 F800
G1 X-15.145 Y-12.428
X-15.138 Y-12.47
X-15.113 Y-12.525 Z5.955
X-15.088 Y-12.579 Z5.969
X-15.064 Y-12.63 Z5.992
X-15.022 Y-12.664 Z6.024
X-14.985 Y-12.695 Z6.065
X-14.954 Y-12.721 Z6.113
X-14.928 Y-12.742 Z6.167
X-14.906 Y-12.752 Z6.225
X-14.892 Y-12.758 Z6.287
X-14.887 Y-12.76 Z6.35
G0 Z6.75
X32.308 Y-12.792
G1 Z6.35 F600
X32.307 Y-12.785 Z6.272
X32.301 Y-12.763 Z6.197
X32.292 Y-12.727 Z6.128
X32.28 Y-12.679 Z6.067
X32.265 Y-12.62 Z6.017
X32.248 Y-12.553 Z5.98
X32.229 Y-12.48 Z5.958
X32.21 Y-12.405 Z5.95
G3 X31.833 Y-11.715 I-1.534 J-0.39
G1 X30.271 Y-10.153 F1300
X30.075 Y-9.976
X29.886 Y-9.83
X29.645 Y-9.674
X29.353 Y-9.517
X28.974 Y-9.35
X28.482 Y-9.18
X27.815 Y-9.007
X27.104 Y-8.883
X26.387 Y-8.799
X25.667 Y-8.743
X24.946 Y-8.704
X24.225 Y-8.679
X23.503 Y-8.661
X22.781 Y-8.649
X22.059 Y-8.642
X21.337 Y-8.636
X20.615 Y-8.633
X19.171 Y-8.629
X17.005 Y-8.628
X8.341 Y-8.63
X-11.153 Y-8.638
X-11.192 Y-8.639
X-11.429 Y-8.673
X-11.65 Y-8.766
X-11.839 Y-8.912
X-13.439 Y-10.512
G3 X-13.547 Y-10.785 I0.293 J-0.273 F800
G1 X-13.544 Y-10.827
X-13.538 Y-10.869
X-13.512 Y-10.924 Z5.955
X-13.487 Y-10.978 Z5.969
X-13.463 Y-11.029 Z5.992
X-13.422 Y-11.064 Z6.024
X-13.385 Y-11.094 Z6.065
X-13.353 Y-11.12 Z6.113
X-13.328 Y-11.142 Z6.167
X-13.305 Y-11.151 Z6.225
X-13.291 Y-11.157 Z6.287
X-13.287 Y-11.159 Z6.35
G0 Z6.75
X30.746 Y-11.23
G1 Z6.35 F600
X30.744 Y-11.222 Z6.272
X30.738 Y-11.2 Z6.197
X30.729 Y-11.165 Z6.128
X30.717 Y-11.116 Z6.067
X30.702 Y-11.058 Z6.017
X30.685 Y-10.991 Z5.98
X30.666 Y-10.918 Z5.958
X30.647 Y-10.842 Z5.95
G3 X30.271 Y-10.153 I-1.534 J-0.39
G1 X28.72 Y-8.602 F1300
X28.484 Y-8.389
X28.294 Y-8.243
X28.051 Y-8.085
X27.757 Y-7.927
X27.375 Y-7.759
X26.88 Y-7.587
X26.206 Y-7.413
X25.495 Y-7.289
X24.778 Y-7.204
X24.058 Y-7.147
X23.337 Y-7.108
X22.616 Y-7.082
X21.894 Y-7.064
X21.172 Y-7.052
X20.45 Y-7.044
X19.728 Y-7.038
X19.006 Y-7.034
X17.562 Y-7.03
X15.396 Y-7.029
X8.176 Y-7.03
X-9.578 Y-7.037
X-9.82 Y-7.069
X-10.045 Y-7.162
X-10.238 Y-7.311
X-11.839 Y-8.912
G3 X-11.947 Y-9.184 I0.293 J-0.273 F800
G1 Y-9.185
X-11.944 Y-9.227
X-11.938 Y-9.269
X-11.912 Y-9.324 Z5.955
X-11.887 Y-9.378 Z5.969
X-11.863 Y-9.429 Z5.992
X-11.822 Y-9.463 Z6.024
X-11.785 Y-9.494 Z6.065
X-11.753 Y-9.52 Z6.113
X-11.727 Y-9.541 Z6.167
X-11.705 Y-9.551 Z6.225
X-11.691 Y-9.557 Z6.287
X-11.687 Y-9.559 Z6.35
G0 Z6.75
X29.195 Y-9.679
G1 Z6.35 F600
X29.193 Y-9.672 Z6.272
X29.188 Y-9.65 Z6.197
X29.179 Y-9.614 Z6.128
X29.166 Y-9.566 Z6.067
X29.151 Y-9.507 Z6.017
X29.134 Y-9.44 Z5.98
X29.116 Y-9.367 Z5.958
X29.097 Y-9.292 Z5.95
G3 X28.72 Y-8.602 I-1.534 J-0.39
G1 X27.082 Y-6.964 F1300
X26.897 Y-6.797
X26.707 Y-6.65
X26.462 Y-6.492
X26.168 Y-6.333
X25.783 Y-6.164
X25.286 Y-5.992
X24.609 Y-5.817
X23.897 Y-5.692
X23.18 Y-5.608
X22.461 Y-5.55
X21.74 Y-5.511
X21.018 Y-5.484
X20.297 Y-5.466
X19.575 Y-5.453
X18.853 Y-5.445
X18.131 Y-5.439
X17.409 Y-5.435
X15.965 Y-5.431
X13.799 Y-5.429
X7.301 Y-5.431
X-7.861 Y-5.437
X-7.986 Y-5.438
X-8.225 Y-5.471
X-8.447 Y-5.564
X-8.638 Y-5.711
X-10.238 Y-7.311
G3 X-10.345 Y-7.583 I0.293 J-0.273 F800
G1 Y-7.584
X-10.343 Y-7.626
X-10.336 Y-7.668
X-10.311 Y-7.723 Z5.955
X-10.286 Y-7.777 Z5.969
X-10.262 Y-7.828 Z5.992
X-10.221 Y-7.862 Z6.024
X-10.183 Y-7.893 Z6.065
X-10.152 Y-7.919 Z6.113
X-10.126 Y-7.94 Z6.167
X-10.104 Y-7.95 Z6.225
X-10.09 Y-7.956 Z6.287
X-10.086 Y-7.958 Z6.35
G0 Z6.75
X27.557 Y-8.041
G1 Z6.35 F600
X27.555 Y-8.033 Z6.272
X27.549 Y-8.011 Z6.197
X27.54 Y-7.975 Z6.128
X27.528 Y-7.927 Z6.067
X27.513 Y-7.868 Z6.017
X27.496 Y-7.801 Z5.98
X27.477 Y-7.729 Z5.958
X27.458 Y-7.653 Z5.95
G3 X27.082 Y-6.964 I-1.534 J-0.39
G1 X25.607 Y-5.489 F1300
X25.513 Y-5.401
X25.349 Y-5.254
X25.151 Y-5.095
X24.921 Y-4.938
X24.645 Y-4.782
X24.284 Y-4.613
X24.256 Y-4.602
X24.189 Y-4.58
X24.121 Y-4.564
X24.052 Y-4.552
G3 X23.615 Y-4.911 Z6.15 I-0.038 J-0.398 F800
G1 X23.614 Y-4.974
X23.623 Y-5.037
G3 X23.818 Y-5.299 I0.39 J0.087 F1300
G1 X24.877 Y-5.892
G3 X25.262 Y-5.896 I0.196 J0.349
G1 X25.315 Y-5.862 F600
X25.362 Y-5.82
G3 X25.349 Y-5.254 Z5.95 I-0.289 J0.276
G1 X25.06 Y-4.998 F1300
X24.847 Y-4.834
X24.77 Y-4.781
X24.693 Y-4.746
X24.364 Y-4.61
X24.282 Y-4.584
X24.2 Y-4.571
X23.872 Y-4.528
X23.708 Y-4.511
X23.216 Y-4.501
X22.888 Y-4.5
X-6.153
X-6.317 Y-4.503
X-6.809 Y-4.547
X-6.973 Y-4.567
X-7.055 Y-4.577
X-7.096 Y-4.585
X-7.137 Y-4.597
X-7.317 Y-4.67
X-7.547 Y-4.765
X-7.588 Y-4.786
X-7.629 Y-4.813
X-7.656 Y-4.834
X-7.863 Y-4.998
X-8.121 Y-5.204
X-8.252 Y-5.325
X-8.638 Y-5.711
G3 X-8.746 Y-5.984 I0.293 J-0.273 F800
G1 X-8.743 Y-6.026
X-8.737 Y-6.068
X-8.711 Y-6.123 Z5.955
X-8.686 Y-6.177 Z5.969
X-8.662 Y-6.228 Z5.992
X-8.621 Y-6.263 Z6.024
X-8.584 Y-6.293 Z6.065
X-8.552 Y-6.32 Z6.113
X-8.527 Y-6.341 Z6.167
X-8.504 Y-6.35 Z6.225
X-8.49 Y-6.356 Z6.287
X-8.486 Y-6.358 Z6.35
G0 Z7.9
X34.982 Y-15.103
G1 Z7.5 F600
Z5.5
G3 X37.18 Y-15.019 I1.054 J1.226
G1 X37.162 Y-15.005 F1300
X37.144 Y-14.993
X37.107 Y-14.972
X37.071 Y-14.957
X37.034 Y-14.946
X36.998 Y-14.938
X36.341 Y-14.851
X36.177 Y-14.821
X36.013 Y-14.781
X35.849 Y-14.73
X35.685 Y-14.663
X34.865 Y-14.322
X34.701 Y-14.242
X34.631 Y-14.204
X34.409 Y-14.098
X34.049 Y-13.959
X33.559 Y-13.815
X32.853 Y-13.666
X32.136 Y-13.575
X31.417 Y-13.518
X30.696 Y-13.482
X29.974 Y-13.46
X29.252 Y-13.446
X28.53 Y-13.438
X27.808 Y-13.432
X27.086 Y-13.429
X25.642 Y-13.426
X22.754 Y-13.425
X-15.511 Y-13.44
X-16.233
X-16.339 Y-13.452
X-16.44 Y-13.486
X-16.531 Y-13.541
X-16.817 Y-13.761
X-16.981 Y-13.884
X-17.343 Y-14.154
X-17.377 Y-14.173
X-17.802 Y-14.372
X-17.966 Y-14.444
X-18.458 Y-14.648
X-18.504 Y-14.665
X-18.909 Y-14.806
X-19.278 Y-14.864
X-19.442 Y-14.89
X-19.77 Y-14.933
X-19.852 Y-14.948
X-19.893 Y-14.961
G3 X-20.108 Y-15.264 I0.182 J-0.356 F800
G1 X-20.112 Y-15.318 Z5.504
X-20.098 Y-15.378 Z5.518
X-20.085 Y-15.436 Z5.541
X-20.073 Y-15.49 Z5.574
X-20.038 Y-15.535 Z5.624
X-20.01 Y-15.572 Z5.684
X-19.989 Y-15.599 Z5.751
X-19.976 Y-15.616 Z5.824
X-19.971 Y-15.622 Z5.899
G0 Z18
X33.894 Y-13.932
Z7.9
G1 Z7.5 F600
Z5.5
G3 X34.631 Y-14.204 I1.123 J1.906
G1 X34.537 Y-14.153 F1300
X34.373 Y-14.038
X34.333 Y-14.009
X34.044 Y-13.789
X33.552 Y-13.41
X33.486 Y-13.354
X33.311 Y-13.19
X33.125 Y-13.028
X32.944 Y-12.894
X32.724 Y-12.757
X32.437 Y-12.609
X32.078 Y-12.459
X31.596 Y-12.302
X30.926 Y-12.141
X30.213 Y-12.03
X29.494 Y-11.958
X28.774 Y-11.911
X28.053 Y-11.88
X27.331 Y-11.86
X26.609 Y-11.847
X25.887 Y-11.839
X25.165 Y-11.834
X24.443 Y-11.831
X22.999 Y-11.827
X20.111 Y-11.826
X-14.38 Y-11.839
X-14.622 Y-11.871
X-14.847 Y-11.964
X-15.04 Y-12.113
X-15.997 Y-13.07
X-16.161 Y-13.226
X-16.325 Y-13.38
X-16.531 Y-13.541
G3 X-16.675 Y-13.883 I0.255 J-0.308 F800
G1 X-16.657 Y-13.941 Z5.505
X-16.639 Y-13.997 Z5.519
X-16.622 Y-14.051 Z5.542
X-16.585 Y-14.091 Z5.574
X-16.553 Y-14.126 Z5.615
X-16.525 Y-14.156 Z5.663
X-16.502 Y-14.18 Z5.717
X-16.481 Y-14.193 Z5.775
X-16.468 Y-14.201 Z5.837
X-16.464 Y-14.203 Z5.9
G0 Z6.3
X33.806 Y-14.258
G1 Z5.9 F600
X33.804 Y-14.251 Z5.822
X33.798 Y-14.229 Z5.747
X33.788 Y-14.193 Z5.678
X33.775 Y-14.145 Z5.617
X33.759 Y-14.087 Z5.567
X33.74 Y-14.02 Z5.53
X33.721 Y-13.948 Z5.508
X33.7 Y-13.873 Z5.5
G3 X33.311 Y-13.19 I-1.526 J-0.418
G1 X33.224 Y-13.106 F1300
X31.833 Y-11.715
X31.642 Y-11.543
X31.46 Y-11.402
X31.223 Y-11.249
X30.938 Y-11.095
X30.565 Y-10.932
X30.09 Y-10.767
X29.436 Y-10.598
X28.725 Y-10.473
X28.008 Y-10.39
X27.288 Y-10.335
X26.567 Y-10.298
X25.845 Y-10.273
X25.123 Y-10.257
X24.401 Y-10.246
X23.679 Y-10.239
X22.958 Y-10.234
X22.236 Y-10.231
X20.792 Y-10.228
X17.904 Y-10.227
X-12.78 Y-10.239
X-13.021 Y-10.27
X-13.246 Y-10.364
X-13.439 Y-10.512
X-15.04 Y-12.113
G3 X-15.147 Y-12.385 I0.293 J-0.273 F800
G1 X-15.145 Y-12.428
X-15.138 Y-12.47
X-15.113 Y-12.525 Z5.505
X-15.088 Y-12.579 Z5.519
X-15.064 Y-12.63 Z5.542
X-15.022 Y-12.664 Z5.574
X-14.985 Y-12.695 Z5.615
X-14.954 Y-12.721 Z5.663
X-14.928 Y-12.742 Z5.717
X-14.906 Y-12.752 Z5.775
X-14.892 Y-12.758 Z5.837
X-14.887 Y-12.76 Z5.9
G0 Z6.3
X32.308 Y-12.792
G1 Z5.9 F600
X32.307 Y-12.785 Z5.822
X32.301 Y-12.763 Z5.747
X32.292 Y-12.727 Z5.678
X32.28 Y-12.679 Z5.617
X32.265 Y-12.62 Z5.567
X32.248 Y-12.553 Z5.53
X32.229 Y-12.48 Z5.508
X32.21 Y-12.405 Z5.5
G3 X31.833 Y-11.715 I-1.534 J-0.39
G1 X30.271 Y-10.153 F1300
X30.075 Y-9.976
X29.886 Y-9.83
X29.645 Y-9.674
X29.353 Y-9.517
X28.974 Y-9.35
X28.482 Y-9.18
X27.815 Y-9.007
X27.104 Y-8.883
X26.387 Y-8.799
X25.667 Y-8.743
X24.946 Y-8.704
X24.225 Y-8.679
X23.503 Y-8.661
X22.781 Y-8.649
X22.059 Y-8.642
X21.337 Y-8.636
X20.615 Y-8.633
X19.171 Y-8.629
X17.005 Y-8.628
X8.341 Y-8.63
X-11.153 Y-8.638
X-11.192 Y-8.639
X-11.429 Y-8.673
X-11.65 Y-8.766
X-11.839 Y-8.912
X-13.439 Y-10.512
G3 X-13.547 Y-10.785 I0.293 J-0.273 F800
G1 X-13.544 Y-10.827
X-13.538 Y-10.869
X-13.512 Y-10.924 Z5.505
X-13.487 Y-10.978 Z5.519
X-13.463 Y-11.029 Z5.542
X-13.422 Y-11.064 Z5.574
X-13.385 Y-11.094 Z5.615
X-13.353 Y-11.12 Z5.663
X-13.328 Y-11.142 Z5.717
X-13.305 Y-11.151 Z5.775
X-13.291 Y-11.157 Z5.837
X-13.287 Y-11.159 Z5.9
G0 Z6.3
X30.746 Y-11.23
G1 Z5.9 F600
X30.744 Y-11.222 Z5.822
X30.738 Y-11.2 Z5.747
X30.729 Y-11.165 Z5.678
X30.717 Y-11.116 Z5.617
X30.702 Y-11.058 Z5.567
X30.685 Y-10.991 Z5.53
X30.666 Y-10.918 Z5.508
X30.647 Y-10.842 Z5.5
G3 X30.271 Y-10.153 I-1.534 J-0.39
G1 X28.72 Y-8.602 F1300
X28.484 Y-8.389
X28.294 Y-8.243
X28.051 Y-8.085
X27.757 Y-7.927
X27.375 Y-7.759
X26.88 Y-7.587
X26.206 Y-7.413
X25.495 Y-7.289
X24.778 Y-7.204
X24.058 Y-7.147
X23.337 Y-7.108
X22.616 Y-7.082
X21.894 Y-7.064
X21.172 Y-7.052
X20.45 Y-7.044
X19.728 Y-7.038
X19.006 Y-7.034
X17.562 Y-7.03
X15.396 Y-7.029
X8.176 Y-7.03
X-9.578 Y-7.037
X-9.82 Y-7.069
X-10.045 Y-7.162
X-10.238 Y-7.311
X-11.839 Y-8.912
G3 X-11.947 Y-9.184 I0.293 J-0.273 F800
G1 Y-9.185
X-11.944 Y-9.227
X-11.938 Y-9.269
X-11.912 Y-9.324 Z5.505
X-11.887 Y-9.378 Z5.519
X-11.863 Y-9.429 Z5.542
X-11.822 Y-9.463 Z5.574
X-11.785 Y-9.494 Z5.615
X-11.753 Y-9.52 Z5.663
X-11.727 Y-9.541 Z5.717
X-11.705 Y-9.551 Z5.775
X-11.691 Y-9.557 Z5.837
X-11.687 Y-9.559 Z5.9
G0 Z6.3
X29.195 Y-9.679
G1 Z5.9 F600
X29.193 Y-9.672 Z5.822
X29.188 Y-9.65 Z5.747
X29.179 Y-9.614 Z5.678
X29.166 Y-9.566 Z5.617
X29.151 Y-9.507 Z5.567
X29.134 Y-9.44 Z5.53
X29.116 Y-9.367 Z5.508
X29.097 Y-9.292 Z5.5
G3 X28.72 Y-8.602 I-1.534 J-0.39
G1 X27.082 Y-6.964 F1300
X26.897 Y-6.797
X26.707 Y-6.65
X26.462 Y-6.492
X26.168 Y-6.333
X25.783 Y-6.164
X25.286 Y-5.992
X24.609 Y-5.817
X23.897 Y-5.692
X23.18 Y-5.608
X22.461 Y-5.55
X21.74 Y-5.511
X21.018 Y-5.484
X20.297 Y-5.466
X19.575 Y-5.453
X18.853 Y-5.445
X18.131 Y-5.439
X17.409 Y-5.435
X15.965 Y-5.431
X13.799 Y-5.429
X7.301 Y-5.431
X-7.861 Y-5.437
X-7.986 Y-5.438
X-8.225 Y-5.471
X-8.447 Y-5.564
X-8.638 Y-5.711
X-10.238 Y-7.311
G3 X-10.345 Y-7.583 I0.293 J-0.273 F800
G1 Y-7.584
X-10.343 Y-7.626
X-10.336 Y-7.668
X-10.311 Y-7.723 Z5.505
X-10.286 Y-7.777 Z5.519
X-10.262 Y-7.828 Z5.542
X-10.221 Y-7.862 Z5.574
X-10.183 Y-7.893 Z5.615
X-10.152 Y-7.919 Z5.663
X-10.126 Y-7.94 Z5.717
X-10.104 Y-7.95 Z5.775
X-10.09 Y-7.956 Z5.837
X-10.086 Y-7.958 Z5.9
G0 Z6.3
X27.557 Y-8.041
G1 Z5.9 F600
X27.555 Y-8.033 Z5.822
X27.549 Y-8.011 Z5.747
X27.54 Y-7.975 Z5.678
X27.528 Y-7.927 Z5.617
X27.513 Y-7.868 Z5.567
X27.496 Y-7.801 Z5.53
X27.477 Y-7.729 Z5.508
X27.458 Y-7.653 Z5.5
G3 X27.082 Y-6.964 I-1.534 J-0.39
G1 X25.607 Y-5.489 F1300
X25.513 Y-5.401
X25.349 Y-5.254
X25.151 Y-5.095
X24.921 Y-4.938
X24.645 Y-4.782
X24.284 Y-4.613
X24.256 Y-4.602
X24.189 Y-4.58
X24.121 Y-4.564
X24.052 Y-4.552
G3 X23.615 Y-4.911 Z5.7 I-0.038 J-0.398 F800
G1 X23.614 Y-4.974
X23.623 Y-5.037
G3 X23.818 Y-5.299 I0.39 J0.087 F1300
G1 X24.877 Y-5.892
G3 X25.262 Y-5.896 I0.196 J0.349
G1 X25.315 Y-5.862 F600
X25.362 Y-5.82
G3 X25.349 Y-5.254 Z5.5 I-0.289 J0.276
G1 X25.06 Y-4.998 F1300
X24.847 Y-4.834
X24.77 Y-4.781
X24.693 Y-4.746
X24.364 Y-4.61
X24.282 Y-4.584
X24.2 Y-4.571
X23.872 Y-4.528
X23.708 Y-4.511
X23.216 Y-4.501
X22.888 Y-4.5
X-6.153
X-6.317 Y-4.503
X-6.809 Y-4.547
X-6.973 Y-4.567
X-7.055 Y-4.577
X-7.096 Y-4.585
X-7.137 Y-4.597
X-7.317 Y-4.67
X-7.547 Y-4.765
X-7.588 Y-4.786
X-7.629 Y-4.813
X-7.656 Y-4.834
X-7.863 Y-4.998
X-8.121 Y-5.204
X-8.252 Y-5.325
X-8.638 Y-5.711
G3 X-8.746 Y-5.984 I0.293 J-0.273 F800
G1 X-8.743 Y-6.026
X-8.737 Y-6.068
X-8.711 Y-6.123 Z5.505
X-8.686 Y-6.177 Z5.519
X-8.662 Y-6.228 Z5.542
X-8.621 Y-6.263 Z5.574
X-8.584 Y-6.293 Z5.615
X-8.552 Y-6.32 Z5.663
X-8.527 Y-6.341 Z5.717
X-8.504 Y-6.35 Z5.775
X-8.49 Y-6.356 Z5.837
X-8.486 Y-6.358 Z5.9
G0 Z7.45
X34.982 Y-15.103
G1 Z7.05 F600
Z5.05
G3 X37.18 Y-15.019 I1.054 J1.226
G1 X37.162 Y-15.005 F1300
X37.144 Y-14.993
X37.107 Y-14.972
X37.071 Y-14.957
X37.034 Y-14.946
X36.998 Y-14.938
X36.341 Y-14.851
X36.177 Y-14.821
X36.013 Y-14.781
X35.849 Y-14.73
X35.685 Y-14.663
X34.865 Y-14.322
X34.701 Y-14.242
X34.631 Y-14.204
X34.409 Y-14.098
X34.049 Y-13.959
X33.559 Y-13.815
X32.853 Y-13.666
X32.136 Y-13.575
X31.417 Y-13.518
X30.696 Y-13.482
X29.974 Y-13.46
X29.252 Y-13.446
X28.53 Y-13.438
X27.808 Y-13.432
X27.086 Y-13.429
X25.642 Y-13.426
X22.754 Y-13.425
X-15.511 Y-13.44
X-16.233
X-16.339 Y-13.452
X-16.44 Y-13.486
X-16.531 Y-13.541
X-16.817 Y-13.761
X-16.981 Y-13.884
X-17.343 Y-14.154
X-17.377 Y-14.173
X-17.802 Y-14.372
X-17.966 Y-14.444
X-18.458 Y-14.648
X-18.504 Y-14.665
X-18.909 Y-14.806
X-19.278 Y-14.864
X-19.442 Y-14.89
X-19.77 Y-14.933
X-19.852 Y-14.948
X-19.893 Y-14.961
G3 X-20.108 Y-15.264 I0.182 J-0.356 F800
G1 X-20.112 Y-15.318 Z5.054
X-20.098 Y-15.378 Z5.068
X-20.085 Y-15.436 Z5.091
X-20.073 Y-15.49 Z5.124
X-20.038 Y-15.535 Z5.174
X-20.01 Y-15.572 Z5.234
X-19.989 Y-15.599 Z5.301
X-19.976 Y-15.616 Z5.374
X-19.971 Y-15.622 Z5.449
G0 Z18
X33.894 Y-13.932
Z7.45
G1 Z7.05 F600
Z5.05
G3 X34.631 Y-14.204 I1.123 J1.906
G1 X34.537 Y-14.153 F1300
X34.373 Y-14.038
X34.333 Y-14.009
X34.044 Y-13.789
X33.552 Y-13.41
X33.486 Y-13.354
X33.311 Y-13.19
X33.125 Y-13.028
X32.944 Y-12.894
X32.724 Y-12.757
X32.437 Y-12.609
X32.078 Y-12.459
X31.596 Y-12.302
X30.926 Y-12.141
X30.213 Y-12.03
X29.494 Y-11.958
X28.774 Y-11.911
X28.053 Y-11.88
X27.331 Y-11.86
X26.609 Y-11.847
X25.887 Y-11.839
X25.165 Y-11.834
X24.443 Y-11.831
X22.999 Y-11.827
X20.111 Y-11.826
X-14.38 Y-11.839
X-14.622 Y-11.871
X-14.847 Y-11.964
X-15.04 Y-12.113
X-15.997 Y-13.07
X-16.161 Y-13.226
X-16.325 Y-13.38
X-16.531 Y-13.541
G3 X-16.675 Y-13.883 I0.255 J-0.308 F800
G1 X-16.657 Y-13.941 Z5.055
X-16.639 Y-13.997 Z5.069
X-16.622 Y-14.051 Z5.092
X-16.585 Y-14.091 Z5.124
X-16.553 Y-14.126 Z5.165
X-16.525 Y-14.156 Z5.213
X-16.502 Y-14.18 Z5.267
X-16.481 Y-14.193 Z5.325
X-16.468 Y-14.201 Z5.387
X-16.464 Y-14.203 Z5.45
G0 Z5.85
X33.806 Y-14.258
G1 Z5.45 F600
X33.804 Y-14.251 Z5.372
X33.798 Y-14.229 Z5.297
X33.788 Y-14.193 Z5.228
X33.775 Y-14.145 Z5.167
X33.759 Y-14.087 Z5.117
X33.74 Y-14.02 Z5.08
X33.721 Y-13.948 Z5.058
X33.7 Y-13.873 Z5.05
G3 X33.311 Y-13.19 I-1.526 J-0.418
G1 X33.224 Y-13.106 F1300
X31.833 Y-11.715
X31.642 Y-11.543
X31.46 Y-11.402
X31.223 Y-11.249
X30.938 Y-11.095
X30.565 Y-10.932
X30.09 Y-10.767
X29.436 Y-10.598
X28.725 Y-10.473
X28.008 Y-10.39
X27.288 Y-10.335
X26.567 Y-10.298
X25.845 Y-10.273
X25.123 Y-10.257
X24.401 Y-10.246
X23.679 Y-10.239
X22.958 Y-10.234
X22.236 Y-10.231
X20.792 Y-10.228
X17.904 Y-10.227
X-12.78 Y-10.239
X-13.021 Y-10.27
X-13.246 Y-10.364
X-13.439 Y-10.512
X-15.04 Y-12.113
G3 X-15.147 Y-12.385 I0.293 J-0.273 F800
G1 X-15.145 Y-12.428
X-15.138 Y-12.47
X-15.113 Y-12.525 Z5.055
X-15.088 Y-12.579 Z5.069
X-15.064 Y-12.63 Z5.092
X-15.022 Y-12.664 Z5.124
X-14.985 Y-12.695 Z5.165
X-14.954 Y-12.721 Z5.213
X-14.928 Y-12.742 Z5.267
X-14.906 Y-12.752 Z5.325
X-14.892 Y-12.758 Z5.387
X-14.887 Y-12.76 Z5.45
G0 Z5.85
X32.308 Y-12.792
G1 Z5.45 F600
X32.307 Y-12.785 Z5.372
X32.301 Y-12.763 Z5.297
X32.292 Y-12.727 Z5.228
X32.28 Y-12.679 Z5.167
X32.265 Y-12.62 Z5.117
X32.248 Y-12.553 Z5.08
X32.229 Y-12.48 Z5.058
X32.21 Y-12.405 Z5.05
G3 X31.833 Y-11.715 I-1.534 J-0.39
G1 X30.271 Y-10.153 F1300
X30.075 Y-9.976
X29.886 Y-9.83
X29.645 Y-9.674
X29.353 Y-9.517
X28.974 Y-9.35
X28.482 Y-9.18
X27.815 Y-9.007
X27.104 Y-8.883
X26.387 Y-8.799
X25.667 Y-8.743
X24.946 Y-8.704
X24.225 Y-8.679
X23.503 Y-8.661
X22.781 Y-8.649
X22.059 Y-8.642
X21.337 Y-8.636
X20.615 Y-8.633
X19.171 Y-8.629
X17.005 Y-8.628
X8.341 Y-8.63
X-11.153 Y-8.638
X-11.192 Y-8.639
X-11.429 Y-8.673
X-11.65 Y-8.766
X-11.839 Y-8.912
X-13.439 Y-10.512
G3 X-13.547 Y-10.785 I0.293 J-0.273 F800
G1 X-13.544 Y-10.827
X-13.538 Y-10.869
X-13.512 Y-10.924 Z5.055
X-13.487 Y-10.978 Z5.069
X-13.463 Y-11.029 Z5.092
X-13.422 Y-11.064 Z5.124
X-13.385 Y-11.094 Z5.165
X-13.353 Y-11.12 Z5.213
X-13.328 Y-11.142 Z5.267
X-13.305 Y-11.151 Z5.325
X-13.291 Y-11.157 Z5.387
X-13.287 Y-11.159 Z5.45
G0 Z5.85
X30.746 Y-11.23
G1 Z5.45 F600
X30.744 Y-11.222 Z5.372
X30.738 Y-11.2 Z5.297
X30.729 Y-11.165 Z5.228
X30.717 Y-11.116 Z5.167
X30.702 Y-11.058 Z5.117
X30.685 Y-10.991 Z5.08
X30.666 Y-10.918 Z5.058
X30.647 Y-10.842 Z5.05
G3 X30.271 Y-10.153 I-1.534 J-0.39
G1 X28.72 Y-8.602 F1300
X28.484 Y-8.389
X28.294 Y-8.243
X28.051 Y-8.085
X27.757 Y-7.927
X27.375 Y-7.759
X26.88 Y-7.587
X26.206 Y-7.413
X25.495 Y-7.289
X24.778 Y-7.204
X24.058 Y-7.147
X23.337 Y-7.108
X22.616 Y-7.082
X21.894 Y-7.064
X21.172 Y-7.052
X20.45 Y-7.044
X19.728 Y-7.038
X19.006 Y-7.034
X17.562 Y-7.03
X15.396 Y-7.029
X8.176 Y-7.03
X-9.578 Y-7.037
X-9.82 Y-7.069
X-10.045 Y-7.162
X-10.238 Y-7.311
X-11.839 Y-8.912
G3 X-11.947 Y-9.184 I0.293 J-0.273 F800
G1 Y-9.185
X-11.944 Y-9.227
X-11.938 Y-9.269
X-11.912 Y-9.324 Z5.055
X-11.887 Y-9.378 Z5.069
X-11.863 Y-9.429 Z5.092
X-11.822 Y-9.463 Z5.124
X-11.785 Y-9.494 Z5.165
X-11.753 Y-9.52 Z5.213
X-11.727 Y-9.541 Z5.267
X-11.705 Y-9.551 Z5.325
X-11.691 Y-9.557 Z5.387
X-11.687 Y-9.559 Z5.45
G0 Z5.85
X29.195 Y-9.679
G1 Z5.45 F600
X29.193 Y-9.672 Z5.372
X29.188 Y-9.65 Z5.297
X29.179 Y-9.614 Z5.228
X29.166 Y-9.566 Z5.167
X29.151 Y-9.507 Z5.117
X29.134 Y-9.44 Z5.08
X29.116 Y-9.367 Z5.058
X29.097 Y-9.292 Z5.05
G3 X28.72 Y-8.602 I-1.534 J-0.39
G1 X27.082 Y-6.964 F1300
X26.897 Y-6.797
X26.707 Y-6.65
X26.462 Y-6.492
X26.168 Y-6.333
X25.783 Y-6.164
X25.286 Y-5.992
X24.609 Y-5.817
X23.897 Y-5.692
X23.18 Y-5.608
X22.461 Y-5.55
X21.74 Y-5.511
X21.018 Y-5.484
X20.297 Y-5.466
X19.575 Y-5.453
X18.853 Y-5.445
X18.131 Y-5.439
X17.409 Y-5.435
X15.965 Y-5.431
X13.799 Y-5.429
X7.301 Y-5.431
X-7.861 Y-5.437
X-7.986 Y-5.438
X-8.225 Y-5.471
X-8.447 Y-5.564
X-8.638 Y-5.711
X-10.238 Y-7.311
G3 X-10.345 Y-7.583 I0.293 J-0.273 F800
G1 Y-7.584
X-10.343 Y-7.626
X-10.336 Y-7.668
X-10.311 Y-7.723 Z5.055
X-10.286 Y-7.777 Z5.069
X-10.262 Y-7.828 Z5.092
X-10.221 Y-7.862 Z5.124
X-10.183 Y-7.893 Z5.165
X-10.152 Y-7.919 Z5.213
X-10.126 Y-7.94 Z5.267
X-10.104 Y-7.95 Z5.325
X-10.09 Y-7.956 Z5.387
X-10.086 Y-7.958 Z5.45
G0 Z5.85
X27.557 Y-8.041
G1 Z5.45 F600
X27.555 Y-8.033 Z5.372
X27.549 Y-8.011 Z5.297
X27.54 Y-7.975 Z5.228
X27.528 Y-7.927 Z5.167
X27.513 Y-7.868 Z5.117
X27.496 Y-7.801 Z5.08
X27.477 Y-7.729 Z5.058
X27.458 Y-7.653 Z5.05
G3 X27.082 Y-6.964 I-1.534 J-0.39
G1 X25.607 Y-5.489 F1300
X25.513 Y-5.401
X25.349 Y-5.254
X25.151 Y-5.095
X24.921 Y-4.938
X24.645 Y-4.782
X24.284 Y-4.613
X24.256 Y-4.602
X24.189 Y-4.58
X24.121 Y-4.564
X24.052 Y-4.552
G3 X23.615 Y-4.911 Z5.25 I-0.038 J-0.398 F800
G1 X23.614 Y-4.974
X23.623 Y-5.037
G3 X23.818 Y-5.299 I0.39 J0.087 F1300
G1 X24.877 Y-5.892
G3 X25.262 Y-5.896 I0.196 J0.349
G1 X25.315 Y-5.862 F600
X25.362 Y-5.82
G3 X25.349 Y-5.254 Z5.05 I-0.289 J0.276
G1 X25.06 Y-4.998 F1300
X24.847 Y-4.834
X24.77 Y-4.781
X24.693 Y-4.746
X24.364 Y-4.61
X24.282 Y-4.584
X24.2 Y-4.571
X23.872 Y-4.528
X23.708 Y-4.511
X23.216 Y-4.501
X22.888 Y-4.5
X-6.153
X-6.317 Y-4.503
X-6.809 Y-4.547
X-6.973 Y-4.567
X-7.055 Y-4.577
X-7.096 Y-4.585
X-7.137 Y-4.597
X-7.317 Y-4.67
X-7.547 Y-4.765
X-7.588 Y-4.786
X-7.629 Y-4.813
X-7.656 Y-4.834
X-7.863 Y-4.998
X-8.121 Y-5.204
X-8.252 Y-5.325
X-8.638 Y-5.711
G3 X-8.746 Y-5.984 I0.293 J-0.273 F800
G1 X-8.743 Y-6.026
X-8.737 Y-6.068
X-8.711 Y-6.123 Z5.055
X-8.686 Y-6.177 Z5.069
X-8.662 Y-6.228 Z5.092
X-8.621 Y-6.263 Z5.124
X-8.584 Y-6.293 Z5.165
X-8.552 Y-6.32 Z5.213
X-8.527 Y-6.341 Z5.267
X-8.504 Y-6.35 Z5.325
X-8.49 Y-6.356 Z5.387
X-8.486 Y-6.358 Z5.45
G0 Z7.4
X34.982 Y-15.103
G1 Z7 F600
Z5
G3 X37.18 Y-15.019 I1.054 J1.226
G1 X37.162 Y-15.005 F1300
X37.144 Y-14.993
X37.107 Y-14.972
X37.071 Y-14.957
X37.034 Y-14.946
X36.998 Y-14.938
X36.341 Y-14.851
X36.177 Y-14.821
X36.013 Y-14.781
X35.849 Y-14.73
X35.685 Y-14.663
X34.865 Y-14.322
X34.701 Y-14.242
X34.631 Y-14.204
X34.409 Y-14.098
X34.049 Y-13.959
X33.559 Y-13.815
X32.853 Y-13.666
X32.136 Y-13.575
X31.417 Y-13.518
X30.696 Y-13.482
X29.974 Y-13.46
X29.252 Y-13.446
X28.53 Y-13.438
X27.808 Y-13.432
X27.086 Y-13.429
X25.642 Y-13.426
X22.754 Y-13.425
X-15.511 Y-13.44
X-16.233
X-16.339 Y-13.452
X-16.44 Y-13.486
X-16.531 Y-13.541
X-16.817 Y-13.761
X-16.981 Y-13.884
X-17.343 Y-14.154
X-17.377 Y-14.173
X-17.802 Y-14.372
X-17.966 Y-14.444
X-18.458 Y-14.648
X-18.504 Y-14.665
X-18.909 Y-14.806
X-19.278 Y-14.864
X-19.442 Y-14.89
X-19.77 Y-14.933
X-19.852 Y-14.948
X-19.893 Y-14.961
G3 X-20.108 Y-15.264 I0.182 J-0.356 F800
G1 X-20.112 Y-15.318 Z5.004
X-20.098 Y-15.378 Z5.018
X-20.085 Y-15.436 Z5.041
X-20.073 Y-15.49 Z5.074
X-20.038 Y-15.535 Z5.124
X-20.01 Y-15.572 Z5.184
X-19.989 Y-15.599 Z5.251
X-19.976 Y-15.616 Z5.324
X-19.971 Y-15.622 Z5.399
G0 Z18
X33.894 Y-13.932
Z7.4
G1 Z7 F600
Z5
G3 X34.631 Y-14.204 I1.123 J1.906
G1 X34.537 Y-14.153 F1300
X34.373 Y-14.038
X34.333 Y-14.009
X34.044 Y-13.789
X33.552 Y-13.41
X33.486 Y-13.354
X33.311 Y-13.19
X33.125 Y-13.028
X32.944 Y-12.894
X32.724 Y-12.757
X32.437 Y-12.609
X32.078 Y-12.459
X31.596 Y-12.302
X30.926 Y-12.141
X30.213 Y-12.03
X29.494 Y-11.958
X28.774 Y-11.911
X28.053 Y-11.88
X27.331 Y-11.86
X26.609 Y-11.847
X25.887 Y-11.839
X25.165 Y-11.834
X24.443 Y-11.831
X22.999 Y-11.827
X20.111 Y-11.826
X-14.38 Y-11.839
X-14.622 Y-11.871
X-14.847 Y-11.964
X-15.04 Y-12.113
X-15.997 Y-13.07
X-16.161 Y-13.226
X-16.325 Y-13.38
X-16.531 Y-13.541
G3 X-16.675 Y-13.883 I0.255 J-0.308 F800
G1 X-16.657 Y-13.941 Z5.005
X-16.639 Y-13.997 Z5.019
X-16.622 Y-14.051 Z5.042
X-16.585 Y-14.091 Z5.074
X-16.553 Y-14.126 Z5.115
X-16.525 Y-14.156 Z5.163
X-16.502 Y-14.18 Z5.217
X-16.481 Y-14.193 Z5.275
X-16.468 Y-14.201 Z5.337
X-16.464 Y-14.203 Z5.4
G0 Z5.8
X33.806 Y-14.258
G1 Z5.4 F600
X33.804 Y-14.251 Z5.322
X33.798 Y-14.229 Z5.247
X33.788 Y-14.193 Z5.178
X33.775 Y-14.145 Z5.117
X33.759 Y-14.087 Z5.067
X33.74 Y-14.02 Z5.03
X33.721 Y-13.948 Z5.008
X33.7 Y-13.873 Z5
G3 X33.311 Y-13.19 I-1.526 J-0.418
G1 X33.224 Y-13.106 F1300
X31.833 Y-11.715
X31.642 Y-11.543
X31.46 Y-11.402
X31.223 Y-11.249
X30.938 Y-11.095
X30.565 Y-10.932
X30.09 Y-10.767
X29.436 Y-10.598
X28.725 Y-10.473
X28.008 Y-10.39
X27.288 Y-10.335
X26.567 Y-10.298
X25.845 Y-10.273
X25.123 Y-10.257
X24.401 Y-10.246
X23.679 Y-10.239
X22.958 Y-10.234
X22.236 Y-10.231
X20.792 Y-10.228
X17.904 Y-10.227
X-12.78 Y-10.239
X-13.021 Y-10.27
X-13.246 Y-10.364
X-13.439 Y-10.512
X-15.04 Y-12.113
G3 X-15.147 Y-12.385 I0.293 J-0.273 F800
G1 X-15.145 Y-12.428
X-15.138 Y-12.47
X-15.113 Y-12.525 Z5.005
X-15.088 Y-12.579 Z5.019
X-15.064 Y-12.63 Z5.042
X-15.022 Y-12.664 Z5.074
X-14.985 Y-12.695 Z5.115
X-14.954 Y-12.721 Z5.163
X-14.928 Y-12.742 Z5.217
X-14.906 Y-12.752 Z5.275
X-14.892 Y-12.758 Z5.337
X-14.887 Y-12.76 Z5.4
G0 Z5.8
X32.308 Y-12.792
G1 Z5.4 F600
X32.307 Y-12.785 Z5.322
X32.301 Y-12.763 Z5.247
X32.292 Y-12.727 Z5.178
X32.28 Y-12.679 Z5.117
X32.265 Y-12.62 Z5.067
X32.248 Y-12.553 Z5.03
X32.229 Y-12.48 Z5.008
X32.21 Y-12.405 Z5
G3 X31.833 Y-11.715 I-1.534 J-0.39
G1 X30.271 Y-10.153 F1300
X30.075 Y-9.976
X29.886 Y-9.83
X29.645 Y-9.674
X29.353 Y-9.517
X28.974 Y-9.35
X28.482 Y-9.18
X27.815 Y-9.007
X27.104 Y-8.883
X26.387 Y-8.799
X25.667 Y-8.743
X24.946 Y-8.704
X24.225 Y-8.679
X23.503 Y-8.661
X22.781 Y-8.649
X22.059 Y-8.642
X21.337 Y-8.636
X20.615 Y-8.633
X19.171 Y-8.629
X17.005 Y-8.628
X8.341 Y-8.63
X-11.153 Y-8.638
X-11.192 Y-8.639
X-11.429 Y-8.673
X-11.65 Y-8.766
X-11.839 Y-8.912
X-13.439 Y-10.512
G3 X-13.547 Y-10.785 I0.293 J-0.273 F800
G1 X-13.544 Y-10.827
X-13.538 Y-10.869
X-13.512 Y-10.924 Z5.005
X-13.487 Y-10.978 Z5.019
X-13.463 Y-11.029 Z5.042
X-13.422 Y-11.064 Z5.074
X-13.385 Y-11.094 Z5.115
X-13.353 Y-11.12 Z5.163
X-13.328 Y-11.142 Z5.217
X-13.305 Y-11.151 Z5.275
X-13.291 Y-11.157 Z5.337
X-13.287 Y-11.159 Z5.4
G0 Z5.8
X30.746 Y-11.23
G1 Z5.4 F600
X30.744 Y-11.222 Z5.322
X30.738 Y-11.2 Z5.247
X30.729 Y-11.165 Z5.178
X30.717 Y-11.116 Z5.117
X30.702 Y-11.058 Z5.067
X30.685 Y-10.991 Z5.03
X30.666 Y-10.918 Z5.008
X30.647 Y-10.842 Z5
G3 X30.271 Y-10.153 I-1.534 J-0.39
G1 X28.72 Y-8.602 F1300
X28.484 Y-8.389
X28.294 Y-8.243
X28.051 Y-8.085
X27.757 Y-7.927
X27.375 Y-7.759
X26.88 Y-7.587
X26.206 Y-7.413
X25.495 Y-7.289
X24.778 Y-7.204
X24.058 Y-7.147
X23.337 Y-7.108
X22.616 Y-7.082
X21.894 Y-7.064
X21.172 Y-7.052
X20.45 Y-7.044
X19.728 Y-7.038
X19.006 Y-7.034
X17.562 Y-7.03
X15.396 Y-7.029
X8.176 Y-7.03
X-9.578 Y-7.037
X-9.82 Y-7.069
X-10.045 Y-7.162
X-10.238 Y-7.311
X-11.839 Y-8.912
G3 X-11.947 Y-9.184 I0.293 J-0.273 F800
G1 Y-9.185
X-11.944 Y-9.227
X-11.938 Y-9.269
X-11.912 Y-9.324 Z5.005
X-11.887 Y-9.378 Z5.019
X-11.863 Y-9.429 Z5.042
X-11.822 Y-9.463 Z5.074
X-11.785 Y-9.494 Z5.115
X-11.753 Y-9.52 Z5.163
X-11.727 Y-9.541 Z5.217
X-11.705 Y-9.551 Z5.275
X-11.691 Y-9.557 Z5.337
X-11.687 Y-9.559 Z5.4
G0 Z5.8
X29.195 Y-9.679
G1 Z5.4 F600
X29.193 Y-9.672 Z5.322
X29.188 Y-9.65 Z5.247
X29.179 Y-9.614 Z5.178
X29.166 Y-9.566 Z5.117
X29.151 Y-9.507 Z5.067
X29.134 Y-9.44 Z5.03
X29.116 Y-9.367 Z5.008
X29.097 Y-9.292 Z5
G3 X28.72 Y-8.602 I-1.534 J-0.39
G1 X27.082 Y-6.964 F1300
X26.897 Y-6.797
X26.707 Y-6.65
X26.462 Y-6.492
X26.168 Y-6.333
X25.783 Y-6.164
X25.286 Y-5.992
X24.609 Y-5.817
X23.897 Y-5.692
X23.18 Y-5.608
X22.461 Y-5.55
X21.74 Y-5.511
X21.018 Y-5.484
X20.297 Y-5.466
X19.575 Y-5.453
X18.853 Y-5.445
X18.131 Y-5.439
X17.409 Y-5.435
X15.965 Y-5.431
X13.799 Y-5.429
X7.301 Y-5.431
X-7.861 Y-5.437
X-7.986 Y-5.438
X-8.225 Y-5.471
X-8.447 Y-5.564
X-8.638 Y-5.711
X-10.238 Y-7.311
G3 X-10.345 Y-7.583 I0.293 J-0.273 F800
G1 Y-7.584
X-10.343 Y-7.626
X-10.336 Y-7.668
X-10.311 Y-7.723 Z5.005
X-10.286 Y-7.777 Z5.019
X-10.262 Y-7.828 Z5.042
X-10.221 Y-7.862 Z5.074
X-10.183 Y-7.893 Z5.115
X-10.152 Y-7.919 Z5.163
X-10.126 Y-7.94 Z5.217
X-10.104 Y-7.95 Z5.275
X-10.09 Y-7.956 Z5.337
X-10.086 Y-7.958 Z5.4
G0 Z5.8
X27.557 Y-8.041
G1 Z5.4 F600
X27.555 Y-8.033 Z5.322
X27.549 Y-8.011 Z5.247
X27.54 Y-7.975 Z5.178
X27.528 Y-7.927 Z5.117
X27.513 Y-7.868 Z5.067
X27.496 Y-7.801 Z5.03
X27.477 Y-7.729 Z5.008
X27.458 Y-7.653 Z5
G3 X27.082 Y-6.964 I-1.534 J-0.39
G1 X25.607 Y-5.489 F1300
X25.513 Y-5.401
X25.349 Y-5.254
X25.151 Y-5.095
X24.921 Y-4.938
X24.645 Y-4.782
X24.284 Y-4.613
X24.256 Y-4.602
X24.189 Y-4.58
X24.121 Y-4.564
X24.052 Y-4.552
G3 X23.615 Y-4.911 Z5.2 I-0.038 J-0.398 F800
G1 X23.614 Y-4.974
X23.623 Y-5.037
G3 X23.818 Y-5.299 I0.39 J0.087 F1300
G1 X24.877 Y-5.892
G3 X25.262 Y-5.896 I0.196 J0.349
G1 X25.315 Y-5.862 F600
X25.362 Y-5.82
G3 X25.349 Y-5.254 Z5 I-0.289 J0.276
G1 X25.06 Y-4.998 F1300
X24.847 Y-4.834
X24.77 Y-4.781
X24.693 Y-4.746
X24.364 Y-4.61
X24.282 Y-4.584
X24.2 Y-4.571
X23.872 Y-4.528
X23.708 Y-4.511
X23.216 Y-4.501
X22.888 Y-4.5
X-6.153
X-6.317 Y-4.503
X-6.809 Y-4.547
X-6.973 Y-4.567
X-7.055 Y-4.577
X-7.096 Y-4.585
X-7.137 Y-4.597
X-7.317 Y-4.67
X-7.547 Y-4.765
X-7.588 Y-4.786
X-7.629 Y-4.813
X-7.656 Y-4.834
X-7.863 Y-4.998
X-8.121 Y-5.204
X-8.252 Y-5.325
X-8.638 Y-5.711
G3 X-8.746 Y-5.984 I0.293 J-0.273 F800
G1 X-8.743 Y-6.026
X-8.737 Y-6.068
X-8.711 Y-6.123 Z5.005
X-8.686 Y-6.177 Z5.019
X-8.662 Y-6.228 Z5.042
X-8.621 Y-6.263 Z5.074
X-8.584 Y-6.293 Z5.115
X-8.552 Y-6.32 Z5.163
X-8.527 Y-6.341 Z5.217
X-8.504 Y-6.35 Z5.275
X-8.49 Y-6.356 Z5.337
X-8.486 Y-6.358 Z5.4
G0 Z18
X-17.829 Y15.23
Z11.95
G1 Z11.55 F600
Z9.55
G3 X-20.021 Y15.045 I-1.021 J-0.978
G1 X-20.001 Y15.025 F1300
X-19.955 Y14.993
X-19.934 Y14.981
X-19.893 Y14.961
X-19.852 Y14.948
X-19.77 Y14.933
X-19.442 Y14.89
X-19.051 Y14.829
X-18.909 Y14.806
X-18.504 Y14.665
X-18.458 Y14.648
X-17.966 Y14.444
X-17.802 Y14.372
X-17.473 Y14.218
X-16.969 Y14.012
X-16.517 Y13.869
X-15.871 Y13.72
X-15.157 Y13.614
X-14.438 Y13.549
X-13.717 Y13.507
X-12.995 Y13.481
X-12.273 Y13.465
X-11.551 Y13.454
X-10.83 Y13.447
X-10.108 Y13.443
X-8.664 Y13.438
X-6.498 Y13.435
X12.996 Y13.425
X32.49 Y13.415
X33.24
X33.442 Y13.437
X33.635 Y13.502
X33.809 Y13.608
X34.209 Y13.915
X34.333 Y14.009
X34.373 Y14.038
X34.537 Y14.153
X34.701 Y14.242
X34.865 Y14.322
X35.69 Y14.665
X35.849 Y14.73
X36.013 Y14.781
X36.177 Y14.821
X36.341 Y14.851
X36.998 Y14.938
X37.034 Y14.946
X37.071 Y14.957
G3 X37.296 Y15.252 I-0.169 J0.362 F800
G1 X37.301 Y15.319 Z9.556
X37.288 Y15.381 Z9.572
X37.275 Y15.439 Z9.599
X37.263 Y15.491 Z9.635
X37.231 Y15.534 Z9.684
X37.206 Y15.568 Z9.743
X37.187 Y15.594 Z9.808
X37.176 Y15.609 Z9.877
X37.172 Y15.614 Z9.95
G0 Z18
X-13.716 Y13.64
Z11.95
G1 Z11.55 F600
Z9.55
G3 X-17.473 Y14.218 I-2.751 J-5.383
G1 X-17.377 Y14.173 F1300
X-17.343 Y14.154
X-16.929 Y13.846
X-16.714 Y13.682
X-16.489 Y13.509
X-16.325 Y13.38
X-16.123 Y13.19
X-15.943 Y13.035
X-15.766 Y12.905
X-15.537 Y12.764
X-15.248 Y12.617
X-14.876 Y12.464
X-14.386 Y12.307
X-13.695 Y12.145
X-12.981 Y12.038
X-12.263 Y11.968
X-11.542 Y11.922
X-10.821 Y11.892
X-10.099 Y11.872
X-9.377 Y11.859
X-8.655 Y11.851
X-7.933 Y11.845
X-7.211 Y11.841
X-5.767 Y11.837
X-2.879 Y11.833
X31.547 Y11.816
X31.788 Y11.847
X32.014 Y11.941
X32.207 Y12.089
X33.224 Y13.106
X33.311 Y13.19
X33.486 Y13.354
X33.552 Y13.41
X33.809 Y13.608
G3 X33.742 Y14.27 I-0.255 J0.308 F800
G1 X33.673 Y14.307 Z9.558
X33.607 Y14.342 Z9.58
X33.546 Y14.374 Z9.617
X33.492 Y14.403 Z9.667
X33.448 Y14.426 Z9.728
X33.415 Y14.443 Z9.797
X33.395 Y14.454 Z9.872
X33.388 Y14.457 Z9.95
G0 Z18
X-16.623 Y14.256
Z10.35
G1 Z9.95 F600
X-16.621 Y14.248 Z9.872
X-16.615 Y14.226 Z9.797
X-16.605 Y14.191 Z9.728
X-16.592 Y14.143 Z9.667
X-16.575 Y14.085 Z9.617
X-16.557 Y14.018 Z9.58
X-16.537 Y13.946 Z9.558
X-16.516 Y13.87 Z9.55
G3 X-16.123 Y13.19 I1.524 J0.426
G1 X-15.997 Y13.07 F1300
X-14.684 Y11.757
X-14.462 Y11.556
X-14.281 Y11.417
X-14.045 Y11.264
X-13.758 Y11.11
X-13.385 Y10.945
X-12.91 Y10.781
X-12.254 Y10.611
X-11.542 Y10.487
X-10.825 Y10.404
X-10.105 Y10.348
X-9.384 Y10.31
X-8.663 Y10.285
X-7.941 Y10.268
X-7.219 Y10.257
X-6.497 Y10.249
X-5.775 Y10.244
X-5.053 Y10.24
X-3.609 Y10.236
X-0.721 Y10.232
X29.947 Y10.216
X30.189 Y10.248
X30.414 Y10.341
X30.608 Y10.49
X32.207 Y12.089
G3 X32.314 Y12.362 I-0.293 J0.273 F800
G1 X32.312 Y12.404
X32.305 Y12.446
X32.28 Y12.501 Z9.555
X32.255 Y12.555 Z9.569
X32.231 Y12.606 Z9.592
X32.19 Y12.641 Z9.624
X32.152 Y12.671 Z9.665
X32.121 Y12.698 Z9.713
X32.095 Y12.719 Z9.767
X32.073 Y12.728 Z9.825
X32.059 Y12.734 Z9.887
X32.055 Y12.736 Z9.95
G0 Z18
X-15.159 Y12.834
Z10.35
G1 Z9.95 F600
X-15.157 Y12.827 Z9.872
X-15.152 Y12.804 Z9.797
X-15.143 Y12.769 Z9.728
X-15.13 Y12.72 Z9.667
X-15.115 Y12.662 Z9.617
X-15.098 Y12.595 Z9.58
X-15.08 Y12.522 Z9.558
X-15.061 Y12.446 Z9.55
G3 X-14.684 Y11.757 I1.534 J0.39
G1 X-13.044 Y10.116 F1300
X-12.904 Y9.99
X-12.715 Y9.845
X-12.473 Y9.688
X-12.181 Y9.531
X-11.801 Y9.364
X-11.308 Y9.193
X-10.638 Y9.019
X-9.927 Y8.895
X-9.21 Y8.811
X-8.49 Y8.754
X-7.769 Y8.715
X-7.048 Y8.689
X-6.326 Y8.671
X-5.604 Y8.659
X-4.882 Y8.65
X-4.16 Y8.644
X-3.438 Y8.64
X-1.994 Y8.636
X0.172 Y8.632
X8.836 Y8.627
X28.362 Y8.618
X28.599 Y8.652
X28.819 Y8.745
X29.009 Y8.891
X30.608 Y10.49
G3 X30.715 Y10.762 I-0.293 J0.273 F800
G1 Y10.763
X30.713 Y10.805
X30.706 Y10.847
X30.681 Y10.902 Z9.555
X30.656 Y10.956 Z9.569
X30.632 Y11.007 Z9.592
X30.59 Y11.041 Z9.624
X30.553 Y11.072 Z9.665
X30.522 Y11.098 Z9.713
X30.496 Y11.119 Z9.767
X30.474 Y11.129 Z9.825
X30.46 Y11.135 Z9.887
X30.455 Y11.137 Z9.95
G0 Z18
X-13.518 Y11.193
Z10.35
G1 Z9.95 F600
X-13.517 Y11.186 Z9.872
X-13.511 Y11.164 Z9.797
X-13.502 Y11.128 Z9.728
X-13.49 Y11.08 Z9.667
X-13.475 Y11.021 Z9.617
X-13.458 Y10.954 Z9.58
X-13.439 Y10.881 Z9.558
X-13.42 Y10.806 Z9.55
G3 X-13.044 Y10.116 I1.534 J0.39
G1 X-11.53 Y8.602 F1300
X-11.306 Y8.4
X-11.116 Y8.254
X-10.873 Y8.097
X-10.579 Y7.938
X-10.196 Y7.77
X-9.7 Y7.598
X-9.024 Y7.423
X-8.313 Y7.299
X-7.596 Y7.215
X-6.876 Y7.157
X-6.155 Y7.118
X-5.434 Y7.091
X-4.712 Y7.072
X-3.99 Y7.06
X-3.268 Y7.051
X-2.546 Y7.045
X-1.824 Y7.04
X-0.38 Y7.035
X1.786 Y7.031
X9.006 Y7.027
X26.749 Y7.018
X26.991 Y7.05
X27.216 Y7.143
X27.409 Y7.291
X29.009 Y8.891
G3 X29.116 Y9.164 I-0.293 J0.273 F800
G1 X29.114 Y9.206
X29.107 Y9.248
X29.082 Y9.303 Z9.555
X29.057 Y9.357 Z9.569
X29.033 Y9.408 Z9.592
X28.991 Y9.443 Z9.624
X28.954 Y9.473 Z9.665
X28.923 Y9.499 Z9.713
X28.897 Y9.521 Z9.767
X28.875 Y9.53 Z9.825
X28.861 Y9.536 Z9.887
X28.856 Y9.538 Z9.95
G0 Z18
X-12.004 Y9.679
Z10.35
G1 Z9.95 F600
X-12.003 Y9.672 Z9.872
X-11.997 Y9.65 Z9.797
X-11.988 Y9.614 Z9.728
X-11.976 Y9.566 Z9.667
X-11.961 Y9.507 Z9.617
X-11.944 Y9.44 Z9.58
X-11.925 Y9.367 Z9.558
X-11.906 Y9.292 Z9.55
G3 X-11.53 Y8.602 I1.534 J0.39
G1 X-9.926 Y6.999 F1300
X-9.714 Y6.807
X-9.523 Y6.661
X-9.278 Y6.502
X-8.984 Y6.343
X-8.599 Y6.174
X-8.1 Y6.001
X-7.421 Y5.825
X-6.71 Y5.701
X-5.993 Y5.616
X-5.274 Y5.559
X-4.553 Y5.519
X-3.831 Y5.492
X-3.109 Y5.473
X-2.388 Y5.46
X-1.666 Y5.451
X-0.944 Y5.444
X-0.222 Y5.44
X1.222 Y5.435
X3.388 Y5.431
X9.886 Y5.426
X25.048 Y5.419
X25.159 Y5.42
X25.398 Y5.453
X25.62 Y5.546
X25.811 Y5.693
X27.409 Y7.291
G3 X27.517 Y7.564 I-0.293 J0.273 F800
G1 X27.515 Y7.607
X27.508 Y7.649
X27.482 Y7.704 Z9.555
X27.457 Y7.757 Z9.569
X27.433 Y7.809 Z9.592
X27.392 Y7.843 Z9.624
X27.355 Y7.874 Z9.665
X27.323 Y7.9 Z9.713
X27.298 Y7.921 Z9.767
X27.275 Y7.931 Z9.825
X27.262 Y7.937 Z9.887
X27.257 Y7.939 Z9.95
G0 Z18
X-10.401 Y8.076
Z10.35
G1 Z9.95 F600
X-10.399 Y8.069 Z9.872
X-10.394 Y8.046 Z9.797
X-10.385 Y8.011 Z9.728
X-10.372 Y7.962 Z9.667
X-10.357 Y7.904 Z9.617
X-10.34 Y7.837 Z9.58
X-10.322 Y7.764 Z9.558
X-10.303 Y7.688 Z9.55
G3 X-9.926 Y6.999 I1.534 J0.39
G1 X-8.286 Y5.358 F1300
X-8.122 Y5.21
X-7.931 Y5.064
X-7.685 Y4.904
X-7.39 Y4.746
X-7.114 Y4.624
X-7.028 Y4.591
X-6.939 Y4.567
X-6.849 Y4.552
G3 X-6.417 Y4.917 Z9.75 I0.033 J0.399 F800
G1 X-6.416 Y4.98
X-6.426 Y5.042
G3 X-6.615 Y5.297 I-0.389 J-0.092 F1300
G1 X-7.793 Y5.977
G3 X-8.162 Y5.994 I-0.2 J-0.346
G1 X-8.217 Y5.963 F600
X-8.266 Y5.923
G3 X-8.286 Y5.358 Z9.55 I0.273 J-0.292
G1 X-8.252 Y5.325 F1300
X-8.121 Y5.204
X-7.793 Y4.941
X-7.656 Y4.834
X-7.629 Y4.813
X-7.588 Y4.786
X-7.547 Y4.765
X-7.301 Y4.663
X-7.137 Y4.597
X-7.096 Y4.585
X-7.055 Y4.577
X-6.973 Y4.567
X-6.809 Y4.547
X-6.317 Y4.503
X-6.153 Y4.5
X23.052
X23.216 Y4.501
X23.708 Y4.511
X23.872 Y4.528
X24.2 Y4.571
X24.282 Y4.584
X24.364 Y4.61
X24.693 Y4.746
X24.77 Y4.781
X24.847 Y4.834
X25.06 Y4.998
X25.513 Y5.401
X25.607 Y5.489
X25.811 Y5.693
G3 X25.919 Y5.966 I-0.293 J0.273 F800
G1 X25.916 Y6.008
X25.91 Y6.05
X25.884 Y6.105 Z9.555
X25.859 Y6.159 Z9.569
X25.835 Y6.21 Z9.592
X25.794 Y6.245 Z9.624
X25.757 Y6.275 Z9.665
X25.725 Y6.302 Z9.713
X25.699 Y6.323 Z9.767
X25.677 Y6.333 Z9.825
X25.663 Y6.339 Z9.887
X25.659 Y6.341 Z9.95
G0 Z18
X-17.829 Y15.23
Z11.5
G1 Z11.1 F600
Z9.1
G3 X-20.021 Y15.045 I-1.021 J-0.978
G1 X-20.001 Y15.025 F1300
X-19.955 Y14.993
X-19.934 Y14.981
X-19.893 Y14.961
X-19.852 Y14.948
X-19.77 Y14.933
X-19.442 Y14.89
X-19.051 Y14.829
X-18.909 Y14.806
X-18.504 Y14.665
X-18.458 Y14.648
X-17.966 Y14.444
X-17.802 Y14.372
X-17.473 Y14.218
X-16.969 Y14.012
X-16.517 Y13.869
X-15.871 Y13.72
X-15.157 Y13.614
X-14.438 Y13.549
X-13.717 Y13.507
X-12.995 Y13.481
X-12.273 Y13.465
X-11.551 Y13.454
X-10.83 Y13.447
X-10.108 Y13.443
X-8.664 Y13.438
X-6.498 Y13.435
X12.996 Y13.425
X32.49 Y13.415
X33.24
X33.442 Y13.437
X33.635 Y13.502
X33.809 Y13.608
X34.209 Y13.915
X34.333 Y14.009
X34.373 Y14.038
X34.537 Y14.153
X34.701 Y14.242
X34.865 Y14.322
X35.69 Y14.665
X35.849 Y14.73
X36.013 Y14.781
X36.177 Y14.821
X36.341 Y14.851
X36.998 Y14.938
X37.034 Y14.946
X37.071 Y14.957
G3 X37.296 Y15.252 I-0.169 J0.362 F800
G1 X37.301 Y15.319 Z9.106
X37.288 Y15.381 Z9.122
X37.275 Y15.439 Z9.149
X37.263 Y15.491 Z9.185
X37.231 Y15.534 Z9.234
X37.206 Y15.568 Z9.293
X37.187 Y15.594 Z9.358
X37.176 Y15.609 Z9.427
X37.172 Y15.614 Z9.5
G0 Z18
X-13.716 Y13.64
Z11.5
G1 Z11.1 F600
Z9.1
G3 X-17.473 Y14.218 I-2.751 J-5.383
G1 X-17.377 Y14.173 F1300
X-17.343 Y14.154
X-16.929 Y13.846
X-16.714 Y13.682
X-16.489 Y13.509
X-16.325 Y13.38
X-16.123 Y13.19
X-15.943 Y13.035
X-15.766 Y12.905
X-15.537 Y12.764
X-15.248 Y12.617
X-14.876 Y12.464
X-14.386 Y12.307
X-13.695 Y12.145
X-12.981 Y12.038
X-12.263 Y11.968
X-11.542 Y11.922
X-10.821 Y11.892
X-10.099 Y11.872
X-9.377 Y11.859
X-8.655 Y11.851
X-7.933 Y11.845
X-7.211 Y11.841
X-5.767 Y11.837
X-2.879 Y11.833
X31.547 Y11.816
X31.788 Y11.847
X32.014 Y11.941
