(bore1)
(T1  D=4 CR=0 - ZMIN=5 - flat end mill)
G90 G94
G17
G21
G28 G91 Z0
G90

(Bore1 12)
T1
S18000 M3
G54
G0 X-36.35 Y7.361
Z25
Z12.3
G1 Z10.7 F600
G19 G3 Y7.761 Z10.3 J0.4 K0
G1 Y7.961
G17 G3 X-36.75 Y8.361 I-0.4 J0
X-36.75 Y6.361 Z10.2 I0 J-1 F1000
X-36.75 Y8.361 Z10.1 I0 J1
X-36.75 Y6.361 Z10 I0 J-1
X-36.75 Y8.361 Z9.9 I0 J1
X-36.75 Y6.361 Z9.8 I0 J-1
X-36.75 Y8.361 Z9.7 I0 J1
X-36.75 Y6.361 Z9.6 I0 J-1
X-36.75 Y8.361 Z9.5 I0 J1
X-36.75 Y6.361 Z9.4 I0 J-1
X-36.75 Y8.361 Z9.3 I0 J1
X-36.75 Y6.361 Z9.2 I0 J-1
X-36.75 Y8.361 Z9.1 I0 J1
X-36.75 Y6.361 Z9 I0 J-1
X-36.75 Y8.361 Z8.9 I0 J1
X-36.75 Y6.361 Z8.8 I0 J-1
X-36.75 Y8.361 Z8.7 I0 J1
X-36.75 Y6.361 Z8.6 I0 J-1
X-36.75 Y8.361 Z8.5 I0 J1
X-36.75 Y6.361 Z8.4 I0 J-1
X-36.75 Y8.361 Z8.3 I0 J1
X-36.75 Y6.361 Z8.2 I0 J-1
X-36.75 Y8.361 Z8.1 I0 J1
X-36.75 Y6.361 Z8 I0 J-1
X-36.75 Y8.361 Z7.9 I0 J1
X-36.75 Y6.361 Z7.8 I0 J-1
X-36.75 Y8.361 Z7.7 I0 J1
X-36.75 Y6.361 Z7.6 I0 J-1
X-36.75 Y8.361 Z7.5 I0 J1
X-36.75 Y6.361 Z7.4 I0 J-1
X-36.75 Y8.361 Z7.3 I0 J1
X-36.75 Y6.361 Z7.2 I0 J-1
X-36.75 Y8.361 Z7.1 I0 J1
X-36.75 Y6.361 Z7 I0 J-1
X-36.75 Y8.361 Z6.9 I0 J1
X-36.75 Y6.361 Z6.8 I0 J-1
X-36.75 Y8.361 Z6.7 I0 J1
X-36.75 Y6.361 Z6.6 I0 J-1
X-36.75 Y8.361 Z6.5 I0 J1
X-36.75 Y6.361 Z6.4 I0 J-1
X-36.75 Y8.361 Z6.3 I0 J1
X-36.75 Y6.361 Z6.2 I0 J-1
X-36.75 Y8.361 Z6.1 I0 J1
X-36.75 Y6.361 Z6 I0 J-1
X-36.75 Y8.361 Z5.9 I0 J1
X-36.75 Y6.361 Z5.8 I0 J-1
X-36.75 Y8.361 Z5.7 I0 J1
X-36.75 Y6.361 Z5.6 I0 J-1
X-36.75 Y8.361 Z5.5 I0 J1
X-36.75 Y6.361 Z5.4 I0 J-1
X-36.75 Y8.361 Z5.3 I0 J1
X-36.75 Y6.361 Z5.2 I0 J-1
X-36.75 Y8.361 Z5.1 I0 J1
X-36.75 Y6.361 Z5 I0 J-1
X-36.75 Y8.361 I0 J1
X-36.75 Y6.361 I0 J-1
X-36.35 Y6.761 I0 J0.4 F800
G1 Y6.961
G19 G3 Y7.361 Z5.4 J0 K0.4
G0 Z19
X-44.85
Z12.3
G1 Z10.7 F600
G3 Y7.761 Z10.3 J0.4 K0
G1 Y7.961
G17 G3 X-45.25 Y8.361 I-0.4 J0
X-45.25 Y6.361 Z10.2 I0 J-1 F1000
X-45.25 Y8.361 Z10.1 I0 J1
X-45.25 Y6.361 Z10 I0 J-1
X-45.25 Y8.361 Z9.9 I0 J1
X-45.25 Y6.361 Z9.8 I0 J-1
X-45.25 Y8.361 Z9.7 I0 J1
X-45.25 Y6.361 Z9.6 I0 J-1
X-45.25 Y8.361 Z9.5 I0 J1
X-45.25 Y6.361 Z9.4 I0 J-1
X-45.25 Y8.361 Z9.3 I0 J1
X-45.25 Y6.361 Z9.2 I0 J-1
X-45.25 Y8.361 Z9.1 I0 J1
X-45.25 Y6.361 Z9 I0 J-1
X-45.25 Y8.361 Z8.9 I0 J1
X-45.25 Y6.361 Z8.8 I0 J-1
X-45.25 Y8.361 Z8.7 I0 J1
X-45.25 Y6.361 Z8.6 I0 J-1
X-45.25 Y8.361 Z8.5 I0 J1
X-45.25 Y6.361 Z8.4 I0 J-1
X-45.25 Y8.361 Z8.3 I0 J1
X-45.25 Y6.361 Z8.2 I0 J-1
X-45.25 Y8.361 Z8.1 I0 J1
X-45.25 Y6.361 Z8 I0 J-1
X-45.25 Y8.361 Z7.9 I0 J1
X-45.25 Y6.361 Z7.8 I0 J-1
X-45.25 Y8.361 Z7.7 I0 J1
X-45.25 Y6.361 Z7.6 I0 J-1
X-45.25 Y8.361 Z7.5 I0 J1
X-45.25 Y6.361 Z7.4 I0 J-1
X-45.25 Y8.361 Z7.3 I0 J1
X-45.25 Y6.361 Z7.2 I0 J-1
X-45.25 Y8.361 Z7.1 I0 J1
X-45.25 Y6.361 Z7 I0 J-1
X-45.25 Y8.361 Z6.9 I0 J1
X-45.25 Y6.361 Z6.8 I0 J-1
X-45.25 Y8.361 Z6.7 I0 J1
X-45.25 Y6.361 Z6.6 I0 J-1
X-45.25 Y8.361 Z6.5 I0 J1
X-45.25 Y6.361 Z6.4 I0 J-1
X-45.25 Y8.361 Z6.3 I0 J1
X-45.25 Y6.361 Z6.2 I0 J-1
X-45.25 Y8.361 Z6.1 I0 J1
X-45.25 Y6.361 Z6 I0 J-1
X-45.25 Y8.361 Z5.9 I0 J1
X-45.25 Y6.361 Z5.8 I0 J-1
X-45.25 Y8.361 Z5.7 I0 J1
X-45.25 Y6.361 Z5.6 I0 J-1
X-45.25 Y8.361 Z5.5 I0 J1
X-45.25 Y6.361 Z5.4 I0 J-1
X-45.25 Y8.361 Z5.3 I0 J1
X-45.25 Y6.361 Z5.2 I0 J-1
X-45.25 Y8.361 Z5.1 I0 J1
X-45.25 Y6.361 Z5 I0 J-1
X-45.25 Y8.361 I0 J1
X-45.25 Y6.361 I0 J-1
X-44.85 Y6.761 I0 J0.4 F800
G1 Y6.961
G19 G3 Y7.361 Z5.4 J0 K0.4
G0 Z19
X-49.1 Y0
Z12.3
G1 Z10.7 F600
G3 Y0.4 Z10.3 J0.4 K0
G1 Y0.6
G17 G3 X-49.5 Y1 I-0.4 J0
X-49.5 Y-1 Z10.2 I0 J-1 F1000
X-49.5 Y1 Z10.1 I0 J1
X-49.5 Y-1 Z10 I0 J-1
X-49.5 Y1 Z9.9 I0 J1
X-49.5 Y-1 Z9.8 I0 J-1
X-49.5 Y1 Z9.7 I0 J1
X-49.5 Y-1 Z9.6 I0 J-1
X-49.5 Y1 Z9.5 I0 J1
X-49.5 Y-1 Z9.4 I0 J-1
X-49.5 Y1 Z9.3 I0 J1
X-49.5 Y-1 Z9.2 I0 J-1
X-49.5 Y1 Z9.1 I0 J1
X-49.5 Y-1 Z9 I0 J-1
X-49.5 Y1 Z8.9 I0 J1
X-49.5 Y-1 Z8.8 I0 J-1
X-49.5 Y1 Z8.7 I0 J1
X-49.5 Y-1 Z8.6 I0 J-1
X-49.5 Y1 Z8.5 I0 J1
X-49.5 Y-1 Z8.4 I0 J-1
X-49.5 Y1 Z8.3 I0 J1
X-49.5 Y-1 Z8.2 I0 J-1
X-49.5 Y1 Z8.1 I0 J1
X-49.5 Y-1 Z8 I0 J-1
X-49.5 Y1 Z7.9 I0 J1
X-49.5 Y-1 Z7.8 I0 J-1
X-49.5 Y1 Z7.7 I0 J1
X-49.5 Y-1 Z7.6 I0 J-1
X-49.5 Y1 Z7.5 I0 J1
X-49.5 Y-1 Z7.4 I0 J-1
X-49.5 Y1 Z7.3 I0 J1
X-49.5 Y-1 Z7.2 I0 J-1
X-49.5 Y1 Z7.1 I0 J1
X-49.5 Y-1 Z7 I0 J-1
X-49.5 Y1 Z6.9 I0 J1
X-49.5 Y-1 Z6.8 I0 J-1
X-49.5 Y1 Z6.7 I0 J1
X-49.5 Y-1 Z6.6 I0 J-1
X-49.5 Y1 Z6.5 I0 J1
X-49.5 Y-1 Z6.4 I0 J-1
X-49.5 Y1 Z6.3 I0 J1
X-49.5 Y-1 Z6.2 I0 J-1
X-49.5 Y1 Z6.1 I0 J1
X-49.5 Y-1 Z6 I0 J-1
X-49.5 Y1 Z5.9 I0 J1
X-49.5 Y-1 Z5.8 I0 J-1
X-49.5 Y1 Z5.7 I0 J1
X-49.5 Y-1 Z5.6 I0 J-1
X-49.5 Y1 Z5.5 I0 J1
X-49.5 Y-1 Z5.4 I0 J-1
X-49.5 Y1 Z5.3 I0 J1
X-49.5 Y-1 Z5.2 I0 J-1
X-49.5 Y1 Z5.1 I0 J1
X-49.5 Y-1 Z5 I0 J-1
X-49.5 Y1 I0 J1
X-49.5 Y-1 I0 J-1
X-49.1 Y-0.6 I0 J0.4 F800
G1 Y-0.4
G19 G3 Y0 Z5.4 J0 K0.4
G0 Z19
X-44.85 Y-7.361
Z12.3
G1 Z10.7 F600
G3 Y-6.961 Z10.3 J0.4 K0
G1 Y-6.761
G17 G3 X-45.25 Y-6.361 I-0.4 J0
X-45.25 Y-8.361 Z10.2 I0 J-1 F1000
X-45.25 Y-6.361 Z10.1 I0 J1
X-45.25 Y-8.361 Z10 I0 J-1
X-45.25 Y-6.361 Z9.9 I0 J1
X-45.25 Y-8.361 Z9.8 I0 J-1
X-45.25 Y-6.361 Z9.7 I0 J1
X-45.25 Y-8.361 Z9.6 I0 J-1
X-45.25 Y-6.361 Z9.5 I0 J1
X-45.25 Y-8.361 Z9.4 I0 J-1
X-45.25 Y-6.361 Z9.3 I0 J1
X-45.25 Y-8.361 Z9.2 I0 J-1
X-45.25 Y-6.361 Z9.1 I0 J1
X-45.25 Y-8.361 Z9 I0 J-1
X-45.25 Y-6.361 Z8.9 I0 J1
X-45.25 Y-8.361 Z8.8 I0 J-1
X-45.25 Y-6.361 Z8.7 I0 J1
X-45.25 Y-8.361 Z8.6 I0 J-1
X-45.25 Y-6.361 Z8.5 I0 J1
X-45.25 Y-8.361 Z8.4 I0 J-1
X-45.25 Y-6.361 Z8.3 I0 J1
X-45.25 Y-8.361 Z8.2 I0 J-1
X-45.25 Y-6.361 Z8.1 I0 J1
X-45.25 Y-8.361 Z8 I0 J-1
X-45.25 Y-6.361 Z7.9 I0 J1
X-45.25 Y-8.361 Z7.8 I0 J-1
X-45.25 Y-6.361 Z7.7 I0 J1
X-45.25 Y-8.361 Z7.6 I0 J-1
X-45.25 Y-6.361 Z7.5 I0 J1
X-45.25 Y-8.361 Z7.4 I0 J-1
X-45.25 Y-6.361 Z7.3 I0 J1
X-45.25 Y-8.361 Z7.2 I0 J-1
X-45.25 Y-6.361 Z7.1 I0 J1
X-45.25 Y-8.361 Z7 I0 J-1
X-45.25 Y-6.361 Z6.9 I0 J1
X-45.25 Y-8.361 Z6.8 I0 J-1
X-45.25 Y-6.361 Z6.7 I0 J1
X-45.25 Y-8.361 Z6.6 I0 J-1
X-45.25 Y-6.361 Z6.5 I0 J1
X-45.25 Y-8.361 Z6.4 I0 J-1
X-45.25 Y-6.361 Z6.3 I0 J1
X-45.25 Y-8.361 Z6.2 I0 J-1
X-45.25 Y-6.361 Z6.1 I0 J1
X-45.25 Y-8.361 Z6 I0 J-1
X-45.25 Y-6.361 Z5.9 I0 J1
X-45.25 Y-8.361 Z5.8 I0 J-1
X-45.25 Y-6.361 Z5.7 I0 J1
X-45.25 Y-8.361 Z5.6 I0 J-1
X-45.25 Y-6.361 Z5.5 I0 J1
X-45.25 Y-8.361 Z5.4 I0 J-1
X-45.25 Y-6.361 Z5.3 I0 J1
X-45.25 Y-8.361 Z5.2 I0 J-1
X-45.25 Y-6.361 Z5.1 I0 J1
X-45.25 Y-8.361 Z5 I0 J-1
X-45.25 Y-6.361 I0 J1
X-45.25 Y-8.361 I0 J-1
X-44.85 Y-7.961 I0 J0.4 F800
G1 Y-7.761
G19 G3 Y-7.361 Z5.4 J0 K0.4
G0 Z19
X-36.35
Z12.3
G1 Z10.7 F600
G3 Y-6.961 Z10.3 J0.4 K0
G1 Y-6.761
G17 G3 X-36.75 Y-6.361 I-0.4 J0
X-36.75 Y-8.361 Z10.2 I0 J-1 F1000
X-36.75 Y-6.361 Z10.1 I0 J1
X-36.75 Y-8.361 Z10 I0 J-1
X-36.75 Y-6.361 Z9.9 I0 J1
X-36.75 Y-8.361 Z9.8 I0 J-1
X-36.75 Y-6.361 Z9.7 I0 J1
X-36.75 Y-8.361 Z9.6 I0 J-1
X-36.75 Y-6.361 Z9.5 I0 J1
X-36.75 Y-8.361 Z9.4 I0 J-1
X-36.75 Y-6.361 Z9.3 I0 J1
X-36.75 Y-8.361 Z9.2 I0 J-1
X-36.75 Y-6.361 Z9.1 I0 J1
X-36.75 Y-8.361 Z9 I0 J-1
X-36.75 Y-6.361 Z8.9 I0 J1
X-36.75 Y-8.361 Z8.8 I0 J-1
X-36.75 Y-6.361 Z8.7 I0 J1
X-36.75 Y-8.361 Z8.6 I0 J-1
X-36.75 Y-6.361 Z8.5 I0 J1
X-36.75 Y-8.361 Z8.4 I0 J-1
X-36.75 Y-6.361 Z8.3 I0 J1
X-36.75 Y-8.361 Z8.2 I0 J-1
X-36.75 Y-6.361 Z8.1 I0 J1
X-36.75 Y-8.361 Z8 I0 J-1
X-36.75 Y-6.361 Z7.9 I0 J1
X-36.75 Y-8.361 Z7.8 I0 J-1
X-36.75 Y-6.361 Z7.7 I0 J1
X-36.75 Y-8.361 Z7.6 I0 J-1
X-36.75 Y-6.361 Z7.5 I0 J1
X-36.75 Y-8.361 Z7.4 I0 J-1
X-36.75 Y-6.361 Z7.3 I0 J1
X-36.75 Y-8.361 Z7.2 I0 J-1
X-36.75 Y-6.361 Z7.1 I0 J1
X-36.75 Y-8.361 Z7 I0 J-1
X-36.75 Y-6.361 Z6.9 I0 J1
X-36.75 Y-8.361 Z6.8 I0 J-1
X-36.75 Y-6.361 Z6.7 I0 J1
X-36.75 Y-8.361 Z6.6 I0 J-1
X-36.75 Y-6.361 Z6.5 I0 J1
X-36.75 Y-8.361 Z6.4 I0 J-1
X-36.75 Y-6.361 Z6.3 I0 J1
X-36.75 Y-8.361 Z6.2 I0 J-1
X-36.75 Y-6.361 Z6.1 I0 J1
X-36.75 Y-8.361 Z6 I0 J-1
X-36.75 Y-6.361 Z5.9 I0 J1
X-36.75 Y-8.361 Z5.8 I0 J-1
X-36.75 Y-6.361 Z5.7 I0 J1
X-36.75 Y-8.361 Z5.6 I0 J-1
X-36.75 Y-6.361 Z5.5 I0 J1
X-36.75 Y-8.361 Z5.4 I0 J-1
X-36.75 Y-6.361 Z5.3 I0 J1
X-36.75 Y-8.361 Z5.2 I0 J-1
X-36.75 Y-6.361 Z5.1 I0 J1
X-36.75 Y-8.361 Z5 I0 J-1
X-36.75 Y-6.361 I0 J1
X-36.75 Y-8.361 I0 J-1
X-36.35 Y-7.961 I0 J0.4 F800
G1 Y-7.761
G19 G3 Y-7.361 Z5.4 J0 K0.4
G0 Z19
X-32.1 Y0
Z12.3
G1 Z10.7 F600
G3 Y0.4 Z10.3 J0.4 K0
G1 Y0.6
G17 G3 X-32.5 Y1 I-0.4 J0
X-32.5 Y-1 Z10.2 I0 J-1 F1000
X-32.5 Y1 Z10.1 I0 J1
X-32.5 Y-1 Z10 I0 J-1
X-32.5 Y1 Z9.9 I0 J1
X-32.5 Y-1 Z9.8 I0 J-1
X-32.5 Y1 Z9.7 I0 J1
X-32.5 Y-1 Z9.6 I0 J-1
X-32.5 Y1 Z9.5 I0 J1
X-32.5 Y-1 Z9.4 I0 J-1
X-32.5 Y1 Z9.3 I0 J1
X-32.5 Y-1 Z9.2 I0 J-1
X-32.5 Y1 Z9.1 I0 J1
X-32.5 Y-1 Z9 I0 J-1
X-32.5 Y1 Z8.9 I0 J1
X-32.5 Y-1 Z8.8 I0 J-1
X-32.5 Y1 Z8.7 I0 J1
X-32.5 Y-1 Z8.6 I0 J-1
X-32.5 Y1 Z8.5 I0 J1
X-32.5 Y-1 Z8.4 I0 J-1
X-32.5 Y1 Z8.3 I0 J1
X-32.5 Y-1 Z8.2 I0 J-1
X-32.5 Y1 Z8.1 I0 J1
X-32.5 Y-1 Z8 I0 J-1
X-32.5 Y1 Z7.9 I0 J1
X-32.5 Y-1 Z7.8 I0 J-1
X-32.5 Y1 Z7.7 I0 J1
X-32.5 Y-1 Z7.6 I0 J-1
X-32.5 Y1 Z7.5 I0 J1
X-32.5 Y-1 Z7.4 I0 J-1
X-32.5 Y1 Z7.3 I0 J1
X-32.5 Y-1 Z7.2 I0 J-1
X-32.5 Y1 Z7.1 I0 J1
X-32.5 Y-1 Z7 I0 J-1
X-32.5 Y1 Z6.9 I0 J1
X-32.5 Y-1 Z6.8 I0 J-1
X-32.5 Y1 Z6.7 I0 J1
X-32.5 Y-1 Z6.6 I0 J-1
X-32.5 Y1 Z6.5 I0 J1
X-32.5 Y-1 Z6.4 I0 J-1
X-32.5 Y1 Z6.3 I0 J1
X-32.5 Y-1 Z6.2 I0 J-1
X-32.5 Y1 Z6.1 I0 J1
X-32.5 Y-1 Z6 I0 J-1
X-32.5 Y1 Z5.9 I0 J1
X-32.5 Y-1 Z5.8 I0 J-1
X-32.5 Y1 Z5.7 I0 J1
X-32.5 Y-1 Z5.6 I0 J-1
X-32.5 Y1 Z5.5 I0 J1
X-32.5 Y-1 Z5.4 I0 J-1
X-32.5 Y1 Z5.3 I0 J1
X-32.5 Y-1 Z5.2 I0 J-1
X-32.5 Y1 Z5.1 I0 J1
X-32.5 Y-1 Z5 I0 J-1
X-32.5 Y1 I0 J1
X-32.5 Y-1 I0 J-1
X-32.1 Y-0.6 I0 J0.4 F800
G1 Y-0.4
G19 G3 Y0 Z5.4 J0 K0.4
G0 Z25
G17
G28 G91 Z0
G90
G28 G91 X0 Y0
G90
M5
M30
