(cont1)
(T1  D=4 CR=0 - ZMIN=0 - flat end mill)
G90 G94
G17
G21
G28 G91 Z0
G90

(2D Contour6)
T1
S18000 M3
G54
G0 X67.8 Y11.711
Z30
Z15
G1 Z10.42 F30
G18 G3 X67.4 Z10.02 I-0.4 K0 F600
G1 X57.4
G17 G3 X57 Y11.311 I0 J-0.4
G1 Y-23 Z9.965 F1000
G2 X54 Y-26 Z9.958 I-3 J0
G1 X44 Z9.942
G2 X41 Y-23 Z9.934 I0 J3
G1 Y-17 Z9.924
G3 X40 Y-16 Z9.922 I-1 J0
G1 X-41 Z9.792
G2 X-41 Y16 Z9.712 I0 J16
G1 X40 Z9.582
G3 X41 Y17 Z9.579 I0 J1
G1 Y23 Z9.57
G2 X44 Y26 Z9.562 I3 J0
G1 X54 Z9.546
G2 X57 Y23 Z9.539 I0 J-3
G1 Y-1.179 Z9.5
Y-23 F1300
G2 X54 Y-26 I-3 J0
G1 X44
G2 X41 Y-23 I0 J3
G1 Y-17
G3 X40 Y-16 I-1 J0
G1 X-41
G2 X-41 Y16 I0 J16
G1 X40
G3 X41 Y17 I0 J1
G1 Y23
G2 X44 Y26 I3 J0
G1 X54
G2 X57 Y23 I0 J-3
G1 Y-1.179
G2 X56.5 Y-1.929 I-0.813 J0
G3 X56 Y-2.679 I0.313 J-0.75
G1 Y-23
G2 X54 Y-25 I-2 J0
G1 X44
G2 X42 Y-23 I0 J2
G1 Y-17
G3 X40 Y-15 I-2 J0
G1 X-41
G2 X-41 Y15 I0 J15
G1 X40
G3 X42 Y17 I0 J2
G1 Y23
G2 X44 Y25 I2 J0
G1 X54
G2 X56 Y23 I0 J-2
G1 Y-2.679
G3 X56.4 Y-3.079 I0.4 J0 F800
G1 X66.4
G18 G2 X66.8 Z9.9 I0 K0.4
G1 Z9.92
X67.8 Y11.711 F1300
G3 X67.4 Z9.52 I-0.4 K0 F600
G1 X57.4
G17 G3 X57 Y11.311 I0 J-0.4
G1 Y-23 Z9.465 F1000
G2 X54 Y-26 Z9.458 I-3 J0
G1 X44 Z9.442
G2 X41 Y-23 Z9.434 I0 J3
G1 Y-17 Z9.424
G3 X40 Y-16 Z9.422 I-1 J0
G1 X-41 Z9.292
G2 X-41 Y16 Z9.212 I0 J16
G1 X40 Z9.082
G3 X41 Y17 Z9.079 I0 J1
G1 Y23 Z9.07
G2 X44 Y26 Z9.062 I3 J0
G1 X54 Z9.046
G2 X57 Y23 Z9.039 I0 J-3
G1 Y-1.179 Z9
Y-23 F1300
G2 X54 Y-26 I-3 J0
G1 X44
G2 X41 Y-23 I0 J3
G1 Y-17
G3 X40 Y-16 I-1 J0
G1 X-41
G2 X-41 Y16 I0 J16
G1 X40
G3 X41 Y17 I0 J1
G1 Y23
G2 X44 Y26 I3 J0
G1 X54
G2 X57 Y23 I0 J-3
G1 Y-1.179
G2 X56.5 Y-1.929 I-0.813 J0
G3 X56 Y-2.679 I0.313 J-0.75
G1 Y-23
G2 X54 Y-25 I-2 J0
G1 X44
G2 X42 Y-23 I0 J2
G1 Y-17
G3 X40 Y-15 I-2 J0
G1 X-41
G2 X-41 Y15 I0 J15
G1 X40
G3 X42 Y17 I0 J2
G1 Y23
G2 X44 Y25 I2 J0
G1 X54
G2 X56 Y23 I0 J-2
G1 Y-2.679
G3 X56.4 Y-3.079 I0.4 J0 F800
G1 X66.4
G18 G2 X66.8 Z9.4 I0 K0.4
G1 Z9.42
X67.8 Y11.711 F1300
G3 X67.4 Z9.02 I-0.4 K0 F600
G1 X57.4
G17 G3 X57 Y11.311 I0 J-0.4
G1 Y-23 Z8.965 F1000
G2 X54 Y-26 Z8.958 I-3 J0
G1 X44 Z8.942
G2 X41 Y-23 Z8.934 I0 J3
G1 Y-17 Z8.924
G3 X40 Y-16 Z8.922 I-1 J0
G1 X-41 Z8.792
G2 X-41 Y16 Z8.712 I0 J16
G1 X40 Z8.582
G3 X41 Y17 Z8.579 I0 J1
G1 Y23 Z8.57
G2 X44 Y26 Z8.562 I3 J0
G1 X54 Z8.546
G2 X57 Y23 Z8.539 I0 J-3
G1 Y-1.179 Z8.5
Y-23 F1300
G2 X54 Y-26 I-3 J0
G1 X44
G2 X41 Y-23 I0 J3
G1 Y-17
G3 X40 Y-16 I-1 J0
G1 X-41
G2 X-41 Y16 I0 J16
G1 X40
G3 X41 Y17 I0 J1
G1 Y23
G2 X44 Y26 I3 J0
G1 X54
G2 X57 Y23 I0 J-3
G1 Y-1.179
G2 X56.5 Y-1.929 I-0.813 J0
G3 X56 Y-2.679 I0.313 J-0.75
G1 Y-23
G2 X54 Y-25 I-2 J0
G1 X44
G2 X42 Y-23 I0 J2
G1 Y-17
G3 X40 Y-15 I-2 J0
G1 X-41
G2 X-41 Y15 I0 J15
G1 X40
G3 X42 Y17 I0 J2
G1 Y23
G2 X44 Y25 I2 J0
G1 X54
G2 X56 Y23 I0 J-2
G1 Y-2.679
G3 X56.4 Y-3.079 I0.4 J0 F800
G1 X66.4
G18 G2 X66.8 Z8.9 I0 K0.4
G1 Z8.92
X67.8 Y11.711 F1300
G3 X67.4 Z8.52 I-0.4 K0 F600
G1 X57.4
G17 G3 X57 Y11.311 I0 J-0.4
G1 Y-23 Z8.465 F1000
G2 X54 Y-26 Z8.458 I-3 J0
G1 X44 Z8.442
G2 X41 Y-23 Z8.434 I0 J3
G1 Y-17 Z8.424
G3 X40 Y-16 Z8.422 I-1 J0
G1 X-41 Z8.292
G2 X-41 Y16 Z8.212 I0 J16
G1 X40 Z8.082
G3 X41 Y17 Z8.079 I0 J1
G1 Y23 Z8.07
G2 X44 Y26 Z8.062 I3 J0
G1 X54 Z8.046
G2 X57 Y23 Z8.039 I0 J-3
G1 Y-1.179 Z8
Y-23 F1300
G2 X54 Y-26 I-3 J0
G1 X44
G2 X41 Y-23 I0 J3
G1 Y-17
G3 X40 Y-16 I-1 J0
G1 X-41
G2 X-41 Y16 I0 J16
G1 X40
G3 X41 Y17 I0 J1
G1 Y23
G2 X44 Y26 I3 J0
G1 X54
G2 X57 Y23 I0 J-3
G1 Y-1.179
G2 X56.5 Y-1.929 I-0.813 J0
G3 X56 Y-2.679 I0.313 J-0.75
G1 Y-23
G2 X54 Y-25 I-2 J0
G1 X44
G2 X42 Y-23 I0 J2
G1 Y-17
G3 X40 Y-15 I-2 J0
G1 X-41
G2 X-41 Y15 I0 J15
G1 X40
G3 X42 Y17 I0 J2
G1 Y23
G2 X44 Y25 I2 J0
G1 X54
G2 X56 Y23 I0 J-2
G1 Y-2.679
G3 X56.4 Y-3.079 I0.4 J0 F800
G1 X66.4
G18 G2 X66.8 Z8.4 I0 K0.4
G1 Z8.42
X67.8 Y11.711 F1300
G3 X67.4 Z8.02 I-0.4 K0 F600
G1 X57.4
G17 G3 X57 Y11.311 I0 J-0.4
G1 Y-23 Z7.965 F1000
G2 X54 Y-26 Z7.958 I-3 J0
G1 X44 Z7.942
G2 X41 Y-23 Z7.934 I0 J3
G1 Y-17 Z7.924
G3 X40 Y-16 Z7.922 I-1 J0
G1 X-41 Z7.792
G2 X-41 Y16 Z7.712 I0 J16
G1 X40 Z7.582
G3 X41 Y17 Z7.579 I0 J1
G1 Y23 Z7.57
G2 X44 Y26 Z7.562 I3 J0
G1 X54 Z7.546
G2 X57 Y23 Z7.539 I0 J-3
G1 Y-1.179 Z7.5
Y-23 F1300
G2 X54 Y-26 I-3 J0
G1 X44
G2 X41 Y-23 I0 J3
G1 Y-17
G3 X40 Y-16 I-1 J0
G1 X-41
G2 X-41 Y16 I0 J16
G1 X40
G3 X41 Y17 I0 J1
G1 Y23
G2 X44 Y26 I3 J0
G1 X54
G2 X57 Y23 I0 J-3
G1 Y-1.179
G2 X56.5 Y-1.929 I-0.813 J0
G3 X56 Y-2.679 I0.313 J-0.75
G1 Y-23
G2 X54 Y-25 I-2 J0
G1 X44
G2 X42 Y-23 I0 J2
G1 Y-17
G3 X40 Y-15 I-2 J0
G1 X-41
G2 X-41 Y15 I0 J15
G1 X40
G3 X42 Y17 I0 J2
G1 Y23
G2 X44 Y25 I2 J0
G1 X54
G2 X56 Y23 I0 J-2
G1 Y-2.679
G3 X56.4 Y-3.079 I0.4 J0 F800
G1 X66.4
G18 G2 X66.8 Z7.9 I0 K0.4
G1 Z7.92
X67.8 Y11.711 F1300
G3 X67.4 Z7.52 I-0.4 K0 F600
G1 X57.4
G17 G3 X57 Y11.311 I0 J-0.4
G1 Y-23 Z7.465 F1000
G2 X54 Y-26 Z7.458 I-3 J0
G1 X44 Z7.442
G2 X41 Y-23 Z7.434 I0 J3
G1 Y-17 Z7.424
G3 X40 Y-16 Z7.422 I-1 J0
G1 X-41 Z7.292
G2 X-41 Y16 Z7.212 I0 J16
G1 X40 Z7.082
G3 X41 Y17 Z7.079 I0 J1
G1 Y23 Z7.07
G2 X44 Y26 Z7.062 I3 J0
G1 X54 Z7.046
G2 X57 Y23 Z7.039 I0 J-3
G1 Y-1.179 Z7
Y-23 F1300
G2 X54 Y-26 I-3 J0
G1 X44
G2 X41 Y-23 I0 J3
G1 Y-17
G3 X40 Y-16 I-1 J0
G1 X-41
G2 X-41 Y16 I0 J16
G1 X40
G3 X41 Y17 I0 J1
G1 Y23
G2 X44 Y26 I3 J0
G1 X54
G2 X57 Y23 I0 J-3
G1 Y-1.179
G2 X56.5 Y-1.929 I-0.813 J0
G3 X56 Y-2.679 I0.313 J-0.75
G1 Y-23
G2 X54 Y-25 I-2 J0
G1 X44
G2 X42 Y-23 I0 J2
G1 Y-17
G3 X40 Y-15 I-2 J0
G1 X-41
G2 X-41 Y15 I0 J15
G1 X40
G3 X42 Y17 I0 J2
G1 Y23
G2 X44 Y25 I2 J0
G1 X54
G2 X56 Y23 I0 J-2
G1 Y-2.679
G3 X56.4 Y-3.079 I0.4 J0 F800
G1 X66.4
G18 G2 X66.8 Z7.4 I0 K0.4
G1 Z7.42
X67.8 Y11.711 F1300
G3 X67.4 Z7.02 I-0.4 K0 F600
G1 X57.4
G17 G3 X57 Y11.311 I0 J-0.4
G1 Y-23 Z6.965 F1000
G2 X54 Y-26 Z6.958 I-3 J0
G1 X44 Z6.942
G2 X41 Y-23 Z6.934 I0 J3
G1 Y-17 Z6.924
G3 X40 Y-16 Z6.922 I-1 J0
G1 X-41 Z6.792
G2 X-41 Y16 Z6.712 I0 J16
G1 X40 Z6.582
G3 X41 Y17 Z6.579 I0 J1
G1 Y23 Z6.57
G2 X44 Y26 Z6.562 I3 J0
G1 X54 Z6.546
G2 X57 Y23 Z6.539 I0 J-3
G1 Y-1.179 Z6.5
Y-23 F1300
G2 X54 Y-26 I-3 J0
G1 X44
G2 X41 Y-23 I0 J3
G1 Y-17
G3 X40 Y-16 I-1 J0
G1 X-41
G2 X-41 Y16 I0 J16
G1 X40
G3 X41 Y17 I0 J1
G1 Y23
G2 X44 Y26 I3 J0
G1 X54
G2 X57 Y23 I0 J-3
G1 Y-1.179
G2 X56.5 Y-1.929 I-0.813 J0
G3 X56 Y-2.679 I0.313 J-0.75
G1 Y-23
G2 X54 Y-25 I-2 J0
G1 X44
G2 X42 Y-23 I0 J2
G1 Y-17
G3 X40 Y-15 I-2 J0
G1 X-41
G2 X-41 Y15 I0 J15
G1 X40
G3 X42 Y17 I0 J2
G1 Y23
G2 X44 Y25 I2 J0
G1 X54
G2 X56 Y23 I0 J-2
G1 Y-2.679
G3 X56.4 Y-3.079 I0.4 J0 F800
G1 X66.4
G18 G2 X66.8 Z6.9 I0 K0.4
G1 Z6.92
X67.8 Y11.711 F1300
G3 X67.4 Z6.52 I-0.4 K0 F600
G1 X57.4
G17 G3 X57 Y11.311 I0 J-0.4
G1 Y-23 Z6.465 F1000
G2 X54 Y-26 Z6.458 I-3 J0
G1 X44 Z6.442
G2 X41 Y-23 Z6.434 I0 J3
G1 Y-17 Z6.424
G3 X40 Y-16 Z6.422 I-1 J0
G1 X-41 Z6.292
G2 X-41 Y16 Z6.212 I0 J16
G1 X40 Z6.082
G3 X41 Y17 Z6.079 I0 J1
G1 Y23 Z6.07
G2 X44 Y26 Z6.062 I3 J0
G1 X54 Z6.046
G2 X57 Y23 Z6.039 I0 J-3
G1 Y-1.179 Z6
Y-23 F1300
G2 X54 Y-26 I-3 J0
G1 X44
G2 X41 Y-23 I0 J3
G1 Y-17
G3 X40 Y-16 I-1 J0
G1 X-41
G2 X-41 Y16 I0 J16
G1 X40
G3 X41 Y17 I0 J1
G1 Y23
G2 X44 Y26 I3 J0
G1 X54
G2 X57 Y23 I0 J-3
G1 Y-1.179
G2 X56.5 Y-1.929 I-0.813 J0
G3 X56 Y-2.679 I0.313 J-0.75
G1 Y-23
G2 X54 Y-25 I-2 J0
G1 X44
G2 X42 Y-23 I0 J2
G1 Y-17
G3 X40 Y-15 I-2 J0
G1 X-41
G2 X-41 Y15 I0 J15
G1 X40
G3 X42 Y17 I0 J2
G1 Y23
G2 X44 Y25 I2 J0
G1 X54
G2 X56 Y23 I0 J-2
G1 Y-2.679
G3 X56.4 Y-3.079 I0.4 J0 F800
G1 X66.4
G18 G2 X66.8 Z6.4 I0 K0.4
G1 Z6.42
X67.8 Y11.711 F1300
G3 X67.4 Z6.02 I-0.4 K0 F600
G1 X57.4
G17 G3 X57 Y11.311 I0 J-0.4
G1 Y-23 Z5.965 F1000
G2 X54 Y-26 Z5.958 I-3 J0
G1 X44 Z5.942
G2 X41 Y-23 Z5.934 I0 J3
G1 Y-17 Z5.924
G3 X40 Y-16 Z5.922 I-1 J0
G1 X-41 Z5.792
G2 X-41 Y16 Z5.712 I0 J16
G1 X40 Z5.582
G3 X41 Y17 Z5.579 I0 J1
G1 Y23 Z5.57
G2 X44 Y26 Z5.562 I3 J0
G1 X54 Z5.546
G2 X57 Y23 Z5.539 I0 J-3
G1 Y-1.179 Z5.5
Y-23 F1300
G2 X54 Y-26 I-3 J0
G1 X44
G2 X41 Y-23 I0 J3
G1 Y-17
G3 X40 Y-16 I-1 J0
G1 X-41
G2 X-41 Y16 I0 J16
G1 X40
G3 X41 Y17 I0 J1
G1 Y23
G2 X44 Y26 I3 J0
G1 X54
G2 X57 Y23 I0 J-3
G1 Y-1.179
G2 X56.5 Y-1.929 I-0.813 J0
G3 X56 Y-2.679 I0.313 J-0.75
G1 Y-23
G2 X54 Y-25 I-2 J0
G1 X44
G2 X42 Y-23 I0 J2
G1 Y-17
G3 X40 Y-15 I-2 J0
G1 X-41
G2 X-41 Y15 I0 J15
G1 X40
G3 X42 Y17 I0 J2
G1 Y23
G2 X44 Y25 I2 J0
G1 X54
G2 X56 Y23 I0 J-2
G1 Y-2.679
G3 X56.4 Y-3.079 I0.4 J0 F800
G1 X66.4
G18 G2 X66.8 Z5.9 I0 K0.4
G1 Z5.92
X67.8 Y11.711 F1300
G3 X67.4 Z5.52 I-0.4 K0 F600
G1 X57.4
G17 G3 X57 Y11.311 I0 J-0.4
G1 Y-23 Z5.465 F1000
G2 X54 Y-26 Z5.458 I-3 J0
G1 X44 Z5.442
G2 X41 Y-23 Z5.434 I0 J3
G1 Y-17 Z5.424
G3 X40 Y-16 Z5.422 I-1 J0
G1 X-41 Z5.292
G2 X-41 Y16 Z5.212 I0 J16
G1 X40 Z5.082
G3 X41 Y17 Z5.079 I0 J1
G1 Y23 Z5.07
G2 X44 Y26 Z5.062 I3 J0
G1 X54 Z5.046
G2 X57 Y23 Z5.039 I0 J-3
G1 Y-1.179 Z5
Y-23 F1300
G2 X54 Y-26 I-3 J0
G1 X44
G2 X41 Y-23 I0 J3
G1 Y-17
G3 X40 Y-16 I-1 J0
G1 X-41
G2 X-41 Y16 I0 J16
G1 X40
G3 X41 Y17 I0 J1
G1 Y23
G2 X44 Y26 I3 J0
G1 X54
G2 X57 Y23 I0 J-3
G1 Y-1.179
G2 X56.5 Y-1.929 I-0.813 J0
G3 X56 Y-2.679 I0.313 J-0.75
G1 Y-23
G2 X54 Y-25 I-2 J0
G1 X44
G2 X42 Y-23 I0 J2
G1 Y-17
G3 X40 Y-15 I-2 J0
G1 X-41
G2 X-41 Y15 I0 J15
G1 X40
G3 X42 Y17 I0 J2
G1 Y23
G2 X44 Y25 I2 J0
G1 X54
G2 X56 Y23 I0 J-2
G1 Y-2.679
G3 X56.4 Y-3.079 I0.4 J0 F800
G1 X66.4
G18 G2 X66.8 Z5.4 I0 K0.4
G1 Z5.42
X67.8 Y11.711 F1300
G3 X67.4 Z5.02 I-0.4 K0 F600
G1 X57.4
G17 G3 X57 Y11.311 I0 J-0.4
G1 Y-23 Z4.965 F1000
G2 X54 Y-26 Z4.958 I-3 J0
G1 X44 Z4.942
G2 X41 Y-23 Z4.934 I0 J3
G1 Y-17 Z4.924
G3 X40 Y-16 Z4.922 I-1 J0
G1 X-41 Z4.792
G2 X-41 Y16 Z4.712 I0 J16
G1 X40 Z4.582
G3 X41 Y17 Z4.579 I0 J1
G1 Y23 Z4.57
G2 X44 Y26 Z4.562 I3 J0
G1 X54 Z4.546
G2 X57 Y23 Z4.539 I0 J-3
G1 Y-1.179 Z4.5
Y-23 F1300
G2 X54 Y-26 I-3 J0
G1 X44
G2 X41 Y-23 I0 J3
G1 Y-17
G3 X40 Y-16 I-1 J0
G1 X-41
G2 X-41 Y16 I0 J16
G1 X40
G3 X41 Y17 I0 J1
G1 Y23
G2 X44 Y26 I3 J0
G1 X54
G2 X57 Y23 I0 J-3
G1 Y-1.179
G2 X56.5 Y-1.929 I-0.813 J0
G3 X56 Y-2.679 I0.313 J-0.75
G1 Y-23
G2 X54 Y-25 I-2 J0
G1 X44
G2 X42 Y-23 I0 J2
G1 Y-17
G3 X40 Y-15 I-2 J0
G1 X-41
G2 X-41 Y15 I0 J15
G1 X40
G3 X42 Y17 I0 J2
G1 Y23
G2 X44 Y25 I2 J0
G1 X54
G2 X56 Y23 I0 J-2
G1 Y-2.679
G3 X56.4 Y-3.079 I0.4 J0 F800
G1 X66.4
G18 G2 X66.8 Z4.9 I0 K0.4
G1 Z4.92
X67.8 Y11.711 F1300
G3 X67.4 Z4.52 I-0.4 K0 F600
G1 X57.4
G17 G3 X57 Y11.311 I0 J-0.4
G1 Y-23 Z4.465 F1000
G2 X54 Y-26 Z4.458 I-3 J0
G1 X44 Z4.442
G2 X41 Y-23 Z4.434 I0 J3
G1 Y-17 Z4.424
G3 X40 Y-16 Z4.422 I-1 J0
G1 X-41 Z4.292
G2 X-41 Y16 Z4.212 I0 J16
G1 X40 Z4.082
G3 X41 Y17 Z4.079 I0 J1
G1 Y23 Z4.07
G2 X44 Y26 Z4.062 I3 J0
G1 X54 Z4.046
G2 X57 Y23 Z4.039 I0 J-3
G1 Y-1.179 Z4
Y-23 F1300
G2 X54 Y-26 I-3 J0
G1 X44
G2 X41 Y-23 I0 J3
G1 Y-17
G3 X40 Y-16 I-1 J0
G1 X-41
G2 X-41 Y16 I0 J16
G1 X40
G3 X41 Y17 I0 J1
G1 Y23
G2 X44 Y26 I3 J0
G1 X54
G2 X57 Y23 I0 J-3
G1 Y-1.179
G2 X56.5 Y-1.929 I-0.813 J0
G3 X56 Y-2.679 I0.313 J-0.75
G1 Y-23
G2 X54 Y-25 I-2 J0
G1 X44
G2 X42 Y-23 I0 J2
G1 Y-17
G3 X40 Y-15 I-2 J0
G1 X-41
G2 X-41 Y15 I0 J15
G1 X40
G3 X42 Y17 I0 J2
G1 Y23
G2 X44 Y25 I2 J0
G1 X54
G2 X56 Y23 I0 J-2
G1 Y-2.679
G3 X56.4 Y-3.079 I0.4 J0 F800
G1 X66.4
G18 G2 X66.8 Z4.4 I0 K0.4
G1 Z4.42
X67.8 Y11.711 F1300
G3 X67.4 Z4.02 I-0.4 K0 F600
G1 X57.4
G17 G3 X57 Y11.311 I0 J-0.4
G1 Y-23 Z3.965 F1000
G2 X54 Y-26 Z3.958 I-3 J0
G1 X44 Z3.942
G2 X41 Y-23 Z3.934 I0 J3
G1 Y-17 Z3.924
G3 X40 Y-16 Z3.922 I-1 J0
G1 X-41 Z3.792
G2 X-41 Y16 Z3.712 I0 J16
G1 X40 Z3.582
G3 X41 Y17 Z3.579 I0 J1
G1 Y23 Z3.57
G2 X44 Y26 Z3.562 I3 J0
G1 X54 Z3.546
G2 X57 Y23 Z3.539 I0 J-3
G1 Y-1.179 Z3.5
Y-23 F1300
G2 X54 Y-26 I-3 J0
G1 X44
G2 X41 Y-23 I0 J3
G1 Y-17
G3 X40 Y-16 I-1 J0
G1 X-41
G2 X-41 Y16 I0 J16
G1 X40
G3 X41 Y17 I0 J1
G1 Y23
G2 X44 Y26 I3 J0
G1 X54
G2 X57 Y23 I0 J-3
G1 Y-1.179
G2 X56.5 Y-1.929 I-0.813 J0
G3 X56 Y-2.679 I0.313 J-0.75
G1 Y-23
G2 X54 Y-25 I-2 J0
G1 X44
G2 X42 Y-23 I0 J2
G1 Y-17
G3 X40 Y-15 I-2 J0
G1 X-41
G2 X-41 Y15 I0 J15
G1 X40
G3 X42 Y17 I0 J2
G1 Y23
G2 X44 Y25 I2 J0
G1 X54
G2 X56 Y23 I0 J-2
G1 Y-2.679
G3 X56.4 Y-3.079 I0.4 J0 F800
G1 X66.4
G18 G2 X66.8 Z3.9 I0 K0.4
G1 Z3.92
X67.8 Y11.711 F1300
G3 X67.4 Z3.52 I-0.4 K0 F600
G1 X57.4
G17 G3 X57 Y11.311 I0 J-0.4
G1 Y-23 Z3.465 F1000
G2 X54 Y-26 Z3.458 I-3 J0
G1 X44 Z3.442
G2 X41 Y-23 Z3.434 I0 J3
G1 Y-17 Z3.424
G3 X40 Y-16 Z3.422 I-1 J0
G1 X-41 Z3.292
G2 X-41 Y16 Z3.212 I0 J16
G1 X40 Z3.082
G3 X41 Y17 Z3.079 I0 J1
G1 Y23 Z3.07
G2 X44 Y26 Z3.062 I3 J0
G1 X54 Z3.046
G2 X57 Y23 Z3.039 I0 J-3
G1 Y-1.179 Z3
Y-23 F1300
G2 X54 Y-26 I-3 J0
G1 X44
G2 X41 Y-23 I0 J3
G1 Y-17
G3 X40 Y-16 I-1 J0
G1 X-41
G2 X-41 Y16 I0 J16
G1 X40
G3 X41 Y17 I0 J1
G1 Y23
G2 X44 Y26 I3 J0
G1 X54
G2 X57 Y23 I0 J-3
G1 Y-1.179
G2 X56.5 Y-1.929 I-0.813 J0
G3 X56 Y-2.679 I0.313 J-0.75
G1 Y-23
G2 X54 Y-25 I-2 J0
G1 X44
G2 X42 Y-23 I0 J2
G1 Y-17
G3 X40 Y-15 I-2 J0
G1 X-41
G2 X-41 Y15 I0 J15
G1 X40
G3 X42 Y17 I0 J2
G1 Y23
G2 X44 Y25 I2 J0
G1 X54
G2 X56 Y23 I0 J-2
G1 Y-2.679
G3 X56.4 Y-3.079 I0.4 J0 F800
G1 X66.4
G18 G2 X66.8 Z3.4 I0 K0.4
G1 Z3.42
X67.8 Y11.711 F1300
G3 X67.4 Z3.02 I-0.4 K0 F600
G1 X57.4
G17 G3 X57 Y11.311 I0 J-0.4
G1 Y-23 Z2.965 F1000
G2 X54 Y-26 Z2.958 I-3 J0
G1 X44 Z2.942
G2 X41 Y-23 Z2.934 I0 J3
G1 Y-17 Z2.924
G3 X40 Y-16 Z2.922 I-1 J0
G1 X-41 Z2.792
G2 X-41 Y16 Z2.712 I0 J16
G1 X40 Z2.582
G3 X41 Y17 Z2.579 I0 J1
G1 Y23 Z2.57
G2 X44 Y26 Z2.562 I3 J0
G1 X54 Z2.546
G2 X57 Y23 Z2.539 I0 J-3
G1 Y-1.179 Z2.5
Y-23 F1300
G2 X54 Y-26 I-3 J0
G1 X44
G2 X41 Y-23 I0 J3
G1 Y-17
G3 X40 Y-16 I-1 J0
G1 X-41
G2 X-41 Y16 I0 J16
G1 X40
G3 X41 Y17 I0 J1
G1 Y23
G2 X44 Y26 I3 J0
G1 X54
G2 X57 Y23 I0 J-3
G1 Y-1.179
G2 X56.5 Y-1.929 I-0.813 J0
G3 X56 Y-2.679 I0.313 J-0.75
G1 Y-23
G2 X54 Y-25 I-2 J0
G1 X44
G2 X42 Y-23 I0 J2
G1 Y-17
G3 X40 Y-15 I-2 J0
G1 X-41
G2 X-41 Y15 I0 J15
G1 X40
G3 X42 Y17 I0 J2
G1 Y23
G2 X44 Y25 I2 J0
G1 X54
G2 X56 Y23 I0 J-2
G1 Y-2.679
G3 X56.4 Y-3.079 I0.4 J0 F800
G1 X66.4
G18 G2 X66.8 Z2.9 I0 K0.4
G1 Z2.92
X67.8 Y11.711 F1300
G3 X67.4 Z2.52 I-0.4 K0 F600
G1 X57.4
G17 G3 X57 Y11.311 I0 J-0.4
G1 Y-23 Z2.465 F1000
G2 X54 Y-26 Z2.458 I-3 J0
G1 X44 Z2.442
G2 X41 Y-23 Z2.434 I0 J3
G1 Y-17 Z2.424
G3 X40 Y-16 Z2.422 I-1 J0
G1 X-41 Z2.292
G2 X-41 Y16 Z2.212 I0 J16
G1 X40 Z2.082
G3 X41 Y17 Z2.079 I0 J1
G1 Y23 Z2.07
G2 X44 Y26 Z2.062 I3 J0
G1 X54 Z2.046
G2 X57 Y23 Z2.039 I0 J-3
G1 Y-1.179 Z2
Y-23 F1300
G2 X54 Y-26 I-3 J0
G1 X44
G2 X41 Y-23 I0 J3
G1 Y-17
G3 X40 Y-16 I-1 J0
G1 X-41
G2 X-41 Y16 I0 J16
G1 X40
G3 X41 Y17 I0 J1
G1 Y23
G2 X44 Y26 I3 J0
G1 X54
G2 X57 Y23 I0 J-3
G1 Y-1.179
G2 X56.5 Y-1.929 I-0.813 J0
G3 X56 Y-2.679 I0.313 J-0.75
G1 Y-23
G2 X54 Y-25 I-2 J0
G1 X44
G2 X42 Y-23 I0 J2
G1 Y-17
G3 X40 Y-15 I-2 J0
G1 X-41
G2 X-41 Y15 I0 J15
G1 X40
G3 X42 Y17 I0 J2
G1 Y23
G2 X44 Y25 I2 J0
G1 X54
G2 X56 Y23 I0 J-2
G1 Y-2.679
G3 X56.4 Y-3.079 I0.4 J0 F800
G1 X66.4
G18 G2 X66.8 Z2.4 I0 K0.4
G1 Z2.42
X67.8 Y11.711 F1300
G3 X67.4 Z2.02 I-0.4 K0 F600
G1 X57.4
G17 G3 X57 Y11.311 I0 J-0.4
G1 Y-23 Z1.965 F1000
G2 X54 Y-26 Z1.958 I-3 J0
G1 X44 Z1.942
G2 X41 Y-23 Z1.934 I0 J3
G1 Y-17 Z1.924
G3 X40 Y-16 Z1.922 I-1 J0
G1 X-41 Z1.792
G2 X-41 Y16 Z1.712 I0 J16
G1 X40 Z1.582
G3 X41 Y17 Z1.579 I0 J1
G1 Y23 Z1.57
G2 X44 Y26 Z1.562 I3 J0
G1 X54 Z1.546
G2 X57 Y23 Z1.539 I0 J-3
G1 Y-1.179 Z1.5
Y-23 F1300
G2 X54 Y-26 I-3 J0
G1 X44
G2 X41 Y-23 I0 J3
G1 Y-17
G3 X40 Y-16 I-1 J0
G1 X-41
G2 X-41 Y16 I0 J16
G1 X40
G3 X41 Y17 I0 J1
G1 Y23
G2 X44 Y26 I3 J0
G1 X54
G2 X57 Y23 I0 J-3
G1 Y-1.179
G2 X56.5 Y-1.929 I-0.813 J0
G3 X56 Y-2.679 I0.313 J-0.75
G1 Y-23
G2 X54 Y-25 I-2 J0
G1 X44
G2 X42 Y-23 I0 J2
G1 Y-17
G3 X40 Y-15 I-2 J0
G1 X-41
G2 X-41 Y15 I0 J15
G1 X40
G3 X42 Y17 I0 J2
G1 Y23
G2 X44 Y25 I2 J0
G1 X54
G2 X56 Y23 I0 J-2
G1 Y-2.679
G3 X56.4 Y-3.079 I0.4 J0 F800
G1 X66.4
G18 G2 X66.8 Z1.9 I0 K0.4
G1 Z1.92
X67.8 Y11.711 F1300
G3 X67.4 Z1.52 I-0.4 K0 F600
G1 X57.4
G17 G3 X57 Y11.311 I0 J-0.4
G1 Y-23 Z1.465 F1000
G2 X54 Y-26 Z1.458 I-3 J0
G1 X44 Z1.442
G2 X41 Y-23 Z1.434 I0 J3
G1 Y-17 Z1.424
G3 X40 Y-16 Z1.422 I-1 J0
G1 X-41 Z1.292
G2 X-41 Y16 Z1.212 I0 J16
G1 X40 Z1.082
G3 X41 Y17 Z1.079 I0 J1
G1 Y23 Z1.07
G2 X44 Y26 Z1.062 I3 J0
G1 X54 Z1.046
G2 X57 Y23 Z1.039 I0 J-3
G1 Y-1.179 Z1
Y-23 F1300
G2 X54 Y-26 I-3 J0
G1 X44
G2 X41 Y-23 I0 J3
G1 Y-17
G3 X40 Y-16 I-1 J0
G1 X-41
G2 X-41 Y16 I0 J16
G1 X40
G3 X41 Y17 I0 J1
G1 Y23
G2 X44 Y26 I3 J0
G1 X54
G2 X57 Y23 I0 J-3
G1 Y-1.179
G2 X56.5 Y-1.929 I-0.813 J0
G3 X56 Y-2.679 I0.313 J-0.75
G1 Y-23
G2 X54 Y-25 I-2 J0
G1 X44
G2 X42 Y-23 I0 J2
G1 Y-17
G3 X40 Y-15 I-2 J0
G1 X-41
G2 X-41 Y15 I0 J15
G1 X40
G3 X42 Y17 I0 J2
G1 Y23
G2 X44 Y25 I2 J0
G1 X54
G2 X56 Y23 I0 J-2
G1 Y-2.679
G3 X56.4 Y-3.079 I0.4 J0 F800
G1 X66.4
G18 G2 X66.8 Z1.4 I0 K0.4
G1 Z1.42
X67.8 Y11.711 F1300
G3 X67.4 Z1.02 I-0.4 K0 F600
G1 X57.4
G17 G3 X57 Y11.311 I0 J-0.4
G1 Y-23 Z0.965 F1000
G2 X54 Y-26 Z0.958 I-3 J0
G1 X44 Z0.942
G2 X41 Y-23 Z0.934 I0 J3
G1 Y-17 Z0.924
G3 X40 Y-16 Z0.922 I-1 J0
G1 X-41 Z0.792
G2 X-41 Y16 Z0.712 I0 J16
G1 X-30.194 Z0.694
Z0.75
X-22.194
Z0.682 F30
X15.199 Z0.622 F1000
Z0.75
X23.199
Z0.609 F30
X40 Z0.582 F1000
G3 X41 Y17 Z0.579 I0 J1
G1 Y23 Z0.57
G2 X44 Y26 Z0.562 I3 J0
G1 X54 Z0.546
G2 X57 Y23 Z0.539 I0 J-3
G1 Y-1.179 Z0.5
Y-23 F1300
G2 X54 Y-26 I-3 J0
G1 X44
G2 X41 Y-23 I0 J3
G1 Y-17
G3 X40 Y-16 I-1 J0
G1 X23.04
Z0.75
X15.04
Z0.5 F30
X-22.513 F1300
Z0.75
X-30.513
Z0.5 F30
X-41 F1300
G2 X-41 Y16 I0 J16
G1 X-30.194
Z0.75
X-22.194
Z0.5 F30
X15.199 F1300
Z0.75
X23.199
Z0.5 F30
X40 F1300
G3 X41 Y17 I0 J1
G1 Y23
G2 X44 Y26 I3 J0
G1 X54
G2 X57 Y23 I0 J-3
G1 Y-1.179
G2 X56.5 Y-1.929 I-0.813 J0
G3 X56 Y-2.679 I0.313 J-0.75
G1 Y-23
G2 X54 Y-25 I-2 J0
G1 X44
G2 X42 Y-23 I0 J2
G1 Y-17
G3 X40 Y-15 I-2 J0
G1 X23.04
Z0.75
X15.04
Z0.5 F30
X-22.513 F1300
Z0.75
X-30.513
Z0.5 F30
X-41 F1300
G2 X-41 Y15 I0 J15
G1 X-30.194
Z0.75
X-22.194
Z0.5 F30
X15.199 F1300
Z0.75
X23.199
Z0.5 F30
X40 F1300
G3 X42 Y17 I0 J2
G1 Y23
G2 X44 Y25 I2 J0
G1 X54
G2 X56 Y23 I0 J-2
G1 Y-2.679
G3 X56.4 Y-3.079 I0.4 J0 F800
G1 X66.4
G18 G2 X66.8 Z0.9 I0 K0.4
G1 Z0.92
X67.8 Y11.711 F1300
G3 X67.4 Z0.52 I-0.4 K0 F600
G1 X57.4
G17 G3 X57 Y11.311 I0 J-0.4
G1 Y-23 Z0.465 F1000
G2 X54 Y-26 Z0.458 I-3 J0
G1 X44 Z0.442
G2 X41 Y-23 Z0.434 I0 J3
G1 Y-17 Z0.424
G3 X40 Y-16 Z0.422 I-1 J0
G1 X23.04 Z0.395
Z0.75
X15.04
Z0.382 F30
X-22.513 Z0.322 F1000
Z0.75
X-30.513
Z0.309 F30
X-41 Z0.292 F1000
G2 X-41 Y16 Z0.212 I0 J16
G1 X-30.194 Z0.194
Z0.75
X-22.194
Z0.182 F30
X15.199 Z0.122 F1000
Z0.75
X23.199
Z0.109 F30
X40 Z0.082 F1000
G3 X41 Y17 Z0.079 I0 J1
G1 Y23 Z0.07
G2 X44 Y26 Z0.062 I3 J0
G1 X54 Z0.046
G2 X57 Y23 Z0.039 I0 J-3
G1 Y-1.179 Z0
Y-23 F1300
G2 X54 Y-26 I-3 J0
G1 X44
G2 X41 Y-23 I0 J3
G1 Y-17
G3 X40 Y-16 I-1 J0
G1 X23.04
Z0.75
X15.04
Z0 F30
X-22.513 F1300
Z0.75
X-30.513
Z0 F30
X-41 F1300
G2 X-41 Y16 I0 J16
G1 X-30.194
Z0.75
X-22.194
Z0 F30
X15.199 F1300
Z0.75
X23.199
Z0 F30
X40 F1300
G3 X41 Y17 I0 J1
G1 Y23
G2 X44 Y26 I3 J0
G1 X54
G2 X57 Y23 I0 J-3
G1 Y-1.179
G2 X56.5 Y-1.929 I-0.813 J0
G3 X56 Y-2.679 I0.313 J-0.75
G1 Y-23
G2 X54 Y-25 I-2 J0
G1 X44
G2 X42 Y-23 I0 J2
G1 Y-17
G3 X40 Y-15 I-2 J0
G1 X23.04
Z0.75
X15.04
Z0 F30
X-22.513 F1300
Z0.75
X-30.513
Z0 F30
X-41 F1300
G2 X-41 Y15 I0 J15
G1 X-30.194
Z0.75
X-22.194
Z0 F30
X15.199 F1300
Z0.75
X23.199
Z0 F30
X40 F1300
G3 X42 Y17 I0 J2
G1 Y23
G2 X44 Y25 I2 J0
G1 X54
G2 X56 Y23 I0 J-2
G1 Y-2.679
G3 X56.4 Y-3.079 I0.4 J0 F800
G1 X66.4
G18 G2 X66.8 Z0.4 I0 K0.4
G0 Z30
G17
G28 G91 Z0
G90
G28 G91 X0 Y0
G90
M5
M30
