(drill1)
(T2  D=5 CR=0 TAPER=120deg - ZMIN=4 - center drill)
G90 G94
G17
G21
G28 G91 Z0
G90

(Drill1 5)
T2
S5000 M3
G54
G0 X-49.5 Y0
Z30
Z20
Z15
Z7
G1 Z4.5 F100.3
G0 Z15
Z6.5
G1 Z4 F100.3
G0 Z20
X-45.25 Y7.361
Z15
Z7
G1 Z4.5 F100.3
G0 Z15
Z6.5
G1 Z4 F100.3
G0 Z20
X-36.75
Z15
Z7
G1 Z4.5 F100.3
G0 Z15
Z6.5
G1 Z4 F100.3
G0 Z20
X-32.5 Y0
Z15
Z7
G1 Z4.5 F100.3
G0 Z15
Z6.5
G1 Z4 F100.3
G0 Z20
X-36.75 Y-7.361
Z15
Z7
G1 Z4.5 F100.3
G0 Z15
Z6.5
G1 Z4 F100.3
G0 Z20
X-45.25
Z15
Z7
G1 Z4.5 F100.3
G0 Z15
Z6.5
G1 Z4 F100.3
G0 Z20
Z30
G28 G91 Z0
G90
G28 G91 X0 Y0
G90
M5
M30
