(adap1)
(T1 D=4 CR=0 - ZMIN=0 - flat end mill)
G90 G94
G17
G21
G28 G91 Z0
G90

(Adaptive1 12)
T1
S18000 M3
G17 G90 G94
G54
G0 X-92.392 Y-4.598
Z28
G0 Z18
Z8.3
G1 Z7.9 F600
X-92.391 Y-4.591 Z7.822
X-92.385 Y-4.569 Z7.747
X-92.376 Y-4.533 Z7.678
X-92.363 Y-4.485 Z7.617
X-92.348 Y-4.426 Z7.567
X-92.331 Y-4.359 Z7.53
X-92.313 Y-4.287 Z7.508
X-92.293 Y-4.211 Z7.5
G3 X-91.98 Y-2.033 I-9.893 J2.534
G1 Y-1.941 F1000
X-91.795 Y-1.224
X-91.677 Y-0.494
X-91.603 Y0.243
X-91.556 Y0.981
X-91.527 Y1.721
X-91.509 Y2.46
X-91.498 Y3.2
X-91.491 Y3.94
X-91.487 Y4.68
X-91.484 Y5.421
X-91.482 Y6.901
X-91.48 Y11.341
Y18.094
X-91.455 Y18.183
X-91.406 Y18.261
X-91.143 Y18.522
X-90.518 Y18.918
X-89.812 Y19.142
X-89.084 Y19.274
X-88.348 Y19.354
X-87.61 Y19.402
X-86.871 Y19.432
X-86.131 Y19.451
X-85.391 Y19.462
X-84.651 Y19.469
X-83.911 Y19.473
X-83.171 Y19.476
X-81.684 Y19.478
X-81.642 Y19.481
X-81.601 Y19.487
X-81.561 Y19.498
X-80.635 Y19.798
X-80.467 Y19.848
X-80.299 Y19.887
X-80.131 Y19.912
X-79.963 Y19.932
X-78.954 Y20.038
X-78.45 Y20.088
X-78.281 Y20.097
X-77.777 Y20.1
X-40.452
X-39.947 Y20.088
X-39.852 Y20.077
X-39.443 Y19.998
X-39.275 Y19.962
X-39.038 Y19.909
X-38.308 Y19.784
X-37.577 Y19.67
X-36.84 Y19.598
X-36.102 Y19.554
X-35.362 Y19.526
X-34.622 Y19.508
X-33.882 Y19.497
X-33.142 Y19.491
X-32.402 Y19.487
X-30.922 Y19.483
X-27.962 Y19.48
X-1.875
X-1.786 Y19.455
X-1.708 Y19.406
X-1.455 Y19.135
X-1.07 Y18.504
X-0.851 Y17.797
X-0.722 Y17.068
X-0.644 Y16.332
X-0.596 Y15.594
X-0.567 Y14.854
X-0.549 Y14.114
X-0.538 Y13.374
X-0.531 Y12.634
X-0.527 Y11.894
X-0.523 Y10.414
X-0.52 Y7.454
Y6.714
Y1.904
X-0.545 Y1.815
X-0.594 Y1.736
X-0.858 Y1.476
X-1.484 Y1.081
X-2.189 Y0.858
X-2.917 Y0.726
X-3.653 Y0.646
X-4.391 Y0.597
X-5.131 Y0.568
X-5.871 Y0.549
X-6.611 Y0.538
X-7.351 Y0.531
X-8.091 Y0.527
X-8.831 Y0.524
X-10.311 Y0.522
X-14.751 Y0.52
X-37.886
X-37.961 Y0.512
X-38.033 Y0.488
X-38.098 Y0.45
X-38.266 Y0.35
X-38.434 Y0.269
X-38.602 Y0.201
X-38.77 Y0.154
X-38.938 Y0.113
X-39.275 Y0.038
X-39.443 Y0.002
X-39.852 Y-0.077
X-39.947 Y-0.088
X-40.452 Y-0.1
X-58.106
X-58.274 Y-0.099
X-58.442 Y-0.088
X-58.543 Y-0.077
X-58.61 Y-0.065
X-58.778 Y-0.03
X-58.946 Y0.021
X-59.507 Y0.193
X-60.237 Y0.315
X-60.757 Y0.37
X-60.855 Y0.368
X-60.95 Y0.342
X-61.035 Y0.294
G3 X-61.102 Y-0.267 Z7.7 I0.248 J-0.314 F800
G1 X-61.059 Y-0.313
X-61.009 Y-0.353
X-60.939 Y-0.39 F1000
X-60.863 Y-0.412
X-59.188 Y-0.735
G3 X-58.818 Y-0.613 I0.076 J0.393
G1 X-58.779 Y-0.564 F600
X-58.748 Y-0.508
G3 X-58.946 Y0.021 Z7.5 I-0.364 J0.166
G1 X-59.114 Y0.091 F1000
X-59.282 Y0.177
X-59.451 Y0.28
X-59.635 Y0.427
X-59.787 Y0.581
X-59.955 Y0.766
X-59.997 Y0.802
X-60.039 Y0.832
X-60.081 Y0.856
X-60.123 Y0.873
X-60.165 Y0.885
X-60.207 Y0.892
X-60.249 Y0.895
X-60.291 Y0.893
X-60.333 Y0.887
X-60.375 Y0.876
X-60.417 Y0.86
X-60.459 Y0.838
X-60.505 Y0.806
X-60.551 Y0.763
X-60.628 Y0.667
X-60.691 Y0.595
X-60.796 Y0.487
X-60.964 Y0.347
X-61.084 Y0.259
X-61.132 Y0.229
X-61.3 Y0.13
X-61.468 Y0.054
X-61.636 Y-0.004
X-61.804 Y-0.049
X-61.951 Y-0.077
X-61.973 Y-0.081
X-62.141 Y-0.094
X-62.309 Y-0.099
X-66.176 Y-0.1
X-77.777
X-78.281 Y-0.097
X-78.45 Y-0.088
X-78.954 Y-0.038
X-79.963 Y0.068
X-80.15 Y0.091
X-80.299 Y0.113
X-80.467 Y0.152
X-81.188 Y0.317
X-81.924 Y0.394
X-82.663 Y0.442
X-83.402 Y0.471
X-84.142 Y0.49
X-84.882 Y0.501
X-85.622 Y0.509
X-86.362 Y0.513
X-87.657 Y0.517
X-87.75
X-87.839 Y0.543
X-87.917 Y0.592
X-88.165 Y0.866
X-88.511 Y1.521
X-88.703 Y2.235
X-88.815 Y2.967
X-88.881 Y3.704
X-88.921 Y4.443
X-88.944 Y5.183
X-88.959 Y5.922
X-88.967 Y6.662
X-88.972 Y7.402
X-88.975 Y8.142
X-88.978 Y9.623
X-88.98 Y13.323
Y15.265
X-88.931 Y15.444
X-88.732 Y15.756
X-88.172 Y16.239
X-87.488 Y16.521
X-86.768 Y16.693
X-86.035 Y16.799
X-85.822 Y16.819
X-85.735 Y16.836
X-85.654 Y16.873
X-85.583 Y16.926
X-85.511 Y16.994
X-84.324 Y18.062
X-84.166 Y18.171
X-83.811 Y18.398
X-83.662 Y18.487
X-82.653 Y19.07
X-82.485 Y19.162
X-82.329 Y19.237
X-82.148 Y19.307
X-81.561 Y19.498
G3 X-81.403 Y20.144 I-0.137 J0.376 F800
G1 X-81.455 Y20.202 Z7.508
X-81.506 Y20.257 Z7.53
X-81.553 Y20.308 Z7.567
X-81.594 Y20.353 Z7.617
X-81.627 Y20.389 Z7.678
X-81.652 Y20.417 Z7.747
X-81.668 Y20.433 Z7.822
X-81.673 Y20.439 Z7.9
G0 Z18
X-79.539 Y-0.573
Z8.3
G1 Z7.9 F600
X-79.544 Y-0.567 Z7.822
X-79.56 Y-0.55 Z7.747
X-79.585 Y-0.523 Z7.678
X-79.618 Y-0.486 Z7.617
X-79.659 Y-0.442 Z7.567
X-79.706 Y-0.391 Z7.53
X-79.757 Y-0.335 Z7.508
X-79.809 Y-0.278 Z7.5
G3 X-80.467 Y0.152 I-1.167 J-1.069
G1 X-80.635 Y0.202 F1000
X-81.644 Y0.529
X-82.148 Y0.693
X-82.329 Y0.763
X-82.485 Y0.838
X-82.653 Y0.93
X-83.662 Y1.513
X-83.811 Y1.602
X-84.166 Y1.829
X-84.324 Y1.938
X-84.523 Y2.075
X-84.852 Y2.244
X-85.169 Y2.435
X-85.674 Y2.976
X-85.819 Y3.3
X-85.833 Y3.328
X-85.849 Y3.355
X-85.867 Y3.38
G3 X-86.43 Y3.434 Z7.7 I-0.308 J-0.255 F800
G1 X-86.476 Y3.39
X-86.513 Y3.339
G3 X-86.449 Y2.833 I0.338 J-0.214 F1000
G1 X-84.87 Y1.353
G3 X-84.402 Y1.295 I0.274 J0.292
G1 X-84.349 Y1.33 F600
X-84.303 Y1.373
G3 X-84.324 Y1.938 Z7.5 I-0.293 J0.272
G1 X-85.511 Y3.006 F1000
X-85.655 Y3.143
X-85.679 Y3.166
X-85.787 Y3.282
X-85.847 Y3.354
X-85.921 Y3.45
X-86.775 Y4.625
X-86.892 Y4.793
X-86.999 Y4.961
X-87.087 Y5.129
X-87.164 Y5.297
X-87.612 Y6.305
X-87.759 Y6.641
X-87.828 Y6.809
X-87.96 Y7.313
X-88.174 Y8.32
X-88.208 Y8.488
X-88.272 Y8.824
X-88.293 Y8.992
X-88.303 Y9.328
X-88.306 Y9.496
Y10.504
X-88.303 Y10.672
X-88.293 Y11.008
X-88.272 Y11.176
X-88.201 Y11.546
X-88.174 Y11.68
X-87.96 Y12.687
X-87.828 Y13.191
X-87.759 Y13.359
X-87.612 Y13.695
X-87.164 Y14.703
X-87.087 Y14.871
X-86.999 Y15.039
X-86.892 Y15.207
X-86.775 Y15.375
X-85.921 Y16.55
X-85.847 Y16.646
X-85.787 Y16.718
X-85.679 Y16.834
X-85.583 Y16.926
G3 X-85.717 Y17.578 I-0.284 J0.281 F800
G1 X-85.789 Y17.607 Z7.508
X-85.858 Y17.635 Z7.53
X-85.922 Y17.661 Z7.567
X-85.979 Y17.684 Z7.617
X-86.025 Y17.703 Z7.678
X-86.059 Y17.717 Z7.747
X-86.08 Y17.726 Z7.822
X-86.087 Y17.729 Z7.9
G0 Z18
X-40.016 Y20.564
Z8.3
G1 Z7.9 F600
X-40.01 Y20.559 Z7.822
X-39.994 Y20.543 Z7.747
X-39.967 Y20.518 Z7.678
X-39.931 Y20.484 Z7.617
X-39.886 Y20.442 Z7.567
X-39.836 Y20.395 Z7.53
X-39.782 Y20.343 Z7.508
X-39.725 Y20.29 Z7.5
G3 X-39.038 Y19.909 I1.086 J1.151
G1 X-38.938 Y19.887 F1000
X-38.77 Y19.846
X-38.602 Y19.799
X-38.434 Y19.731
X-38.266 Y19.65
X-38.098 Y19.55
X-37.904 Y19.405
X-37.593 Y19.166
X-37.425 Y19.035
X-37.257 Y18.901
X-37.089 Y18.747
X-37.076 Y18.734
X-36.932 Y18.566
X-36.819 Y18.435
X-36.542 Y18.187
X-36.165 Y17.93
X-35.642 Y17.666
X-34.944 Y17.42
X-34.222 Y17.26
X-33.489 Y17.157
X-32.841 Y17.1
X-32.818 Y17.099
G3 X-32.432 Y17.513 Z7.7 I-0.014 J0.4 F800
G1 X-32.439 Y17.575
X-32.456 Y17.636
G3 X-32.702 Y17.877 I-0.376 J-0.137 F1000
G1 X-36.476 Y19.176
G3 X-36.726 Y19.179 I-0.13 J-0.378
G1 X-36.784 Y19.156 F600
X-36.839 Y19.123
G3 X-36.932 Y18.566 Z7.5 I0.232 J-0.326
G1 X-36.921 Y18.551 F1000
X-36.813 Y18.398
X-36.716 Y18.23
X-36.626 Y18.062
X-36.248 Y17.322
X-36.216 Y17.272
X-36.171 Y17.222
X-36.126 Y17.182
X-36.08 Y17.152
X-36.038 Y17.131
X-35.996 Y17.116
X-35.954 Y17.106
X-35.912 Y17.1
X-35.744 Y17.099
X-10.86 Y17.1
X-10.692 Y17.089
X-9.952 Y17.071
X-9.213 Y17.036
X-8.473 Y17.015
X-7.733 Y17.002
X-6.993 Y16.993
X-6.253 Y16.988
X-5.513 Y16.985
X-4.773 Y16.983
X-4.681 Y16.977
X-4.507 Y16.915
X-4.206 Y16.7
X-3.738 Y16.126
X-3.465 Y15.438
X-3.299 Y14.717
X-3.195 Y13.984
X-3.131 Y13.247
X-3.09 Y12.508
X-3.064 Y11.769
X-3.048 Y11.029
X-3.038 Y10.289
X-3.031 Y9.549
X-3.027 Y8.809
X-3.023 Y7.329
X-3.021 Y4.738
X-3.067 Y4.559
X-3.265 Y4.247
X-3.824 Y3.762
X-4.508 Y3.48
X-5.228 Y3.308
X-5.961 Y3.201
X-6.698 Y3.134
X-7.436 Y3.092
X-8.176 Y3.066
X-8.916 Y3.049
X-9.542 Y3.04
X-9.573 Y3.037
X-10.263 Y2.946
X-10.356 Y2.936
X-10.692 Y2.911
X-10.86 Y2.9
X-35.744
X-35.912 Y2.899
X-35.954 Y2.893
X-35.996 Y2.883
X-36.038 Y2.868
X-36.08 Y2.847
X-36.125 Y2.817
X-36.17 Y2.778
X-36.216 Y2.728
X-36.248 Y2.677
X-36.626 Y1.938
X-36.716 Y1.77
X-36.813 Y1.602
X-36.921 Y1.448
X-36.931 Y1.434
X-37.076 Y1.266
X-37.089 Y1.253
X-37.257 Y1.098
X-37.425 Y0.964
X-37.762 Y0.704
X-37.93 Y0.575
X-38.098 Y0.45
G3 X-38.04 Y-0.213 I0.25 J-0.312 F800
G1 X-37.971 Y-0.25 Z7.508
X-37.906 Y-0.287 Z7.53
X-37.845 Y-0.32 Z7.567
X-37.792 Y-0.349 Z7.617
X-37.748 Y-0.373 Z7.678
X-37.716 Y-0.391 Z7.747
X-37.696 Y-0.402 Z7.822
X-37.689 Y-0.405 Z7.9
G0 Z18
X-11.755 Y17.595
Z8.3
G1 Z7.9 F600
X-11.749 Y17.59 Z7.822
X-11.73 Y17.577 Z7.747
X-11.7 Y17.556 Z7.678
X-11.659 Y17.527 Z7.617
X-11.609 Y17.493 Z7.567
X-11.553 Y17.453 Z7.53
X-11.491 Y17.41 Z7.508
X-11.427 Y17.365 Z7.5
G3 X-10.692 Y17.089 I0.907 J1.297
G1 X-10.356 Y17.064 F1000
X-10.264 Y17.054
X-9.347 Y16.933
X-9.179 Y16.909
X-9.011 Y16.876
X-8.843 Y16.836
X-8.675 Y16.777
X-8.002 Y16.5
X-7.666 Y16.361
X-7.498 Y16.286
X-7.134 Y16.107
X-7.106 Y16.087
X-6.822 Y15.878
X-6.657 Y15.755
X-6.153 Y15.368
X-5.984 Y15.237
X-5.816 Y15.098
X-5.753 Y15.039
X-5.6 Y14.871
X-5.48 Y14.725
X-4.976 Y14.067
X-4.695 Y13.695
X-4.639 Y13.609
X-4.59 Y13.527
X-4.505 Y13.359
X-4.471 Y13.282
X-3.967 Y12.064
X-3.949 Y12.015
X-3.897 Y11.847
X-3.859 Y11.68
X-3.831 Y11.512
X-3.699 Y10.504
X-3.652 Y10
X-3.699 Y9.496
X-3.831 Y8.488
X-3.859 Y8.32
X-3.897 Y8.153
X-3.949 Y7.985
X-3.967 Y7.936
X-4.471 Y6.717
X-4.505 Y6.641
X-4.59 Y6.473
X-4.639 Y6.391
X-4.695 Y6.305
X-4.976 Y5.933
X-5.48 Y5.275
X-5.6 Y5.129
X-5.753 Y4.961
X-5.816 Y4.902
X-5.984 Y4.763
X-6.161 Y4.625
X-6.657 Y4.245
X-6.825 Y4.119
X-7.12 Y3.903
X-7.134 Y3.893
X-7.498 Y3.714
X-7.666 Y3.639
X-8.338 Y3.361
X-8.675 Y3.223
X-8.843 Y3.164
X-9.011 Y3.124
X-9.179 Y3.091
X-9.347 Y3.067
X-9.573 Y3.037
G3 X-9.869 Y2.813 I0.066 J-0.395 F800
G1 X-9.882 Y2.754 Z7.505
X-9.895 Y2.697 Z7.519
X-9.907 Y2.642 Z7.541
X-9.895 Y2.59 Z7.573
X-9.885 Y2.543 Z7.614
X-9.876 Y2.503 Z7.661
X-9.868 Y2.47 Z7.714
X-9.856 Y2.448 Z7.774
X-9.849 Y2.435 Z7.836
X-9.846 Y2.43 Z7.9
G0 Z18
X-79.172 Y10.44
Z8.3
G3 X-78.542 Y9.022 Z8.238 I0.922 J-0.439 F600
X-77.24 Y9.862 Z8.177 I0.292 J0.977
X-78.27 Y11.018 Z8.115 I-1.01 J0.137
X-79.252 Y9.823 Z8.054 I0.021 J-1.018
X-77.921 Y9.038 Z7.992 I1.001 J0.177
X-77.352 Y10.473 Z7.931 I-0.329 J0.961
X-78.856 Y10.813 Z7.869 I-0.897 J-0.473
X-78.959 Y9.276 Z7.808 I0.606 J-0.813
X-77.427 Y9.411 Z7.746 I0.709 J0.723
X-77.796 Y10.903 Z7.685 I-0.823 J0.588
X-79.212 Y10.308 Z7.623 I-0.453 J-0.903
X-78.406 Y9.003 Z7.562 I0.961 J-0.308
X-77.242 Y9.999 Z7.5 I0.156 J0.996
X-79.259 Y9.999 I-1.008 J0
X-77.242 Y9.999 I1.008 J0
G1 X-77.201 Y10.738 F1000
X-77.169 Y10.825
X-77.134 Y10.971
X-77.128 Y11.12
X-77.147 Y11.269
X-77.186 Y11.414
X-77.248 Y11.561
X-77.335 Y11.71
X-77.448 Y11.855
X-77.588 Y11.993
X-77.753 Y12.119
X-77.944 Y12.227
X-78.158 Y12.315
X-78.393 Y12.377
X-78.645 Y12.409
X-78.91 Y12.408
X-79.183 Y12.372
X-79.458 Y12.297
X-79.731 Y12.184
X-79.994 Y12.031
X-80.242 Y11.84
X-80.469 Y11.613
X-80.668 Y11.353
X-80.836 Y11.063
X-80.966 Y10.748
X-81.056 Y10.413
X-81.103 Y10.065
Y9.709
X-81.057 Y9.352
X-80.964 Y9.001
X-80.825 Y8.662
X-80.641 Y8.342
X-80.416 Y8.047
X-80.153 Y7.782
X-79.857 Y7.552
X-79.531 Y7.362
X-79.183 Y7.216
X-78.817 Y7.116
X-78.441 Y7.064
X-78.06 Y7.062
X-77.682 Y7.109
X-77.312 Y7.205
X-76.957 Y7.349
X-76.624 Y7.538
X-76.318 Y7.769
X-76.044 Y8.038
X-75.776 Y8.381
X-75.433 Y8.962
X-75.2 Y9.509
X-75.056 Y10.025
X-74.985 Y10.522
X-74.98 Y11.008
X-75.037 Y11.482
X-75.154 Y11.942
X-75.33 Y12.382
X-75.51 Y12.702
X-75.524 Y12.726
X-75.541 Y12.749
X-75.558 Y12.771
X-75.632 Y12.855
X-75.696 Y12.919
X-75.759 Y12.965
X-76.432 Y13.42
X-76.516 Y13.47
X-76.6 Y13.502
X-77.273 Y13.739
X-77.441 Y13.794
X-77.609 Y13.811
X-78.365 Y13.875
X-78.408 Y13.876
X-78.45 Y13.873
X-78.786 Y13.816
X-79.29 Y13.729
X-79.358 Y13.717
X-79.426 Y13.695
X-80.169 Y13.359
X-80.299 Y13.293
X-80.429 Y13.191
X-80.972 Y12.753
X-81.047 Y12.687
X-81.14 Y12.57
X-81.55 Y12.015
X-81.644 Y11.878
X-81.658 Y11.847
X-81.98 Y11.046
X-81.994 Y11.008
X-82.015 Y10.924
X-82.111 Y10.168
X-82.13 Y10
X-82.111 Y9.832
X-82.015 Y9.076
X-81.994 Y8.992
X-81.98 Y8.954
X-81.658 Y8.153
X-81.644 Y8.122
X-81.55 Y7.985
X-81.14 Y7.43
X-81.047 Y7.313
X-80.972 Y7.247
X-80.429 Y6.809
X-80.299 Y6.707
X-80.169 Y6.641
X-79.426 Y6.305
X-79.358 Y6.283
X-79.29 Y6.271
X-78.511 Y6.137
X-78.45 Y6.127
X-78.408 Y6.124
X-78.365 Y6.125
X-77.609 Y6.189
X-77.441 Y6.206
X-77.273 Y6.261
X-76.6 Y6.498
X-76.516 Y6.53
X-76.432 Y6.58
X-75.759 Y7.035
X-75.696 Y7.081
X-75.632 Y7.145
X-75.087 Y7.764
X-75.044 Y7.817
X-74.953 Y7.985
X-74.614 Y8.656
X-74.583 Y8.717
X-74.335 Y9.16
X-74.246 Y9.289
X-74.216 Y9.328
X-74.078 Y9.48
X-74.062 Y9.496
X-73.91 Y9.632
X-73.872 Y9.664
X-73.792 Y9.736
X-73.764 Y9.773
X-73.742 Y9.809
X-73.73 Y9.832
X-73.714 Y9.874
X-73.702 Y9.916
X-73.695 Y9.958
X-73.693 Y10
X-73.695 Y10.042
X-73.702 Y10.084
X-73.714 Y10.126
X-73.73 Y10.168
X-73.742 Y10.191
X-73.764 Y10.227
X-73.792 Y10.264
X-73.833 Y10.304
X-73.91 Y10.364
X-74.062 Y10.504
X-74.078 Y10.52
X-74.216 Y10.672
X-74.246 Y10.711
X-74.335 Y10.84
X-74.583 Y11.283
X-74.614 Y11.344
X-74.953 Y12.015
X-75.044 Y12.183
X-75.087 Y12.236
X-75.558 Y12.771
G3 X-75.909 Y12.892 I-0.291 J-0.275 F800
G1 X-75.965 Y12.87 Z7.505
X-76.02 Y12.848 Z7.519
X-76.073 Y12.828 Z7.542
X-76.11 Y12.789 Z7.574
X-76.143 Y12.754 Z7.615
X-76.171 Y12.724 Z7.663
X-76.194 Y12.7 Z7.717
X-76.205 Y12.678 Z7.775
X-76.212 Y12.665 Z7.837
X-76.214 Y12.66 Z7.9
G0 X-79.172 Y10.44
Z7.8
G3 X-78.542 Y9.022 Z7.738 I0.922 J-0.439 F600
X-77.24 Y9.862 Z7.677 I0.292 J0.977
X-78.27 Y11.018 Z7.615 I-1.01 J0.137
X-79.252 Y9.823 Z7.554 I0.021 J-1.018
X-77.92 Y9.038 Z7.492 I1.001 J0.177
X-77.352 Y10.473 Z7.431 I-0.329 J0.961
X-78.855 Y10.813 Z7.369 I-0.897 J-0.473
X-78.959 Y9.276 Z7.308 I0.606 J-0.813
X-77.426 Y9.411 Z7.246 I0.709 J0.723
X-77.796 Y10.903 Z7.185 I-0.823 J0.588
X-79.211 Y10.308 Z7.123 I-0.453 J-0.903
X-78.406 Y9.003 Z7.062 I0.961 J-0.308
X-77.242 Y9.999 Z7 I0.156 J0.996
X-79.258 Y9.999 I-1.008 J0
X-77.242 Y9.999 I1.008 J0
G1 X-77.201 Y10.738 F1000
X-77.168 Y10.824
X-77.134 Y10.971
X-77.128 Y11.12
X-77.146 Y11.269
X-77.186 Y11.414
X-77.248 Y11.561
X-77.335 Y11.71
X-77.448 Y11.855
X-77.587 Y11.993
X-77.753 Y12.118
X-77.944 Y12.227
X-78.158 Y12.315
X-78.392 Y12.377
X-78.644 Y12.409
X-78.909 Y12.408
X-79.182 Y12.372
X-79.458 Y12.297
X-79.731 Y12.183
X-79.994 Y12.031
X-80.242 Y11.84
X-80.468 Y11.613
X-80.668 Y11.353
X-80.835 Y11.063
X-80.966 Y10.748
X-81.056 Y10.413
X-81.102 Y10.065
X-81.103 Y9.709
X-81.057 Y9.352
X-80.963 Y9.001
X-80.824 Y8.662
X-80.641 Y8.342
X-80.416 Y8.047
X-80.153 Y7.782
X-79.856 Y7.552
X-79.531 Y7.362
X-79.183 Y7.216
X-78.817 Y7.116
X-78.441 Y7.064
X-78.06 Y7.062
X-77.681 Y7.109
X-77.311 Y7.205
X-76.957 Y7.349
X-76.624 Y7.538
X-76.317 Y7.769
X-76.044 Y8.038
X-75.776 Y8.38
X-75.432 Y8.962
X-75.199 Y9.509
X-75.056 Y10.025
X-74.985 Y10.522
X-74.979 Y11.008
X-75.036 Y11.482
X-75.154 Y11.941
X-75.33 Y12.382
X-75.509 Y12.702
X-75.523 Y12.726
X-75.54 Y12.748
X-75.558 Y12.77
X-75.632 Y12.855
X-75.696 Y12.919
X-75.759 Y12.965
X-76.432 Y13.42
X-76.516 Y13.47
X-76.6 Y13.502
X-77.273 Y13.739
X-77.441 Y13.794
X-77.609 Y13.811
X-78.365 Y13.875
X-78.408 Y13.876
X-78.45 Y13.873
X-78.786 Y13.816
X-79.29 Y13.729
X-79.358 Y13.717
X-79.426 Y13.695
X-80.169 Y13.359
X-80.299 Y13.293
X-80.429 Y13.191
X-80.972 Y12.753
X-81.047 Y12.687
X-81.14 Y12.57
X-81.55 Y12.015
X-81.644 Y11.878
X-81.658 Y11.847
X-81.98 Y11.046
X-81.994 Y11.008
X-82.015 Y10.924
X-82.111 Y10.168
X-82.13 Y10
X-82.111 Y9.832
X-82.015 Y9.076
X-81.994 Y8.992
X-81.98 Y8.954
X-81.658 Y8.153
X-81.644 Y8.122
X-81.55 Y7.985
X-81.14 Y7.43
X-81.047 Y7.313
X-80.972 Y7.247
X-80.429 Y6.809
X-80.299 Y6.707
X-80.169 Y6.641
X-79.426 Y6.305
X-79.358 Y6.283
X-79.29 Y6.271
X-78.511 Y6.137
X-78.45 Y6.127
X-78.408 Y6.124
X-78.365 Y6.125
X-77.609 Y6.189
X-77.441 Y6.206
X-77.273 Y6.261
X-76.6 Y6.498
X-76.516 Y6.53
X-76.432 Y6.58
X-75.759 Y7.035
X-75.696 Y7.081
X-75.632 Y7.145
X-75.087 Y7.764
X-75.044 Y7.817
X-74.953 Y7.985
X-74.614 Y8.656
X-74.583 Y8.717
X-74.335 Y9.16
X-74.246 Y9.289
X-74.216 Y9.328
X-74.078 Y9.48
X-74.062 Y9.496
X-73.91 Y9.632
X-73.872 Y9.664
X-73.792 Y9.736
X-73.764 Y9.773
X-73.742 Y9.809
X-73.73 Y9.832
X-73.714 Y9.874
X-73.702 Y9.916
X-73.695 Y9.958
X-73.693 Y10
X-73.695 Y10.042
X-73.702 Y10.084
X-73.714 Y10.126
X-73.73 Y10.168
X-73.742 Y10.191
X-73.764 Y10.227
X-73.792 Y10.264
X-73.833 Y10.304
X-73.91 Y10.364
X-74.062 Y10.504
X-74.078 Y10.52
X-74.216 Y10.672
X-74.246 Y10.711
X-74.335 Y10.84
X-74.583 Y11.283
X-74.614 Y11.344
X-74.953 Y12.015
X-75.044 Y12.183
X-75.087 Y12.236
X-75.558 Y12.77
G3 X-75.908 Y12.891 I-0.291 J-0.275 F800
G1 X-75.964 Y12.869 Z7.005
X-76.02 Y12.848 Z7.019
X-76.072 Y12.827 Z7.042
X-76.109 Y12.788 Z7.074
X-76.142 Y12.753 Z7.115
X-76.17 Y12.723 Z7.163
X-76.193 Y12.699 Z7.217
X-76.204 Y12.677 Z7.275
X-76.211 Y12.664 Z7.337
X-76.213 Y12.659 Z7.4
G0 Z18
X-92.392 Y-4.598
Z7.8
G1 Z7.4 F600
X-92.391 Y-4.591 Z7.322
X-92.385 Y-4.569 Z7.247
X-92.376 Y-4.533 Z7.178
X-92.363 Y-4.485 Z7.117
X-92.348 Y-4.426 Z7.067
X-92.331 Y-4.359 Z7.03
X-92.313 Y-4.287 Z7.008
X-92.293 Y-4.211 Z7
G3 X-91.98 Y-2.033 I-9.893 J2.534
G1 Y-1.941 F1000
X-91.795 Y-1.224
X-91.677 Y-0.494
X-91.603 Y0.243
X-91.556 Y0.981
X-91.527 Y1.721
X-91.509 Y2.46
X-91.498 Y3.2
X-91.491 Y3.94
X-91.487 Y4.68
X-91.484 Y5.421
X-91.482 Y6.901
X-91.48 Y11.341
Y18.094
X-91.455 Y18.183
X-91.406 Y18.261
X-91.143 Y18.522
X-90.518 Y18.918
X-89.812 Y19.142
X-89.084 Y19.274
X-88.348 Y19.354
X-87.61 Y19.402
X-86.871 Y19.432
X-86.131 Y19.451
X-85.391 Y19.462
X-84.651 Y19.469
X-83.911 Y19.473
X-83.171 Y19.476
X-81.684 Y19.478
X-81.642 Y19.481
X-81.601 Y19.487
X-81.561 Y19.498
X-80.635 Y19.798
X-80.467 Y19.848
X-80.299 Y19.887
X-80.131 Y19.912
X-79.963 Y19.932
X-78.954 Y20.038
X-78.45 Y20.088
X-78.281 Y20.097
X-77.777 Y20.1
X-40.452
X-39.947 Y20.088
X-39.852 Y20.077
X-39.443 Y19.998
X-39.275 Y19.962
X-39.038 Y19.909
X-38.308 Y19.784
X-37.577 Y19.67
X-36.84 Y19.598
X-36.102 Y19.554
X-35.362 Y19.526
X-34.622 Y19.508
X-33.882 Y19.497
X-33.142 Y19.491
X-32.402 Y19.487
X-30.922 Y19.483
X-27.962 Y19.48
X-1.875
X-1.786 Y19.455
X-1.708 Y19.406
X-1.455 Y19.135
X-1.07 Y18.504
X-0.851 Y17.797
X-0.722 Y17.068
X-0.644 Y16.332
X-0.596 Y15.594
X-0.567 Y14.854
X-0.549 Y14.114
X-0.538 Y13.374
X-0.531 Y12.634
X-0.527 Y11.894
X-0.523 Y10.414
X-0.52 Y7.454
Y6.714
Y1.904
X-0.545 Y1.815
X-0.594 Y1.736
X-0.858 Y1.476
X-1.484 Y1.081
X-2.189 Y0.858
X-2.917 Y0.726
X-3.653 Y0.646
X-4.391 Y0.597
X-5.131 Y0.568
X-5.871 Y0.549
X-6.611 Y0.538
X-7.351 Y0.531
X-8.091 Y0.527
X-8.831 Y0.524
X-10.311 Y0.522
X-14.751 Y0.52
X-37.886
X-37.961 Y0.512
X-38.033 Y0.488
X-38.098 Y0.45
X-38.266 Y0.35
X-38.434 Y0.269
X-38.602 Y0.201
X-38.77 Y0.154
X-38.938 Y0.113
X-39.275 Y0.038
X-39.443 Y0.002
X-39.852 Y-0.077
X-39.947 Y-0.088
X-40.452 Y-0.1
X-58.106
X-58.274 Y-0.099
X-58.442 Y-0.088
X-58.543 Y-0.077
X-58.61 Y-0.065
X-58.778 Y-0.03
X-58.946 Y0.021
X-59.507 Y0.193
X-60.237 Y0.315
X-60.757 Y0.37
X-60.855 Y0.368
X-60.95 Y0.342
X-61.035 Y0.294
G3 X-61.102 Y-0.267 Z7.2 I0.248 J-0.314 F800
G1 X-61.059 Y-0.313
X-61.009 Y-0.353
X-60.939 Y-0.39 F1000
X-60.863 Y-0.412
X-59.188 Y-0.735
G3 X-58.818 Y-0.613 I0.076 J0.393
G1 X-58.779 Y-0.564 F600
X-58.748 Y-0.508
G3 X-58.946 Y0.021 Z7 I-0.364 J0.166
G1 X-59.114 Y0.091 F1000
X-59.282 Y0.177
X-59.451 Y0.28
X-59.635 Y0.427
X-59.787 Y0.581
X-59.955 Y0.766
X-59.997 Y0.802
X-60.039 Y0.832
X-60.081 Y0.856
X-60.123 Y0.873
X-60.165 Y0.885
X-60.207 Y0.892
X-60.249 Y0.895
X-60.291 Y0.893
X-60.333 Y0.887
X-60.375 Y0.876
X-60.417 Y0.86
X-60.459 Y0.838
X-60.505 Y0.806
X-60.551 Y0.763
X-60.628 Y0.667
X-60.691 Y0.595
X-60.796 Y0.487
X-60.964 Y0.347
X-61.084 Y0.259
X-61.132 Y0.229
X-61.3 Y0.13
X-61.468 Y0.054
X-61.636 Y-0.004
X-61.804 Y-0.049
X-61.951 Y-0.077
X-61.973 Y-0.081
X-62.141 Y-0.094
X-62.309 Y-0.099
X-66.176 Y-0.1
X-77.777
X-78.281 Y-0.097
X-78.45 Y-0.088
X-78.954 Y-0.038
X-79.963 Y0.068
X-80.15 Y0.091
X-80.299 Y0.113
X-80.467 Y0.152
X-81.188 Y0.317
X-81.924 Y0.394
X-82.663 Y0.442
X-83.402 Y0.471
X-84.142 Y0.49
X-84.882 Y0.501
X-85.622 Y0.509
X-86.362 Y0.513
X-87.657 Y0.517
X-87.75
X-87.839 Y0.543
X-87.917 Y0.592
X-88.165 Y0.866
X-88.511 Y1.521
X-88.703 Y2.235
X-88.815 Y2.967
X-88.881 Y3.704
X-88.921 Y4.443
X-88.944 Y5.183
X-88.959 Y5.922
X-88.967 Y6.662
X-88.972 Y7.402
X-88.975 Y8.142
X-88.978 Y9.623
X-88.98 Y13.323
Y15.265
X-88.931 Y15.444
X-88.732 Y15.756
X-88.172 Y16.239
X-87.488 Y16.521
X-86.768 Y16.693
X-86.035 Y16.799
X-85.822 Y16.819
X-85.735 Y16.836
X-85.654 Y16.873
X-85.583 Y16.926
X-85.511 Y16.994
X-84.324 Y18.062
X-84.166 Y18.171
X-83.811 Y18.398
X-83.662 Y18.487
X-82.653 Y19.07
X-82.485 Y19.162
X-82.329 Y19.237
X-82.148 Y19.307
X-81.561 Y19.498
G3 X-81.403 Y20.144 I-0.137 J0.376 F800
G1 X-81.455 Y20.202 Z7.008
X-81.506 Y20.257 Z7.03
X-81.553 Y20.308 Z7.067
X-81.594 Y20.353 Z7.117
X-81.627 Y20.389 Z7.178
X-81.652 Y20.417 Z7.247
X-81.668 Y20.433 Z7.322
X-81.673 Y20.439 Z7.4
G0 Z18
X-79.539 Y-0.573
Z7.8
G1 Z7.4 F600
X-79.544 Y-0.567 Z7.322
X-79.56 Y-0.55 Z7.247
X-79.585 Y-0.523 Z7.178
X-79.618 Y-0.486 Z7.117
X-79.659 Y-0.442 Z7.067
X-79.706 Y-0.391 Z7.03
X-79.757 Y-0.335 Z7.008
X-79.809 Y-0.278 Z7
G3 X-80.467 Y0.152 I-1.167 J-1.069
G1 X-80.635 Y0.202 F1000
X-81.644 Y0.529
X-82.148 Y0.693
X-82.329 Y0.763
X-82.485 Y0.838
X-82.653 Y0.93
X-83.662 Y1.513
X-83.811 Y1.602
X-84.166 Y1.829
X-84.324 Y1.938
X-84.523 Y2.075
X-84.852 Y2.244
X-85.169 Y2.435
X-85.674 Y2.976
X-85.819 Y3.3
X-85.833 Y3.328
X-85.849 Y3.355
X-85.867 Y3.38
G3 X-86.43 Y3.434 Z7.2 I-0.308 J-0.255 F800
G1 X-86.476 Y3.39
X-86.513 Y3.339
G3 X-86.449 Y2.833 I0.338 J-0.214 F1000
G1 X-84.87 Y1.353
G3 X-84.402 Y1.295 I0.274 J0.292
G1 X-84.349 Y1.33 F600
X-84.303 Y1.373
G3 X-84.324 Y1.938 Z7 I-0.293 J0.272
G1 X-85.511 Y3.006 F1000
X-85.655 Y3.143
X-85.679 Y3.166
X-85.787 Y3.282
X-85.847 Y3.354
X-85.921 Y3.45
X-86.775 Y4.625
X-86.892 Y4.793
X-86.999 Y4.961
X-87.087 Y5.129
X-87.164 Y5.297
X-87.612 Y6.305
X-87.759 Y6.641
X-87.828 Y6.809
X-87.96 Y7.313
X-88.174 Y8.32
X-88.208 Y8.488
X-88.272 Y8.824
X-88.293 Y8.992
X-88.303 Y9.328
X-88.306 Y9.496
Y10.504
X-88.303 Y10.672
X-88.293 Y11.008
X-88.272 Y11.176
X-88.201 Y11.546
X-88.174 Y11.68
X-87.96 Y12.687
X-87.828 Y13.191
X-87.759 Y13.359
X-87.612 Y13.695
X-87.164 Y14.703
X-87.087 Y14.871
X-86.999 Y15.039
X-86.892 Y15.207
X-86.775 Y15.375
X-85.921 Y16.55
X-85.847 Y16.646
X-85.787 Y16.718
X-85.679 Y16.834
X-85.583 Y16.926
G3 X-85.717 Y17.578 I-0.284 J0.281 F800
G1 X-85.789 Y17.607 Z7.008
X-85.858 Y17.635 Z7.03
X-85.922 Y17.661 Z7.067
X-85.979 Y17.684 Z7.117
X-86.025 Y17.703 Z7.178
X-86.059 Y17.717 Z7.247
X-86.08 Y17.726 Z7.322
X-86.087 Y17.729 Z7.4
G0 Z18
X-40.016 Y20.564
Z7.8
G1 Z7.4 F600
X-40.01 Y20.559 Z7.322
X-39.994 Y20.543 Z7.247
X-39.967 Y20.518 Z7.178
X-39.931 Y20.484 Z7.117
X-39.886 Y20.442 Z7.067
X-39.836 Y20.395 Z7.03
X-39.782 Y20.343 Z7.008
X-39.725 Y20.29 Z7
G3 X-39.038 Y19.909 I1.086 J1.151
G1 X-38.938 Y19.887 F1000
X-38.77 Y19.846
X-38.602 Y19.799
X-38.434 Y19.731
X-38.266 Y19.65
X-38.098 Y19.55
X-37.904 Y19.405
X-37.593 Y19.166
X-37.425 Y19.035
X-37.257 Y18.901
X-37.089 Y18.747
X-37.076 Y18.734
X-36.932 Y18.566
X-36.819 Y18.435
X-36.542 Y18.187
X-36.165 Y17.93
X-35.642 Y17.666
X-34.944 Y17.42
X-34.222 Y17.26
X-33.489 Y17.157
X-32.841 Y17.1
X-32.818 Y17.099
G3 X-32.432 Y17.513 Z7.2 I-0.014 J0.4 F800
G1 X-32.439 Y17.575
X-32.456 Y17.636
G3 X-32.702 Y17.877 I-0.376 J-0.137 F1000
G1 X-36.476 Y19.176
G3 X-36.726 Y19.179 I-0.13 J-0.378
G1 X-36.784 Y19.156 F600
X-36.839 Y19.123
G3 X-36.932 Y18.566 Z7 I0.232 J-0.326
G1 X-36.921 Y18.551 F1000
X-36.813 Y18.398
X-36.716 Y18.23
X-36.626 Y18.062
X-36.248 Y17.322
X-36.216 Y17.272
X-36.171 Y17.222
X-36.126 Y17.182
X-36.08 Y17.152
X-36.038 Y17.131
X-35.996 Y17.116
X-35.954 Y17.106
X-35.912 Y17.1
X-35.744 Y17.099
X-10.86 Y17.1
X-10.692 Y17.089
X-9.952 Y17.071
X-9.213 Y17.036
X-8.473 Y17.015
X-7.733 Y17.002
X-6.993 Y16.993
X-6.253 Y16.988
X-5.513 Y16.985
X-4.773 Y16.983
X-4.681 Y16.977
X-4.507 Y16.915
X-4.206 Y16.7
X-3.738 Y16.126
X-3.465 Y15.438
X-3.299 Y14.717
X-3.195 Y13.984
X-3.131 Y13.247
X-3.09 Y12.508
X-3.064 Y11.769
X-3.048 Y11.029
X-3.038 Y10.289
X-3.031 Y9.549
X-3.027 Y8.809
X-3.023 Y7.329
X-3.021 Y4.738
X-3.067 Y4.559
X-3.265 Y4.247
X-3.824 Y3.762
X-4.508 Y3.48
X-5.228 Y3.308
X-5.961 Y3.201
X-6.698 Y3.134
X-7.436 Y3.092
X-8.176 Y3.066
X-8.916 Y3.049
X-9.542 Y3.04
X-9.573 Y3.037
X-10.263 Y2.946
X-10.356 Y2.936
X-10.692 Y2.911
X-10.86 Y2.9
X-35.744
X-35.912 Y2.899
X-35.954 Y2.893
X-35.996 Y2.883
X-36.038 Y2.868
X-36.08 Y2.847
X-36.125 Y2.817
X-36.17 Y2.778
X-36.216 Y2.728
X-36.248 Y2.677
X-36.626 Y1.938
X-36.716 Y1.77
X-36.813 Y1.602
X-36.921 Y1.448
X-36.931 Y1.434
X-37.076 Y1.266
X-37.089 Y1.253
X-37.257 Y1.098
X-37.425 Y0.964
X-37.762 Y0.704
X-37.93 Y0.575
X-38.098 Y0.45
G3 X-38.04 Y-0.213 I0.25 J-0.312 F800
G1 X-37.971 Y-0.25 Z7.008
X-37.906 Y-0.287 Z7.03
X-37.845 Y-0.32 Z7.067
X-37.792 Y-0.349 Z7.117
X-37.748 Y-0.373 Z7.178
X-37.716 Y-0.391 Z7.247
X-37.696 Y-0.402 Z7.322
X-37.689 Y-0.405 Z7.4
G0 Z18
X-11.755 Y17.595
Z7.8
G1 Z7.4 F600
X-11.749 Y17.59 Z7.322
X-11.73 Y17.577 Z7.247
X-11.7 Y17.556 Z7.178
X-11.659 Y17.527 Z7.117
X-11.609 Y17.493 Z7.067
X-11.553 Y17.453 Z7.03
X-11.491 Y17.41 Z7.008
X-11.427 Y17.365 Z7
G3 X-10.692 Y17.089 I0.907 J1.297
G1 X-10.356 Y17.064 F1000
X-10.264 Y17.054
X-9.347 Y16.933
X-9.179 Y16.909
X-9.011 Y16.876
X-8.843 Y16.836
X-8.675 Y16.777
X-8.002 Y16.5
X-7.666 Y16.361
X-7.498 Y16.286
X-7.134 Y16.107
X-7.106 Y16.087
X-6.822 Y15.878
X-6.657 Y15.755
X-6.153 Y15.368
X-5.984 Y15.237
X-5.816 Y15.098
X-5.753 Y15.039
X-5.6 Y14.871
X-5.48 Y14.725
X-4.976 Y14.067
X-4.695 Y13.695
X-4.639 Y13.609
X-4.59 Y13.527
X-4.505 Y13.359
X-4.471 Y13.282
X-3.967 Y12.064
X-3.949 Y12.015
X-3.897 Y11.847
X-3.859 Y11.68
X-3.831 Y11.512
X-3.699 Y10.504
X-3.652 Y10
X-3.699 Y9.496
X-3.831 Y8.488
X-3.859 Y8.32
X-3.897 Y8.153
X-3.949 Y7.985
X-3.967 Y7.936
X-4.471 Y6.717
X-4.505 Y6.641
X-4.59 Y6.473
X-4.639 Y6.391
X-4.695 Y6.305
X-4.976 Y5.933
X-5.48 Y5.275
X-5.6 Y5.129
X-5.753 Y4.961
X-5.816 Y4.902
X-5.984 Y4.763
X-6.161 Y4.625
X-6.657 Y4.245
X-6.825 Y4.119
X-7.12 Y3.903
X-7.134 Y3.893
X-7.498 Y3.714
X-7.666 Y3.639
X-8.338 Y3.361
X-8.675 Y3.223
X-8.843 Y3.164
X-9.011 Y3.124
X-9.179 Y3.091
X-9.347 Y3.067
X-9.573 Y3.037
G3 X-9.869 Y2.813 I0.066 J-0.395 F800
G1 X-9.882 Y2.754 Z7.005
X-9.895 Y2.697 Z7.019
X-9.907 Y2.642 Z7.041
X-9.895 Y2.59 Z7.073
X-9.885 Y2.543 Z7.114
X-9.876 Y2.503 Z7.161
X-9.868 Y2.47 Z7.214
X-9.856 Y2.448 Z7.274
X-9.849 Y2.435 Z7.336
X-9.846 Y2.43 Z7.4
G0 Z18
X-79.172 Y10.44
Z7.3
G3 X-78.542 Y9.022 Z7.238 I0.922 J-0.439 F600
X-77.24 Y9.862 Z7.177 I0.292 J0.977
X-78.27 Y11.018 Z7.115 I-1.01 J0.137
X-79.252 Y9.823 Z7.054 I0.021 J-1.018
X-77.92 Y9.038 Z6.992 I1.001 J0.177
X-77.352 Y10.473 Z6.931 I-0.329 J0.961
X-78.855 Y10.813 Z6.869 I-0.897 J-0.473
X-78.959 Y9.276 Z6.808 I0.606 J-0.813
X-77.426 Y9.411 Z6.746 I0.709 J0.723
X-77.796 Y10.903 Z6.685 I-0.823 J0.588
X-79.211 Y10.308 Z6.623 I-0.453 J-0.903
X-78.406 Y9.003 Z6.562 I0.961 J-0.308
X-77.242 Y9.999 Z6.5 I0.156 J0.996
X-79.258 Y9.999 I-1.008 J0
X-77.242 Y9.999 I1.008 J0
G1 X-77.201 Y10.738 F1000
X-77.168 Y10.824
X-77.134 Y10.971
X-77.128 Y11.12
X-77.146 Y11.269
X-77.186 Y11.414
X-77.248 Y11.561
X-77.335 Y11.71
X-77.448 Y11.855
X-77.587 Y11.993
X-77.753 Y12.118
X-77.944 Y12.227
X-78.158 Y12.315
X-78.392 Y12.377
X-78.644 Y12.409
X-78.909 Y12.408
X-79.182 Y12.372
X-79.458 Y12.297
X-79.731 Y12.183
X-79.994 Y12.031
X-80.242 Y11.84
X-80.468 Y11.613
X-80.668 Y11.353
X-80.835 Y11.063
X-80.966 Y10.748
X-81.056 Y10.413
X-81.102 Y10.065
X-81.103 Y9.709
X-81.057 Y9.352
X-80.963 Y9.001
X-80.824 Y8.662
X-80.641 Y8.342
X-80.416 Y8.047
X-80.153 Y7.782
X-79.856 Y7.552
X-79.531 Y7.362
X-79.183 Y7.216
X-78.817 Y7.116
X-78.441 Y7.064
X-78.06 Y7.062
X-77.681 Y7.109
X-77.311 Y7.205
X-76.957 Y7.349
X-76.624 Y7.538
X-76.317 Y7.769
X-76.044 Y8.038
X-75.776 Y8.38
X-75.432 Y8.962
X-75.199 Y9.509
X-75.056 Y10.025
X-74.985 Y10.522
X-74.979 Y11.008
X-75.036 Y11.482
X-75.154 Y11.941
X-75.33 Y12.382
X-75.509 Y12.702
X-75.523 Y12.726
X-75.54 Y12.748
X-75.558 Y12.77
X-75.632 Y12.855
X-75.696 Y12.919
X-75.759 Y12.965
X-76.432 Y13.42
X-76.516 Y13.47
X-76.6 Y13.502
X-77.273 Y13.739
X-77.441 Y13.794
X-77.609 Y13.811
X-78.365 Y13.875
X-78.408 Y13.876
X-78.45 Y13.873
X-78.786 Y13.816
X-79.29 Y13.729
X-79.358 Y13.717
X-79.426 Y13.695
X-80.169 Y13.359
X-80.299 Y13.293
X-80.429 Y13.191
X-80.972 Y12.753
X-81.047 Y12.687
X-81.14 Y12.57
X-81.55 Y12.015
X-81.644 Y11.878
X-81.658 Y11.847
X-81.98 Y11.046
X-81.994 Y11.008
X-82.015 Y10.924
X-82.111 Y10.168
X-82.13 Y10
X-82.111 Y9.832
X-82.015 Y9.076
X-81.994 Y8.992
X-81.98 Y8.954
X-81.658 Y8.153
X-81.644 Y8.122
X-81.55 Y7.985
X-81.14 Y7.43
X-81.047 Y7.313
X-80.972 Y7.247
X-80.429 Y6.809
X-80.299 Y6.707
X-80.169 Y6.641
X-79.426 Y6.305
X-79.358 Y6.283
X-79.29 Y6.271
X-78.511 Y6.137
X-78.45 Y6.127
X-78.408 Y6.124
X-78.365 Y6.125
X-77.609 Y6.189
X-77.441 Y6.206
X-77.273 Y6.261
X-76.6 Y6.498
X-76.516 Y6.53
X-76.432 Y6.58
X-75.759 Y7.035
X-75.696 Y7.081
X-75.632 Y7.145
X-75.087 Y7.764
X-75.044 Y7.817
X-74.953 Y7.985
X-74.614 Y8.656
X-74.583 Y8.717
X-74.335 Y9.16
X-74.246 Y9.289
X-74.216 Y9.328
X-74.078 Y9.48
X-74.062 Y9.496
X-73.91 Y9.632
X-73.872 Y9.664
X-73.792 Y9.736
X-73.764 Y9.773
X-73.742 Y9.809
X-73.73 Y9.832
X-73.714 Y9.874
X-73.702 Y9.916
X-73.695 Y9.958
X-73.693 Y10
X-73.695 Y10.042
X-73.702 Y10.084
X-73.714 Y10.126
X-73.73 Y10.168
X-73.742 Y10.191
X-73.764 Y10.227
X-73.792 Y10.264
X-73.833 Y10.304
X-73.91 Y10.364
X-74.062 Y10.504
X-74.078 Y10.52
X-74.216 Y10.672
X-74.246 Y10.711
X-74.335 Y10.84
X-74.583 Y11.283
X-74.614 Y11.344
X-74.953 Y12.015
X-75.044 Y12.183
X-75.087 Y12.236
X-75.558 Y12.77
G3 X-75.908 Y12.891 I-0.291 J-0.275 F800
G1 X-75.964 Y12.869 Z6.505
X-76.02 Y12.848 Z6.519
X-76.072 Y12.827 Z6.542
X-76.109 Y12.788 Z6.574
X-76.142 Y12.753 Z6.615
X-76.17 Y12.723 Z6.663
X-76.193 Y12.699 Z6.717
X-76.204 Y12.677 Z6.775
X-76.211 Y12.664 Z6.837
X-76.213 Y12.659 Z6.9
G0 Z18
X-92.392 Y-4.598
Z7.3
G1 Z6.9 F600
X-92.391 Y-4.591 Z6.822
X-92.385 Y-4.569 Z6.747
X-92.376 Y-4.533 Z6.678
X-92.363 Y-4.485 Z6.617
X-92.348 Y-4.426 Z6.567
X-92.331 Y-4.359 Z6.53
X-92.313 Y-4.287 Z6.508
X-92.293 Y-4.211 Z6.5
G3 X-91.98 Y-2.033 I-9.893 J2.534
G1 Y-1.941 F1000
X-91.795 Y-1.224
X-91.677 Y-0.494
X-91.603 Y0.243
X-91.556 Y0.981
X-91.527 Y1.721
X-91.509 Y2.46
X-91.498 Y3.2
X-91.491 Y3.94
X-91.487 Y4.68
X-91.484 Y5.421
X-91.482 Y6.901
X-91.48 Y11.341
Y18.094
X-91.455 Y18.183
X-91.406 Y18.261
X-91.143 Y18.522
X-90.518 Y18.918
X-89.812 Y19.142
X-89.084 Y19.274
X-88.348 Y19.354
X-87.61 Y19.402
X-86.871 Y19.432
X-86.131 Y19.451
X-85.391 Y19.462
X-84.651 Y19.469
X-83.911 Y19.473
X-83.171 Y19.476
X-81.684 Y19.478
X-81.642 Y19.481
X-81.601 Y19.487
X-81.561 Y19.498
X-80.635 Y19.798
X-80.467 Y19.848
X-80.299 Y19.887
X-80.131 Y19.912
X-79.963 Y19.932
X-78.954 Y20.038
X-78.45 Y20.088
X-78.281 Y20.097
X-77.777 Y20.1
X-40.452
X-39.947 Y20.088
X-39.852 Y20.077
X-39.443 Y19.998
X-39.275 Y19.962
X-39.038 Y19.909
X-38.308 Y19.784
X-37.577 Y19.67
X-36.84 Y19.598
X-36.102 Y19.554
X-35.362 Y19.526
X-34.622 Y19.508
X-33.882 Y19.497
X-33.142 Y19.491
X-32.402 Y19.487
X-30.922 Y19.483
X-27.962 Y19.48
X-1.875
X-1.786 Y19.455
X-1.708 Y19.406
X-1.455 Y19.135
X-1.07 Y18.504
X-0.851 Y17.797
X-0.722 Y17.068
X-0.644 Y16.332
X-0.596 Y15.594
X-0.567 Y14.854
X-0.549 Y14.114
X-0.538 Y13.374
X-0.531 Y12.634
X-0.527 Y11.894
X-0.523 Y10.414
X-0.52 Y7.454
Y6.714
Y1.904
X-0.545 Y1.815
X-0.594 Y1.736
X-0.858 Y1.476
X-1.484 Y1.081
X-2.189 Y0.858
X-2.917 Y0.726
X-3.653 Y0.646
X-4.391 Y0.597
X-5.131 Y0.568
X-5.871 Y0.549
X-6.611 Y0.538
X-7.351 Y0.531
X-8.091 Y0.527
X-8.831 Y0.524
X-10.311 Y0.522
X-14.751 Y0.52
X-37.886
X-37.961 Y0.512
X-38.033 Y0.488
X-38.098 Y0.45
X-38.266 Y0.35
X-38.434 Y0.269
X-38.602 Y0.201
X-38.77 Y0.154
X-38.938 Y0.113
X-39.275 Y0.038
X-39.443 Y0.002
X-39.852 Y-0.077
X-39.947 Y-0.088
X-40.452 Y-0.1
X-58.106
X-58.274 Y-0.099
X-58.442 Y-0.088
X-58.543 Y-0.077
X-58.61 Y-0.065
X-58.778 Y-0.03
X-58.946 Y0.021
X-59.507 Y0.193
X-60.237 Y0.315
X-60.757 Y0.37
X-60.855 Y0.368
X-60.95 Y0.342
X-61.035 Y0.294
G3 X-61.102 Y-0.267 Z6.7 I0.248 J-0.314 F800
G1 X-61.059 Y-0.313
X-61.009 Y-0.353
X-60.939 Y-0.39 F1000
X-60.863 Y-0.412
X-59.188 Y-0.735
G3 X-58.818 Y-0.613 I0.076 J0.393
G1 X-58.779 Y-0.564 F600
X-58.748 Y-0.508
G3 X-58.946 Y0.021 Z6.5 I-0.364 J0.166
G1 X-59.114 Y0.091 F1000
X-59.282 Y0.177
X-59.451 Y0.28
X-59.635 Y0.427
X-59.787 Y0.581
X-59.955 Y0.766
X-59.997 Y0.802
X-60.039 Y0.832
X-60.081 Y0.856
X-60.123 Y0.873
X-60.165 Y0.885
X-60.207 Y0.892
X-60.249 Y0.895
X-60.291 Y0.893
X-60.333 Y0.887
X-60.375 Y0.876
X-60.417 Y0.86
X-60.459 Y0.838
X-60.505 Y0.806
X-60.551 Y0.763
X-60.628 Y0.667
X-60.691 Y0.595
X-60.796 Y0.487
X-60.964 Y0.347
X-61.084 Y0.259
X-61.132 Y0.229
X-61.3 Y0.13
X-61.468 Y0.054
X-61.636 Y-0.004
X-61.804 Y-0.049
X-61.951 Y-0.077
X-61.973 Y-0.081
X-62.141 Y-0.094
X-62.309 Y-0.099
X-66.176 Y-0.1
X-77.777
X-78.281 Y-0.097
X-78.45 Y-0.088
X-78.954 Y-0.038
X-79.963 Y0.068
X-80.15 Y0.091
X-80.299 Y0.113
X-80.467 Y0.152
X-81.188 Y0.317
X-81.924 Y0.394
X-82.663 Y0.442
X-83.402 Y0.471
X-84.142 Y0.49
X-84.882 Y0.501
X-85.622 Y0.509
X-86.362 Y0.513
X-87.657 Y0.517
X-87.75
X-87.839 Y0.543
X-87.917 Y0.592
X-88.165 Y0.866
X-88.511 Y1.521
X-88.703 Y2.235
X-88.815 Y2.967
X-88.881 Y3.704
X-88.921 Y4.443
X-88.944 Y5.183
X-88.959 Y5.922
X-88.967 Y6.662
X-88.972 Y7.402
X-88.975 Y8.142
X-88.978 Y9.623
X-88.98 Y13.323
Y15.265
X-88.931 Y15.444
X-88.732 Y15.756
X-88.172 Y16.239
X-87.488 Y16.521
X-86.768 Y16.693
X-86.035 Y16.799
X-85.822 Y16.819
X-85.735 Y16.836
X-85.654 Y16.873
X-85.583 Y16.926
X-85.511 Y16.994
X-84.324 Y18.062
X-84.166 Y18.171
X-83.811 Y18.398
X-83.662 Y18.487
X-82.653 Y19.07
X-82.485 Y19.162
X-82.329 Y19.237
X-82.148 Y19.307
X-81.561 Y19.498
G3 X-81.403 Y20.144 I-0.137 J0.376 F800
G1 X-81.455 Y20.202 Z6.508
X-81.506 Y20.257 Z6.53
X-81.553 Y20.308 Z6.567
X-81.594 Y20.353 Z6.617
X-81.627 Y20.389 Z6.678
X-81.652 Y20.417 Z6.747
X-81.668 Y20.433 Z6.822
X-81.673 Y20.439 Z6.9
G0 Z18
X-79.539 Y-0.573
Z7.3
G1 Z6.9 F600
X-79.544 Y-0.567 Z6.822
X-79.56 Y-0.55 Z6.747
X-79.585 Y-0.523 Z6.678
X-79.618 Y-0.486 Z6.617
X-79.659 Y-0.442 Z6.567
X-79.706 Y-0.391 Z6.53
X-79.757 Y-0.335 Z6.508
X-79.809 Y-0.278 Z6.5
G3 X-80.467 Y0.152 I-1.167 J-1.069
G1 X-80.635 Y0.202 F1000
X-81.644 Y0.529
X-82.148 Y0.693
X-82.329 Y0.763
X-82.485 Y0.838
X-82.653 Y0.93
X-83.662 Y1.513
X-83.811 Y1.602
X-84.166 Y1.829
X-84.324 Y1.938
X-84.523 Y2.075
X-84.852 Y2.244
X-85.169 Y2.435
X-85.674 Y2.976
X-85.819 Y3.3
X-85.833 Y3.328
X-85.849 Y3.355
X-85.867 Y3.38
G3 X-86.43 Y3.434 Z6.7 I-0.308 J-0.255 F800
G1 X-86.476 Y3.39
X-86.513 Y3.339
G3 X-86.449 Y2.833 I0.338 J-0.214 F1000
G1 X-84.87 Y1.353
G3 X-84.402 Y1.295 I0.274 J0.292
G1 X-84.349 Y1.33 F600
X-84.303 Y1.373
G3 X-84.324 Y1.938 Z6.5 I-0.293 J0.272
G1 X-85.511 Y3.006 F1000
X-85.655 Y3.143
X-85.679 Y3.166
X-85.787 Y3.282
X-85.847 Y3.354
X-85.921 Y3.45
X-86.775 Y4.625
X-86.892 Y4.793
X-86.999 Y4.961
X-87.087 Y5.129
X-87.164 Y5.297
X-87.612 Y6.305
X-87.759 Y6.641
X-87.828 Y6.809
X-87.96 Y7.313
X-88.174 Y8.32
X-88.208 Y8.488
X-88.272 Y8.824
X-88.293 Y8.992
X-88.303 Y9.328
X-88.306 Y9.496
Y10.504
X-88.303 Y10.672
X-88.293 Y11.008
X-88.272 Y11.176
X-88.201 Y11.546
X-88.174 Y11.68
X-87.96 Y12.687
X-87.828 Y13.191
X-87.759 Y13.359
X-87.612 Y13.695
X-87.164 Y14.703
X-87.087 Y14.871
X-86.999 Y15.039
X-86.892 Y15.207
X-86.775 Y15.375
X-85.921 Y16.55
X-85.847 Y16.646
X-85.787 Y16.718
X-85.679 Y16.834
X-85.583 Y16.926
G3 X-85.717 Y17.578 I-0.284 J0.281 F800
G1 X-85.789 Y17.607 Z6.508
X-85.858 Y17.635 Z6.53
X-85.922 Y17.661 Z6.567
X-85.979 Y17.684 Z6.617
X-86.025 Y17.703 Z6.678
X-86.059 Y17.717 Z6.747
X-86.08 Y17.726 Z6.822
X-86.087 Y17.729 Z6.9
G0 Z18
X-40.016 Y20.564
Z7.3
G1 Z6.9 F600
X-40.01 Y20.559 Z6.822
X-39.994 Y20.543 Z6.747
X-39.967 Y20.518 Z6.678
X-39.931 Y20.484 Z6.617
X-39.886 Y20.442 Z6.567
X-39.836 Y20.395 Z6.53
X-39.782 Y20.343 Z6.508
X-39.725 Y20.29 Z6.5
G3 X-39.038 Y19.909 I1.086 J1.151
G1 X-38.938 Y19.887 F1000
X-38.77 Y19.846
X-38.602 Y19.799
X-38.434 Y19.731
X-38.266 Y19.65
X-38.098 Y19.55
X-37.904 Y19.405
X-37.593 Y19.166
X-37.425 Y19.035
X-37.257 Y18.901
X-37.089 Y18.747
X-37.076 Y18.734
X-36.932 Y18.566
X-36.819 Y18.435
X-36.542 Y18.187
X-36.165 Y17.93
X-35.642 Y17.666
X-34.944 Y17.42
X-34.222 Y17.26
X-33.489 Y17.157
X-32.841 Y17.1
X-32.818 Y17.099
G3 X-32.432 Y17.513 Z6.7 I-0.014 J0.4 F800
G1 X-32.439 Y17.575
X-32.456 Y17.636
G3 X-32.702 Y17.877 I-0.376 J-0.137 F1000
G1 X-36.476 Y19.176
G3 X-36.726 Y19.179 I-0.13 J-0.378
G1 X-36.784 Y19.156 F600
X-36.839 Y19.123
G3 X-36.932 Y18.566 Z6.5 I0.232 J-0.326
G1 X-36.921 Y18.551 F1000
X-36.813 Y18.398
X-36.716 Y18.23
X-36.626 Y18.062
X-36.248 Y17.322
X-36.216 Y17.272
X-36.171 Y17.222
X-36.126 Y17.182
X-36.08 Y17.152
X-36.038 Y17.131
X-35.996 Y17.116
X-35.954 Y17.106
X-35.912 Y17.1
X-35.744 Y17.099
X-10.86 Y17.1
X-10.692 Y17.089
X-9.952 Y17.071
X-9.213 Y17.036
X-8.473 Y17.015
X-7.733 Y17.002
X-6.993 Y16.993
X-6.253 Y16.988
X-5.513 Y16.985
X-4.773 Y16.983
X-4.681 Y16.977
X-4.507 Y16.915
X-4.206 Y16.7
X-3.738 Y16.126
X-3.465 Y15.438
X-3.299 Y14.717
X-3.195 Y13.984
X-3.131 Y13.247
X-3.09 Y12.508
X-3.064 Y11.769
X-3.048 Y11.029
X-3.038 Y10.289
X-3.031 Y9.549
X-3.027 Y8.809
X-3.023 Y7.329
X-3.021 Y4.738
X-3.067 Y4.559
X-3.265 Y4.247
X-3.824 Y3.762
X-4.508 Y3.48
X-5.228 Y3.308
X-5.961 Y3.201
X-6.698 Y3.134
X-7.436 Y3.092
X-8.176 Y3.066
X-8.916 Y3.049
X-9.542 Y3.04
X-9.573 Y3.037
X-10.263 Y2.946
X-10.356 Y2.936
X-10.692 Y2.911
X-10.86 Y2.9
X-35.744
X-35.912 Y2.899
X-35.954 Y2.893
X-35.996 Y2.883
X-36.038 Y2.868
X-36.08 Y2.847
X-36.125 Y2.817
X-36.17 Y2.778
X-36.216 Y2.728
X-36.248 Y2.677
X-36.626 Y1.938
X-36.716 Y1.77
X-36.813 Y1.602
X-36.921 Y1.448
X-36.931 Y1.434
X-37.076 Y1.266
X-37.089 Y1.253
X-37.257 Y1.098
X-37.425 Y0.964
X-37.762 Y0.704
X-37.93 Y0.575
X-38.098 Y0.45
G3 X-38.04 Y-0.213 I0.25 J-0.312 F800
G1 X-37.971 Y-0.25 Z6.508
X-37.906 Y-0.287 Z6.53
X-37.845 Y-0.32 Z6.567
X-37.792 Y-0.349 Z6.617
X-37.748 Y-0.373 Z6.678
X-37.716 Y-0.391 Z6.747
X-37.696 Y-0.402 Z6.822
X-37.689 Y-0.405 Z6.9
G0 Z18
X-11.755 Y17.595
Z7.3
G1 Z6.9 F600
X-11.749 Y17.59 Z6.822
X-11.73 Y17.577 Z6.747
X-11.7 Y17.556 Z6.678
X-11.659 Y17.527 Z6.617
X-11.609 Y17.493 Z6.567
X-11.553 Y17.453 Z6.53
X-11.491 Y17.41 Z6.508
X-11.427 Y17.365 Z6.5
G3 X-10.692 Y17.089 I0.907 J1.297
G1 X-10.356 Y17.064 F1000
X-10.264 Y17.054
X-9.347 Y16.933
X-9.179 Y16.909
X-9.011 Y16.876
X-8.843 Y16.836
X-8.675 Y16.777
X-8.002 Y16.5
X-7.666 Y16.361
X-7.498 Y16.286
X-7.134 Y16.107
X-7.106 Y16.087
X-6.822 Y15.878
X-6.657 Y15.755
X-6.153 Y15.368
X-5.984 Y15.237
X-5.816 Y15.098
X-5.753 Y15.039
X-5.6 Y14.871
X-5.48 Y14.725
X-4.976 Y14.067
X-4.695 Y13.695
X-4.639 Y13.609
X-4.59 Y13.527
X-4.505 Y13.359
X-4.471 Y13.282
X-3.967 Y12.064
X-3.949 Y12.015
X-3.897 Y11.847
X-3.859 Y11.68
X-3.831 Y11.512
X-3.699 Y10.504
X-3.652 Y10
X-3.699 Y9.496
X-3.831 Y8.488
X-3.859 Y8.32
X-3.897 Y8.153
X-3.949 Y7.985
X-3.967 Y7.936
X-4.471 Y6.717
X-4.505 Y6.641
X-4.59 Y6.473
X-4.639 Y6.391
X-4.695 Y6.305
X-4.976 Y5.933
X-5.48 Y5.275
X-5.6 Y5.129
X-5.753 Y4.961
X-5.816 Y4.902
X-5.984 Y4.763
X-6.161 Y4.625
X-6.657 Y4.245
X-6.825 Y4.119
X-7.12 Y3.903
X-7.134 Y3.893
X-7.498 Y3.714
X-7.666 Y3.639
X-8.338 Y3.361
X-8.675 Y3.223
X-8.843 Y3.164
X-9.011 Y3.124
X-9.179 Y3.091
X-9.347 Y3.067
X-9.573 Y3.037
G3 X-9.869 Y2.813 I0.066 J-0.395 F800
G1 X-9.882 Y2.754 Z6.505
X-9.895 Y2.697 Z6.519
X-9.907 Y2.642 Z6.541
X-9.895 Y2.59 Z6.573
X-9.885 Y2.543 Z6.614
X-9.876 Y2.503 Z6.661
X-9.868 Y2.47 Z6.714
X-9.856 Y2.448 Z6.774
X-9.849 Y2.435 Z6.836
X-9.846 Y2.43 Z6.9
G0 Z18
X-79.172 Y10.44
Z6.8
G3 X-78.542 Y9.022 Z6.738 I0.922 J-0.439 F600
X-77.24 Y9.862 Z6.677 I0.292 J0.977
X-78.27 Y11.018 Z6.615 I-1.01 J0.137
X-79.252 Y9.823 Z6.554 I0.021 J-1.018
X-77.92 Y9.038 Z6.492 I1.001 J0.177
X-77.352 Y10.473 Z6.431 I-0.329 J0.961
X-78.855 Y10.813 Z6.369 I-0.897 J-0.473
X-78.959 Y9.276 Z6.308 I0.606 J-0.813
X-77.426 Y9.411 Z6.246 I0.709 J0.723
X-77.796 Y10.903 Z6.185 I-0.823 J0.588
X-79.211 Y10.308 Z6.123 I-0.453 J-0.903
X-78.406 Y9.003 Z6.062 I0.961 J-0.308
X-77.242 Y9.999 Z6 I0.156 J0.996
X-79.258 Y9.999 I-1.008 J0
X-77.242 Y9.999 I1.008 J0
G1 X-77.201 Y10.738 F1000
X-77.168 Y10.824
X-77.134 Y10.971
X-77.128 Y11.12
X-77.146 Y11.269
X-77.186 Y11.414
X-77.248 Y11.561
X-77.335 Y11.71
X-77.448 Y11.855
X-77.587 Y11.993
X-77.753 Y12.118
X-77.944 Y12.227
X-78.158 Y12.315
X-78.392 Y12.377
X-78.644 Y12.409
X-78.909 Y12.408
X-79.182 Y12.372
X-79.458 Y12.297
X-79.731 Y12.183
X-79.994 Y12.031
X-80.242 Y11.84
X-80.468 Y11.613
X-80.668 Y11.353
X-80.835 Y11.063
X-80.966 Y10.748
X-81.056 Y10.413
X-81.102 Y10.065
X-81.103 Y9.709
X-81.057 Y9.352
X-80.963 Y9.001
X-80.824 Y8.662
X-80.641 Y8.342
X-80.416 Y8.047
X-80.153 Y7.782
X-79.856 Y7.552
X-79.531 Y7.362
X-79.183 Y7.216
X-78.817 Y7.116
X-78.441 Y7.064
X-78.06 Y7.062
X-77.681 Y7.109
X-77.311 Y7.205
X-76.957 Y7.349
X-76.624 Y7.538
X-76.317 Y7.769
X-76.044 Y8.038
X-75.776 Y8.38
X-75.432 Y8.962
X-75.199 Y9.509
X-75.056 Y10.025
X-74.985 Y10.522
X-74.979 Y11.008
X-75.036 Y11.482
X-75.154 Y11.941
X-75.33 Y12.382
X-75.509 Y12.702
X-75.523 Y12.726
X-75.54 Y12.748
X-75.558 Y12.77
X-75.632 Y12.855
X-75.696 Y12.919
X-75.759 Y12.965
X-76.432 Y13.42
X-76.516 Y13.47
X-76.6 Y13.502
X-77.273 Y13.739
X-77.441 Y13.794
X-77.609 Y13.811
X-78.365 Y13.875
X-78.408 Y13.876
X-78.45 Y13.873
X-78.786 Y13.816
X-79.29 Y13.729
X-79.358 Y13.717
X-79.426 Y13.695
X-80.169 Y13.359
X-80.299 Y13.293
X-80.429 Y13.191
X-80.972 Y12.753
X-81.047 Y12.687
X-81.14 Y12.57
X-81.55 Y12.015
X-81.644 Y11.878
X-81.658 Y11.847
X-81.98 Y11.046
X-81.994 Y11.008
X-82.015 Y10.924
X-82.111 Y10.168
X-82.13 Y10
X-82.111 Y9.832
X-82.015 Y9.076
X-81.994 Y8.992
X-81.98 Y8.954
X-81.658 Y8.153
X-81.644 Y8.122
X-81.55 Y7.985
X-81.14 Y7.43
X-81.047 Y7.313
X-80.972 Y7.247
X-80.429 Y6.809
X-80.299 Y6.707
X-80.169 Y6.641
X-79.426 Y6.305
X-79.358 Y6.283
X-79.29 Y6.271
X-78.511 Y6.137
X-78.45 Y6.127
X-78.408 Y6.124
X-78.365 Y6.125
X-77.609 Y6.189
X-77.441 Y6.206
X-77.273 Y6.261
X-76.6 Y6.498
X-76.516 Y6.53
X-76.432 Y6.58
X-75.759 Y7.035
X-75.696 Y7.081
X-75.632 Y7.145
X-75.087 Y7.764
X-75.044 Y7.817
X-74.953 Y7.985
X-74.614 Y8.656
X-74.583 Y8.717
X-74.335 Y9.16
X-74.246 Y9.289
X-74.216 Y9.328
X-74.078 Y9.48
X-74.062 Y9.496
X-73.91 Y9.632
X-73.872 Y9.664
X-73.792 Y9.736
X-73.764 Y9.773
X-73.742 Y9.809
X-73.73 Y9.832
X-73.714 Y9.874
X-73.702 Y9.916
X-73.695 Y9.958
X-73.693 Y10
X-73.695 Y10.042
X-73.702 Y10.084
X-73.714 Y10.126
X-73.73 Y10.168
X-73.742 Y10.191
X-73.764 Y10.227
X-73.792 Y10.264
X-73.833 Y10.304
X-73.91 Y10.364
X-74.062 Y10.504
X-74.078 Y10.52
X-74.216 Y10.672
X-74.246 Y10.711
X-74.335 Y10.84
X-74.583 Y11.283
X-74.614 Y11.344
X-74.953 Y12.015
X-75.044 Y12.183
X-75.087 Y12.236
X-75.558 Y12.77
G3 X-75.908 Y12.891 I-0.291 J-0.275 F800
G1 X-75.964 Y12.869 Z6.005
X-76.02 Y12.848 Z6.019
X-76.072 Y12.827 Z6.042
X-76.109 Y12.788 Z6.074
X-76.142 Y12.753 Z6.115
X-76.17 Y12.723 Z6.163
X-76.193 Y12.699 Z6.217
X-76.204 Y12.677 Z6.275
X-76.211 Y12.664 Z6.337
X-76.213 Y12.659 Z6.4
G0 Z18
X-92.392 Y-4.598
Z6.8
G1 Z6.4 F600
X-92.391 Y-4.591 Z6.322
X-92.385 Y-4.569 Z6.247
X-92.376 Y-4.533 Z6.178
X-92.363 Y-4.485 Z6.117
X-92.348 Y-4.426 Z6.067
X-92.331 Y-4.359 Z6.03
X-92.313 Y-4.287 Z6.008
X-92.293 Y-4.211 Z6
G3 X-91.98 Y-2.033 I-9.893 J2.534
G1 Y-1.941 F1000
X-91.795 Y-1.224
X-91.677 Y-0.494
X-91.603 Y0.243
X-91.556 Y0.981
X-91.527 Y1.721
X-91.509 Y2.46
X-91.498 Y3.2
X-91.491 Y3.94
X-91.487 Y4.68
X-91.484 Y5.421
X-91.482 Y6.901
X-91.48 Y11.341
Y18.094
X-91.455 Y18.183
X-91.406 Y18.261
X-91.143 Y18.522
X-90.518 Y18.918
X-89.812 Y19.142
X-89.084 Y19.274
X-88.348 Y19.354
X-87.61 Y19.402
X-86.871 Y19.432
X-86.131 Y19.451
X-85.391 Y19.462
X-84.651 Y19.469
X-83.911 Y19.473
X-83.171 Y19.476
X-81.684 Y19.478
X-81.642 Y19.481
X-81.601 Y19.487
X-81.561 Y19.498
X-80.635 Y19.798
X-80.467 Y19.848
X-80.299 Y19.887
X-80.131 Y19.912
X-79.963 Y19.932
X-78.954 Y20.038
X-78.45 Y20.088
X-78.281 Y20.097
X-77.777 Y20.1
X-40.452
X-39.947 Y20.088
X-39.852 Y20.077
X-39.443 Y19.998
X-39.275 Y19.962
X-39.038 Y19.909
X-38.308 Y19.784
X-37.577 Y19.67
X-36.84 Y19.598
X-36.102 Y19.554
X-35.362 Y19.526
X-34.622 Y19.508
X-33.882 Y19.497
X-33.142 Y19.491
X-32.402 Y19.487
X-30.922 Y19.483
X-27.962 Y19.48
X-1.875
X-1.786 Y19.455
X-1.708 Y19.406
X-1.455 Y19.135
X-1.07 Y18.504
X-0.851 Y17.797
X-0.722 Y17.068
X-0.644 Y16.332
X-0.596 Y15.594
X-0.567 Y14.854
X-0.549 Y14.114
X-0.538 Y13.374
X-0.531 Y12.634
X-0.527 Y11.894
X-0.523 Y10.414
X-0.52 Y7.454
Y6.714
Y1.904
X-0.545 Y1.815
X-0.594 Y1.736
X-0.858 Y1.476
X-1.484 Y1.081
X-2.189 Y0.858
X-2.917 Y0.726
X-3.653 Y0.646
X-4.391 Y0.597
X-5.131 Y0.568
X-5.871 Y0.549
X-6.611 Y0.538
X-7.351 Y0.531
X-8.091 Y0.527
X-8.831 Y0.524
X-10.311 Y0.522
X-14.751 Y0.52
X-37.886
X-37.961 Y0.512
X-38.033 Y0.488
X-38.098 Y0.45
X-38.266 Y0.35
X-38.434 Y0.269
X-38.602 Y0.201
X-38.77 Y0.154
X-38.938 Y0.113
X-39.275 Y0.038
X-39.443 Y0.002
X-39.852 Y-0.077
X-39.947 Y-0.088
X-40.452 Y-0.1
X-58.106
X-58.274 Y-0.099
X-58.442 Y-0.088
X-58.543 Y-0.077
X-58.61 Y-0.065
X-58.778 Y-0.03
X-58.946 Y0.021
X-59.507 Y0.193
X-60.237 Y0.315
X-60.757 Y0.37
X-60.855 Y0.368
X-60.95 Y0.342
X-61.035 Y0.294
G3 X-61.102 Y-0.267 Z6.2 I0.248 J-0.314 F800
G1 X-61.059 Y-0.313
X-61.009 Y-0.353
X-60.939 Y-0.39 F1000
X-60.863 Y-0.412
X-59.188 Y-0.735
G3 X-58.818 Y-0.613 I0.076 J0.393
G1 X-58.779 Y-0.564 F600
X-58.748 Y-0.508
G3 X-58.946 Y0.021 Z6 I-0.364 J0.166
G1 X-59.114 Y0.091 F1000
X-59.282 Y0.177
X-59.451 Y0.28
X-59.635 Y0.427
X-59.787 Y0.581
X-59.955 Y0.766
X-59.997 Y0.802
X-60.039 Y0.832
X-60.081 Y0.856
X-60.123 Y0.873
X-60.165 Y0.885
X-60.207 Y0.892
X-60.249 Y0.895
X-60.291 Y0.893
X-60.333 Y0.887
X-60.375 Y0.876
X-60.417 Y0.86
X-60.459 Y0.838
X-60.505 Y0.806
X-60.551 Y0.763
X-60.628 Y0.667
X-60.691 Y0.595
X-60.796 Y0.487
X-60.964 Y0.347
X-61.084 Y0.259
X-61.132 Y0.229
X-61.3 Y0.13
X-61.468 Y0.054
X-61.636 Y-0.004
X-61.804 Y-0.049
X-61.951 Y-0.077
X-61.973 Y-0.081
X-62.141 Y-0.094
X-62.309 Y-0.099
X-66.176 Y-0.1
X-77.777
X-78.281 Y-0.097
X-78.45 Y-0.088
X-78.954 Y-0.038
X-79.963 Y0.068
X-80.15 Y0.091
X-80.299 Y0.113
X-80.467 Y0.152
X-81.188 Y0.317
X-81.924 Y0.394
X-82.663 Y0.442
X-83.402 Y0.471
X-84.142 Y0.49
X-84.882 Y0.501
X-85.622 Y0.509
X-86.362 Y0.513
X-87.657 Y0.517
X-87.75
X-87.839 Y0.543
X-87.917 Y0.592
X-88.165 Y0.866
X-88.511 Y1.521
X-88.703 Y2.235
X-88.815 Y2.967
X-88.881 Y3.704
X-88.921 Y4.443
X-88.944 Y5.183
X-88.959 Y5.922
X-88.967 Y6.662
X-88.972 Y7.402
X-88.975 Y8.142
X-88.978 Y9.623
X-88.98 Y13.323
Y15.265
X-88.931 Y15.444
X-88.732 Y15.756
X-88.172 Y16.239
X-87.488 Y16.521
X-86.768 Y16.693
X-86.035 Y16.799
X-85.822 Y16.819
X-85.735 Y16.836
X-85.654 Y16.873
X-85.583 Y16.926
X-85.511 Y16.994
X-84.324 Y18.062
X-84.166 Y18.171
X-83.811 Y18.398
X-83.662 Y18.487
X-82.653 Y19.07
X-82.485 Y19.162
X-82.329 Y19.237
X-82.148 Y19.307
X-81.561 Y19.498
G3 X-81.403 Y20.144 I-0.137 J0.376 F800
G1 X-81.455 Y20.202 Z6.008
X-81.506 Y20.257 Z6.03
X-81.553 Y20.308 Z6.067
X-81.594 Y20.353 Z6.117
X-81.627 Y20.389 Z6.178
X-81.652 Y20.417 Z6.247
X-81.668 Y20.433 Z6.322
X-81.673 Y20.439 Z6.4
G0 Z18
X-79.539 Y-0.573
Z6.8
G1 Z6.4 F600
X-79.544 Y-0.567 Z6.322
X-79.56 Y-0.55 Z6.247
X-79.585 Y-0.523 Z6.178
X-79.618 Y-0.486 Z6.117
X-79.659 Y-0.442 Z6.067
X-79.706 Y-0.391 Z6.03
X-79.757 Y-0.335 Z6.008
X-79.809 Y-0.278 Z6
G3 X-80.467 Y0.152 I-1.167 J-1.069
G1 X-80.635 Y0.202 F1000
X-81.644 Y0.529
X-82.148 Y0.693
X-82.329 Y0.763
X-82.485 Y0.838
X-82.653 Y0.93
X-83.662 Y1.513
X-83.811 Y1.602
X-84.166 Y1.829
X-84.324 Y1.938
X-84.523 Y2.075
X-84.852 Y2.244
X-85.169 Y2.435
X-85.674 Y2.976
X-85.819 Y3.3
X-85.833 Y3.328
X-85.849 Y3.355
X-85.867 Y3.38
G3 X-86.43 Y3.434 Z6.2 I-0.308 J-0.255 F800
G1 X-86.476 Y3.39
X-86.513 Y3.339
G3 X-86.449 Y2.833 I0.338 J-0.214 F1000
G1 X-84.87 Y1.353
G3 X-84.402 Y1.295 I0.274 J0.292
G1 X-84.349 Y1.33 F600
X-84.303 Y1.373
G3 X-84.324 Y1.938 Z6 I-0.293 J0.272
G1 X-85.511 Y3.006 F1000
X-85.655 Y3.143
X-85.679 Y3.166
X-85.787 Y3.282
X-85.847 Y3.354
X-85.921 Y3.45
X-86.775 Y4.625
X-86.892 Y4.793
X-86.999 Y4.961
X-87.087 Y5.129
X-87.164 Y5.297
X-87.612 Y6.305
X-87.759 Y6.641
X-87.828 Y6.809
X-87.96 Y7.313
X-88.174 Y8.32
X-88.208 Y8.488
X-88.272 Y8.824
X-88.293 Y8.992
X-88.303 Y9.328
X-88.306 Y9.496
Y10.504
X-88.303 Y10.672
X-88.293 Y11.008
X-88.272 Y11.176
X-88.201 Y11.546
X-88.174 Y11.68
X-87.96 Y12.687
X-87.828 Y13.191
X-87.759 Y13.359
X-87.612 Y13.695
X-87.164 Y14.703
X-87.087 Y14.871
X-86.999 Y15.039
X-86.892 Y15.207
X-86.775 Y15.375
X-85.921 Y16.55
X-85.847 Y16.646
X-85.787 Y16.718
X-85.679 Y16.834
X-85.583 Y16.926
G3 X-85.717 Y17.578 I-0.284 J0.281 F800
G1 X-85.789 Y17.607 Z6.008
X-85.858 Y17.635 Z6.03
X-85.922 Y17.661 Z6.067
X-85.979 Y17.684 Z6.117
X-86.025 Y17.703 Z6.178
X-86.059 Y17.717 Z6.247
X-86.08 Y17.726 Z6.322
X-86.087 Y17.729 Z6.4
G0 Z18
X-40.016 Y20.564
Z6.8
G1 Z6.4 F600
X-40.01 Y20.559 Z6.322
X-39.994 Y20.543 Z6.247
X-39.967 Y20.518 Z6.178
X-39.931 Y20.484 Z6.117
X-39.886 Y20.442 Z6.067
X-39.836 Y20.395 Z6.03
X-39.782 Y20.343 Z6.008
X-39.725 Y20.29 Z6
G3 X-39.038 Y19.909 I1.086 J1.151
G1 X-38.938 Y19.887 F1000
X-38.77 Y19.846
X-38.602 Y19.799
X-38.434 Y19.731
X-38.266 Y19.65
X-38.098 Y19.55
X-37.904 Y19.405
X-37.593 Y19.166
X-37.425 Y19.035
X-37.257 Y18.901
X-37.089 Y18.747
X-37.076 Y18.734
X-36.932 Y18.566
X-36.819 Y18.435
X-36.542 Y18.187
X-36.165 Y17.93
X-35.642 Y17.666
X-34.944 Y17.42
X-34.222 Y17.26
X-33.489 Y17.157
X-32.841 Y17.1
X-32.818 Y17.099
G3 X-32.432 Y17.513 Z6.2 I-0.014 J0.4 F800
G1 X-32.439 Y17.575
X-32.456 Y17.636
G3 X-32.702 Y17.877 I-0.376 J-0.137 F1000
G1 X-36.476 Y19.176
G3 X-36.726 Y19.179 I-0.13 J-0.378
G1 X-36.784 Y19.156 F600
X-36.839 Y19.123
G3 X-36.932 Y18.566 Z6 I0.232 J-0.326
G1 X-36.921 Y18.551 F1000
X-36.813 Y18.398
X-36.716 Y18.23
X-36.626 Y18.062
X-36.248 Y17.322
X-36.216 Y17.272
X-36.171 Y17.222
X-36.126 Y17.182
X-36.08 Y17.152
X-36.038 Y17.131
X-35.996 Y17.116
X-35.954 Y17.106
X-35.912 Y17.1
X-35.744 Y17.099
X-10.86 Y17.1
X-10.692 Y17.089
X-9.952 Y17.071
X-9.213 Y17.036
X-8.473 Y17.015
X-7.733 Y17.002
X-6.993 Y16.993
X-6.253 Y16.988
X-5.513 Y16.985
X-4.773 Y16.983
X-4.681 Y16.977
X-4.507 Y16.915
X-4.206 Y16.7
X-3.738 Y16.126
X-3.465 Y15.438
X-3.299 Y14.717
X-3.195 Y13.984
X-3.131 Y13.247
X-3.09 Y12.508
X-3.064 Y11.769
X-3.048 Y11.029
X-3.038 Y10.289
X-3.031 Y9.549
X-3.027 Y8.809
X-3.023 Y7.329
X-3.021 Y4.738
X-3.067 Y4.559
X-3.265 Y4.247
X-3.824 Y3.762
X-4.508 Y3.48
X-5.228 Y3.308
X-5.961 Y3.201
X-6.698 Y3.134
X-7.436 Y3.092
X-8.176 Y3.066
X-8.916 Y3.049
X-9.542 Y3.04
X-9.573 Y3.037
X-10.263 Y2.946
X-10.356 Y2.936
X-10.692 Y2.911
X-10.86 Y2.9
X-35.744
X-35.912 Y2.899
X-35.954 Y2.893
X-35.996 Y2.883
X-36.038 Y2.868
X-36.08 Y2.847
X-36.125 Y2.817
X-36.17 Y2.778
X-36.216 Y2.728
X-36.248 Y2.677
X-36.626 Y1.938
X-36.716 Y1.77
X-36.813 Y1.602
X-36.921 Y1.448
X-36.931 Y1.434
X-37.076 Y1.266
X-37.089 Y1.253
X-37.257 Y1.098
X-37.425 Y0.964
X-37.762 Y0.704
X-37.93 Y0.575
X-38.098 Y0.45
G3 X-38.04 Y-0.213 I0.25 J-0.312 F800
G1 X-37.971 Y-0.25 Z6.008
X-37.906 Y-0.287 Z6.03
X-37.845 Y-0.32 Z6.067
X-37.792 Y-0.349 Z6.117
X-37.748 Y-0.373 Z6.178
X-37.716 Y-0.391 Z6.247
X-37.696 Y-0.402 Z6.322
X-37.689 Y-0.405 Z6.4
G0 Z18
X-11.755 Y17.595
Z6.8
G1 Z6.4 F600
X-11.749 Y17.59 Z6.322
X-11.73 Y17.577 Z6.247
X-11.7 Y17.556 Z6.178
X-11.659 Y17.527 Z6.117
X-11.609 Y17.493 Z6.067
X-11.553 Y17.453 Z6.03
X-11.491 Y17.41 Z6.008
X-11.427 Y17.365 Z6
G3 X-10.692 Y17.089 I0.907 J1.297
G1 X-10.356 Y17.064 F1000
X-10.264 Y17.054
X-9.347 Y16.933
X-9.179 Y16.909
X-9.011 Y16.876
X-8.843 Y16.836
X-8.675 Y16.777
X-8.002 Y16.5
X-7.666 Y16.361
X-7.498 Y16.286
X-7.134 Y16.107
X-7.106 Y16.087
X-6.822 Y15.878
X-6.657 Y15.755
X-6.153 Y15.368
X-5.984 Y15.237
X-5.816 Y15.098
X-5.753 Y15.039
X-5.6 Y14.871
X-5.48 Y14.725
X-4.976 Y14.067
X-4.695 Y13.695
X-4.639 Y13.609
X-4.59 Y13.527
X-4.505 Y13.359
X-4.471 Y13.282
X-3.967 Y12.064
X-3.949 Y12.015
X-3.897 Y11.847
X-3.859 Y11.68
X-3.831 Y11.512
X-3.699 Y10.504
X-3.652 Y10
X-3.699 Y9.496
X-3.831 Y8.488
X-3.859 Y8.32
X-3.897 Y8.153
X-3.949 Y7.985
X-3.967 Y7.936
X-4.471 Y6.717
X-4.505 Y6.641
X-4.59 Y6.473
X-4.639 Y6.391
X-4.695 Y6.305
X-4.976 Y5.933
X-5.48 Y5.275
X-5.6 Y5.129
X-5.753 Y4.961
X-5.816 Y4.902
X-5.984 Y4.763
X-6.161 Y4.625
X-6.657 Y4.245
X-6.825 Y4.119
X-7.12 Y3.903
X-7.134 Y3.893
X-7.498 Y3.714
X-7.666 Y3.639
X-8.338 Y3.361
X-8.675 Y3.223
X-8.843 Y3.164
X-9.011 Y3.124
X-9.179 Y3.091
X-9.347 Y3.067
X-9.573 Y3.037
G3 X-9.869 Y2.813 I0.066 J-0.395 F800
G1 X-9.882 Y2.754 Z6.005
X-9.895 Y2.697 Z6.019
X-9.907 Y2.642 Z6.041
X-9.895 Y2.59 Z6.073
X-9.885 Y2.543 Z6.114
X-9.876 Y2.503 Z6.161
X-9.868 Y2.47 Z6.214
X-9.856 Y2.448 Z6.274
X-9.849 Y2.435 Z6.336
X-9.846 Y2.43 Z6.4
G0 Z18
X-79.172 Y10.44
Z6.3
G3 X-78.542 Y9.022 Z6.238 I0.922 J-0.439 F600
X-77.24 Y9.862 Z6.177 I0.292 J0.977
X-78.27 Y11.018 Z6.115 I-1.01 J0.137
X-79.252 Y9.823 Z6.054 I0.021 J-1.018
X-77.92 Y9.038 Z5.992 I1.001 J0.177
X-77.352 Y10.473 Z5.931 I-0.329 J0.961
X-78.855 Y10.813 Z5.869 I-0.897 J-0.473
X-78.959 Y9.276 Z5.808 I0.606 J-0.813
X-77.426 Y9.411 Z5.746 I0.709 J0.723
X-77.796 Y10.903 Z5.685 I-0.823 J0.588
X-79.211 Y10.308 Z5.623 I-0.453 J-0.903
X-78.406 Y9.003 Z5.562 I0.961 J-0.308
X-77.242 Y9.999 Z5.5 I0.156 J0.996
X-79.258 Y9.999 I-1.008 J0
X-77.242 Y9.999 I1.008 J0
G1 X-77.201 Y10.738 F1000
X-77.168 Y10.824
X-77.134 Y10.971
X-77.128 Y11.12
X-77.146 Y11.269
X-77.186 Y11.414
X-77.248 Y11.561
X-77.335 Y11.71
X-77.448 Y11.855
X-77.587 Y11.993
X-77.753 Y12.118
X-77.944 Y12.227
X-78.158 Y12.315
X-78.392 Y12.377
X-78.644 Y12.409
X-78.909 Y12.408
X-79.182 Y12.372
X-79.458 Y12.297
X-79.731 Y12.183
X-79.994 Y12.031
X-80.242 Y11.84
X-80.468 Y11.613
X-80.668 Y11.353
X-80.835 Y11.063
X-80.966 Y10.748
X-81.056 Y10.413
X-81.102 Y10.065
X-81.103 Y9.709
X-81.057 Y9.352
X-80.963 Y9.001
X-80.824 Y8.662
X-80.641 Y8.342
X-80.416 Y8.047
X-80.153 Y7.782
X-79.856 Y7.552
X-79.531 Y7.362
X-79.183 Y7.216
X-78.817 Y7.116
X-78.441 Y7.064
X-78.06 Y7.062
X-77.681 Y7.109
X-77.311 Y7.205
X-76.957 Y7.349
X-76.624 Y7.538
X-76.317 Y7.769
X-76.044 Y8.038
X-75.776 Y8.38
X-75.432 Y8.962
X-75.199 Y9.509
X-75.056 Y10.025
X-74.985 Y10.522
X-74.979 Y11.008
X-75.036 Y11.482
X-75.154 Y11.941
X-75.33 Y12.382
X-75.509 Y12.702
X-75.523 Y12.726
X-75.54 Y12.748
X-75.558 Y12.77
X-75.632 Y12.855
X-75.696 Y12.919
X-75.759 Y12.965
X-76.432 Y13.42
X-76.516 Y13.47
X-76.6 Y13.502
X-77.273 Y13.739
X-77.441 Y13.794
X-77.609 Y13.811
X-78.365 Y13.875
X-78.408 Y13.876
X-78.45 Y13.873
X-78.786 Y13.816
X-79.29 Y13.729
X-79.358 Y13.717
X-79.426 Y13.695
X-80.169 Y13.359
X-80.299 Y13.293
X-80.429 Y13.191
X-80.972 Y12.753
X-81.047 Y12.687
X-81.14 Y12.57
X-81.55 Y12.015
X-81.644 Y11.878
X-81.658 Y11.847
X-81.98 Y11.046
X-81.994 Y11.008
X-82.015 Y10.924
X-82.111 Y10.168
X-82.13 Y10
X-82.111 Y9.832
X-82.015 Y9.076
X-81.994 Y8.992
X-81.98 Y8.954
X-81.658 Y8.153
X-81.644 Y8.122
X-81.55 Y7.985
X-81.14 Y7.43
X-81.047 Y7.313
X-80.972 Y7.247
X-80.429 Y6.809
X-80.299 Y6.707
X-80.169 Y6.641
X-79.426 Y6.305
X-79.358 Y6.283
X-79.29 Y6.271
X-78.511 Y6.137
X-78.45 Y6.127
X-78.408 Y6.124
X-78.365 Y6.125
X-77.609 Y6.189
X-77.441 Y6.206
X-77.273 Y6.261
X-76.6 Y6.498
X-76.516 Y6.53
X-76.432 Y6.58
X-75.759 Y7.035
X-75.696 Y7.081
X-75.632 Y7.145
X-75.087 Y7.764
X-75.044 Y7.817
X-74.953 Y7.985
X-74.614 Y8.656
X-74.583 Y8.717
X-74.335 Y9.16
X-74.246 Y9.289
X-74.216 Y9.328
X-74.078 Y9.48
X-74.062 Y9.496
X-73.91 Y9.632
X-73.872 Y9.664
X-73.792 Y9.736
X-73.764 Y9.773
X-73.742 Y9.809
X-73.73 Y9.832
X-73.714 Y9.874
X-73.702 Y9.916
X-73.695 Y9.958
X-73.693 Y10
X-73.695 Y10.042
X-73.702 Y10.084
X-73.714 Y10.126
X-73.73 Y10.168
X-73.742 Y10.191
X-73.764 Y10.227
X-73.792 Y10.264
X-73.833 Y10.304
X-73.91 Y10.364
X-74.062 Y10.504
X-74.078 Y10.52
X-74.216 Y10.672
X-74.246 Y10.711
X-74.335 Y10.84
X-74.583 Y11.283
X-74.614 Y11.344
X-74.953 Y12.015
X-75.044 Y12.183
X-75.087 Y12.236
X-75.558 Y12.77
G3 X-75.908 Y12.891 I-0.291 J-0.275 F800
G1 X-75.964 Y12.869 Z5.505
X-76.02 Y12.848 Z5.519
X-76.072 Y12.827 Z5.542
X-76.109 Y12.788 Z5.574
X-76.142 Y12.753 Z5.615
X-76.17 Y12.723 Z5.663
X-76.193 Y12.699 Z5.717
X-76.204 Y12.677 Z5.775
X-76.211 Y12.664 Z5.837
X-76.213 Y12.659 Z5.9
G0 Z18
X-92.392 Y-4.598
Z6.3
G1 Z5.9 F600
X-92.391 Y-4.591 Z5.822
X-92.385 Y-4.569 Z5.747
X-92.376 Y-4.533 Z5.678
X-92.363 Y-4.485 Z5.617
X-92.348 Y-4.426 Z5.567
X-92.331 Y-4.359 Z5.53
X-92.313 Y-4.287 Z5.508
X-92.293 Y-4.211 Z5.5
G3 X-91.98 Y-2.033 I-9.893 J2.534
G1 Y-1.941 F1000
X-91.795 Y-1.224
X-91.677 Y-0.494
X-91.603 Y0.243
X-91.556 Y0.981
X-91.527 Y1.721
X-91.509 Y2.46
X-91.498 Y3.2
X-91.491 Y3.94
X-91.487 Y4.68
X-91.484 Y5.421
X-91.482 Y6.901
X-91.48 Y11.341
Y18.094
X-91.455 Y18.183
X-91.406 Y18.261
X-91.143 Y18.522
X-90.518 Y18.918
X-89.812 Y19.142
X-89.084 Y19.274
X-88.348 Y19.354
X-87.61 Y19.402
X-86.871 Y19.432
X-86.131 Y19.451
X-85.391 Y19.462
X-84.651 Y19.469
X-83.911 Y19.473
X-83.171 Y19.476
X-81.684 Y19.478
X-81.642 Y19.481
X-81.601 Y19.487
X-81.561 Y19.498
X-80.635 Y19.798
X-80.467 Y19.848
X-80.299 Y19.887
X-80.131 Y19.912
X-79.963 Y19.932
X-78.954 Y20.038
X-78.45 Y20.088
X-78.281 Y20.097
X-77.777 Y20.1
X-40.452
X-39.947 Y20.088
X-39.852 Y20.077
X-39.443 Y19.998
X-39.275 Y19.962
X-39.038 Y19.909
X-38.308 Y19.784
X-37.577 Y19.67
X-36.84 Y19.598
X-36.102 Y19.554
X-35.362 Y19.526
X-34.622 Y19.508
X-33.882 Y19.497
X-33.142 Y19.491
X-32.402 Y19.487
X-30.922 Y19.483
X-27.962 Y19.48
X-1.875
X-1.786 Y19.455
X-1.708 Y19.406
X-1.455 Y19.135
X-1.07 Y18.504
X-0.851 Y17.797
X-0.722 Y17.068
X-0.644 Y16.332
X-0.596 Y15.594
X-0.567 Y14.854
X-0.549 Y14.114
X-0.538 Y13.374
X-0.531 Y12.634
X-0.527 Y11.894
X-0.523 Y10.414
X-0.52 Y7.454
Y6.714
Y1.904
X-0.545 Y1.815
X-0.594 Y1.736
X-0.858 Y1.476
X-1.484 Y1.081
X-2.189 Y0.858
X-2.917 Y0.726
X-3.653 Y0.646
X-4.391 Y0.597
X-5.131 Y0.568
X-5.871 Y0.549
X-6.611 Y0.538
X-7.351 Y0.531
X-8.091 Y0.527
X-8.831 Y0.524
X-10.311 Y0.522
X-14.751 Y0.52
X-37.886
X-37.961 Y0.512
X-38.033 Y0.488
X-38.098 Y0.45
X-38.266 Y0.35
X-38.434 Y0.269
X-38.602 Y0.201
X-38.77 Y0.154
X-38.938 Y0.113
X-39.275 Y0.038
X-39.443 Y0.002
X-39.852 Y-0.077
X-39.947 Y-0.088
X-40.452 Y-0.1
X-58.106
X-58.274 Y-0.099
X-58.442 Y-0.088
X-58.543 Y-0.077
X-58.61 Y-0.065
X-58.778 Y-0.03
X-58.946 Y0.021
X-59.507 Y0.193
X-60.237 Y0.315
X-60.757 Y0.37
X-60.855 Y0.368
X-60.95 Y0.342
X-61.035 Y0.294
G3 X-61.102 Y-0.267 Z5.7 I0.248 J-0.314 F800
G1 X-61.059 Y-0.313
X-61.009 Y-0.353
X-60.939 Y-0.39 F1000
X-60.863 Y-0.412
X-59.188 Y-0.735
G3 X-58.818 Y-0.613 I0.076 J0.393
G1 X-58.779 Y-0.564 F600
X-58.748 Y-0.508
G3 X-58.946 Y0.021 Z5.5 I-0.364 J0.166
G1 X-59.114 Y0.091 F1000
X-59.282 Y0.177
X-59.451 Y0.28
X-59.635 Y0.427
X-59.787 Y0.581
X-59.955 Y0.766
X-59.997 Y0.802
X-60.039 Y0.832
X-60.081 Y0.856
X-60.123 Y0.873
X-60.165 Y0.885
X-60.207 Y0.892
X-60.249 Y0.895
X-60.291 Y0.893
X-60.333 Y0.887
X-60.375 Y0.876
X-60.417 Y0.86
X-60.459 Y0.838
X-60.505 Y0.806
X-60.551 Y0.763
X-60.628 Y0.667
X-60.691 Y0.595
X-60.796 Y0.487
X-60.964 Y0.347
X-61.084 Y0.259
X-61.132 Y0.229
X-61.3 Y0.13
X-61.468 Y0.054
X-61.636 Y-0.004
X-61.804 Y-0.049
X-61.951 Y-0.077
X-61.973 Y-0.081
X-62.141 Y-0.094
X-62.309 Y-0.099
X-66.176 Y-0.1
X-77.777
X-78.281 Y-0.097
X-78.45 Y-0.088
X-78.954 Y-0.038
X-79.963 Y0.068
X-80.15 Y0.091
X-80.299 Y0.113
X-80.467 Y0.152
X-81.188 Y0.317
X-81.924 Y0.394
X-82.663 Y0.442
X-83.402 Y0.471
X-84.142 Y0.49
X-84.882 Y0.501
X-85.622 Y0.509
X-86.362 Y0.513
X-87.657 Y0.517
X-87.75
X-87.839 Y0.543
X-87.917 Y0.592
X-88.165 Y0.866
X-88.511 Y1.521
X-88.703 Y2.235
X-88.815 Y2.967
X-88.881 Y3.704
X-88.921 Y4.443
X-88.944 Y5.183
X-88.959 Y5.922
X-88.967 Y6.662
X-88.972 Y7.402
X-88.975 Y8.142
X-88.978 Y9.623
X-88.98 Y13.323
Y15.265
X-88.931 Y15.444
X-88.732 Y15.756
X-88.172 Y16.239
X-87.488 Y16.521
X-86.768 Y16.693
X-86.035 Y16.799
X-85.822 Y16.819
X-85.735 Y16.836
X-85.654 Y16.873
X-85.583 Y16.926
X-85.511 Y16.994
X-84.324 Y18.062
X-84.166 Y18.171
X-83.811 Y18.398
X-83.662 Y18.487
X-82.653 Y19.07
X-82.485 Y19.162
X-82.329 Y19.237
X-82.148 Y19.307
X-81.561 Y19.498
G3 X-81.403 Y20.144 I-0.137 J0.376 F800
G1 X-81.455 Y20.202 Z5.508
X-81.506 Y20.257 Z5.53
X-81.553 Y20.308 Z5.567
X-81.594 Y20.353 Z5.617
X-81.627 Y20.389 Z5.678
X-81.652 Y20.417 Z5.747
X-81.668 Y20.433 Z5.822
X-81.673 Y20.439 Z5.9
G0 Z18
X-79.539 Y-0.573
Z6.3
G1 Z5.9 F600
X-79.544 Y-0.567 Z5.822
X-79.56 Y-0.55 Z5.747
X-79.585 Y-0.523 Z5.678
X-79.618 Y-0.486 Z5.617
X-79.659 Y-0.442 Z5.567
X-79.706 Y-0.391 Z5.53
X-79.757 Y-0.335 Z5.508
X-79.809 Y-0.278 Z5.5
G3 X-80.467 Y0.152 I-1.167 J-1.069
G1 X-80.635 Y0.202 F1000
X-81.644 Y0.529
X-82.148 Y0.693
X-82.329 Y0.763
X-82.485 Y0.838
X-82.653 Y0.93
X-83.662 Y1.513
X-83.811 Y1.602
X-84.166 Y1.829
X-84.324 Y1.938
X-84.523 Y2.075
X-84.852 Y2.244
X-85.169 Y2.435
X-85.674 Y2.976
X-85.819 Y3.3
X-85.833 Y3.328
X-85.849 Y3.355
X-85.867 Y3.38
G3 X-86.43 Y3.434 Z5.7 I-0.308 J-0.255 F800
G1 X-86.476 Y3.39
X-86.513 Y3.339
G3 X-86.449 Y2.833 I0.338 J-0.214 F1000
G1 X-84.87 Y1.353
G3 X-84.402 Y1.295 I0.274 J0.292
G1 X-84.349 Y1.33 F600
X-84.303 Y1.373
G3 X-84.324 Y1.938 Z5.5 I-0.293 J0.272
G1 X-85.511 Y3.006 F1000
X-85.655 Y3.143
X-85.679 Y3.166
X-85.787 Y3.282
X-85.847 Y3.354
X-85.921 Y3.45
X-86.775 Y4.625
X-86.892 Y4.793
X-86.999 Y4.961
X-87.087 Y5.129
X-87.164 Y5.297
X-87.612 Y6.305
X-87.759 Y6.641
X-87.828 Y6.809
X-87.96 Y7.313
X-88.174 Y8.32
X-88.208 Y8.488
X-88.272 Y8.824
X-88.293 Y8.992
X-88.303 Y9.328
X-88.306 Y9.496
Y10.504
X-88.303 Y10.672
X-88.293 Y11.008
X-88.272 Y11.176
X-88.201 Y11.546
X-88.174 Y11.68
X-87.96 Y12.687
X-87.828 Y13.191
X-87.759 Y13.359
X-87.612 Y13.695
X-87.164 Y14.703
X-87.087 Y14.871
X-86.999 Y15.039
X-86.892 Y15.207
X-86.775 Y15.375
X-85.921 Y16.55
X-85.847 Y16.646
X-85.787 Y16.718
X-85.679 Y16.834
X-85.583 Y16.926
G3 X-85.717 Y17.578 I-0.284 J0.281 F800
G1 X-85.789 Y17.607 Z5.508
X-85.858 Y17.635 Z5.53
X-85.922 Y17.661 Z5.567
X-85.979 Y17.684 Z5.617
X-86.025 Y17.703 Z5.678
X-86.059 Y17.717 Z5.747
X-86.08 Y17.726 Z5.822
X-86.087 Y17.729 Z5.9
G0 Z18
X-40.016 Y20.564
Z6.3
G1 Z5.9 F600
X-40.01 Y20.559 Z5.822
X-39.994 Y20.543 Z5.747
X-39.967 Y20.518 Z5.678
X-39.931 Y20.484 Z5.617
X-39.886 Y20.442 Z5.567
X-39.836 Y20.395 Z5.53
X-39.782 Y20.343 Z5.508
X-39.725 Y20.29 Z5.5
G3 X-39.038 Y19.909 I1.086 J1.151
G1 X-38.938 Y19.887 F1000
X-38.77 Y19.846
X-38.602 Y19.799
X-38.434 Y19.731
X-38.266 Y19.65
X-38.098 Y19.55
X-37.904 Y19.405
X-37.593 Y19.166
X-37.425 Y19.035
X-37.257 Y18.901
X-37.089 Y18.747
X-37.076 Y18.734
X-36.932 Y18.566
X-36.819 Y18.435
X-36.542 Y18.187
X-36.165 Y17.93
X-35.642 Y17.666
X-34.944 Y17.42
X-34.222 Y17.26
X-33.489 Y17.157
X-32.841 Y17.1
X-32.818 Y17.099
G3 X-32.432 Y17.513 Z5.7 I-0.014 J0.4 F800
G1 X-32.439 Y17.575
X-32.456 Y17.636
G3 X-32.702 Y17.877 I-0.376 J-0.137 F1000
G1 X-36.476 Y19.176
G3 X-36.726 Y19.179 I-0.13 J-0.378
G1 X-36.784 Y19.156 F600
X-36.839 Y19.123
G3 X-36.932 Y18.566 Z5.5 I0.232 J-0.326
G1 X-36.921 Y18.551 F1000
X-36.813 Y18.398
X-36.716 Y18.23
X-36.626 Y18.062
X-36.248 Y17.322
X-36.216 Y17.272
X-36.171 Y17.222
X-36.126 Y17.182
X-36.08 Y17.152
X-36.038 Y17.131
X-35.996 Y17.116
X-35.954 Y17.106
X-35.912 Y17.1
X-35.744 Y17.099
X-10.86 Y17.1
X-10.692 Y17.089
X-9.952 Y17.071
X-9.213 Y17.036
X-8.473 Y17.015
X-7.733 Y17.002
X-6.993 Y16.993
X-6.253 Y16.988
X-5.513 Y16.985
X-4.773 Y16.983
X-4.681 Y16.977
X-4.507 Y16.915
X-4.206 Y16.7
X-3.738 Y16.126
X-3.465 Y15.438
X-3.299 Y14.717
X-3.195 Y13.984
X-3.131 Y13.247
X-3.09 Y12.508
X-3.064 Y11.769
X-3.048 Y11.029
X-3.038 Y10.289
X-3.031 Y9.549
X-3.027 Y8.809
X-3.023 Y7.329
X-3.021 Y4.738
X-3.067 Y4.559
X-3.265 Y4.247
X-3.824 Y3.762
X-4.508 Y3.48
X-5.228 Y3.308
X-5.961 Y3.201
X-6.698 Y3.134
X-7.436 Y3.092
X-8.176 Y3.066
X-8.916 Y3.049
X-9.542 Y3.04
X-9.573 Y3.037
X-10.263 Y2.946
X-10.356 Y2.936
X-10.692 Y2.911
X-10.86 Y2.9
X-35.744
X-35.912 Y2.899
X-35.954 Y2.893
X-35.996 Y2.883
X-36.038 Y2.868
X-36.08 Y2.847
X-36.125 Y2.817
X-36.17 Y2.778
X-36.216 Y2.728
X-36.248 Y2.677
X-36.626 Y1.938
X-36.716 Y1.77
X-36.813 Y1.602
X-36.921 Y1.448
X-36.931 Y1.434
X-37.076 Y1.266
X-37.089 Y1.253
X-37.257 Y1.098
X-37.425 Y0.964
X-37.762 Y0.704
X-37.93 Y0.575
X-38.098 Y0.45
G3 X-38.04 Y-0.213 I0.25 J-0.312 F800
G1 X-37.971 Y-0.25 Z5.508
X-37.906 Y-0.287 Z5.53
X-37.845 Y-0.32 Z5.567
X-37.792 Y-0.349 Z5.617
X-37.748 Y-0.373 Z5.678
X-37.716 Y-0.391 Z5.747
X-37.696 Y-0.402 Z5.822
X-37.689 Y-0.405 Z5.9
G0 Z18
X-11.755 Y17.595
Z6.3
G1 Z5.9 F600
X-11.749 Y17.59 Z5.822
X-11.73 Y17.577 Z5.747
X-11.7 Y17.556 Z5.678
X-11.659 Y17.527 Z5.617
X-11.609 Y17.493 Z5.567
X-11.553 Y17.453 Z5.53
X-11.491 Y17.41 Z5.508
X-11.427 Y17.365 Z5.5
G3 X-10.692 Y17.089 I0.907 J1.297
G1 X-10.356 Y17.064 F1000
X-10.264 Y17.054
X-9.347 Y16.933
X-9.179 Y16.909
X-9.011 Y16.876
X-8.843 Y16.836
X-8.675 Y16.777
X-8.002 Y16.5
X-7.666 Y16.361
X-7.498 Y16.286
X-7.134 Y16.107
X-7.106 Y16.087
X-6.822 Y15.878
X-6.657 Y15.755
X-6.153 Y15.368
X-5.984 Y15.237
X-5.816 Y15.098
X-5.753 Y15.039
X-5.6 Y14.871
X-5.48 Y14.725
X-4.976 Y14.067
X-4.695 Y13.695
X-4.639 Y13.609
X-4.59 Y13.527
X-4.505 Y13.359
X-4.471 Y13.282
X-3.967 Y12.064
X-3.949 Y12.015
X-3.897 Y11.847
X-3.859 Y11.68
X-3.831 Y11.512
X-3.699 Y10.504
X-3.652 Y10
X-3.699 Y9.496
X-3.831 Y8.488
X-3.859 Y8.32
X-3.897 Y8.153
X-3.949 Y7.985
X-3.967 Y7.936
X-4.471 Y6.717
X-4.505 Y6.641
X-4.59 Y6.473
X-4.639 Y6.391
X-4.695 Y6.305
X-4.976 Y5.933
X-5.48 Y5.275
X-5.6 Y5.129
X-5.753 Y4.961
X-5.816 Y4.902
X-5.984 Y4.763
X-6.161 Y4.625
X-6.657 Y4.245
X-6.825 Y4.119
X-7.12 Y3.903
X-7.134 Y3.893
X-7.498 Y3.714
X-7.666 Y3.639
X-8.338 Y3.361
X-8.675 Y3.223
X-8.843 Y3.164
X-9.011 Y3.124
X-9.179 Y3.091
X-9.347 Y3.067
X-9.573 Y3.037
G3 X-9.869 Y2.813 I0.066 J-0.395 F800
G1 X-9.882 Y2.754 Z5.505
X-9.895 Y2.697 Z5.519
X-9.907 Y2.642 Z5.541
X-9.895 Y2.59 Z5.573
X-9.885 Y2.543 Z5.614
X-9.876 Y2.503 Z5.661
X-9.868 Y2.47 Z5.714
X-9.856 Y2.448 Z5.774
X-9.849 Y2.435 Z5.836
X-9.846 Y2.43 Z5.9
G0 Z18
X-79.172 Y10.44
Z5.8
G3 X-78.542 Y9.022 Z5.738 I0.922 J-0.439 F600
X-77.24 Y9.862 Z5.677 I0.292 J0.977
X-78.27 Y11.018 Z5.615 I-1.01 J0.137
X-79.252 Y9.823 Z5.554 I0.021 J-1.018
X-77.92 Y9.038 Z5.492 I1.001 J0.177
X-77.352 Y10.473 Z5.431 I-0.329 J0.961
X-78.855 Y10.813 Z5.369 I-0.897 J-0.473
X-78.959 Y9.276 Z5.308 I0.606 J-0.813
X-77.426 Y9.411 Z5.246 I0.709 J0.723
X-77.796 Y10.903 Z5.185 I-0.823 J0.588
X-79.211 Y10.308 Z5.123 I-0.453 J-0.903
X-78.406 Y9.003 Z5.062 I0.961 J-0.308
X-77.242 Y9.999 Z5 I0.156 J0.996
X-79.258 Y9.999 I-1.008 J0
X-77.242 Y9.999 I1.008 J0
G1 X-77.201 Y10.738 F1000
X-77.168 Y10.824
X-77.134 Y10.971
X-77.128 Y11.12
X-77.146 Y11.269
X-77.186 Y11.414
X-77.248 Y11.561
X-77.335 Y11.71
X-77.448 Y11.855
X-77.587 Y11.993
X-77.753 Y12.118
X-77.944 Y12.227
X-78.158 Y12.315
X-78.392 Y12.377
X-78.644 Y12.409
X-78.909 Y12.408
X-79.182 Y12.372
X-79.458 Y12.297
X-79.731 Y12.183
X-79.994 Y12.031
X-80.242 Y11.84
X-80.468 Y11.613
X-80.668 Y11.353
X-80.835 Y11.063
X-80.966 Y10.748
X-81.056 Y10.413
X-81.102 Y10.065
X-81.103 Y9.709
X-81.057 Y9.352
X-80.963 Y9.001
X-80.824 Y8.662
X-80.641 Y8.342
X-80.416 Y8.047
X-80.153 Y7.782
X-79.856 Y7.552
X-79.531 Y7.362
X-79.183 Y7.216
X-78.817 Y7.116
X-78.441 Y7.064
X-78.06 Y7.062
X-77.681 Y7.109
X-77.311 Y7.205
X-76.957 Y7.349
X-76.624 Y7.538
X-76.317 Y7.769
X-76.044 Y8.038
X-75.776 Y8.38
X-75.432 Y8.962
X-75.199 Y9.509
X-75.056 Y10.025
X-74.985 Y10.522
X-74.979 Y11.008
X-75.036 Y11.482
X-75.154 Y11.941
X-75.33 Y12.382
X-75.509 Y12.702
X-75.523 Y12.726
X-75.54 Y12.748
X-75.558 Y12.77
X-75.632 Y12.855
X-75.696 Y12.919
X-75.759 Y12.965
X-76.432 Y13.42
X-76.516 Y13.47
X-76.6 Y13.502
X-77.273 Y13.739
X-77.441 Y13.794
X-77.609 Y13.811
X-78.365 Y13.875
X-78.408 Y13.876
X-78.45 Y13.873
X-78.786 Y13.816
X-79.29 Y13.729
X-79.358 Y13.717
X-79.426 Y13.695
X-80.169 Y13.359
X-80.299 Y13.293
X-80.429 Y13.191
X-80.972 Y12.753
X-81.047 Y12.687
X-81.14 Y12.57
X-81.55 Y12.015
X-81.644 Y11.878
X-81.658 Y11.847
X-81.98 Y11.046
X-81.994 Y11.008
X-82.015 Y10.924
X-82.111 Y10.168
X-82.13 Y10
X-82.111 Y9.832
X-82.015 Y9.076
X-81.994 Y8.992
X-81.98 Y8.954
X-81.658 Y8.153
X-81.644 Y8.122
X-81.55 Y7.985
X-81.14 Y7.43
X-81.047 Y7.313
X-80.972 Y7.247
X-80.429 Y6.809
X-80.299 Y6.707
X-80.169 Y6.641
X-79.426 Y6.305
X-79.358 Y6.283
X-79.29 Y6.271
X-78.511 Y6.137
X-78.45 Y6.127
X-78.408 Y6.124
X-78.365 Y6.125
X-77.609 Y6.189
X-77.441 Y6.206
X-77.273 Y6.261
X-76.6 Y6.498
X-76.516 Y6.53
X-76.432 Y6.58
X-75.759 Y7.035
X-75.696 Y7.081
X-75.632 Y7.145
X-75.087 Y7.764
X-75.044 Y7.817
X-74.953 Y7.985
X-74.614 Y8.656
X-74.583 Y8.717
X-74.335 Y9.16
X-74.246 Y9.289
X-74.216 Y9.328
X-74.078 Y9.48
X-74.062 Y9.496
X-73.91 Y9.632
X-73.872 Y9.664
X-73.792 Y9.736
X-73.764 Y9.773
X-73.742 Y9.809
X-73.73 Y9.832
X-73.714 Y9.874
X-73.702 Y9.916
X-73.695 Y9.958
X-73.693 Y10
X-73.695 Y10.042
X-73.702 Y10.084
X-73.714 Y10.126
X-73.73 Y10.168
X-73.742 Y10.191
X-73.764 Y10.227
X-73.792 Y10.264
X-73.833 Y10.304
X-73.91 Y10.364
X-74.062 Y10.504
X-74.078 Y10.52
X-74.216 Y10.672
X-74.246 Y10.711
X-74.335 Y10.84
X-74.583 Y11.283
X-74.614 Y11.344
X-74.953 Y12.015
X-75.044 Y12.183
X-75.087 Y12.236
X-75.558 Y12.77
G3 X-75.908 Y12.891 I-0.291 J-0.275 F800
G1 X-75.964 Y12.869 Z5.005
X-76.02 Y12.848 Z5.019
X-76.072 Y12.827 Z5.042
X-76.109 Y12.788 Z5.074
X-76.142 Y12.753 Z5.115
X-76.17 Y12.723 Z5.163
X-76.193 Y12.699 Z5.217
X-76.204 Y12.677 Z5.275
X-76.211 Y12.664 Z5.337
X-76.213 Y12.659 Z5.4
G0 Z18
X-92.392 Y-4.598
Z5.8
G1 Z5.4 F600
X-92.391 Y-4.591 Z5.322
X-92.385 Y-4.569 Z5.247
X-92.376 Y-4.533 Z5.178
X-92.363 Y-4.485 Z5.117
X-92.348 Y-4.426 Z5.067
X-92.331 Y-4.359 Z5.03
X-92.313 Y-4.287 Z5.008
X-92.293 Y-4.211 Z5
G3 X-91.98 Y-2.033 I-9.893 J2.534
G1 Y-1.941 F1000
X-91.795 Y-1.224
X-91.677 Y-0.494
X-91.603 Y0.243
X-91.556 Y0.981
X-91.527 Y1.721
X-91.509 Y2.46
X-91.498 Y3.2
X-91.491 Y3.94
X-91.487 Y4.68
X-91.484 Y5.421
X-91.482 Y6.901
X-91.48 Y11.341
Y18.094
X-91.455 Y18.183
X-91.406 Y18.261
X-91.143 Y18.522
X-90.518 Y18.918
X-89.812 Y19.142
X-89.084 Y19.274
X-88.348 Y19.354
X-87.61 Y19.402
X-86.871 Y19.432
X-86.131 Y19.451
X-85.391 Y19.462
X-84.651 Y19.469
X-83.911 Y19.473
X-83.171 Y19.476
X-81.684 Y19.478
X-81.642 Y19.481
X-81.601 Y19.487
X-81.561 Y19.498
X-80.635 Y19.798
X-80.467 Y19.848
X-80.299 Y19.887
X-80.131 Y19.912
X-79.963 Y19.932
X-78.954 Y20.038
X-78.45 Y20.088
X-78.281 Y20.097
X-77.777 Y20.1
X-40.452
X-39.947 Y20.088
X-39.852 Y20.077
X-39.443 Y19.998
X-39.275 Y19.962
X-39.038 Y19.909
X-38.308 Y19.784
X-37.577 Y19.67
X-36.84 Y19.598
X-36.102 Y19.554
X-35.362 Y19.526
X-34.622 Y19.508
X-33.882 Y19.497
X-33.142 Y19.491
X-32.402 Y19.487
X-30.922 Y19.483
X-27.962 Y19.48
X-1.875
X-1.786 Y19.455
X-1.708 Y19.406
X-1.455 Y19.135
X-1.07 Y18.504
X-0.851 Y17.797
X-0.722 Y17.068
X-0.644 Y16.332
X-0.596 Y15.594
X-0.567 Y14.854
X-0.549 Y14.114
X-0.538 Y13.374
X-0.531 Y12.634
X-0.527 Y11.894
X-0.523 Y10.414
X-0.52 Y7.454
Y6.714
Y1.904
X-0.545 Y1.815
X-0.594 Y1.736
X-0.858 Y1.476
X-1.484 Y1.081
X-2.189 Y0.858
X-2.917 Y0.726
X-3.653 Y0.646
X-4.391 Y0.597
X-5.131 Y0.568
X-5.871 Y0.549
X-6.611 Y0.538
X-7.351 Y0.531
X-8.091 Y0.527
X-8.831 Y0.524
X-10.311 Y0.522
X-14.751 Y0.52
X-37.886
X-37.961 Y0.512
X-38.033 Y0.488
X-38.098 Y0.45
X-38.266 Y0.35
X-38.434 Y0.269
X-38.602 Y0.201
X-38.77 Y0.154
X-38.938 Y0.113
X-39.275 Y0.038
X-39.443 Y0.002
X-39.852 Y-0.077
X-39.947 Y-0.088
X-40.452 Y-0.1
X-58.106
X-58.274 Y-0.099
X-58.442 Y-0.088
X-58.543 Y-0.077
X-58.61 Y-0.065
X-58.778 Y-0.03
X-58.946 Y0.021
X-59.507 Y0.193
X-60.237 Y0.315
X-60.757 Y0.37
X-60.855 Y0.368
X-60.95 Y0.342
X-61.035 Y0.294
G3 X-61.102 Y-0.267 Z5.2 I0.248 J-0.314 F800
G1 X-61.059 Y-0.313
X-61.009 Y-0.353
X-60.939 Y-0.39 F1000
X-60.863 Y-0.412
X-59.188 Y-0.735
G3 X-58.818 Y-0.613 I0.076 J0.393
G1 X-58.779 Y-0.564 F600
X-58.748 Y-0.508
G3 X-58.946 Y0.021 Z5 I-0.364 J0.166
G1 X-59.114 Y0.091 F1000
X-59.282 Y0.177
X-59.451 Y0.28
X-59.635 Y0.427
X-59.787 Y0.581
X-59.955 Y0.766
X-59.997 Y0.802
X-60.039 Y0.832
X-60.081 Y0.856
X-60.123 Y0.873
X-60.165 Y0.885
X-60.207 Y0.892
X-60.249 Y0.895
X-60.291 Y0.893
X-60.333 Y0.887
X-60.375 Y0.876
X-60.417 Y0.86
X-60.459 Y0.838
X-60.505 Y0.806
X-60.551 Y0.763
X-60.628 Y0.667
X-60.691 Y0.595
X-60.796 Y0.487
X-60.964 Y0.347
X-61.084 Y0.259
X-61.132 Y0.229
X-61.3 Y0.13
X-61.468 Y0.054
X-61.636 Y-0.004
X-61.804 Y-0.049
X-61.951 Y-0.077
X-61.973 Y-0.081
X-62.141 Y-0.094
X-62.309 Y-0.099
X-66.176 Y-0.1
X-77.777
X-78.281 Y-0.097
X-78.45 Y-0.088
X-78.954 Y-0.038
X-79.963 Y0.068
X-80.15 Y0.091
X-80.299 Y0.113
X-80.467 Y0.152
X-81.188 Y0.317
X-81.924 Y0.394
X-82.663 Y0.442
X-83.402 Y0.471
X-84.142 Y0.49
X-84.882 Y0.501
X-85.622 Y0.509
X-86.362 Y0.513
X-87.657 Y0.517
X-87.75
X-87.839 Y0.543
X-87.917 Y0.592
X-88.165 Y0.866
X-88.511 Y1.521
X-88.703 Y2.235
X-88.815 Y2.967
X-88.881 Y3.704
X-88.921 Y4.443
X-88.944 Y5.183
X-88.959 Y5.922
X-88.967 Y6.662
X-88.972 Y7.402
X-88.975 Y8.142
X-88.978 Y9.623
X-88.98 Y13.323
Y15.265
X-88.931 Y15.444
X-88.732 Y15.756
X-88.172 Y16.239
X-87.488 Y16.521
X-86.768 Y16.693
X-86.035 Y16.799
X-85.822 Y16.819
X-85.735 Y16.836
X-85.654 Y16.873
X-85.583 Y16.926
X-85.511 Y16.994
X-84.324 Y18.062
X-84.166 Y18.171
X-83.811 Y18.398
X-83.662 Y18.487
X-82.653 Y19.07
X-82.485 Y19.162
X-82.329 Y19.237
X-82.148 Y19.307
X-81.561 Y19.498
G3 X-81.403 Y20.144 I-0.137 J0.376 F800
G1 X-81.455 Y20.202 Z5.008
X-81.506 Y20.257 Z5.03
X-81.553 Y20.308 Z5.067
X-81.594 Y20.353 Z5.117
X-81.627 Y20.389 Z5.178
X-81.652 Y20.417 Z5.247
X-81.668 Y20.433 Z5.322
X-81.673 Y20.439 Z5.4
G0 Z18
X-79.539 Y-0.573
Z5.8
G1 Z5.4 F600
X-79.544 Y-0.567 Z5.322
X-79.56 Y-0.55 Z5.247
X-79.585 Y-0.523 Z5.178
X-79.618 Y-0.486 Z5.117
X-79.659 Y-0.442 Z5.067
X-79.706 Y-0.391 Z5.03
X-79.757 Y-0.335 Z5.008
X-79.809 Y-0.278 Z5
G3 X-80.467 Y0.152 I-1.167 J-1.069
G1 X-80.635 Y0.202 F1000
X-81.644 Y0.529
X-82.148 Y0.693
X-82.329 Y0.763
X-82.485 Y0.838
X-82.653 Y0.93
X-83.662 Y1.513
X-83.811 Y1.602
X-84.166 Y1.829
X-84.324 Y1.938
X-84.523 Y2.075
X-84.852 Y2.244
X-85.169 Y2.435
X-85.674 Y2.976
X-85.819 Y3.3
X-85.833 Y3.328
X-85.849 Y3.355
X-85.867 Y3.38
G3 X-86.43 Y3.434 Z5.2 I-0.308 J-0.255 F800
G1 X-86.476 Y3.39
X-86.513 Y3.339
G3 X-86.449 Y2.833 I0.338 J-0.214 F1000
G1 X-84.87 Y1.353
G3 X-84.402 Y1.295 I0.274 J0.292
G1 X-84.349 Y1.33 F600
X-84.303 Y1.373
G3 X-84.324 Y1.938 Z5 I-0.293 J0.272
G1 X-85.511 Y3.006 F1000
X-85.655 Y3.143
X-85.679 Y3.166
X-85.787 Y3.282
X-85.847 Y3.354
X-85.921 Y3.45
X-86.775 Y4.625
X-86.892 Y4.793
X-86.999 Y4.961
X-87.087 Y5.129
X-87.164 Y5.297
X-87.612 Y6.305
X-87.759 Y6.641
X-87.828 Y6.809
X-87.96 Y7.313
X-88.174 Y8.32
X-88.208 Y8.488
X-88.272 Y8.824
X-88.293 Y8.992
X-88.303 Y9.328
X-88.306 Y9.496
Y10.504
X-88.303 Y10.672
X-88.293 Y11.008
X-88.272 Y11.176
X-88.201 Y11.546
X-88.174 Y11.68
X-87.96 Y12.687
X-87.828 Y13.191
X-87.759 Y13.359
X-87.612 Y13.695
X-87.164 Y14.703
X-87.087 Y14.871
X-86.999 Y15.039
X-86.892 Y15.207
X-86.775 Y15.375
X-85.921 Y16.55
X-85.847 Y16.646
X-85.787 Y16.718
X-85.679 Y16.834
X-85.583 Y16.926
G3 X-85.717 Y17.578 I-0.284 J0.281 F800
G1 X-85.789 Y17.607 Z5.008
X-85.858 Y17.635 Z5.03
X-85.922 Y17.661 Z5.067
X-85.979 Y17.684 Z5.117
X-86.025 Y17.703 Z5.178
X-86.059 Y17.717 Z5.247
X-86.08 Y17.726 Z5.322
X-86.087 Y17.729 Z5.4
G0 Z18
X-40.016 Y20.564
Z5.8
G1 Z5.4 F600
X-40.01 Y20.559 Z5.322
X-39.994 Y20.543 Z5.247
X-39.967 Y20.518 Z5.178
X-39.931 Y20.484 Z5.117
X-39.886 Y20.442 Z5.067
X-39.836 Y20.395 Z5.03
X-39.782 Y20.343 Z5.008
X-39.725 Y20.29 Z5
G3 X-39.038 Y19.909 I1.086 J1.151
G1 X-38.938 Y19.887 F1000
X-38.77 Y19.846
X-38.602 Y19.799
X-38.434 Y19.731
X-38.266 Y19.65
X-38.098 Y19.55
X-37.904 Y19.405
X-37.593 Y19.166
X-37.425 Y19.035
X-37.257 Y18.901
X-37.089 Y18.747
X-37.076 Y18.734
X-36.932 Y18.566
X-36.819 Y18.435
X-36.542 Y18.187
X-36.165 Y17.93
X-35.642 Y17.666
X-34.944 Y17.42
X-34.222 Y17.26
X-33.489 Y17.157
X-32.841 Y17.1
X-32.818 Y17.099
G3 X-32.432 Y17.513 Z5.2 I-0.014 J0.4 F800
G1 X-32.439 Y17.575
X-32.456 Y17.636
G3 X-32.702 Y17.877 I-0.376 J-0.137 F1000
G1 X-36.476 Y19.176
G3 X-36.726 Y19.179 I-0.13 J-0.378
G1 X-36.784 Y19.156 F600
X-36.839 Y19.123
G3 X-36.932 Y18.566 Z5 I0.232 J-0.326
G1 X-36.921 Y18.551 F1000
X-36.813 Y18.398
X-36.716 Y18.23
X-36.626 Y18.062
X-36.248 Y17.322
X-36.216 Y17.272
X-36.171 Y17.222
X-36.126 Y17.182
X-36.08 Y17.152
X-36.038 Y17.131
X-35.996 Y17.116
X-35.954 Y17.106
X-35.912 Y17.1
X-35.744 Y17.099
X-10.86 Y17.1
X-10.692 Y17.089
X-9.952 Y17.071
X-9.213 Y17.036
X-8.473 Y17.015
X-7.733 Y17.002
X-6.993 Y16.993
X-6.253 Y16.988
X-5.513 Y16.985
X-4.773 Y16.983
X-4.681 Y16.977
X-4.507 Y16.915
X-4.206 Y16.7
X-3.738 Y16.126
X-3.465 Y15.438
X-3.299 Y14.717
X-3.195 Y13.984
X-3.131 Y13.247
X-3.09 Y12.508
X-3.064 Y11.769
X-3.048 Y11.029
X-3.038 Y10.289
X-3.031 Y9.549
X-3.027 Y8.809
X-3.023 Y7.329
X-3.021 Y4.738
X-3.067 Y4.559
X-3.265 Y4.247
X-3.824 Y3.762
X-4.508 Y3.48
X-5.228 Y3.308
X-5.961 Y3.201
X-6.698 Y3.134
X-7.436 Y3.092
X-8.176 Y3.066
X-8.916 Y3.049
X-9.542 Y3.04
X-9.573 Y3.037
X-10.263 Y2.946
X-10.356 Y2.936
X-10.692 Y2.911
X-10.86 Y2.9
X-35.744
X-35.912 Y2.899
X-35.954 Y2.893
X-35.996 Y2.883
X-36.038 Y2.868
X-36.08 Y2.847
X-36.125 Y2.817
X-36.17 Y2.778
X-36.216 Y2.728
X-36.248 Y2.677
X-36.626 Y1.938
X-36.716 Y1.77
X-36.813 Y1.602
X-36.921 Y1.448
X-36.931 Y1.434
X-37.076 Y1.266
X-37.089 Y1.253
X-37.257 Y1.098
X-37.425 Y0.964
X-37.762 Y0.704
X-37.93 Y0.575
X-38.098 Y0.45
G3 X-38.04 Y-0.213 I0.25 J-0.312 F800
G1 X-37.971 Y-0.25 Z5.008
X-37.906 Y-0.287 Z5.03
X-37.845 Y-0.32 Z5.067
X-37.792 Y-0.349 Z5.117
X-37.748 Y-0.373 Z5.178
X-37.716 Y-0.391 Z5.247
X-37.696 Y-0.402 Z5.322
X-37.689 Y-0.405 Z5.4
G0 Z18
X-11.755 Y17.595
Z5.8
G1 Z5.4 F600
X-11.749 Y17.59 Z5.322
X-11.73 Y17.577 Z5.247
X-11.7 Y17.556 Z5.178
X-11.659 Y17.527 Z5.117
X-11.609 Y17.493 Z5.067
X-11.553 Y17.453 Z5.03
X-11.491 Y17.41 Z5.008
X-11.427 Y17.365 Z5
G3 X-10.692 Y17.089 I0.907 J1.297
G1 X-10.356 Y17.064 F1000
X-10.264 Y17.054
X-9.347 Y16.933
X-9.179 Y16.909
X-9.011 Y16.876
X-8.843 Y16.836
X-8.675 Y16.777
X-8.002 Y16.5
X-7.666 Y16.361
X-7.498 Y16.286
X-7.134 Y16.107
X-7.106 Y16.087
X-6.822 Y15.878
X-6.657 Y15.755
X-6.153 Y15.368
X-5.984 Y15.237
X-5.816 Y15.098
X-5.753 Y15.039
X-5.6 Y14.871
X-5.48 Y14.725
X-4.976 Y14.067
X-4.695 Y13.695
X-4.639 Y13.609
X-4.59 Y13.527
X-4.505 Y13.359
X-4.471 Y13.282
X-3.967 Y12.064
X-3.949 Y12.015
X-3.897 Y11.847
X-3.859 Y11.68
X-3.831 Y11.512
X-3.699 Y10.504
X-3.652 Y10
X-3.699 Y9.496
X-3.831 Y8.488
X-3.859 Y8.32
X-3.897 Y8.153
X-3.949 Y7.985
X-3.967 Y7.936
X-4.471 Y6.717
X-4.505 Y6.641
X-4.59 Y6.473
X-4.639 Y6.391
X-4.695 Y6.305
X-4.976 Y5.933
X-5.48 Y5.275
X-5.6 Y5.129
X-5.753 Y4.961
X-5.816 Y4.902
X-5.984 Y4.763
X-6.161 Y4.625
X-6.657 Y4.245
X-6.825 Y4.119
X-7.12 Y3.903
X-7.134 Y3.893
X-7.498 Y3.714
X-7.666 Y3.639
X-8.338 Y3.361
X-8.675 Y3.223
X-8.843 Y3.164
X-9.011 Y3.124
X-9.179 Y3.091
X-9.347 Y3.067
X-9.573 Y3.037
G3 X-9.869 Y2.813 I0.066 J-0.395 F800
G1 X-9.882 Y2.754 Z5.005
X-9.895 Y2.697 Z5.019
X-9.907 Y2.642 Z5.041
X-9.895 Y2.59 Z5.073
X-9.885 Y2.543 Z5.114
X-9.876 Y2.503 Z5.161
X-9.868 Y2.47 Z5.214
X-9.856 Y2.448 Z5.274
X-9.849 Y2.435 Z5.336
X-9.846 Y2.43 Z5.4
G0 Z18
X-79.172 Y10.44
Z5.3
G3 X-78.542 Y9.022 Z5.238 I0.922 J-0.439 F600
X-77.24 Y9.862 Z5.177 I0.292 J0.977
X-78.27 Y11.018 Z5.115 I-1.01 J0.137
X-79.252 Y9.823 Z5.054 I0.021 J-1.018
X-77.92 Y9.038 Z4.992 I1.001 J0.177
X-77.352 Y10.473 Z4.931 I-0.329 J0.961
X-78.855 Y10.813 Z4.869 I-0.897 J-0.473
X-78.959 Y9.276 Z4.808 I0.606 J-0.813
X-77.426 Y9.411 Z4.746 I0.709 J0.723
X-77.796 Y10.903 Z4.685 I-0.823 J0.588
X-79.211 Y10.308 Z4.623 I-0.453 J-0.903
X-78.406 Y9.003 Z4.562 I0.961 J-0.308
X-77.242 Y9.999 Z4.5 I0.156 J0.996
X-79.258 Y9.999 I-1.008 J0
X-77.242 Y9.999 I1.008 J0
G1 X-77.201 Y10.738 F1000
X-77.168 Y10.824
X-77.134 Y10.971
X-77.128 Y11.12
X-77.146 Y11.269
X-77.186 Y11.414
X-77.248 Y11.561
X-77.335 Y11.71
X-77.448 Y11.855
X-77.587 Y11.993
X-77.753 Y12.118
X-77.944 Y12.227
X-78.158 Y12.315
X-78.392 Y12.377
X-78.644 Y12.409
X-78.909 Y12.408
X-79.182 Y12.372
X-79.458 Y12.297
X-79.731 Y12.183
X-79.994 Y12.031
X-80.242 Y11.84
X-80.468 Y11.613
X-80.668 Y11.353
X-80.835 Y11.063
X-80.966 Y10.748
X-81.056 Y10.413
X-81.102 Y10.065
X-81.103 Y9.709
X-81.057 Y9.352
X-80.963 Y9.001
X-80.824 Y8.662
X-80.641 Y8.342
X-80.416 Y8.047
X-80.153 Y7.782
X-79.856 Y7.552
X-79.531 Y7.362
X-79.183 Y7.216
X-78.817 Y7.116
X-78.441 Y7.064
X-78.06 Y7.062
X-77.681 Y7.109
X-77.311 Y7.205
X-76.957 Y7.349
X-76.624 Y7.538
X-76.317 Y7.769
X-76.044 Y8.038
X-75.776 Y8.38
X-75.432 Y8.962
X-75.199 Y9.509
X-75.056 Y10.025
X-74.985 Y10.522
X-74.979 Y11.008
X-75.036 Y11.482
X-75.154 Y11.941
X-75.33 Y12.382
X-75.509 Y12.702
X-75.523 Y12.726
X-75.54 Y12.748
X-75.558 Y12.77
X-75.632 Y12.855
X-75.696 Y12.919
X-75.759 Y12.965
X-76.432 Y13.42
X-76.516 Y13.47
X-76.6 Y13.502
X-77.273 Y13.739
X-77.441 Y13.794
X-77.609 Y13.811
X-78.365 Y13.875
X-78.408 Y13.876
X-78.45 Y13.873
X-78.786 Y13.816
X-79.29 Y13.729
X-79.358 Y13.717
X-79.426 Y13.695
X-80.169 Y13.359
X-80.299 Y13.293
X-80.429 Y13.191
X-80.972 Y12.753
X-81.047 Y12.687
X-81.14 Y12.57
X-81.55 Y12.015
X-81.644 Y11.878
X-81.658 Y11.847
X-81.98 Y11.046
X-81.994 Y11.008
X-82.015 Y10.924
X-82.111 Y10.168
X-82.13 Y10
X-82.111 Y9.832
X-82.015 Y9.076
X-81.994 Y8.992
X-81.98 Y8.954
X-81.658 Y8.153
X-81.644 Y8.122
X-81.55 Y7.985
X-81.14 Y7.43
X-81.047 Y7.313
X-80.972 Y7.247
X-80.429 Y6.809
X-80.299 Y6.707
X-80.169 Y6.641
X-79.426 Y6.305
X-79.358 Y6.283
X-79.29 Y6.271
X-78.511 Y6.137
X-78.45 Y6.127
X-78.408 Y6.124
X-78.365 Y6.125
X-77.609 Y6.189
X-77.441 Y6.206
X-77.273 Y6.261
X-76.6 Y6.498
X-76.516 Y6.53
X-76.432 Y6.58
X-75.759 Y7.035
X-75.696 Y7.081
X-75.632 Y7.145
X-75.087 Y7.764
X-75.044 Y7.817
X-74.953 Y7.985
X-74.614 Y8.656
X-74.583 Y8.717
X-74.335 Y9.16
X-74.246 Y9.289
X-74.216 Y9.328
X-74.078 Y9.48
X-74.062 Y9.496
X-73.91 Y9.632
X-73.872 Y9.664
X-73.792 Y9.736
X-73.764 Y9.773
X-73.742 Y9.809
X-73.73 Y9.832
X-73.714 Y9.874
X-73.702 Y9.916
X-73.695 Y9.958
X-73.693 Y10
X-73.695 Y10.042
X-73.702 Y10.084
X-73.714 Y10.126
X-73.73 Y10.168
X-73.742 Y10.191
X-73.764 Y10.227
X-73.792 Y10.264
X-73.833 Y10.304
X-73.91 Y10.364
X-74.062 Y10.504
X-74.078 Y10.52
X-74.216 Y10.672
X-74.246 Y10.711
X-74.335 Y10.84
X-74.583 Y11.283
X-74.614 Y11.344
X-74.953 Y12.015
X-75.044 Y12.183
X-75.087 Y12.236
X-75.558 Y12.77
G3 X-75.908 Y12.891 I-0.291 J-0.275 F800
G1 X-75.964 Y12.869 Z4.505
X-76.02 Y12.848 Z4.519
X-76.072 Y12.827 Z4.542
X-76.109 Y12.788 Z4.574
X-76.142 Y12.753 Z4.615
X-76.17 Y12.723 Z4.663
X-76.193 Y12.699 Z4.717
X-76.204 Y12.677 Z4.775
X-76.211 Y12.664 Z4.837
X-76.213 Y12.659 Z4.9
G0 Z18
X-92.392 Y-4.598
Z5.3
G1 Z4.9 F600
X-92.391 Y-4.591 Z4.822
X-92.385 Y-4.569 Z4.747
X-92.376 Y-4.533 Z4.678
X-92.363 Y-4.485 Z4.617
X-92.348 Y-4.426 Z4.567
X-92.331 Y-4.359 Z4.53
X-92.313 Y-4.287 Z4.508
X-92.293 Y-4.211 Z4.5
G3 X-91.98 Y-2.033 I-9.893 J2.534
G1 Y-1.941 F1000
X-91.795 Y-1.224
X-91.677 Y-0.494
X-91.603 Y0.243
X-91.556 Y0.981
X-91.527 Y1.721
X-91.509 Y2.46
X-91.498 Y3.2
X-91.491 Y3.94
X-91.487 Y4.68
X-91.484 Y5.421
X-91.482 Y6.901
X-91.48 Y11.341
Y18.094
X-91.455 Y18.183
X-91.406 Y18.261
X-91.143 Y18.522
X-90.518 Y18.918
X-89.812 Y19.142
X-89.084 Y19.274
X-88.348 Y19.354
X-87.61 Y19.402
X-86.871 Y19.432
X-86.131 Y19.451
X-85.391 Y19.462
X-84.651 Y19.469
X-83.911 Y19.473
X-83.171 Y19.476
X-81.684 Y19.478
X-81.642 Y19.481
X-81.601 Y19.487
X-81.561 Y19.498
X-80.635 Y19.798
X-80.467 Y19.848
X-80.299 Y19.887
X-80.131 Y19.912
X-79.963 Y19.932
X-78.954 Y20.038
X-78.45 Y20.088
X-78.281 Y20.097
X-77.777 Y20.1
X-40.452
X-39.947 Y20.088
X-39.852 Y20.077
X-39.443 Y19.998
X-39.275 Y19.962
X-39.038 Y19.909
X-38.308 Y19.784
X-37.577 Y19.67
X-36.84 Y19.598
X-36.102 Y19.554
X-35.362 Y19.526
X-34.622 Y19.508
X-33.882 Y19.497
X-33.142 Y19.491
X-32.402 Y19.487
X-30.922 Y19.483
X-27.962 Y19.48
X-1.875
X-1.786 Y19.455
X-1.708 Y19.406
X-1.455 Y19.135
X-1.07 Y18.504
X-0.851 Y17.797
X-0.722 Y17.068
X-0.644 Y16.332
X-0.596 Y15.594
X-0.567 Y14.854
X-0.549 Y14.114
X-0.538 Y13.374
X-0.531 Y12.634
X-0.527 Y11.894
X-0.523 Y10.414
X-0.52 Y7.454
Y6.714
Y1.904
X-0.545 Y1.815
X-0.594 Y1.736
X-0.858 Y1.476
X-1.484 Y1.081
X-2.189 Y0.858
X-2.917 Y0.726
X-3.653 Y0.646
X-4.391 Y0.597
X-5.131 Y0.568
X-5.871 Y0.549
X-6.611 Y0.538
X-7.351 Y0.531
X-8.091 Y0.527
X-8.831 Y0.524
X-10.311 Y0.522
X-14.751 Y0.52
X-37.886
X-37.961 Y0.512
X-38.033 Y0.488
X-38.098 Y0.45
X-38.266 Y0.35
X-38.434 Y0.269
X-38.602 Y0.201
X-38.77 Y0.154
X-38.938 Y0.113
X-39.275 Y0.038
X-39.443 Y0.002
X-39.852 Y-0.077
X-39.947 Y-0.088
X-40.452 Y-0.1
X-58.106
X-58.274 Y-0.099
X-58.442 Y-0.088
X-58.543 Y-0.077
X-58.61 Y-0.065
X-58.778 Y-0.03
X-58.946 Y0.021
X-59.507 Y0.193
X-60.237 Y0.315
X-60.757 Y0.37
X-60.855 Y0.368
X-60.95 Y0.342
X-61.035 Y0.294
G3 X-61.102 Y-0.267 Z4.7 I0.248 J-0.314 F800
G1 X-61.059 Y-0.313
X-61.009 Y-0.353
X-60.939 Y-0.39 F1000
X-60.863 Y-0.412
X-59.188 Y-0.735
G3 X-58.818 Y-0.613 I0.076 J0.393
G1 X-58.779 Y-0.564 F600
X-58.748 Y-0.508
G3 X-58.946 Y0.021 Z4.5 I-0.364 J0.166
G1 X-59.114 Y0.091 F1000
X-59.282 Y0.177
X-59.451 Y0.28
X-59.635 Y0.427
X-59.787 Y0.581
X-59.955 Y0.766
X-59.997 Y0.802
X-60.039 Y0.832
X-60.081 Y0.856
X-60.123 Y0.873
X-60.165 Y0.885
X-60.207 Y0.892
X-60.249 Y0.895
X-60.291 Y0.893
X-60.333 Y0.887
X-60.375 Y0.876
X-60.417 Y0.86
X-60.459 Y0.838
X-60.505 Y0.806
X-60.551 Y0.763
X-60.628 Y0.667
X-60.691 Y0.595
X-60.796 Y0.487
X-60.964 Y0.347
X-61.084 Y0.259
X-61.132 Y0.229
X-61.3 Y0.13
X-61.468 Y0.054
X-61.636 Y-0.004
X-61.804 Y-0.049
X-61.951 Y-0.077
X-61.973 Y-0.081
X-62.141 Y-0.094
X-62.309 Y-0.099
X-66.176 Y-0.1
X-77.777
X-78.281 Y-0.097
X-78.45 Y-0.088
X-78.954 Y-0.038
X-79.963 Y0.068
X-80.15 Y0.091
X-80.299 Y0.113
X-80.467 Y0.152
X-81.188 Y0.317
X-81.924 Y0.394
X-82.663 Y0.442
X-83.402 Y0.471
X-84.142 Y0.49
X-84.882 Y0.501
X-85.622 Y0.509
X-86.362 Y0.513
X-87.657 Y0.517
X-87.75
X-87.839 Y0.543
X-87.917 Y0.592
X-88.165 Y0.866
X-88.511 Y1.521
X-88.703 Y2.235
X-88.815 Y2.967
X-88.881 Y3.704
X-88.921 Y4.443
X-88.944 Y5.183
X-88.959 Y5.922
X-88.967 Y6.662
X-88.972 Y7.402
X-88.975 Y8.142
X-88.978 Y9.623
X-88.98 Y13.323
Y15.265
X-88.931 Y15.444
X-88.732 Y15.756
X-88.172 Y16.239
X-87.488 Y16.521
X-86.768 Y16.693
X-86.035 Y16.799
X-85.822 Y16.819
X-85.735 Y16.836
X-85.654 Y16.873
X-85.583 Y16.926
X-85.511 Y16.994
X-84.324 Y18.062
X-84.166 Y18.171
X-83.811 Y18.398
X-83.662 Y18.487
X-82.653 Y19.07
X-82.485 Y19.162
X-82.329 Y19.237
X-82.148 Y19.307
X-81.561 Y19.498
G3 X-81.403 Y20.144 I-0.137 J0.376 F800
G1 X-81.455 Y20.202 Z4.508
X-81.506 Y20.257 Z4.53
X-81.553 Y20.308 Z4.567
X-81.594 Y20.353 Z4.617
X-81.627 Y20.389 Z4.678
X-81.652 Y20.417 Z4.747
X-81.668 Y20.433 Z4.822
X-81.673 Y20.439 Z4.9
G0 Z18
X-79.539 Y-0.573
Z5.3
G1 Z4.9 F600
X-79.544 Y-0.567 Z4.822
X-79.56 Y-0.55 Z4.747
X-79.585 Y-0.523 Z4.678
X-79.618 Y-0.486 Z4.617
X-79.659 Y-0.442 Z4.567
X-79.706 Y-0.391 Z4.53
X-79.757 Y-0.335 Z4.508
X-79.809 Y-0.278 Z4.5
G3 X-80.467 Y0.152 I-1.167 J-1.069
G1 X-80.635 Y0.202 F1000
X-81.644 Y0.529
X-82.148 Y0.693
X-82.329 Y0.763
X-82.485 Y0.838
X-82.653 Y0.93
X-83.662 Y1.513
X-83.811 Y1.602
X-84.166 Y1.829
X-84.324 Y1.938
X-84.523 Y2.075
X-84.852 Y2.244
X-85.169 Y2.435
X-85.674 Y2.976
X-85.819 Y3.3
X-85.833 Y3.328
X-85.849 Y3.355
X-85.867 Y3.38
G3 X-86.43 Y3.434 Z4.7 I-0.308 J-0.255 F800
G1 X-86.476 Y3.39
X-86.513 Y3.339
G3 X-86.449 Y2.833 I0.338 J-0.214 F1000
G1 X-84.87 Y1.353
G3 X-84.402 Y1.295 I0.274 J0.292
G1 X-84.349 Y1.33 F600
X-84.303 Y1.373
G3 X-84.324 Y1.938 Z4.5 I-0.293 J0.272
G1 X-85.511 Y3.006 F1000
X-85.655 Y3.143
X-85.679 Y3.166
X-85.787 Y3.282
X-85.847 Y3.354
X-85.921 Y3.45
X-86.775 Y4.625
X-86.892 Y4.793
X-86.999 Y4.961
X-87.087 Y5.129
X-87.164 Y5.297
X-87.612 Y6.305
X-87.759 Y6.641
X-87.828 Y6.809
X-87.96 Y7.313
X-88.174 Y8.32
X-88.208 Y8.488
X-88.272 Y8.824
X-88.293 Y8.992
X-88.303 Y9.328
X-88.306 Y9.496
Y10.504
X-88.303 Y10.672
X-88.293 Y11.008
X-88.272 Y11.176
X-88.201 Y11.546
X-88.174 Y11.68
X-87.96 Y12.687
X-87.828 Y13.191
X-87.759 Y13.359
X-87.612 Y13.695
X-87.164 Y14.703
X-87.087 Y14.871
X-86.999 Y15.039
X-86.892 Y15.207
X-86.775 Y15.375
X-85.921 Y16.55
X-85.847 Y16.646
X-85.787 Y16.718
X-85.679 Y16.834
X-85.583 Y16.926
G3 X-85.717 Y17.578 I-0.284 J0.281 F800
G1 X-85.789 Y17.607 Z4.508
X-85.858 Y17.635 Z4.53
X-85.922 Y17.661 Z4.567
X-85.979 Y17.684 Z4.617
X-86.025 Y17.703 Z4.678
X-86.059 Y17.717 Z4.747
X-86.08 Y17.726 Z4.822
X-86.087 Y17.729 Z4.9
G0 Z18
X-40.016 Y20.564
Z5.3
G1 Z4.9 F600
X-40.01 Y20.559 Z4.822
X-39.994 Y20.543 Z4.747
X-39.967 Y20.518 Z4.678
X-39.931 Y20.484 Z4.617
X-39.886 Y20.442 Z4.567
X-39.836 Y20.395 Z4.53
X-39.782 Y20.343 Z4.508
X-39.725 Y20.29 Z4.5
G3 X-39.038 Y19.909 I1.086 J1.151
G1 X-38.938 Y19.887 F1000
X-38.77 Y19.846
X-38.602 Y19.799
X-38.434 Y19.731
X-38.266 Y19.65
X-38.098 Y19.55
X-37.904 Y19.405
X-37.593 Y19.166
X-37.425 Y19.035
X-37.257 Y18.901
X-37.089 Y18.747
X-37.076 Y18.734
X-36.932 Y18.566
X-36.819 Y18.435
X-36.542 Y18.187
X-36.165 Y17.93
X-35.642 Y17.666
X-34.944 Y17.42
X-34.222 Y17.26
X-33.489 Y17.157
X-32.841 Y17.1
X-32.818 Y17.099
G3 X-32.432 Y17.513 Z4.7 I-0.014 J0.4 F800
G1 X-32.439 Y17.575
X-32.456 Y17.636
G3 X-32.702 Y17.877 I-0.376 J-0.137 F1000
G1 X-36.476 Y19.176
G3 X-36.726 Y19.179 I-0.13 J-0.378
G1 X-36.784 Y19.156 F600
X-36.839 Y19.123
G3 X-36.932 Y18.566 Z4.5 I0.232 J-0.326
G1 X-36.921 Y18.551 F1000
X-36.813 Y18.398
X-36.716 Y18.23
X-36.626 Y18.062
X-36.248 Y17.322
X-36.216 Y17.272
X-36.171 Y17.222
X-36.126 Y17.182
X-36.08 Y17.152
X-36.038 Y17.131
X-35.996 Y17.116
X-35.954 Y17.106
X-35.912 Y17.1
X-35.744 Y17.099
X-10.86 Y17.1
X-10.692 Y17.089
X-9.952 Y17.071
X-9.213 Y17.036
X-8.473 Y17.015
X-7.733 Y17.002
X-6.993 Y16.993
X-6.253 Y16.988
X-5.513 Y16.985
X-4.773 Y16.983
X-4.681 Y16.977
X-4.507 Y16.915
X-4.206 Y16.7
X-3.738 Y16.126
X-3.465 Y15.438
X-3.299 Y14.717
X-3.195 Y13.984
X-3.131 Y13.247
X-3.09 Y12.508
X-3.064 Y11.769
X-3.048 Y11.029
X-3.038 Y10.289
X-3.031 Y9.549
X-3.027 Y8.809
X-3.023 Y7.329
X-3.021 Y4.738
X-3.067 Y4.559
X-3.265 Y4.247
X-3.824 Y3.762
X-4.508 Y3.48
X-5.228 Y3.308
X-5.961 Y3.201
X-6.698 Y3.134
X-7.436 Y3.092
X-8.176 Y3.066
X-8.916 Y3.049
X-9.542 Y3.04
X-9.573 Y3.037
X-10.263 Y2.946
X-10.356 Y2.936
X-10.692 Y2.911
X-10.86 Y2.9
X-35.744
X-35.912 Y2.899
X-35.954 Y2.893
X-35.996 Y2.883
X-36.038 Y2.868
X-36.08 Y2.847
X-36.125 Y2.817
X-36.17 Y2.778
X-36.216 Y2.728
X-36.248 Y2.677
X-36.626 Y1.938
X-36.716 Y1.77
X-36.813 Y1.602
X-36.921 Y1.448
X-36.931 Y1.434
X-37.076 Y1.266
X-37.089 Y1.253
X-37.257 Y1.098
X-37.425 Y0.964
X-37.762 Y0.704
X-37.93 Y0.575
X-38.098 Y0.45
G3 X-38.04 Y-0.213 I0.25 J-0.312 F800
G1 X-37.971 Y-0.25 Z4.508
X-37.906 Y-0.287 Z4.53
X-37.845 Y-0.32 Z4.567
X-37.792 Y-0.349 Z4.617
X-37.748 Y-0.373 Z4.678
X-37.716 Y-0.391 Z4.747
X-37.696 Y-0.402 Z4.822
X-37.689 Y-0.405 Z4.9
G0 Z18
X-11.755 Y17.595
Z5.3
G1 Z4.9 F600
X-11.749 Y17.59 Z4.822
X-11.73 Y17.577 Z4.747
X-11.7 Y17.556 Z4.678
X-11.659 Y17.527 Z4.617
X-11.609 Y17.493 Z4.567
X-11.553 Y17.453 Z4.53
X-11.491 Y17.41 Z4.508
X-11.427 Y17.365 Z4.5
G3 X-10.692 Y17.089 I0.907 J1.297
G1 X-10.356 Y17.064 F1000
X-10.264 Y17.054
X-9.347 Y16.933
X-9.179 Y16.909
X-9.011 Y16.876
X-8.843 Y16.836
X-8.675 Y16.777
X-8.002 Y16.5
X-7.666 Y16.361
X-7.498 Y16.286
X-7.134 Y16.107
X-7.106 Y16.087
X-6.822 Y15.878
X-6.657 Y15.755
X-6.153 Y15.368
X-5.984 Y15.237
X-5.816 Y15.098
X-5.753 Y15.039
X-5.6 Y14.871
X-5.48 Y14.725
X-4.976 Y14.067
X-4.695 Y13.695
X-4.639 Y13.609
X-4.59 Y13.527
X-4.505 Y13.359
X-4.471 Y13.282
X-3.967 Y12.064
X-3.949 Y12.015
X-3.897 Y11.847
X-3.859 Y11.68
X-3.831 Y11.512
X-3.699 Y10.504
X-3.652 Y10
X-3.699 Y9.496
X-3.831 Y8.488
X-3.859 Y8.32
X-3.897 Y8.153
X-3.949 Y7.985
X-3.967 Y7.936
X-4.471 Y6.717
X-4.505 Y6.641
X-4.59 Y6.473
X-4.639 Y6.391
X-4.695 Y6.305
X-4.976 Y5.933
X-5.48 Y5.275
X-5.6 Y5.129
X-5.753 Y4.961
X-5.816 Y4.902
X-5.984 Y4.763
X-6.161 Y4.625
X-6.657 Y4.245
X-6.825 Y4.119
X-7.12 Y3.903
X-7.134 Y3.893
X-7.498 Y3.714
X-7.666 Y3.639
X-8.338 Y3.361
X-8.675 Y3.223
X-8.843 Y3.164
X-9.011 Y3.124
X-9.179 Y3.091
X-9.347 Y3.067
X-9.573 Y3.037
G3 X-9.869 Y2.813 I0.066 J-0.395 F800
G1 X-9.882 Y2.754 Z4.505
X-9.895 Y2.697 Z4.519
X-9.907 Y2.642 Z4.541
X-9.895 Y2.59 Z4.573
X-9.885 Y2.543 Z4.614
X-9.876 Y2.503 Z4.661
X-9.868 Y2.47 Z4.714
X-9.856 Y2.448 Z4.774
X-9.849 Y2.435 Z4.836
X-9.846 Y2.43 Z4.9
G0 Z18
X-79.172 Y10.44
Z4.8
G3 X-78.542 Y9.022 Z4.738 I0.922 J-0.439 F600
X-77.24 Y9.862 Z4.677 I0.292 J0.977
X-78.27 Y11.018 Z4.615 I-1.01 J0.137
X-79.252 Y9.823 Z4.554 I0.021 J-1.018
X-77.92 Y9.038 Z4.492 I1.001 J0.177
X-77.352 Y10.473 Z4.431 I-0.329 J0.961
X-78.855 Y10.813 Z4.369 I-0.897 J-0.473
X-78.959 Y9.276 Z4.308 I0.606 J-0.813
X-77.426 Y9.411 Z4.246 I0.709 J0.723
X-77.796 Y10.903 Z4.185 I-0.823 J0.588
X-79.211 Y10.308 Z4.123 I-0.453 J-0.903
X-78.406 Y9.003 Z4.062 I0.961 J-0.308
X-77.242 Y9.999 Z4 I0.156 J0.996
X-79.258 Y9.999 I-1.008 J0
X-77.242 Y9.999 I1.008 J0
G1 X-77.201 Y10.738 F1000
X-77.168 Y10.824
X-77.134 Y10.971
X-77.128 Y11.12
X-77.146 Y11.269
X-77.186 Y11.414
X-77.248 Y11.561
X-77.335 Y11.71
X-77.448 Y11.855
X-77.587 Y11.993
X-77.753 Y12.118
X-77.944 Y12.227
X-78.158 Y12.315
X-78.392 Y12.377
X-78.644 Y12.409
X-78.909 Y12.408
X-79.182 Y12.372
X-79.458 Y12.297
X-79.731 Y12.183
X-79.994 Y12.031
X-80.242 Y11.84
X-80.468 Y11.613
X-80.668 Y11.353
X-80.835 Y11.063
X-80.966 Y10.748
X-81.056 Y10.413
X-81.102 Y10.065
X-81.103 Y9.709
X-81.057 Y9.352
X-80.963 Y9.001
X-80.824 Y8.662
X-80.641 Y8.342
X-80.416 Y8.047
X-80.153 Y7.782
X-79.856 Y7.552
X-79.531 Y7.362
X-79.183 Y7.216
X-78.817 Y7.116
X-78.441 Y7.064
X-78.06 Y7.062
X-77.681 Y7.109
X-77.311 Y7.205
X-76.957 Y7.349
X-76.624 Y7.538
X-76.317 Y7.769
X-76.044 Y8.038
X-75.776 Y8.38
X-75.432 Y8.962
X-75.199 Y9.509
X-75.056 Y10.025
X-74.985 Y10.522
X-74.979 Y11.008
X-75.036 Y11.482
X-75.154 Y11.941
X-75.33 Y12.382
X-75.509 Y12.702
X-75.523 Y12.726
X-75.54 Y12.748
X-75.558 Y12.77
X-75.632 Y12.855
X-75.696 Y12.919
X-75.759 Y12.965
X-76.432 Y13.42
X-76.516 Y13.47
X-76.6 Y13.502
X-77.273 Y13.739
X-77.441 Y13.794
X-77.609 Y13.811
X-78.365 Y13.875
X-78.408 Y13.876
X-78.45 Y13.873
X-78.786 Y13.816
X-79.29 Y13.729
X-79.358 Y13.717
X-79.426 Y13.695
X-80.169 Y13.359
X-80.299 Y13.293
X-80.429 Y13.191
X-80.972 Y12.753
X-81.047 Y12.687
X-81.14 Y12.57
X-81.55 Y12.015
X-81.644 Y11.878
X-81.658 Y11.847
X-81.98 Y11.046
X-81.994 Y11.008
X-82.015 Y10.924
X-82.111 Y10.168
X-82.13 Y10
X-82.111 Y9.832
X-82.015 Y9.076
X-81.994 Y8.992
X-81.98 Y8.954
X-81.658 Y8.153
X-81.644 Y8.122
X-81.55 Y7.985
X-81.14 Y7.43
X-81.047 Y7.313
X-80.972 Y7.247
X-80.429 Y6.809
X-80.299 Y6.707
X-80.169 Y6.641
X-79.426 Y6.305
X-79.358 Y6.283
X-79.29 Y6.271
X-78.511 Y6.137
X-78.45 Y6.127
X-78.408 Y6.124
X-78.365 Y6.125
X-77.609 Y6.189
X-77.441 Y6.206
X-77.273 Y6.261
X-76.6 Y6.498
X-76.516 Y6.53
X-76.432 Y6.58
X-75.759 Y7.035
X-75.696 Y7.081
X-75.632 Y7.145
X-75.087 Y7.764
X-75.044 Y7.817
X-74.953 Y7.985
X-74.614 Y8.656
X-74.583 Y8.717
X-74.335 Y9.16
X-74.246 Y9.289
X-74.216 Y9.328
X-74.078 Y9.48
X-74.062 Y9.496
X-73.91 Y9.632
X-73.872 Y9.664
X-73.792 Y9.736
X-73.764 Y9.773
X-73.742 Y9.809
X-73.73 Y9.832
X-73.714 Y9.874
X-73.702 Y9.916
X-73.695 Y9.958
X-73.693 Y10
X-73.695 Y10.042
X-73.702 Y10.084
X-73.714 Y10.126
X-73.73 Y10.168
X-73.742 Y10.191
X-73.764 Y10.227
X-73.792 Y10.264
X-73.833 Y10.304
X-73.91 Y10.364
X-74.062 Y10.504
X-74.078 Y10.52
X-74.216 Y10.672
X-74.246 Y10.711
X-74.335 Y10.84
X-74.583 Y11.283
X-74.614 Y11.344
X-74.953 Y12.015
X-75.044 Y12.183
X-75.087 Y12.236
X-75.558 Y12.77
G3 X-75.908 Y12.891 I-0.291 J-0.275 F800
G1 X-75.964 Y12.869 Z4.005
X-76.02 Y12.848 Z4.019
X-76.072 Y12.827 Z4.042
X-76.109 Y12.788 Z4.074
X-76.142 Y12.753 Z4.115
X-76.17 Y12.723 Z4.163
X-76.193 Y12.699 Z4.217
X-76.204 Y12.677 Z4.275
X-76.211 Y12.664 Z4.337
X-76.213 Y12.659 Z4.4
G0 Z18
X-92.392 Y-4.598
Z4.8
G1 Z4.4 F600
X-92.391 Y-4.591 Z4.322
X-92.385 Y-4.569 Z4.247
X-92.376 Y-4.533 Z4.178
X-92.363 Y-4.485 Z4.117
X-92.348 Y-4.426 Z4.067
X-92.331 Y-4.359 Z4.03
X-92.313 Y-4.287 Z4.008
X-92.293 Y-4.211 Z4
G3 X-91.98 Y-2.033 I-9.893 J2.534
G1 Y-1.941 F1000
X-91.795 Y-1.224
X-91.677 Y-0.494
X-91.603 Y0.243
X-91.556 Y0.981
X-91.527 Y1.721
X-91.509 Y2.46
X-91.498 Y3.2
X-91.491 Y3.94
X-91.487 Y4.68
X-91.484 Y5.421
X-91.482 Y6.901
X-91.48 Y11.341
Y18.094
X-91.455 Y18.183
X-91.406 Y18.261
X-91.143 Y18.522
X-90.518 Y18.918
X-89.812 Y19.142
X-89.084 Y19.274
X-88.348 Y19.354
X-87.61 Y19.402
X-86.871 Y19.432
X-86.131 Y19.451
X-85.391 Y19.462
X-84.651 Y19.469
X-83.911 Y19.473
X-83.171 Y19.476
X-81.684 Y19.478
X-81.642 Y19.481
X-81.601 Y19.487
X-81.561 Y19.498
X-80.635 Y19.798
X-80.467 Y19.848
X-80.299 Y19.887
X-80.131 Y19.912
X-79.963 Y19.932
X-78.954 Y20.038
X-78.45 Y20.088
X-78.281 Y20.097
X-77.777 Y20.1
X-40.452
X-39.947 Y20.088
X-39.852 Y20.077
X-39.443 Y19.998
X-39.275 Y19.962
X-39.038 Y19.909
X-38.308 Y19.784
X-37.577 Y19.67
X-36.84 Y19.598
X-36.102 Y19.554
X-35.362 Y19.526
X-34.622 Y19.508
X-33.882 Y19.497
X-33.142 Y19.491
X-32.402 Y19.487
X-30.922 Y19.483
X-27.962 Y19.48
X-1.875
X-1.786 Y19.455
X-1.708 Y19.406
X-1.455 Y19.135
X-1.07 Y18.504
X-0.851 Y17.797
X-0.722 Y17.068
X-0.644 Y16.332
X-0.596 Y15.594
X-0.567 Y14.854
X-0.549 Y14.114
X-0.538 Y13.374
X-0.531 Y12.634
X-0.527 Y11.894
X-0.523 Y10.414
X-0.52 Y7.454
Y6.714
Y1.904
X-0.545 Y1.815
X-0.594 Y1.736
X-0.858 Y1.476
X-1.484 Y1.081
X-2.189 Y0.858
X-2.917 Y0.726
X-3.653 Y0.646
X-4.391 Y0.597
X-5.131 Y0.568
X-5.871 Y0.549
X-6.611 Y0.538
X-7.351 Y0.531
X-8.091 Y0.527
X-8.831 Y0.524
X-10.311 Y0.522
X-14.751 Y0.52
X-37.886
X-37.961 Y0.512
X-38.033 Y0.488
X-38.098 Y0.45
X-38.266 Y0.35
X-38.434 Y0.269
X-38.602 Y0.201
X-38.77 Y0.154
X-38.938 Y0.113
X-39.275 Y0.038
X-39.443 Y0.002
X-39.852 Y-0.077
X-39.947 Y-0.088
X-40.452 Y-0.1
X-58.106
X-58.274 Y-0.099
X-58.442 Y-0.088
X-58.543 Y-0.077
X-58.61 Y-0.065
X-58.778 Y-0.03
X-58.946 Y0.021
X-59.507 Y0.193
X-60.237 Y0.315
X-60.757 Y0.37
X-60.855 Y0.368
X-60.95 Y0.342
X-61.035 Y0.294
G3 X-61.102 Y-0.267 Z4.2 I0.248 J-0.314 F800
G1 X-61.059 Y-0.313
X-61.009 Y-0.353
X-60.939 Y-0.39 F1000
X-60.863 Y-0.412
X-59.188 Y-0.735
G3 X-58.818 Y-0.613 I0.076 J0.393
G1 X-58.779 Y-0.564 F600
X-58.748 Y-0.508
G3 X-58.946 Y0.021 Z4 I-0.364 J0.166
G1 X-59.114 Y0.091 F1000
X-59.282 Y0.177
X-59.451 Y0.28
X-59.635 Y0.427
X-59.787 Y0.581
X-59.955 Y0.766
X-59.997 Y0.802
X-60.039 Y0.832
X-60.081 Y0.856
X-60.123 Y0.873
X-60.165 Y0.885
X-60.207 Y0.892
X-60.249 Y0.895
X-60.291 Y0.893
X-60.333 Y0.887
X-60.375 Y0.876
X-60.417 Y0.86
X-60.459 Y0.838
X-60.505 Y0.806
X-60.551 Y0.763
X-60.628 Y0.667
X-60.691 Y0.595
X-60.796 Y0.487
X-60.964 Y0.347
X-61.084 Y0.259
X-61.132 Y0.229
X-61.3 Y0.13
X-61.468 Y0.054
X-61.636 Y-0.004
X-61.804 Y-0.049
X-61.951 Y-0.077
X-61.973 Y-0.081
X-62.141 Y-0.094
X-62.309 Y-0.099
X-66.176 Y-0.1
X-77.777
X-78.281 Y-0.097
X-78.45 Y-0.088
X-78.954 Y-0.038
X-79.963 Y0.068
X-80.15 Y0.091
X-80.299 Y0.113
X-80.467 Y0.152
X-81.188 Y0.317
X-81.924 Y0.394
X-82.663 Y0.442
X-83.402 Y0.471
X-84.142 Y0.49
X-84.882 Y0.501
X-85.622 Y0.509
X-86.362 Y0.513
X-87.657 Y0.517
X-87.75
X-87.839 Y0.543
X-87.917 Y0.592
X-88.165 Y0.866
X-88.511 Y1.521
X-88.703 Y2.235
X-88.815 Y2.967
X-88.881 Y3.704
X-88.921 Y4.443
X-88.944 Y5.183
X-88.959 Y5.922
X-88.967 Y6.662
X-88.972 Y7.402
X-88.975 Y8.142
X-88.978 Y9.623
X-88.98 Y13.323
Y15.265
X-88.931 Y15.444
X-88.732 Y15.756
X-88.172 Y16.239
X-87.488 Y16.521
X-86.768 Y16.693
X-86.035 Y16.799
X-85.822 Y16.819
X-85.735 Y16.836
X-85.654 Y16.873
X-85.583 Y16.926
X-85.511 Y16.994
X-84.324 Y18.062
X-84.166 Y18.171
X-83.811 Y18.398
X-83.662 Y18.487
X-82.653 Y19.07
X-82.485 Y19.162
X-82.329 Y19.237
X-82.148 Y19.307
X-81.561 Y19.498
G3 X-81.403 Y20.144 I-0.137 J0.376 F800
G1 X-81.455 Y20.202 Z4.008
X-81.506 Y20.257 Z4.03
X-81.553 Y20.308 Z4.067
X-81.594 Y20.353 Z4.117
X-81.627 Y20.389 Z4.178
X-81.652 Y20.417 Z4.247
X-81.668 Y20.433 Z4.322
X-81.673 Y20.439 Z4.4
G0 Z18
X-79.539 Y-0.573
Z4.8
G1 Z4.4 F600
X-79.544 Y-0.567 Z4.322
X-79.56 Y-0.55 Z4.247
X-79.585 Y-0.523 Z4.178
X-79.618 Y-0.486 Z4.117
X-79.659 Y-0.442 Z4.067
X-79.706 Y-0.391 Z4.03
X-79.757 Y-0.335 Z4.008
X-79.809 Y-0.278 Z4
G3 X-80.467 Y0.152 I-1.167 J-1.069
G1 X-80.635 Y0.202 F1000
X-81.644 Y0.529
X-82.148 Y0.693
X-82.329 Y0.763
X-82.485 Y0.838
X-82.653 Y0.93
X-83.662 Y1.513
X-83.811 Y1.602
X-84.166 Y1.829
X-84.324 Y1.938
X-84.523 Y2.075
X-84.852 Y2.244
X-85.169 Y2.435
X-85.674 Y2.976
X-85.819 Y3.3
X-85.833 Y3.328
X-85.849 Y3.355
X-85.867 Y3.38
G3 X-86.43 Y3.434 Z4.2 I-0.308 J-0.255 F800
G1 X-86.476 Y3.39
X-86.513 Y3.339
G3 X-86.449 Y2.833 I0.338 J-0.214 F1000
G1 X-84.87 Y1.353
G3 X-84.402 Y1.295 I0.274 J0.292
G1 X-84.349 Y1.33 F600
X-84.303 Y1.373
G3 X-84.324 Y1.938 Z4 I-0.293 J0.272
G1 X-85.511 Y3.006 F1000
X-85.655 Y3.143
X-85.679 Y3.166
X-85.787 Y3.282
X-85.847 Y3.354
X-85.921 Y3.45
X-86.775 Y4.625
X-86.892 Y4.793
X-86.999 Y4.961
X-87.087 Y5.129
X-87.164 Y5.297
X-87.612 Y6.305
X-87.759 Y6.641
X-87.828 Y6.809
X-87.96 Y7.313
X-88.174 Y8.32
X-88.208 Y8.488
X-88.272 Y8.824
X-88.293 Y8.992
X-88.303 Y9.328
X-88.306 Y9.496
