(bore1)
(T1 D=4 CR=0 - ZMIN=0 - flat end mill)
G90 G94
G17
G21
G28 G91 Z0
G90

(Bore1 11)
T1
S18000 M3
G17 G90 G94
G54
G0 X-23.5 Y10.35
Z28
G0 Z10
G1 Z8.4 F500
G19 G2 Y9.95 Z8 J-0.4 K0
G1 Y9.75
G17 G3 X-23.25 Y9.5 I0.25 J0
X-23.25 Y10.5 Z7.913 I0 J0.5
X-23.25 Y9.5 Z7.825 I0 J-0.5
X-23.25 Y10.5 Z7.738 I0 J0.5
X-23.25 Y9.5 Z7.651 I0 J-0.5
X-23.25 Y10.5 Z7.563 I0 J0.5
X-23.25 Y9.5 Z7.476 I0 J-0.5
X-23.25 Y10.5 Z7.389 I0 J0.5
X-23.25 Y9.5 Z7.302 I0 J-0.5
X-23.25 Y10.5 Z7.214 I0 J0.5
X-23.25 Y9.5 Z7.127 I0 J-0.5
X-23.25 Y10.5 Z7.04 I0 J0.5
X-23.25 Y9.5 Z6.952 I0 J-0.5
X-23.25 Y10.5 Z6.865 I0 J0.5
X-23.25 Y9.5 Z6.778 I0 J-0.5
X-23.25 Y10.5 Z6.69 I0 J0.5
X-23.25 Y9.5 Z6.603 I0 J-0.5
X-23.25 Y10.5 Z6.516 I0 J0.5
X-23.25 Y9.5 Z6.429 I0 J-0.5
X-23.25 Y10.5 Z6.341 I0 J0.5
X-23.25 Y9.5 Z6.254 I0 J-0.5
X-23.25 Y10.5 Z6.167 I0 J0.5
X-23.25 Y9.5 Z6.079 I0 J-0.5
X-23.25 Y10.5 Z5.992 I0 J0.5
X-23.25 Y9.5 Z5.905 I0 J-0.5
X-23.25 Y10.5 Z5.817 I0 J0.5
X-23.25 Y9.5 Z5.73 I0 J-0.5
X-23.25 Y10.5 Z5.643 I0 J0.5
X-23.25 Y9.5 Z5.556 I0 J-0.5
X-23.25 Y10.5 Z5.468 I0 J0.5
X-23.25 Y9.5 Z5.381 I0 J-0.5
X-23.25 Y10.5 Z5.294 I0 J0.5
X-23.25 Y9.5 Z5.206 I0 J-0.5
X-23.25 Y10.5 Z5.119 I0 J0.5
X-23.25 Y9.5 Z5.032 I0 J-0.5
X-23.25 Y10.5 Z4.944 I0 J0.5
X-23.25 Y9.5 Z4.857 I0 J-0.5
X-23.25 Y10.5 Z4.77 I0 J0.5
X-23.25 Y9.5 Z4.683 I0 J-0.5
X-23.25 Y10.5 Z4.595 I0 J0.5
X-23.25 Y9.5 Z4.508 I0 J-0.5
X-23.25 Y10.5 Z4.421 I0 J0.5
X-23.25 Y9.5 Z4.333 I0 J-0.5
X-23.25 Y10.5 Z4.246 I0 J0.5
X-23.25 Y9.5 Z4.159 I0 J-0.5
X-23.25 Y10.5 Z4.071 I0 J0.5
X-23.25 Y9.5 Z3.984 I0 J-0.5
X-23.25 Y10.5 Z3.897 I0 J0.5
X-23.25 Y9.5 Z3.81 I0 J-0.5
X-23.25 Y10.5 Z3.722 I0 J0.5
X-23.25 Y9.5 Z3.635 I0 J-0.5
X-23.25 Y10.5 Z3.548 I0 J0.5
X-23.25 Y9.5 Z3.46 I0 J-0.5
X-23.25 Y10.5 Z3.373 I0 J0.5
X-23.25 Y9.5 Z3.286 I0 J-0.5
X-23.25 Y10.5 Z3.198 I0 J0.5
X-23.25 Y9.5 Z3.111 I0 J-0.5
X-23.25 Y10.5 Z3.024 I0 J0.5
X-23.25 Y9.5 Z2.936 I0 J-0.5
X-23.25 Y10.5 Z2.849 I0 J0.5
X-23.25 Y9.5 Z2.762 I0 J-0.5
X-23.25 Y10.5 Z2.675 I0 J0.5
X-23.25 Y9.5 Z2.587 I0 J-0.5
X-23.25 Y10.5 Z2.5 I0 J0.5
X-23.25 Y9.5 Z2.413 I0 J-0.5
X-23.25 Y10.5 Z2.325 I0 J0.5
X-23.25 Y9.5 Z2.238 I0 J-0.5
X-23.25 Y10.5 Z2.151 I0 J0.5
X-23.25 Y9.5 Z2.063 I0 J-0.5
X-23.25 Y10.5 Z1.976 I0 J0.5
X-23.25 Y9.5 Z1.889 I0 J-0.5
X-23.25 Y10.5 Z1.802 I0 J0.5
X-23.25 Y9.5 Z1.714 I0 J-0.5
X-23.25 Y10.5 Z1.627 I0 J0.5
X-23.25 Y9.5 Z1.54 I0 J-0.5
X-23.25 Y10.5 Z1.452 I0 J0.5
X-23.25 Y9.5 Z1.365 I0 J-0.5
X-23.25 Y10.5 Z1.278 I0 J0.5
X-23.25 Y9.5 Z1.19 I0 J-0.5
X-23.25 Y10.5 Z1.103 I0 J0.5
X-23.25 Y9.5 Z1.016 I0 J-0.5
X-23.25 Y10.5 Z0.929 I0 J0.5
X-23.25 Y9.5 Z0.841 I0 J-0.5
X-23.25 Y10.5 Z0.754 I0 J0.5
X-23.25 Y9.5 Z0.667 I0 J-0.5
X-23.25 Y10.5 Z0.579 I0 J0.5
X-23.25 Y9.5 Z0.492 I0 J-0.5
X-23.25 Y10.5 Z0.405 I0 J0.5
X-23.25 Y9.5 Z0.317 I0 J-0.5
X-23.25 Y10.5 Z0.23 I0 J0.5
X-23.25 Y9.5 Z0.143 I0 J-0.5
X-23.25 Y10.5 Z0.056 I0 J0.5
X-23.705 Y9.793 Z0 I0 J-0.5
X-22.795 Y10.207 I0.455 J0.207
X-23.705 Y9.793 I-0.455 J-0.207
X-23.374 Y9.669 I0.228 J0.104
G1 X-23.192 Y9.752
X-23.121 Y9.784 Z0.008
X-23.053 Y9.815 Z0.03
X-22.99 Y9.844 Z0.067
X-22.934 Y9.869 Z0.117
X-22.889 Y9.89 Z0.178
X-22.856 Y9.905 Z0.247
X-22.835 Y9.914 Z0.322
X-22.828 Y9.918 Z0.4
G0 Z18
X-11 Y10.35
Z10
G1 Z8.4 F500
G19 G2 Y9.95 Z8 J-0.4 K0
G1 Y9.75
G17 G3 X-10.75 Y9.5 I0.25 J0
X-10.75 Y10.5 Z7.913 I0 J0.5
X-10.75 Y9.5 Z7.825 I0 J-0.5
X-10.75 Y10.5 Z7.738 I0 J0.5
X-10.75 Y9.5 Z7.651 I0 J-0.5
X-10.75 Y10.5 Z7.563 I0 J0.5
X-10.75 Y9.5 Z7.476 I0 J-0.5
X-10.75 Y10.5 Z7.389 I0 J0.5
X-10.75 Y9.5 Z7.302 I0 J-0.5
X-10.75 Y10.5 Z7.214 I0 J0.5
X-10.75 Y9.5 Z7.127 I0 J-0.5
X-10.75 Y10.5 Z7.04 I0 J0.5
X-10.75 Y9.5 Z6.952 I0 J-0.5
X-10.75 Y10.5 Z6.865 I0 J0.5
X-10.75 Y9.5 Z6.778 I0 J-0.5
X-10.75 Y10.5 Z6.69 I0 J0.5
X-10.75 Y9.5 Z6.603 I0 J-0.5
X-10.75 Y10.5 Z6.516 I0 J0.5
X-10.75 Y9.5 Z6.429 I0 J-0.5
X-10.75 Y10.5 Z6.341 I0 J0.5
X-10.75 Y9.5 Z6.254 I0 J-0.5
X-10.75 Y10.5 Z6.167 I0 J0.5
X-10.75 Y9.5 Z6.079 I0 J-0.5
X-10.75 Y10.5 Z5.992 I0 J0.5
X-10.75 Y9.5 Z5.905 I0 J-0.5
X-10.75 Y10.5 Z5.817 I0 J0.5
X-10.75 Y9.5 Z5.73 I0 J-0.5
X-10.75 Y10.5 Z5.643 I0 J0.5
X-10.75 Y9.5 Z5.556 I0 J-0.5
X-10.75 Y10.5 Z5.468 I0 J0.5
X-10.75 Y9.5 Z5.381 I0 J-0.5
X-10.75 Y10.5 Z5.294 I0 J0.5
X-10.75 Y9.5 Z5.206 I0 J-0.5
X-10.75 Y10.5 Z5.119 I0 J0.5
X-10.75 Y9.5 Z5.032 I0 J-0.5
X-10.75 Y10.5 Z4.944 I0 J0.5
X-10.75 Y9.5 Z4.857 I0 J-0.5
X-10.75 Y10.5 Z4.77 I0 J0.5
X-10.75 Y9.5 Z4.683 I0 J-0.5
X-10.75 Y10.5 Z4.595 I0 J0.5
X-10.75 Y9.5 Z4.508 I0 J-0.5
X-10.75 Y10.5 Z4.421 I0 J0.5
X-10.75 Y9.5 Z4.333 I0 J-0.5
X-10.75 Y10.5 Z4.246 I0 J0.5
X-10.75 Y9.5 Z4.159 I0 J-0.5
X-10.75 Y10.5 Z4.071 I0 J0.5
X-10.75 Y9.5 Z3.984 I0 J-0.5
X-10.75 Y10.5 Z3.897 I0 J0.5
X-10.75 Y9.5 Z3.81 I0 J-0.5
X-10.75 Y10.5 Z3.722 I0 J0.5
X-10.75 Y9.5 Z3.635 I0 J-0.5
X-10.75 Y10.5 Z3.548 I0 J0.5
X-10.75 Y9.5 Z3.46 I0 J-0.5
X-10.75 Y10.5 Z3.373 I0 J0.5
X-10.75 Y9.5 Z3.286 I0 J-0.5
X-10.75 Y10.5 Z3.198 I0 J0.5
X-10.75 Y9.5 Z3.111 I0 J-0.5
X-10.75 Y10.5 Z3.024 I0 J0.5
X-10.75 Y9.5 Z2.936 I0 J-0.5
X-10.75 Y10.5 Z2.849 I0 J0.5
X-10.75 Y9.5 Z2.762 I0 J-0.5
X-10.75 Y10.5 Z2.675 I0 J0.5
X-10.75 Y9.5 Z2.587 I0 J-0.5
X-10.75 Y10.5 Z2.5 I0 J0.5
X-10.75 Y9.5 Z2.413 I0 J-0.5
X-10.75 Y10.5 Z2.325 I0 J0.5
X-10.75 Y9.5 Z2.238 I0 J-0.5
X-10.75 Y10.5 Z2.151 I0 J0.5
X-10.75 Y9.5 Z2.063 I0 J-0.5
X-10.75 Y10.5 Z1.976 I0 J0.5
X-10.75 Y9.5 Z1.889 I0 J-0.5
X-10.75 Y10.5 Z1.802 I0 J0.5
X-10.75 Y9.5 Z1.714 I0 J-0.5
X-10.75 Y10.5 Z1.627 I0 J0.5
X-10.75 Y9.5 Z1.54 I0 J-0.5
X-10.75 Y10.5 Z1.452 I0 J0.5
X-10.75 Y9.5 Z1.365 I0 J-0.5
X-10.75 Y10.5 Z1.278 I0 J0.5
X-10.75 Y9.5 Z1.19 I0 J-0.5
X-10.75 Y10.5 Z1.103 I0 J0.5
X-10.75 Y9.5 Z1.016 I0 J-0.5
X-10.75 Y10.5 Z0.929 I0 J0.5
X-10.75 Y9.5 Z0.841 I0 J-0.5
X-10.75 Y10.5 Z0.754 I0 J0.5
X-10.75 Y9.5 Z0.667 I0 J-0.5
X-10.75 Y10.5 Z0.579 I0 J0.5
X-10.75 Y9.5 Z0.492 I0 J-0.5
X-10.75 Y10.5 Z0.405 I0 J0.5
X-10.75 Y9.5 Z0.317 I0 J-0.5
X-10.75 Y10.5 Z0.23 I0 J0.5
X-10.75 Y9.5 Z0.143 I0 J-0.5
X-10.75 Y10.5 Z0.056 I0 J0.5
X-11.205 Y9.793 Z0 I0 J-0.5
X-10.295 Y10.207 I0.455 J0.207
X-11.205 Y9.793 I-0.455 J-0.207
X-10.874 Y9.669 I0.228 J0.104
G1 X-10.692 Y9.752
X-10.621 Y9.784 Z0.008
X-10.553 Y9.815 Z0.03
X-10.49 Y9.844 Z0.067
X-10.434 Y9.869 Z0.117
X-10.389 Y9.89 Z0.178
X-10.356 Y9.905 Z0.247
X-10.335 Y9.914 Z0.322
X-10.328 Y9.918 Z0.4
G0 Z28
G28 G91 Z0
G90
G28 G91 X0 Y0
G90
M5
M30
