(chamfer1)
(T2 D=3 CR=0 TAPER=45deg - ZMIN=7.2 - chamfer mill)
G90 G94
G17
G21
G28 G91 Z0
G90

(2D Chamfer2 9)
T2
S15000 M3
G17 G90 G94
G54
G0 X-59 Y9.657
Z28
G0 Z13
G1 Z10 F300
Z7.2
X-58.7
Y10 F500
G3 X-60.25 Y11.55 I-1.55 J0
G1 X-72.593
G2 X-73.017 Y11.85 I0 J0.45
G3 X-83.483 Y8.15 I-5.233 J-1.85
X-73.017 Y8.15 I5.233 J1.85
G2 X-72.593 Y8.45 I0.424 J-0.15
G1 X-62.25
G2 X-61.8 Y8 I0 J-0.45
G1 Y2
G2 X-62.25 Y1.55 I-0.45 J0
G1 X-78.25
G2 X-78.25 Y18.45 I0 J8.45
G1 X-40.123
G2 X-37.751 Y16.612 I0 J-2.45
G3 X-36.25 Y15.449 I1.501 J0.387
G1 X-10.75 Y15.45
G2 X-5.3 Y10 I0 J-5.45
X-10.75 Y4.55 I-5.45 J0
G1 X-36.25
G3 X-37.751 Y3.387 I0 J-1.55
G2 X-40.123 Y1.55 I-2.372 J0.613
G1 X-58.25
G2 X-58.7 Y2 I0 J0.45
G1 Y9.657
X-59 F300
G0 Z18
X-21.5 Y10
Z13
G1 Z10 F300
Z7.2
X-21.2
G3 X-25.3 Y10 I-2.05 J0 F500
X-21.2 Y10 I2.05 J0
G1 X-21.5 F300
G0 Z18
X-9
Z13
G1 Z10 F300
Z7.2
X-8.7
G3 X-12.8 Y10 I-2.05 J0 F500
X-8.7 Y10 I2.05 J0
G1 X-9 F300
G0 Z28
G28 G91 Z0
G90
G28 G91 X0 Y0
G90
M5
M30
