(contour2)
(T1 D=4 CR=0 - ZMIN=0 - flat end mill)
G90 G94
G17
G21
G28 G91 Z0
G90

(2D Contour11)
T1
S18000 M3
G17 G90 G94
G54
G0 X-61.85 Y-1.2
Z26
G0 Z16
G1 Z8.8 F600
Z5.4
G19 G3 Y-0.8 Z5 J0.4 K0
G1 Y-0.4
G17 G3 X-62.25 Y0 I-0.4 J0
G1 X-78.25 F1000
G2 X-78.25 Y20 I0 J10
G1 X-40.123
G2 X-36.25 Y16.999 I0 J-4
G1 X-10.75 Y17
G2 X-3.75 Y10 I0 J-7
X-10.75 Y3 I-7 J0
G1 X-36.25
G2 X-40.123 Y0 I-3.873 J1
G1 X-58.25
G3 X-58.65 Y-0.4 I0 J-0.4 F800
G1 Y-0.8
G19 G2 Y-1.2 Z5.4 J0 K0.4
G0 Z16
X-61.85
G1 Z5.8 F600
Z2.4
G3 Y-0.8 Z2 J0.4 K0
G1 Y-0.4
G17 G3 X-62.25 Y0 I-0.4 J0
G1 X-78.25 F1000
G2 X-78.25 Y20 I0 J10
G1 X-40.123
G2 X-36.25 Y16.999 I0 J-4
G1 X-10.75 Y17
G2 X-3.75 Y10 I0 J-7
X-10.75 Y3 I-7 J0
G1 X-36.25
G2 X-40.123 Y0 I-3.873 J1
G1 X-58.25
G3 X-58.65 Y-0.4 I0 J-0.4 F800
G1 Y-0.8
G19 G2 Y-1.2 Z2.4 J0 K0.4
G0 Z16
X-61.85
G1 Z2.8 F600
Z0.4
G3 Y-0.8 Z0 J0.4 K0
G1 Y-0.4
G17 G3 X-62.25 Y0 I-0.4 J0
G1 X-78.25 F1000
G2 X-78.25 Y20 I0 J10
G1 X-40.123
G2 X-36.25 Y16.999 I0 J-4
G1 X-10.75 Y17
G2 X-3.75 Y10 I0 J-7
X-10.75 Y3 I-7 J0
G1 X-36.25
G2 X-40.123 Y0 I-3.873 J1
G1 X-58.25
G3 X-58.65 Y-0.4 I0 J-0.4 F800
G1 Y-0.8
G19 G2 Y-1.2 Z0.4 J0 K0.4
G0 Z16
X-75.477 Y10.556
G1 Z8.8 F600
Z5.4
X-75.47 Y10.559 Z5.322
X-75.448 Y10.566 Z5.247
X-75.413 Y10.579 Z5.178
X-75.366 Y10.595 Z5.117
X-75.309 Y10.615 Z5.067
X-75.244 Y10.639 Z5.03
X-75.173 Y10.664 Z5.008
X-75.1 Y10.69 Z5
X-74.723 Y10.823
G17 G3 X-74.479 Y11.333 I-0.133 J0.377
X-82.021 Y8.667 I-3.771 J-1.333 F1000
X-74.479 Y8.667 I3.771 J1.333
X-74.723 Y9.177 I-0.377 J0.133 F800
G1 X-75.1 Y9.31
X-75.173 Y9.336 Z5.008
X-75.244 Y9.361 Z5.03
X-75.309 Y9.385 Z5.067
X-75.366 Y9.405 Z5.117
X-75.413 Y9.421 Z5.178
X-75.448 Y9.434 Z5.247
X-75.47 Y9.441 Z5.322
X-75.477 Y9.444 Z5.4
G0 Z16
Y10.556
G1 Z5.8 F600
Z2.4
X-75.47 Y10.559 Z2.322
X-75.448 Y10.566 Z2.247
X-75.413 Y10.579 Z2.178
X-75.366 Y10.595 Z2.117
X-75.309 Y10.615 Z2.067
X-75.244 Y10.639 Z2.03
X-75.173 Y10.664 Z2.008
X-75.1 Y10.69 Z2
X-74.723 Y10.823
G3 X-74.479 Y11.333 I-0.133 J0.377
X-82.021 Y8.667 I-3.771 J-1.333 F1000
X-74.479 Y8.667 I3.771 J1.333
X-74.723 Y9.177 I-0.377 J0.133 F800
G1 X-75.1 Y9.31
X-75.173 Y9.336 Z2.008
X-75.244 Y9.361 Z2.03
X-75.309 Y9.385 Z2.067
X-75.366 Y9.405 Z2.117
X-75.413 Y9.421 Z2.178
X-75.448 Y9.434 Z2.247
X-75.47 Y9.441 Z2.322
X-75.477 Y9.444 Z2.4
G0 Z16
Y10.556
G1 Z2.8 F600
Z0.4
X-75.47 Y10.559 Z0.322
X-75.448 Y10.566 Z0.247
X-75.413 Y10.579 Z0.178
X-75.366 Y10.595 Z0.117
X-75.309 Y10.615 Z0.067
X-75.244 Y10.639 Z0.03
X-75.173 Y10.664 Z0.008
X-75.1 Y10.69 Z0
X-74.723 Y10.823
G3 X-74.479 Y11.333 I-0.133 J0.377
X-82.021 Y8.667 I-3.771 J-1.333 F1000
X-74.479 Y8.667 I3.771 J1.333
X-74.723 Y9.177 I-0.377 J0.133 F800
G1 X-75.1 Y9.31
X-75.173 Y9.336 Z0.008
X-75.244 Y9.361 Z0.03
X-75.309 Y9.385 Z0.067
X-75.366 Y9.405 Z0.117
X-75.413 Y9.421 Z0.178
X-75.448 Y9.434 Z0.247
X-75.47 Y9.441 Z0.322
X-75.477 Y9.444 Z0.4
G0 Z26
G28 G91 Z0
G90
G28 G91 X0 Y0
G90
M5
M30
