(contour1)
(T1 D=4 CR=0 - ZMIN=0 - flat end mill)
G90 G94
G17
G21
G28 G91 Z0
G90

(2D Contour10)
T1
S18000 M3
G17 G90 G94
G54
G0 X-60.25 Y-2.4
Z26
G0 Z16
G1 Z8.8 F600
Z8.05
G19 G3 Y-2 Z7.65 J0.4 K0
G1 Y2
Y10 F1000
X-72.593
X-76.593 F800
G18 G3 X-76.993 Z8.05 I0 K0.4
G0 Z16
X-60.25 Y-2.4
G1 Z8.45 F600
Z7.7
G19 G3 Y-2 Z7.3 J0.4 K0
G1 Y2
Y10 F1000
X-72.593
X-76.593 F800
G18 G3 X-76.993 Z7.7 I0 K0.4
G0 Z16
X-60.25 Y-2.4
G1 Z8.1 F600
Z7.35
G19 G3 Y-2 Z6.95 J0.4 K0
G1 Y2
Y10 F1000
X-72.593
X-76.593 F800
G18 G3 X-76.993 Z7.35 I0 K0.4
G0 Z16
X-60.25 Y-2.4
G1 Z7.75 F600
Z7
G19 G3 Y-2 Z6.6 J0.4 K0
G1 Y2
Y10 F1000
X-72.593
X-76.593 F800
G18 G3 X-76.993 Z7 I0 K0.4
G0 Z16
X-60.25 Y-2.4
G1 Z7.4 F600
Z6.65
G19 G3 Y-2 Z6.25 J0.4 K0
G1 Y2
Y10 F1000
X-72.593
X-76.593 F800
G18 G3 X-76.993 Z6.65 I0 K0.4
G0 Z16
X-60.25 Y-2.4
G1 Z7.05 F600
Z6.3
G19 G3 Y-2 Z5.9 J0.4 K0
G1 Y2
Y10 F1000
X-72.593
X-76.593 F800
G18 G3 X-76.993 Z6.3 I0 K0.4
G0 Z16
X-60.25 Y-2.4
G1 Z6.7 F600
Z5.95
G19 G3 Y-2 Z5.55 J0.4 K0
G1 Y2
Y10 F1000
X-72.593
X-76.593 F800
G18 G3 X-76.993 Z5.95 I0 K0.4
G0 Z16
X-60.25 Y-2.4
G1 Z6.35 F600
Z5.6
G19 G3 Y-2 Z5.2 J0.4 K0
G1 Y2
Y10 F1000
X-72.593
X-76.593 F800
G18 G3 X-76.993 Z5.6 I0 K0.4
G0 Z16
X-60.25 Y-2.4
G1 Z6 F600
Z5.25
G19 G3 Y-2 Z4.85 J0.4 K0
G1 Y2
Y10 F1000
X-72.593
X-76.593 F800
G18 G3 X-76.993 Z5.25 I0 K0.4
G0 Z16
X-60.25 Y-2.4
G1 Z5.65 F600
Z4.9
G19 G3 Y-2 Z4.5 J0.4 K0
G1 Y2
Y10 F1000
X-72.593
X-76.593 F800
G18 G3 X-76.993 Z4.9 I0 K0.4
G0 Z16
X-60.25 Y-2.4
G1 Z5.3 F600
Z4.55
G19 G3 Y-2 Z4.15 J0.4 K0
G1 Y2
Y10 F1000
X-72.593
X-76.593 F800
G18 G3 X-76.993 Z4.55 I0 K0.4
G0 Z16
X-60.25 Y-2.4
G1 Z4.95 F600
Z4.2
G19 G3 Y-2 Z3.8 J0.4 K0
G1 Y2
Y10 F1000
X-72.593
X-76.593 F800
G18 G3 X-76.993 Z4.2 I0 K0.4
G0 Z16
X-60.25 Y-2.4
G1 Z4.6 F600
Z3.85
G19 G3 Y-2 Z3.45 J0.4 K0
G1 Y2
Y10 F1000
X-72.593
X-76.593 F800
G18 G3 X-76.993 Z3.85 I0 K0.4
G0 Z16
X-60.25 Y-2.4
G1 Z4.25 F600
Z3.5
G19 G3 Y-2 Z3.1 J0.4 K0
G1 Y2
Y10 F1000
X-72.593
X-76.593 F800
G18 G3 X-76.993 Z3.5 I0 K0.4
G0 Z16
X-60.25 Y-2.4
G1 Z3.9 F600
Z3.15
G19 G3 Y-2 Z2.75 J0.4 K0
G1 Y2
Y10 F1000
X-72.593
X-76.593 F800
G18 G3 X-76.993 Z3.15 I0 K0.4
G0 Z16
X-60.25 Y-2.4
G1 Z3.55 F600
Z2.8
G19 G3 Y-2 Z2.4 J0.4 K0
G1 Y2
Y10 F1000
X-72.593
X-76.593 F800
G18 G3 X-76.993 Z2.8 I0 K0.4
G0 Z16
X-60.25 Y-2.4
G1 Z3.2 F600
Z2.45
G19 G3 Y-2 Z2.05 J0.4 K0
G1 Y2
Y10 F1000
X-72.593
X-76.593 F800
G18 G3 X-76.993 Z2.45 I0 K0.4
G0 Z16
X-60.25 Y-2.4
G1 Z2.85 F600
Z2.1
G19 G3 Y-2 Z1.7 J0.4 K0
G1 Y2
Y10 F1000
X-72.593
X-76.593 F800
G18 G3 X-76.993 Z2.1 I0 K0.4
G0 Z16
X-60.25 Y-2.4
G1 Z2.5 F600
Z1.75
G19 G3 Y-2 Z1.35 J0.4 K0
G1 Y2
Y10 F1000
X-72.593
X-76.593 F800
G18 G3 X-76.993 Z1.75 I0 K0.4
G0 Z16
X-60.25 Y-2.4
G1 Z2.15 F600
Z1.4
G19 G3 Y-2 Z1 J0.4 K0
G1 Y2
Y10 F1000
X-72.593
X-76.593 F800
G18 G3 X-76.993 Z1.4 I0 K0.4
G0 Z16
X-60.25 Y-2.4
G1 Z1.8 F600
Z1.05
G19 G3 Y-2 Z0.65 J0.4 K0
G1 Y2
Y10 F1000
X-72.593
X-76.593 F800
G18 G3 X-76.993 Z1.05 I0 K0.4
G0 Z16
X-60.25 Y-2.4
G1 Z1.45 F600
Z0.7
G19 G3 Y-2 Z0.3 J0.4 K0
G1 Y2
Y10 F1000
X-72.593
X-76.593 F800
G18 G3 X-76.993 Z0.7 I0 K0.4
G0 Z16
X-60.25 Y-2.4
G1 Z1.1 F600
Z0.4
G19 G3 Y-2 Z0 J0.4 K0
G1 Y2
Y10 F1000
X-72.593
X-76.593 F800
G18 G3 X-76.993 Z0.4 I0 K0.4
G0 Z26
G17
G28 G91 Z0
G90
G28 G91 X0 Y0
G90
M5
M30
