(1001)
(T1  D=6 CR=0 - ZMIN=-0.5 - flat end mill)
G90 G94
G17
G21
G28 G91 Z0
G90

(Face1)
T1
S18000 M3
G54
G0 X195.6 Y1
Z15
Z4.5
G1 Z0.1 F600
G18 G3 X195 Z-0.5 I-0.6 K0
G1 X-5 F1000
G17 G2 X-5 Y4.96 I0 J1.98
G1 X195
G3 X195 Y8.919 I0 J1.98
G1 X-5
G2 X-5 Y12.879 I0 J1.98
G1 X195
G3 X195 Y16.839 I0 J1.98
G1 X-5
G2 X-5 Y20.799 I0 J1.98
G1 X195
G3 X195 Y24.759 I0 J1.98
G1 X-5
G2 X-5 Y28.718 I0 J1.98
G1 X195
G3 X195 Y32.678 I0 J1.98
G1 X-5
G2 X-5 Y36.638 I0 J1.98
G1 X195
G3 X195 Y40.598 I0 J1.98
G1 X-5
G2 X-5 Y44.557 I0 J1.98
G1 X195
G3 X195 Y48.517 I0 J1.98
G1 X-5
G2 X-5 Y52.477 I0 J1.98
G1 X195
G3 X195 Y56.437 I0 J1.98
G1 X-5
G2 X-5 Y60.397 I0 J1.98
G1 X195
G3 X195 Y64.356 I0 J1.98
G1 X-5
G2 X-5 Y68.316 I0 J1.98
G1 X195
G3 X195 Y72.276 I0 J1.98
G1 X-5
G2 X-5 Y76.236 I0 J1.98
G1 X195
G3 X195 Y80.196 I0 J1.98
G1 X-5
G2 X-5 Y84.155 I0 J1.98
G1 X195
G3 X195 Y88.115 I0 J1.98
G1 X-5
G2 X-5 Y92.075 I0 J1.98
G1 X195
G3 X195 Y96.035 I0 J1.98
G1 X-5
G2 X-5 Y99.995 I0 J1.98
G1 X195
G3 X195 Y103.954 I0 J1.98
G1 X-5
G2 X-5 Y107.914 I0 J1.98
G1 X195
G3 X195 Y111.874 I0 J1.98
G1 X-5
G2 X-5 Y115.834 I0 J1.98
G1 X195
G3 X195 Y119.794 I0 J1.98
G1 X-5
G2 X-5 Y123.753 I0 J1.98
G1 X195
G3 X195 Y127.713 I0 J1.98
G1 X-5
G2 X-5 Y131.673 I0 J1.98
G1 X195
G3 X195 Y135.633 I0 J1.98
G1 X-5
G2 X-5 Y139.592 I0 J1.98
G1 X195
G3 X195 Y143.552 I0 J1.98
G1 X-5
G2 X-5 Y147.512 I0 J1.98
G1 X195
G3 X195 Y151.472 I0 J1.98
G1 X-5
G2 X-5 Y155.432 I0 J1.98
G1 X195
G3 X195 Y159.391 I0 J1.98
G1 X-5
G2 X-5 Y163.351 I0 J1.98
G1 X195
G3 X195 Y167.311 I0 J1.98
G1 X-5
G2 X-5 Y171.271 I0 J1.98
G1 X195
G3 X195 Y175.231 I0 J1.98
G1 X-5
G2 X-5 Y179.19 I0 J1.98
G1 X195
G3 X195 Y183.15 I0 J1.98
G1 X-5
G2 X-5 Y187.11 I0 J1.98
G1 X195
G18 G2 X195.6 Z0.1 I0 K0.6 F800
G0 Z15
G17
G28 G91 Z0
G90
G28 G91 X0 Y0
G90
M5
M30
