(acetal_face_n50um)
(T1  D=6 CR=0 - ZMIN=-0.5 - flat end mill)
G90 G94
G17
G21
G28 G91 Z0
G90

(Face1)
T1
S18000 M3
G54
G0 X33.6 Y-21.704
Z15
Z5
G1 Z0.1 F600
G18 G3 X33 Z-0.5 I-0.6 K0
G1 X-33 F1000
G3 X-33.6 Z0.1 I0 K0.6 F800
G0 Z5
X33.6 Y-17.948
G1 Z0.1 F600
G3 X33 Z-0.5 I-0.6 K0
G1 X-33 F1000
G3 X-33.6 Z0.1 I0 K0.6 F800
G0 Z5
X33.6 Y-14.193
G1 Z0.1 F600
G3 X33 Z-0.5 I-0.6 K0
G1 X-33 F1000
G3 X-33.6 Z0.1 I0 K0.6 F800
G0 Z5
X33.6 Y-10.437
G1 Z0.1 F600
G3 X33 Z-0.5 I-0.6 K0
G1 X-33 F1000
G3 X-33.6 Z0.1 I0 K0.6 F800
G0 Z5
X33.6 Y-6.681
G1 Z0.1 F600
G3 X33 Z-0.5 I-0.6 K0
G1 X-33 F1000
G3 X-33.6 Z0.1 I0 K0.6 F800
G0 Z5
X33.6 Y-2.925
G1 Z0.1 F600
G3 X33 Z-0.5 I-0.6 K0
G1 X-33 F1000
G3 X-33.6 Z0.1 I0 K0.6 F800
G0 Z5
X33.6 Y0.831
G1 Z0.1 F600
G3 X33 Z-0.5 I-0.6 K0
G1 X-33 F1000
G3 X-33.6 Z0.1 I0 K0.6 F800
G0 Z5
X33.6 Y4.587
G1 Z0.1 F600
G3 X33 Z-0.5 I-0.6 K0
G1 X-33 F1000
G3 X-33.6 Z0.1 I0 K0.6 F800
G0 Z5
X33.6 Y8.342
G1 Z0.1 F600
G3 X33 Z-0.5 I-0.6 K0
G1 X-33 F1000
G3 X-33.6 Z0.1 I0 K0.6 F800
G0 Z5
X33.6 Y12.098
G1 Z0.1 F600
G3 X33 Z-0.5 I-0.6 K0
G1 X-33 F1000
G3 X-33.6 Z0.1 I0 K0.6 F800
G0 Z5
X33.6 Y15.854
G1 Z0.1 F600
G3 X33 Z-0.5 I-0.6 K0
G1 X-33 F1000
G3 X-33.6 Z0.1 I0 K0.6 F800
G0 Z5
X33.6 Y19.61
G1 Z0.1 F600
G3 X33 Z-0.5 I-0.6 K0
G1 X-33 F1000
G3 X-33.6 Z0.1 I0 K0.6 F800
G0 Z15
G17
G28 G91 Z0
G90
G28 G91 X0 Y0
G90
M5
M30
