(acetal_pocket1)
(T1  D=6 CR=0 - ZMIN=-6 - flat end mill)
G90 G94
G17
G21
G28 G91 Z0
G90

(Adaptive1)
T1
S18000 M3
G54
G0 X0.908 Y-2.701
Z15
Z5
Z1.5
G3 X-0.908 Y2.701 Z1.187 I-0.908 J2.701 F600
X0.908 Y-2.701 Z0.875 I0.908 J-2.701
X-0.908 Y2.701 Z0.562 I-0.908 J2.701
X0.908 Y-2.701 Z0.249 I0.908 J-2.701
X-0.908 Y2.701 Z-0.063 I-0.908 J2.701
X0.908 Y-2.701 Z-0.376 I0.908 J-2.701
X2.85 Y0 Z-0.5 I-0.908 J2.701
X-2.85 Y0 I-2.85 J0
X2.85 Y0 I2.85 J0
G1 X2.852 Y0.115 F1000
X2.893 Y0.223
X3.494 Y0.923
X3.643 Y1.109
X3.78 Y1.341
X3.894 Y1.619
X3.974 Y1.942
X4.011 Y2.307
Y2.316
X3.998 Y2.414
X3.969 Y2.509
X3.925 Y2.598
X3.852 Y2.721
X3.773 Y2.846
X3.702 Y2.93
X3.107 Y3.558
X3.021 Y3.633
X2.725 Y3.835
X2.306 Y4.119
X2.194 Y4.186
X2.096 Y4.228
X1.467 Y4.478
X1.258 Y4.557
X1.048 Y4.594
X0.314 Y4.714
X0.21 Y4.721
X-0.629 Y4.676
X-0.734 Y4.669
X-0.838 Y4.648
X-1.677 Y4.415
X-1.739 Y4.396
X-1.886 Y4.323
X-2.539 Y3.977
X-2.632 Y3.926
X-2.725 Y3.856
X-3.354 Y3.322
X-3.45 Y3.231
X-3.521 Y3.14
X-3.998 Y2.512
X-4.067 Y2.407
X-4.117 Y2.302
X-4.456 Y1.57
X-4.493 Y1.465
X-4.677 Y0.628
X-4.698 Y0.523
X-4.703 Y0.419
Y-0.419
X-4.698 Y-0.523
X-4.677 Y-0.628
X-4.493 Y-1.465
X-4.456 Y-1.57
X-4.117 Y-2.302
X-4.067 Y-2.407
X-3.998 Y-2.512
X-3.521 Y-3.14
X-3.45 Y-3.231
X-3.354 Y-3.322
X-2.725 Y-3.856
X-2.632 Y-3.926
X-2.515 Y-3.99
X-1.886 Y-4.323
X-1.739 Y-4.396
X-1.677 Y-4.415
X-0.838 Y-4.648
X-0.734 Y-4.669
X-0.629 Y-4.676
X0.21 Y-4.721
X0.314 Y-4.714
X1.048 Y-4.594
X1.258 Y-4.557
X1.467 Y-4.478
X2.096 Y-4.228
X2.194 Y-4.186
X2.306 Y-4.119
X2.934 Y-3.693
X3.021 Y-3.633
X3.107 Y-3.558
X3.702 Y-2.93
X3.773 Y-2.846
X3.852 Y-2.721
X4.229 Y-2.093
X4.287 Y-1.989
X4.328 Y-1.884
X4.54 Y-1.256
X4.611 Y-1.039
X4.64 Y-0.837
X4.708 Y-0.209
X4.727 Y0
X4.708 Y0.209
X4.64 Y0.837
X4.611 Y1.039
X4.54 Y1.256
X4.328 Y1.884
X4.287 Y1.989
X4.229 Y2.093
X3.925 Y2.598
X3.869 Y2.672 F800
X3.802 Y2.736
X3.737 Y2.772 Z-0.495
X3.674 Y2.807 Z-0.482
X3.612 Y2.841 Z-0.459
X3.544 Y2.852 Z-0.427
X3.48 Y2.862 Z-0.386
X3.422 Y2.871 Z-0.337
X3.358 Y2.861 Z-0.264
X3.306 Y2.853 Z-0.182
X3.268 Y2.847 Z-0.093
X3.244 Y2.843 Z0.002
X3.237 Y2.842 Z0.099
G0 Z5
X0.909 Y-2.701
Z1
G3 X-0.909 Y2.701 Z0.687 I-0.909 J2.701 F600
X0.909 Y-2.701 Z0.375 I0.909 J-2.701
X-0.909 Y2.701 Z0.062 I-0.909 J2.701
X0.909 Y-2.701 Z-0.251 I0.909 J-2.701
X-0.909 Y2.701 Z-0.563 I-0.909 J2.701
X0.909 Y-2.701 Z-0.876 I0.909 J-2.701
X2.85 Y0 Z-1 I-0.909 J2.701
X-2.85 Y0 I-2.85 J0
X2.85 Y0 I2.85 J0
G1 X2.852 Y0.115 F1000
X2.893 Y0.223
X3.494 Y0.923
X3.643 Y1.109
X3.78 Y1.341
X3.894 Y1.619
X3.974 Y1.942
X4.011 Y2.307
Y2.316
X3.998 Y2.414
X3.969 Y2.509
X3.925 Y2.598
X3.852 Y2.721
X3.773 Y2.846
X3.702 Y2.93
X3.107 Y3.558
X3.021 Y3.633
X2.725 Y3.835
X2.306 Y4.119
X2.194 Y4.186
X2.096 Y4.228
X1.467 Y4.478
X1.258 Y4.557
X1.048 Y4.594
X0.314 Y4.714
X0.21 Y4.721
X-0.629 Y4.676
X-0.734 Y4.669
X-0.838 Y4.648
X-1.677 Y4.415
X-1.739 Y4.396
X-1.886 Y4.323
X-2.539 Y3.977
X-2.632 Y3.926
X-2.725 Y3.856
X-3.354 Y3.322
X-3.45 Y3.231
X-3.521 Y3.14
X-3.998 Y2.512
X-4.067 Y2.407
X-4.117 Y2.302
X-4.456 Y1.57
X-4.493 Y1.465
X-4.677 Y0.628
X-4.698 Y0.523
X-4.703 Y0.419
Y-0.419
X-4.698 Y-0.523
X-4.677 Y-0.628
X-4.493 Y-1.465
X-4.456 Y-1.57
X-4.117 Y-2.302
X-4.067 Y-2.407
X-3.998 Y-2.512
X-3.521 Y-3.14
X-3.45 Y-3.231
X-3.354 Y-3.322
X-2.725 Y-3.856
X-2.632 Y-3.926
X-2.515 Y-3.99
X-1.886 Y-4.323
X-1.739 Y-4.396
X-1.677 Y-4.415
X-0.838 Y-4.648
X-0.734 Y-4.669
X-0.629 Y-4.676
X0.21 Y-4.721
X0.314 Y-4.714
X1.048 Y-4.594
X1.258 Y-4.557
X1.467 Y-4.478
X2.096 Y-4.228
X2.194 Y-4.186
X2.306 Y-4.119
X2.934 Y-3.693
X3.021 Y-3.633
X3.107 Y-3.558
X3.702 Y-2.93
X3.773 Y-2.846
X3.852 Y-2.721
X4.229 Y-2.093
X4.287 Y-1.989
X4.328 Y-1.884
X4.54 Y-1.256
X4.611 Y-1.039
X4.64 Y-0.837
X4.708 Y-0.209
X4.727 Y0
X4.708 Y0.209
X4.64 Y0.837
X4.611 Y1.039
X4.54 Y1.256
X4.328 Y1.884
X4.287 Y1.989
X4.229 Y2.093
X3.925 Y2.598
X3.869 Y2.672 F800
X3.802 Y2.736
X3.737 Y2.772 Z-0.995
X3.674 Y2.807 Z-0.982
X3.612 Y2.841 Z-0.959
X3.544 Y2.852 Z-0.927
X3.48 Y2.862 Z-0.886
X3.422 Y2.871 Z-0.837
X3.358 Y2.861 Z-0.764
X3.306 Y2.853 Z-0.682
X3.268 Y2.847 Z-0.593
X3.244 Y2.843 Z-0.498
X3.237 Y2.842 Z-0.401
G0 Z5
X0.909 Y-2.701
Z0.5
G3 X-0.909 Y2.701 Z0.187 I-0.909 J2.701 F600
X0.909 Y-2.701 Z-0.125 I0.909 J-2.701
X-0.909 Y2.701 Z-0.438 I-0.909 J2.701
X0.909 Y-2.701 Z-0.751 I0.909 J-2.701
X-0.909 Y2.701 Z-1.063 I-0.909 J2.701
X0.909 Y-2.701 Z-1.376 I0.909 J-2.701
X2.85 Y0 Z-1.5 I-0.909 J2.701
X-2.85 Y0 I-2.85 J0
X2.85 Y0 I2.85 J0
G1 X2.852 Y0.115 F1000
X2.893 Y0.223
X3.494 Y0.923
X3.643 Y1.109
X3.78 Y1.341
X3.894 Y1.619
X3.974 Y1.942
X4.011 Y2.307
Y2.316
X3.998 Y2.414
X3.969 Y2.509
X3.925 Y2.598
X3.852 Y2.721
X3.773 Y2.846
X3.702 Y2.93
X3.107 Y3.558
X3.021 Y3.633
X2.725 Y3.835
X2.306 Y4.119
X2.194 Y4.186
X2.096 Y4.228
X1.467 Y4.478
X1.258 Y4.557
X1.048 Y4.594
X0.314 Y4.714
X0.21 Y4.721
X-0.629 Y4.676
X-0.734 Y4.669
X-0.838 Y4.648
X-1.677 Y4.415
X-1.739 Y4.396
X-1.886 Y4.323
X-2.539 Y3.977
X-2.632 Y3.926
X-2.725 Y3.856
X-3.354 Y3.322
X-3.45 Y3.231
X-3.521 Y3.14
X-3.998 Y2.512
X-4.067 Y2.407
X-4.117 Y2.302
X-4.456 Y1.57
X-4.493 Y1.465
X-4.677 Y0.628
X-4.698 Y0.523
X-4.703 Y0.419
Y-0.419
X-4.698 Y-0.523
X-4.677 Y-0.628
X-4.493 Y-1.465
X-4.456 Y-1.57
X-4.117 Y-2.302
X-4.067 Y-2.407
X-3.998 Y-2.512
X-3.521 Y-3.14
X-3.45 Y-3.231
X-3.354 Y-3.322
X-2.725 Y-3.856
X-2.632 Y-3.926
X-2.515 Y-3.99
X-1.886 Y-4.323
X-1.739 Y-4.396
X-1.677 Y-4.415
X-0.838 Y-4.648
X-0.734 Y-4.669
X-0.629 Y-4.676
X0.21 Y-4.721
X0.314 Y-4.714
X1.048 Y-4.594
X1.258 Y-4.557
X1.467 Y-4.478
X2.096 Y-4.228
X2.194 Y-4.186
X2.306 Y-4.119
X2.934 Y-3.693
X3.021 Y-3.633
X3.107 Y-3.558
X3.702 Y-2.93
X3.773 Y-2.846
X3.852 Y-2.721
X4.229 Y-2.093
X4.287 Y-1.989
X4.328 Y-1.884
X4.54 Y-1.256
X4.611 Y-1.039
X4.64 Y-0.837
X4.708 Y-0.209
X4.727 Y0
X4.708 Y0.209
X4.64 Y0.837
X4.611 Y1.039
X4.54 Y1.256
X4.328 Y1.884
X4.287 Y1.989
X4.229 Y2.093
X3.925 Y2.598
X3.869 Y2.672 F800
X3.802 Y2.736
X3.737 Y2.772 Z-1.495
X3.674 Y2.807 Z-1.482
X3.612 Y2.841 Z-1.459
X3.544 Y2.852 Z-1.427
X3.48 Y2.862 Z-1.386
X3.422 Y2.871 Z-1.337
X3.358 Y2.861 Z-1.264
X3.306 Y2.853 Z-1.182
X3.268 Y2.847 Z-1.093
X3.244 Y2.843 Z-0.998
X3.237 Y2.842 Z-0.901
G0 Z5
X0.909 Y-2.701
Z0
G3 X-0.909 Y2.701 Z-0.313 I-0.909 J2.701 F600
X0.909 Y-2.701 Z-0.625 I0.909 J-2.701
X-0.909 Y2.701 Z-0.938 I-0.909 J2.701
X0.909 Y-2.701 Z-1.251 I0.909 J-2.701
X-0.909 Y2.701 Z-1.563 I-0.909 J2.701
X0.909 Y-2.701 Z-1.876 I0.909 J-2.701
X2.85 Y0 Z-2 I-0.909 J2.701
X-2.85 Y0 I-2.85 J0
X2.85 Y0 I2.85 J0
G1 X2.852 Y0.115 F1000
X2.893 Y0.223
X3.494 Y0.923
X3.643 Y1.109
X3.78 Y1.341
X3.894 Y1.619
X3.974 Y1.942
X4.011 Y2.307
Y2.316
X3.998 Y2.414
X3.969 Y2.509
X3.925 Y2.598
X3.852 Y2.721
X3.773 Y2.846
X3.702 Y2.93
X3.107 Y3.558
X3.021 Y3.633
X2.725 Y3.835
X2.306 Y4.119
X2.194 Y4.186
X2.096 Y4.228
X1.467 Y4.478
X1.258 Y4.557
X1.048 Y4.594
X0.314 Y4.714
X0.21 Y4.721
X-0.629 Y4.676
X-0.734 Y4.669
X-0.838 Y4.648
X-1.677 Y4.415
X-1.739 Y4.396
X-1.886 Y4.323
X-2.539 Y3.977
X-2.632 Y3.926
X-2.725 Y3.856
X-3.354 Y3.322
X-3.45 Y3.231
X-3.521 Y3.14
X-3.998 Y2.512
X-4.067 Y2.407
X-4.117 Y2.302
X-4.456 Y1.57
X-4.493 Y1.465
X-4.677 Y0.628
X-4.698 Y0.523
X-4.703 Y0.419
Y-0.419
X-4.698 Y-0.523
X-4.677 Y-0.628
X-4.493 Y-1.465
X-4.456 Y-1.57
X-4.117 Y-2.302
X-4.067 Y-2.407
X-3.998 Y-2.512
X-3.521 Y-3.14
X-3.45 Y-3.231
X-3.354 Y-3.322
X-2.725 Y-3.856
X-2.632 Y-3.926
X-2.515 Y-3.99
X-1.886 Y-4.323
X-1.739 Y-4.396
X-1.677 Y-4.415
X-0.838 Y-4.648
X-0.734 Y-4.669
X-0.629 Y-4.676
X0.21 Y-4.721
X0.314 Y-4.714
X1.048 Y-4.594
X1.258 Y-4.557
X1.467 Y-4.478
X2.096 Y-4.228
X2.194 Y-4.186
X2.306 Y-4.119
X2.934 Y-3.693
X3.021 Y-3.633
X3.107 Y-3.558
X3.702 Y-2.93
X3.773 Y-2.846
X3.852 Y-2.721
X4.229 Y-2.093
X4.287 Y-1.989
X4.328 Y-1.884
X4.54 Y-1.256
X4.611 Y-1.039
X4.64 Y-0.837
X4.708 Y-0.209
X4.727 Y0
X4.708 Y0.209
X4.64 Y0.837
X4.611 Y1.039
X4.54 Y1.256
X4.328 Y1.884
X4.287 Y1.989
X4.229 Y2.093
X3.925 Y2.598
X3.869 Y2.672 F800
X3.802 Y2.736
X3.737 Y2.772 Z-1.995
X3.674 Y2.807 Z-1.982
X3.612 Y2.841 Z-1.959
X3.544 Y2.852 Z-1.927
X3.48 Y2.862 Z-1.886
X3.422 Y2.871 Z-1.837
X3.358 Y2.861 Z-1.764
X3.306 Y2.853 Z-1.682
X3.268 Y2.847 Z-1.593
X3.244 Y2.843 Z-1.498
X3.237 Y2.842 Z-1.401
G0 Z5
X0.909 Y-2.701
Z-0.5
G3 X-0.909 Y2.701 Z-0.813 I-0.909 J2.701 F600
X0.909 Y-2.701 Z-1.125 I0.909 J-2.701
X-0.909 Y2.701 Z-1.438 I-0.909 J2.701
X0.909 Y-2.701 Z-1.751 I0.909 J-2.701
X-0.909 Y2.701 Z-2.063 I-0.909 J2.701
X0.909 Y-2.701 Z-2.376 I0.909 J-2.701
X2.85 Y0 Z-2.5 I-0.909 J2.701
X-2.85 Y0 I-2.85 J0
X2.85 Y0 I2.85 J0
G1 X2.852 Y0.115 F1000
X2.893 Y0.223
X3.494 Y0.923
X3.643 Y1.109
X3.78 Y1.341
X3.894 Y1.619
X3.974 Y1.942
X4.011 Y2.307
Y2.316
X3.998 Y2.414
X3.969 Y2.509
X3.925 Y2.598
X3.852 Y2.721
X3.773 Y2.846
X3.702 Y2.93
X3.107 Y3.558
X3.021 Y3.633
X2.725 Y3.835
X2.306 Y4.119
X2.194 Y4.186
X2.096 Y4.228
X1.467 Y4.478
X1.258 Y4.557
X1.048 Y4.594
X0.314 Y4.714
X0.21 Y4.721
X-0.629 Y4.676
X-0.734 Y4.669
X-0.838 Y4.648
X-1.677 Y4.415
X-1.739 Y4.396
X-1.886 Y4.323
X-2.539 Y3.977
X-2.632 Y3.926
X-2.725 Y3.856
X-3.354 Y3.322
X-3.45 Y3.231
X-3.521 Y3.14
X-3.998 Y2.512
X-4.067 Y2.407
X-4.117 Y2.302
X-4.456 Y1.57
X-4.493 Y1.465
X-4.677 Y0.628
X-4.698 Y0.523
X-4.703 Y0.419
Y-0.419
X-4.698 Y-0.523
X-4.677 Y-0.628
X-4.493 Y-1.465
X-4.456 Y-1.57
X-4.117 Y-2.302
X-4.067 Y-2.407
X-3.998 Y-2.512
X-3.521 Y-3.14
X-3.45 Y-3.231
X-3.354 Y-3.322
X-2.725 Y-3.856
X-2.632 Y-3.926
X-2.515 Y-3.99
X-1.886 Y-4.323
X-1.739 Y-4.396
X-1.677 Y-4.415
X-0.838 Y-4.648
X-0.734 Y-4.669
X-0.629 Y-4.676
X0.21 Y-4.721
X0.314 Y-4.714
X1.048 Y-4.594
X1.258 Y-4.557
X1.467 Y-4.478
X2.096 Y-4.228
X2.194 Y-4.186
X2.306 Y-4.119
X2.934 Y-3.693
X3.021 Y-3.633
X3.107 Y-3.558
X3.702 Y-2.93
X3.773 Y-2.846
X3.852 Y-2.721
X4.229 Y-2.093
X4.287 Y-1.989
X4.328 Y-1.884
X4.54 Y-1.256
X4.611 Y-1.039
X4.64 Y-0.837
X4.708 Y-0.209
X4.727 Y0
X4.708 Y0.209
X4.64 Y0.837
X4.611 Y1.039
X4.54 Y1.256
X4.328 Y1.884
X4.287 Y1.989
X4.229 Y2.093
X3.925 Y2.598
X3.869 Y2.672 F800
X3.802 Y2.736
X3.737 Y2.772 Z-2.495
X3.674 Y2.807 Z-2.482
X3.612 Y2.841 Z-2.459
X3.544 Y2.852 Z-2.427
X3.48 Y2.862 Z-2.386
X3.422 Y2.871 Z-2.337
X3.358 Y2.861 Z-2.264
X3.306 Y2.853 Z-2.182
X3.268 Y2.847 Z-2.093
X3.244 Y2.843 Z-1.998
X3.237 Y2.842 Z-1.901
G0 Z5
X0.911 Y-2.701
Z-1
G3 X-0.911 Y2.701 Z-1.313 I-0.911 J2.701 F600
X0.911 Y-2.701 Z-1.625 I0.911 J-2.701
X-0.911 Y2.701 Z-1.938 I-0.911 J2.701
X0.911 Y-2.701 Z-2.251 I0.911 J-2.701
X-0.911 Y2.701 Z-2.563 I-0.911 J2.701
X0.911 Y-2.701 Z-2.876 I0.911 J-2.701
X2.85 Y0 Z-3 I-0.911 J2.701
X-2.85 Y0 I-2.85 J0
X2.85 Y0 I2.85 J0
G1 X2.852 Y0.115 F1000
X2.893 Y0.223
X3.494 Y0.923
X3.643 Y1.109
X3.78 Y1.341
X3.894 Y1.619
X3.974 Y1.942
X4.011 Y2.307
Y2.316
X3.998 Y2.414
X3.969 Y2.509
X3.925 Y2.598
X3.852 Y2.721
X3.773 Y2.846
X3.702 Y2.93
X3.107 Y3.558
X3.021 Y3.633
X2.725 Y3.835
X2.306 Y4.119
X2.194 Y4.186
X2.096 Y4.228
X1.467 Y4.478
X1.258 Y4.557
X1.048 Y4.594
X0.314 Y4.714
X0.21 Y4.721
X-0.629 Y4.676
X-0.734 Y4.669
X-0.838 Y4.648
X-1.677 Y4.415
X-1.739 Y4.396
X-1.886 Y4.323
X-2.539 Y3.977
X-2.632 Y3.926
X-2.725 Y3.856
X-3.354 Y3.322
X-3.45 Y3.231
X-3.521 Y3.14
X-3.998 Y2.512
X-4.067 Y2.407
X-4.117 Y2.302
X-4.456 Y1.57
X-4.493 Y1.465
X-4.677 Y0.628
X-4.698 Y0.523
X-4.703 Y0.419
Y-0.419
X-4.698 Y-0.523
X-4.677 Y-0.628
X-4.493 Y-1.465
X-4.456 Y-1.57
X-4.117 Y-2.302
X-4.067 Y-2.407
X-3.998 Y-2.512
X-3.521 Y-3.14
X-3.45 Y-3.231
X-3.354 Y-3.322
X-2.725 Y-3.856
X-2.632 Y-3.926
X-2.515 Y-3.99
X-1.886 Y-4.323
X-1.739 Y-4.396
X-1.677 Y-4.415
X-0.838 Y-4.648
X-0.734 Y-4.669
X-0.629 Y-4.676
X0.21 Y-4.721
X0.314 Y-4.714
X1.048 Y-4.594
X1.258 Y-4.557
X1.467 Y-4.478
X2.096 Y-4.228
X2.194 Y-4.186
X2.306 Y-4.119
X2.934 Y-3.693
X3.021 Y-3.633
X3.107 Y-3.558
X3.702 Y-2.93
X3.773 Y-2.846
X3.852 Y-2.721
X4.229 Y-2.093
X4.287 Y-1.989
X4.328 Y-1.884
X4.54 Y-1.256
X4.611 Y-1.039
X4.64 Y-0.837
X4.708 Y-0.209
X4.727 Y0
X4.708 Y0.209
X4.64 Y0.837
X4.611 Y1.039
X4.54 Y1.256
X4.328 Y1.884
X4.287 Y1.989
X4.229 Y2.093
X3.925 Y2.598
X3.869 Y2.672 F800
X3.802 Y2.736
X3.737 Y2.772 Z-2.995
X3.674 Y2.807 Z-2.981
X3.612 Y2.841 Z-2.959
X3.544 Y2.852 Z-2.927
X3.48 Y2.862 Z-2.886
X3.422 Y2.871 Z-2.837
X3.358 Y2.861 Z-2.764
X3.306 Y2.853 Z-2.682
X3.268 Y2.847 Z-2.592
X3.244 Y2.843 Z-2.498
X3.237 Y2.842 Z-2.4
G0 Z5
X0.908 Y-2.701
Z-1.5
G3 X-0.908 Y2.701 Z-1.813 I-0.908 J2.701 F600
X0.908 Y-2.701 Z-2.125 I0.908 J-2.701
X-0.908 Y2.701 Z-2.438 I-0.908 J2.701
X0.908 Y-2.701 Z-2.751 I0.908 J-2.701
X-0.908 Y2.701 Z-3.063 I-0.908 J2.701
X0.908 Y-2.701 Z-3.376 I0.908 J-2.701
X2.85 Y0 Z-3.5 I-0.908 J2.701
X-2.85 Y0 I-2.85 J0
X2.85 Y0 I2.85 J0
G1 X2.852 Y0.115 F1000
X2.893 Y0.223
X3.494 Y0.923
X3.643 Y1.109
X3.78 Y1.341
X3.894 Y1.619
X3.974 Y1.942
X4.011 Y2.307
Y2.316
X3.998 Y2.414
X3.969 Y2.509
X3.925 Y2.598
X3.852 Y2.721
X3.773 Y2.846
X3.702 Y2.93
X3.107 Y3.558
X3.021 Y3.633
X2.725 Y3.835
X2.306 Y4.119
X2.194 Y4.186
X2.096 Y4.228
X1.467 Y4.478
X1.258 Y4.557
X1.048 Y4.594
X0.314 Y4.714
X0.21 Y4.721
X-0.629 Y4.676
X-0.734 Y4.669
X-0.838 Y4.648
X-1.677 Y4.415
X-1.739 Y4.396
X-1.886 Y4.323
X-2.539 Y3.977
X-2.632 Y3.926
X-2.725 Y3.856
X-3.354 Y3.322
X-3.45 Y3.231
X-3.521 Y3.14
X-3.998 Y2.512
X-4.067 Y2.407
X-4.117 Y2.302
X-4.456 Y1.57
X-4.493 Y1.465
X-4.677 Y0.628
X-4.698 Y0.523
X-4.703 Y0.419
Y-0.419
X-4.698 Y-0.523
X-4.677 Y-0.628
X-4.493 Y-1.465
X-4.456 Y-1.57
X-4.117 Y-2.302
X-4.067 Y-2.407
X-3.998 Y-2.512
X-3.521 Y-3.14
X-3.45 Y-3.231
X-3.354 Y-3.322
X-2.725 Y-3.856
X-2.632 Y-3.926
X-2.515 Y-3.99
X-1.886 Y-4.323
X-1.739 Y-4.396
X-1.677 Y-4.415
X-0.838 Y-4.648
X-0.734 Y-4.669
X-0.629 Y-4.676
X0.21 Y-4.721
X0.314 Y-4.714
X1.048 Y-4.594
X1.258 Y-4.557
X1.467 Y-4.478
X2.096 Y-4.228
X2.194 Y-4.186
X2.306 Y-4.119
X2.934 Y-3.693
X3.021 Y-3.633
X3.107 Y-3.558
X3.702 Y-2.93
X3.773 Y-2.846
X3.852 Y-2.721
X4.229 Y-2.093
X4.287 Y-1.989
X4.328 Y-1.884
X4.54 Y-1.256
X4.611 Y-1.039
X4.64 Y-0.837
X4.708 Y-0.209
X4.727 Y0
X4.708 Y0.209
X4.64 Y0.837
X4.611 Y1.039
X4.54 Y1.256
X4.328 Y1.884
X4.287 Y1.989
X4.229 Y2.093
X3.925 Y2.598
X3.869 Y2.672 F800
X3.802 Y2.736
X3.737 Y2.772 Z-3.495
X3.674 Y2.807 Z-3.482
X3.612 Y2.841 Z-3.459
X3.544 Y2.852 Z-3.427
X3.48 Y2.862 Z-3.386
X3.422 Y2.871 Z-3.337
X3.358 Y2.861 Z-3.264
X3.306 Y2.853 Z-3.182
X3.268 Y2.847 Z-3.093
X3.244 Y2.843 Z-2.998
X3.237 Y2.842 Z-2.901
G0 Z5
X0.909 Y-2.701
Z-2
G3 X-0.909 Y2.701 Z-2.313 I-0.909 J2.701 F600
X0.909 Y-2.701 Z-2.625 I0.909 J-2.701
X-0.909 Y2.701 Z-2.938 I-0.909 J2.701
X0.909 Y-2.701 Z-3.251 I0.909 J-2.701
X-0.909 Y2.701 Z-3.563 I-0.909 J2.701
X0.909 Y-2.701 Z-3.876 I0.909 J-2.701
X2.85 Y0 Z-4 I-0.909 J2.701
X-2.85 Y0 I-2.85 J0
X2.85 Y0 I2.85 J0
G1 X2.852 Y0.115 F1000
X2.893 Y0.223
X3.494 Y0.923
X3.643 Y1.109
X3.78 Y1.341
X3.894 Y1.619
X3.974 Y1.942
X4.011 Y2.307
Y2.316
X3.998 Y2.414
X3.969 Y2.509
X3.925 Y2.598
X3.852 Y2.721
X3.773 Y2.846
X3.702 Y2.93
X3.107 Y3.558
X3.021 Y3.633
X2.725 Y3.835
X2.306 Y4.119
X2.194 Y4.186
X2.096 Y4.228
X1.467 Y4.478
X1.258 Y4.557
X1.048 Y4.594
X0.314 Y4.714
X0.21 Y4.721
X-0.629 Y4.676
X-0.734 Y4.669
X-0.838 Y4.648
X-1.677 Y4.415
X-1.739 Y4.396
X-1.886 Y4.323
X-2.539 Y3.977
X-2.632 Y3.926
X-2.725 Y3.856
X-3.354 Y3.322
X-3.45 Y3.231
X-3.521 Y3.14
X-3.998 Y2.512
X-4.067 Y2.407
X-4.117 Y2.302
X-4.456 Y1.57
X-4.493 Y1.465
X-4.677 Y0.628
X-4.698 Y0.523
X-4.703 Y0.419
Y-0.419
X-4.698 Y-0.523
X-4.677 Y-0.628
X-4.493 Y-1.465
X-4.456 Y-1.57
X-4.117 Y-2.302
X-4.067 Y-2.407
X-3.998 Y-2.512
X-3.521 Y-3.14
X-3.45 Y-3.231
X-3.354 Y-3.322
X-2.725 Y-3.856
X-2.632 Y-3.926
X-2.515 Y-3.99
X-1.886 Y-4.323
X-1.739 Y-4.396
X-1.677 Y-4.415
X-0.838 Y-4.648
X-0.734 Y-4.669
X-0.629 Y-4.676
X0.21 Y-4.721
X0.314 Y-4.714
X1.048 Y-4.594
X1.258 Y-4.557
X1.467 Y-4.478
X2.096 Y-4.228
X2.194 Y-4.186
X2.306 Y-4.119
X2.934 Y-3.693
X3.021 Y-3.633
X3.107 Y-3.558
X3.702 Y-2.93
X3.773 Y-2.846
X3.852 Y-2.721
X4.229 Y-2.093
X4.287 Y-1.989
X4.328 Y-1.884
X4.54 Y-1.256
X4.611 Y-1.039
X4.64 Y-0.837
X4.708 Y-0.209
X4.727 Y0
X4.708 Y0.209
X4.64 Y0.837
X4.611 Y1.039
X4.54 Y1.256
X4.328 Y1.884
X4.287 Y1.989
X4.229 Y2.093
X3.925 Y2.598
X3.869 Y2.672 F800
X3.802 Y2.736
X3.737 Y2.772 Z-3.995
X3.674 Y2.807 Z-3.982
X3.612 Y2.841 Z-3.959
X3.544 Y2.852 Z-3.927
X3.48 Y2.862 Z-3.886
X3.422 Y2.871 Z-3.837
X3.358 Y2.861 Z-3.764
X3.306 Y2.853 Z-3.682
X3.268 Y2.847 Z-3.593
X3.244 Y2.843 Z-3.498
X3.237 Y2.842 Z-3.401
G0 Z5
X0.909 Y-2.701
Z-2.5
G3 X-0.909 Y2.701 Z-2.813 I-0.909 J2.701 F600
X0.909 Y-2.701 Z-3.125 I0.909 J-2.701
X-0.909 Y2.701 Z-3.438 I-0.909 J2.701
X0.909 Y-2.701 Z-3.751 I0.909 J-2.701
X-0.909 Y2.701 Z-4.063 I-0.909 J2.701
X0.909 Y-2.701 Z-4.376 I0.909 J-2.701
X2.85 Y0 Z-4.5 I-0.909 J2.701
X-2.85 Y0 I-2.85 J0
X2.85 Y0 I2.85 J0
G1 X2.852 Y0.115 F1000
X2.893 Y0.223
X3.494 Y0.923
X3.643 Y1.109
X3.78 Y1.341
X3.894 Y1.619
X3.974 Y1.942
X4.011 Y2.307
Y2.316
X3.998 Y2.414
X3.969 Y2.509
X3.925 Y2.598
X3.852 Y2.721
X3.773 Y2.846
X3.702 Y2.93
X3.107 Y3.558
X3.021 Y3.633
X2.725 Y3.835
X2.306 Y4.119
X2.194 Y4.186
X2.096 Y4.228
X1.467 Y4.478
X1.258 Y4.557
X1.048 Y4.594
X0.314 Y4.714
X0.21 Y4.721
X-0.629 Y4.676
X-0.734 Y4.669
X-0.838 Y4.648
X-1.677 Y4.415
X-1.739 Y4.396
X-1.886 Y4.323
X-2.539 Y3.977
X-2.632 Y3.926
X-2.725 Y3.856
X-3.354 Y3.322
X-3.45 Y3.231
X-3.521 Y3.14
X-3.998 Y2.512
X-4.067 Y2.407
X-4.117 Y2.302
X-4.456 Y1.57
X-4.493 Y1.465
X-4.677 Y0.628
X-4.698 Y0.523
X-4.703 Y0.419
Y-0.419
X-4.698 Y-0.523
X-4.677 Y-0.628
X-4.493 Y-1.465
X-4.456 Y-1.57
X-4.117 Y-2.302
X-4.067 Y-2.407
X-3.998 Y-2.512
X-3.521 Y-3.14
X-3.45 Y-3.231
X-3.354 Y-3.322
X-2.725 Y-3.856
X-2.632 Y-3.926
X-2.515 Y-3.99
X-1.886 Y-4.323
X-1.739 Y-4.396
X-1.677 Y-4.415
X-0.838 Y-4.648
X-0.734 Y-4.669
X-0.629 Y-4.676
X0.21 Y-4.721
X0.314 Y-4.714
X1.048 Y-4.594
X1.258 Y-4.557
X1.467 Y-4.478
X2.096 Y-4.228
X2.194 Y-4.186
X2.306 Y-4.119
X2.934 Y-3.693
X3.021 Y-3.633
X3.107 Y-3.558
X3.702 Y-2.93
X3.773 Y-2.846
X3.852 Y-2.721
X4.229 Y-2.093
X4.287 Y-1.989
X4.328 Y-1.884
X4.54 Y-1.256
X4.611 Y-1.039
X4.64 Y-0.837
X4.708 Y-0.209
X4.727 Y0
X4.708 Y0.209
X4.64 Y0.837
X4.611 Y1.039
X4.54 Y1.256
X4.328 Y1.884
X4.287 Y1.989
X4.229 Y2.093
X3.925 Y2.598
X3.869 Y2.672 F800
X3.802 Y2.736
X3.737 Y2.772 Z-4.495
X3.674 Y2.807 Z-4.482
X3.612 Y2.841 Z-4.459
X3.544 Y2.852 Z-4.427
X3.48 Y2.862 Z-4.386
X3.422 Y2.871 Z-4.337
X3.358 Y2.861 Z-4.264
X3.306 Y2.853 Z-4.182
X3.268 Y2.847 Z-4.093
X3.244 Y2.843 Z-3.998
X3.237 Y2.842 Z-3.901
G0 Z5
X0.909 Y-2.701
Z-3
G3 X-0.909 Y2.701 Z-3.313 I-0.909 J2.701 F600
X0.909 Y-2.701 Z-3.625 I0.909 J-2.701
X-0.909 Y2.701 Z-3.938 I-0.909 J2.701
X0.909 Y-2.701 Z-4.251 I0.909 J-2.701
X-0.909 Y2.701 Z-4.563 I-0.909 J2.701
X0.909 Y-2.701 Z-4.876 I0.909 J-2.701
X2.85 Y0 Z-5 I-0.909 J2.701
X-2.85 Y0 I-2.85 J0
X2.85 Y0 I2.85 J0
G1 X2.852 Y0.115 F1000
X2.893 Y0.223
X3.494 Y0.923
X3.643 Y1.109
X3.78 Y1.341
X3.894 Y1.619
X3.974 Y1.942
X4.011 Y2.307
Y2.316
X3.998 Y2.414
X3.969 Y2.509
X3.925 Y2.598
X3.852 Y2.721
X3.773 Y2.846
X3.702 Y2.93
X3.107 Y3.558
X3.021 Y3.633
X2.725 Y3.835
X2.306 Y4.119
X2.194 Y4.186
X2.096 Y4.228
X1.467 Y4.478
X1.258 Y4.557
X1.048 Y4.594
X0.314 Y4.714
X0.21 Y4.721
X-0.629 Y4.676
X-0.734 Y4.669
X-0.838 Y4.648
X-1.677 Y4.415
X-1.739 Y4.396
X-1.886 Y4.323
X-2.539 Y3.977
X-2.632 Y3.926
X-2.725 Y3.856
X-3.354 Y3.322
X-3.45 Y3.231
X-3.521 Y3.14
X-3.998 Y2.512
X-4.067 Y2.407
X-4.117 Y2.302
X-4.456 Y1.57
X-4.493 Y1.465
X-4.677 Y0.628
X-4.698 Y0.523
X-4.703 Y0.419
Y-0.419
X-4.698 Y-0.523
X-4.677 Y-0.628
X-4.493 Y-1.465
X-4.456 Y-1.57
X-4.117 Y-2.302
X-4.067 Y-2.407
X-3.998 Y-2.512
X-3.521 Y-3.14
X-3.45 Y-3.231
X-3.354 Y-3.322
X-2.725 Y-3.856
X-2.632 Y-3.926
X-2.515 Y-3.99
X-1.886 Y-4.323
X-1.739 Y-4.396
X-1.677 Y-4.415
X-0.838 Y-4.648
X-0.734 Y-4.669
X-0.629 Y-4.676
X0.21 Y-4.721
X0.314 Y-4.714
X1.048 Y-4.594
X1.258 Y-4.557
X1.467 Y-4.478
X2.096 Y-4.228
X2.194 Y-4.186
X2.306 Y-4.119
X2.934 Y-3.693
X3.021 Y-3.633
X3.107 Y-3.558
X3.702 Y-2.93
X3.773 Y-2.846
X3.852 Y-2.721
X4.229 Y-2.093
X4.287 Y-1.989
X4.328 Y-1.884
X4.54 Y-1.256
X4.611 Y-1.039
X4.64 Y-0.837
X4.708 Y-0.209
X4.727 Y0
X4.708 Y0.209
X4.64 Y0.837
X4.611 Y1.039
X4.54 Y1.256
X4.328 Y1.884
X4.287 Y1.989
X4.229 Y2.093
X3.925 Y2.598
X3.869 Y2.672 F800
X3.802 Y2.736
X3.737 Y2.772 Z-4.995
X3.674 Y2.807 Z-4.982
X3.612 Y2.841 Z-4.959
X3.544 Y2.852 Z-4.927
X3.48 Y2.862 Z-4.886
X3.422 Y2.871 Z-4.837
X3.358 Y2.861 Z-4.764
X3.306 Y2.853 Z-4.682
X3.268 Y2.847 Z-4.593
X3.244 Y2.843 Z-4.498
X3.237 Y2.842 Z-4.401
G0 Z5
X0.909 Y-2.701
Z-3.5
G3 X-0.909 Y2.701 Z-3.813 I-0.909 J2.701 F600
X0.909 Y-2.701 Z-4.125 I0.909 J-2.701
X-0.909 Y2.701 Z-4.438 I-0.909 J2.701
X0.909 Y-2.701 Z-4.751 I0.909 J-2.701
X-0.909 Y2.701 Z-5.063 I-0.909 J2.701
X0.909 Y-2.701 Z-5.376 I0.909 J-2.701
X2.85 Y0 Z-5.5 I-0.909 J2.701
X-2.85 Y0 I-2.85 J0
X2.85 Y0 I2.85 J0
G1 X2.852 Y0.115 F1000
X2.893 Y0.223
X3.494 Y0.923
X3.643 Y1.109
X3.78 Y1.341
X3.894 Y1.619
X3.974 Y1.942
X4.011 Y2.307
Y2.316
X3.998 Y2.414
X3.969 Y2.509
X3.925 Y2.598
X3.852 Y2.721
X3.773 Y2.846
X3.702 Y2.93
X3.107 Y3.558
X3.021 Y3.633
X2.725 Y3.835
X2.306 Y4.119
X2.194 Y4.186
X2.096 Y4.228
X1.467 Y4.478
X1.258 Y4.557
X1.048 Y4.594
X0.314 Y4.714
X0.21 Y4.721
X-0.629 Y4.676
X-0.734 Y4.669
X-0.838 Y4.648
X-1.677 Y4.415
X-1.739 Y4.396
X-1.886 Y4.323
X-2.539 Y3.977
X-2.632 Y3.926
X-2.725 Y3.856
X-3.354 Y3.322
X-3.45 Y3.231
X-3.521 Y3.14
X-3.998 Y2.512
X-4.067 Y2.407
X-4.117 Y2.302
X-4.456 Y1.57
X-4.493 Y1.465
X-4.677 Y0.628
X-4.698 Y0.523
X-4.703 Y0.419
Y-0.419
X-4.698 Y-0.523
X-4.677 Y-0.628
X-4.493 Y-1.465
X-4.456 Y-1.57
X-4.117 Y-2.302
X-4.067 Y-2.407
X-3.998 Y-2.512
X-3.521 Y-3.14
X-3.45 Y-3.231
X-3.354 Y-3.322
X-2.725 Y-3.856
X-2.632 Y-3.926
X-2.515 Y-3.99
X-1.886 Y-4.323
X-1.739 Y-4.396
X-1.677 Y-4.415
X-0.838 Y-4.648
X-0.734 Y-4.669
X-0.629 Y-4.676
X0.21 Y-4.721
X0.314 Y-4.714
X1.048 Y-4.594
X1.258 Y-4.557
X1.467 Y-4.478
X2.096 Y-4.228
X2.194 Y-4.186
X2.306 Y-4.119
X2.934 Y-3.693
X3.021 Y-3.633
X3.107 Y-3.558
X3.702 Y-2.93
X3.773 Y-2.846
X3.852 Y-2.721
X4.229 Y-2.093
X4.287 Y-1.989
X4.328 Y-1.884
X4.54 Y-1.256
X4.611 Y-1.039
X4.64 Y-0.837
X4.708 Y-0.209
X4.727 Y0
X4.708 Y0.209
X4.64 Y0.837
X4.611 Y1.039
X4.54 Y1.256
X4.328 Y1.884
X4.287 Y1.989
X4.229 Y2.093
X3.925 Y2.598
X3.869 Y2.672 F800
X3.802 Y2.736
X3.737 Y2.772 Z-5.495
X3.674 Y2.807 Z-5.482
X3.612 Y2.841 Z-5.459
X3.544 Y2.852 Z-5.427
X3.48 Y2.862 Z-5.386
X3.422 Y2.871 Z-5.337
X3.358 Y2.861 Z-5.264
X3.306 Y2.853 Z-5.182
X3.268 Y2.847 Z-5.093
X3.244 Y2.843 Z-4.998
X3.237 Y2.842 Z-4.901
G0 Z5
X0.911 Y-2.701
Z-4
G3 X-0.911 Y2.701 Z-4.313 I-0.911 J2.701 F600
X0.911 Y-2.701 Z-4.625 I0.911 J-2.701
X-0.911 Y2.701 Z-4.938 I-0.911 J2.701
X0.911 Y-2.701 Z-5.251 I0.911 J-2.701
X-0.911 Y2.701 Z-5.563 I-0.911 J2.701
X0.911 Y-2.701 Z-5.876 I0.911 J-2.701
X2.85 Y0 Z-6 I-0.911 J2.701
X-2.85 Y0 I-2.85 J0
X2.85 Y0 I2.85 J0
G1 X2.852 Y0.115 F1000
X2.893 Y0.223
X3.494 Y0.923
X3.643 Y1.109
X3.78 Y1.341
X3.894 Y1.619
X3.974 Y1.942
X4.011 Y2.307
Y2.316
X3.998 Y2.414
X3.969 Y2.509
X3.925 Y2.598
X3.852 Y2.721
X3.773 Y2.846
X3.702 Y2.93
X3.107 Y3.558
X3.021 Y3.633
X2.725 Y3.835
X2.306 Y4.119
X2.194 Y4.186
X2.096 Y4.228
X1.467 Y4.478
X1.258 Y4.557
X1.048 Y4.594
X0.314 Y4.714
X0.21 Y4.721
X-0.629 Y4.676
X-0.734 Y4.669
X-0.838 Y4.648
X-1.677 Y4.415
X-1.739 Y4.396
X-1.886 Y4.323
X-2.539 Y3.977
X-2.632 Y3.926
X-2.725 Y3.856
X-3.354 Y3.322
X-3.45 Y3.231
X-3.521 Y3.14
X-3.998 Y2.512
X-4.067 Y2.407
X-4.117 Y2.302
X-4.456 Y1.57
X-4.493 Y1.465
X-4.677 Y0.628
X-4.698 Y0.523
X-4.703 Y0.419
Y-0.419
X-4.698 Y-0.523
X-4.677 Y-0.628
X-4.493 Y-1.465
X-4.456 Y-1.57
X-4.117 Y-2.302
X-4.067 Y-2.407
X-3.998 Y-2.512
X-3.521 Y-3.14
X-3.45 Y-3.231
X-3.354 Y-3.322
X-2.725 Y-3.856
X-2.632 Y-3.926
X-2.515 Y-3.99
X-1.886 Y-4.323
X-1.739 Y-4.396
X-1.677 Y-4.415
X-0.838 Y-4.648
X-0.734 Y-4.669
X-0.629 Y-4.676
X0.21 Y-4.721
X0.314 Y-4.714
X1.048 Y-4.594
X1.258 Y-4.557
X1.467 Y-4.478
X2.096 Y-4.228
X2.194 Y-4.186
X2.306 Y-4.119
X2.934 Y-3.693
X3.021 Y-3.633
X3.107 Y-3.558
X3.702 Y-2.93
X3.773 Y-2.846
X3.852 Y-2.721
X4.229 Y-2.093
X4.287 Y-1.989
X4.328 Y-1.884
X4.54 Y-1.256
X4.611 Y-1.039
X4.64 Y-0.837
X4.708 Y-0.209
X4.727 Y0
X4.708 Y0.209
X4.64 Y0.837
X4.611 Y1.039
X4.54 Y1.256
X4.328 Y1.884
X4.287 Y1.989
X4.229 Y2.093
X3.925 Y2.598
G3 X3.237 Y2.842 I-0.503 J-0.327 F800
G1 X3.147 Y2.813 Z-5.993
X3.06 Y2.785 Z-5.971
X2.978 Y2.758 Z-5.935
X2.901 Y2.733 Z-5.885
X2.833 Y2.711 Z-5.824
X2.775 Y2.692 Z-5.753
X2.728 Y2.676 Z-5.672
X2.694 Y2.665 Z-5.585
X2.673 Y2.658 Z-5.494
X2.666 Y2.656 Z-5.4
G0 Z15
G28 G91 Z0
G90
G28 G91 X0 Y0
G90
M5
M30
