(acetal_contour1)
(T1  D=6 CR=0 - ZMIN=-3 - flat end mill)
G90 G94
G17
G21
G28 G91 Z0
G90

(Contour1)
T1
S18000 M3
G54
G0 X-13.86 Y-11.659
Z15
Z1.599
G1 Z-0.427 F600
X-13.853 Y-11.657 Z-0.517
X-13.833 Y-11.651 Z-0.604
X-13.8 Y-11.642 Z-0.687
X-13.755 Y-11.628 Z-0.764
X-13.699 Y-11.612 Z-0.832
X-13.634 Y-11.593 Z-0.891
X-13.56 Y-11.571 Z-0.938
X-13.48 Y-11.548 Z-0.972
X-13.396 Y-11.523 Z-0.993
X-13.311 Y-11.498 Z-1
G3 X-12.904 Y-10.753 I-0.169 J0.576
G1 X-12.907 Y-10.742 F1000
X-12.95 Y-10.547
X-12.979 Y-10.352
X-12.996 Y-10.156
X-13 Y-9.961
Y9.961
X-12.996 Y10.156
X-12.979 Y10.352
X-12.95 Y10.547
X-12.907 Y10.742
X-12.904 Y10.753
X-12.85 Y10.938
X-12.778 Y11.133
X-12.708 Y11.29
X-12.69 Y11.328
X-12.584 Y11.524
X-12.513 Y11.639
X-12.459 Y11.719
X-12.317 Y11.905
X-12.31 Y11.914
X-12.225 Y12.012
X-12.133 Y12.11
X-12.122 Y12.121
X-12.024 Y12.214
X-11.926 Y12.3
X-11.92 Y12.305
X-11.731 Y12.45
X-11.658 Y12.5
X-11.535 Y12.577
X-11.34 Y12.684
X-11.317 Y12.696
X-11.144 Y12.773
X-10.949 Y12.846
X-10.802 Y12.891
X-10.753 Y12.904
X-10.558 Y12.948
X-10.362 Y12.978
X-10.167 Y12.995
X-9.971 Y13
X9.971
X10.167 Y12.995
X10.362 Y12.978
X10.558 Y12.948
X10.753 Y12.904
X10.802 Y12.891
X10.949 Y12.846
X11.144 Y12.773
X11.317 Y12.696
X11.34 Y12.684
X11.535 Y12.577
X11.658 Y12.5
X11.731 Y12.45
X11.92 Y12.305
X11.926 Y12.3
X12.024 Y12.214
X12.122 Y12.121
X12.133 Y12.11
X12.225 Y12.012
X12.31 Y11.914
X12.317 Y11.905
X12.459 Y11.719
X12.513 Y11.639
X12.584 Y11.524
X12.69 Y11.328
X12.708 Y11.29
X12.778 Y11.133
X12.85 Y10.938
X12.904 Y10.753
X12.907 Y10.742
X12.95 Y10.547
X12.979 Y10.352
X12.996 Y10.156
X13 Y9.961
Y-9.961
X12.996 Y-10.156
X12.979 Y-10.352
X12.95 Y-10.547
X12.907 Y-10.742
X12.904 Y-10.753
X12.85 Y-10.938
X12.778 Y-11.133
X12.708 Y-11.29
X12.69 Y-11.328
X12.584 Y-11.524
X12.513 Y-11.639
X12.459 Y-11.719
X12.317 Y-11.905
X12.31 Y-11.914
X12.225 Y-12.012
X12.133 Y-12.11
X12.122 Y-12.121
X12.024 Y-12.214
X11.926 Y-12.3
X11.92 Y-12.305
X11.731 Y-12.45
X11.658 Y-12.5
X11.535 Y-12.577
X11.34 Y-12.684
X11.317 Y-12.696
X11.144 Y-12.773
X10.949 Y-12.846
X10.802 Y-12.891
X10.753 Y-12.904
X10.558 Y-12.948
X10.362 Y-12.978
X10.167 Y-12.995
X9.971 Y-13
X-9.971
X-10.167 Y-12.995
X-10.362 Y-12.978
X-10.558 Y-12.948
X-10.753 Y-12.904
X-10.802 Y-12.891
X-10.949 Y-12.846
X-11.144 Y-12.773
X-11.317 Y-12.696
X-11.34 Y-12.684
X-11.535 Y-12.577
X-11.658 Y-12.5
X-11.731 Y-12.45
X-11.92 Y-12.305
X-11.926 Y-12.3
X-12.024 Y-12.214
X-12.122 Y-12.121
X-12.133 Y-12.11
X-12.225 Y-12.012
X-12.31 Y-11.914
X-12.317 Y-11.905
X-12.459 Y-11.719
X-12.513 Y-11.639
X-12.584 Y-11.524
X-12.69 Y-11.328
X-12.708 Y-11.29
X-12.778 Y-11.133
X-12.85 Y-10.938
X-12.904 Y-10.753
X-12.942 Y-10.586
X-12.971 Y-10.417
X-12.99 Y-10.246 Z-1.001
X-12.999 Y-10.075
X-13 Y-9.732 Z-1.003
Y-9.389 Z-1.005
Y-9.046 Z-1.007
Y-8.702 Z-1.01
Y-8.359 Z-1.014
Y-8.016 Z-1.018
Y-7.673 Z-1.022
Y-7.502 Z-1.025
Y-7.33 Z-1.027
Y-7.159 Z-1.03
Y-6.987 Z-1.033
Y-6.816 Z-1.036
Y-6.644 Z-1.039
Y-6.473 Z-1.042
Y-6.301 Z-1.045
Y-6.129 Z-1.049
Y-5.958 Z-1.052
Y-5.786 Z-1.056
Y-5.615 Z-1.06
Y-5.443 Z-1.063
Y-5.272 Z-1.067
Y-5.1 Z-1.071
Y-4.929 Z-1.075
Y-4.757 Z-1.08
Y-4.586 Z-1.084
Y-4.414 Z-1.088
Y-4.243 Z-1.093
Y-4.071 Z-1.097
Y-3.899 Z-1.102
Y-3.728 Z-1.107
Y-3.556 Z-1.112
Y-3.385 Z-1.117
Y-3.299 Z-1.119
Y-3.213 Z-1.122
Y-3.128 Z-1.124
Y-3.042 Z-1.127
Y-2.956 Z-1.129
Y-2.87 Z-1.132
Y-2.785 Z-1.135
Y-2.699 Z-1.137
Y-2.613 Z-1.14
Y-2.527 Z-1.143
Y-2.441 Z-1.145
Y-2.356 Z-1.148
Y-2.27 Z-1.151
Y-2.184 Z-1.153
Y-2.098 Z-1.156
Y-2.013 Z-1.159
Y-1.927 Z-1.162
Y-1.841 Z-1.165
Y-1.755 Z-1.168
Y-1.67 Z-1.17
Y-1.584 Z-1.173
Y-1.498 Z-1.176
Y-1.412 Z-1.179
Y-1.326 Z-1.182
Y-1.241 Z-1.185
Y-1.069 Z-1.191
Y-0.983 Z-1.194
Y-0.898 Z-1.197
Y-0.812 Z-1.2
Y-0.64 Z-1.206
Y-0.383 Z-1.215
Y-0.212 Z-1.221
Y-0.126 Z-1.224
Y0.046 Z-1.23
Y0.303 Z-1.239
Y0.475 Z-1.245
Y0.56 Z-1.248
Y0.732 Z-1.254
Y0.989 Z-1.263
Y1.161 Z-1.269
Y1.247 Z-1.272
Y1.418 Z-1.278
Y1.675 Z-1.287
Y1.847 Z-1.293
Y1.933 Z-1.296
Y2.104 Z-1.302
Y2.619 Z-1.32
Y2.79 Z-1.326
Y3.305 Z-1.344
Y3.476 Z-1.35
Y4.077 Z-1.371
Y4.591 Z-1.389
Y4.763 Z-1.395
Y5.278 Z-1.413
Y5.535 Z-1.422
Y6.736 Z-1.463
Y7.593 Z-1.493
Y9.995 Z-1.577
X-12.999 Y10.081 Z-1.58
X-12.995 Y10.166 Z-1.583
X-12.989 Y10.252 Z-1.586
X-12.981 Y10.337 Z-1.589
X-12.97 Y10.422 Z-1.592
X-12.957 Y10.507 Z-1.595
X-12.941 Y10.591 Z-1.598
X-12.923 Y10.675 Z-1.601
X-12.903 Y10.758 Z-1.604
X-12.88 Y10.841 Z-1.607
X-12.854 Y10.923 Z-1.61
X-12.827 Y11.004 Z-1.613
X-12.797 Y11.085 Z-1.616
X-12.765 Y11.164 Z-1.619
X-12.73 Y11.243 Z-1.622
X-12.694 Y11.32 Z-1.625
X-12.655 Y11.397 Z-1.628
X-12.614 Y11.472 Z-1.631
X-12.571 Y11.546 Z-1.634
X-12.525 Y11.619 Z-1.637
X-12.478 Y11.691 Z-1.64
X-12.429 Y11.761 Z-1.643
X-12.377 Y11.83 Z-1.646
X-12.324 Y11.897 Z-1.649
X-12.269 Y11.963 Z-1.652
X-12.212 Y12.027 Z-1.655
X-12.153 Y12.089 Z-1.658
X-12.093 Y12.15 Z-1.661
X-12.03 Y12.209 Z-1.664
X-11.966 Y12.266 Z-1.667
X-11.901 Y12.321 Z-1.67
X-11.834 Y12.374 Z-1.673
X-11.765 Y12.426 Z-1.676
X-11.695 Y12.475 Z-1.679
X-11.623 Y12.523 Z-1.682
X-11.551 Y12.568 Z-1.685
X-11.477 Y12.611 Z-1.688
X-11.401 Y12.653 Z-1.691
X-11.325 Y12.692 Z-1.694
X-11.247 Y12.728 Z-1.697
X-11.169 Y12.763 Z-1.7
X-11.089 Y12.795 Z-1.703
X-11.009 Y12.825 Z-1.706
X-10.928 Y12.853 Z-1.709
X-10.846 Y12.878 Z-1.712
X-10.763 Y12.901 Z-1.715
X-10.68 Y12.922 Z-1.718
X-10.596 Y12.94 Z-1.721
X-10.512 Y12.956 Z-1.724
X-10.427 Y12.969 Z-1.727
X-10.342 Y12.98 Z-1.73
X-10.257 Y12.989 Z-1.733
X-10.171 Y12.995 Z-1.736
X-10.085 Y12.999 Z-1.739
X-10 Y13 Z-1.742
X-9.828 Z-1.748
X-9.742 Z-1.751
X-9.571 Z-1.757
X-9.314 Z-1.766
X-9.142 Z-1.772
X-9.056 Z-1.775
X-8.885 Z-1.781
X-8.627 Z-1.79
X-8.456 Z-1.796
X-8.37 Z-1.799
X-8.284 Z-1.802
X-8.199 Z-1.805
X-8.113 Z-1.808
X-7.856 Z-1.817
X-7.77 Z-1.82
X-7.684 Z-1.823
X-7.598 Z-1.826
X-7.512 Z-1.828
X-7.427 Z-1.831
X-7.341 Z-1.834
X-7.255 Z-1.837
X-7.169 Z-1.84
X-7.084 Z-1.843
X-6.998 Z-1.845
X-6.912 Z-1.848
X-6.826 Z-1.851
X-6.741 Z-1.854
X-6.655 Z-1.856
X-6.569 Z-1.859
X-6.483 Z-1.862
X-6.397 Z-1.864
X-6.312 Z-1.867
X-6.226 Z-1.87
X-6.14 Z-1.872
X-6.054 Z-1.875
X-5.969 Z-1.877
X-5.883 Z-1.88
X-5.797 Z-1.882
X-5.626 Z-1.887
X-5.454 Z-1.892
X-5.282 Z-1.897
X-5.111 Z-1.902
X-4.939 Z-1.906
X-4.768 Z-1.911
X-4.596 Z-1.915
X-4.425 Z-1.919
X-4.253 Z-1.924
X-4.082 Z-1.928
X-3.91 Z-1.932
X-3.739 Z-1.936
X-3.567 Z-1.94
X-3.396 Z-1.943
X-3.224 Z-1.947
X-3.053 Z-1.95
X-2.881 Z-1.954
X-2.709 Z-1.957
X-2.538 Z-1.96
X-2.366 Z-1.963
X-2.195 Z-1.966
X-2.023 Z-1.969
X-1.852 Z-1.972
X-1.68 Z-1.975
X-1.509 Z-1.977
X-1.166 Z-1.982
X-0.823 Z-1.986
X-0.48 Z-1.989
X-0.136 Z-1.993
X0.207 Z-1.995
X0.55 Z-1.997
X0.893 Z-1.999
X1.236 Z-2
X1.579
X1.615
X9.971
X10.167 Y12.995
X10.362 Y12.978
X10.558 Y12.948
X10.753 Y12.904
X10.802 Y12.891
X10.949 Y12.846
X11.144 Y12.773
X11.317 Y12.696
X11.34 Y12.684
X11.535 Y12.577
X11.658 Y12.5
X11.731 Y12.45
X11.92 Y12.305
X11.926 Y12.3
X12.024 Y12.214
X12.122 Y12.121
X12.133 Y12.11
X12.225 Y12.012
X12.31 Y11.914
X12.317 Y11.905
X12.459 Y11.719
X12.513 Y11.639
X12.584 Y11.524
X12.69 Y11.328
X12.708 Y11.29
X12.778 Y11.133
X12.85 Y10.938
X12.904 Y10.753
X12.907 Y10.742
X12.95 Y10.547
X12.979 Y10.352
X12.996 Y10.156
X13 Y9.961
Y-9.961
X12.996 Y-10.156
X12.979 Y-10.352
X12.95 Y-10.547
X12.907 Y-10.742
X12.904 Y-10.753
X12.85 Y-10.938
X12.778 Y-11.133
X12.708 Y-11.29
X12.69 Y-11.328
X12.584 Y-11.524
X12.513 Y-11.639
X12.459 Y-11.719
X12.317 Y-11.905
X12.31 Y-11.914
X12.225 Y-12.012
X12.133 Y-12.11
X12.122 Y-12.121
X12.024 Y-12.214
X11.926 Y-12.3
X11.92 Y-12.305
X11.731 Y-12.45
X11.658 Y-12.5
X11.535 Y-12.577
X11.34 Y-12.684
X11.317 Y-12.696
X11.144 Y-12.773
X10.949 Y-12.846
X10.802 Y-12.891
X10.753 Y-12.904
X10.558 Y-12.948
X10.362 Y-12.978
X10.167 Y-12.995
X9.971 Y-13
X-9.971
X-10.167 Y-12.995
X-10.362 Y-12.978
X-10.558 Y-12.948
X-10.753 Y-12.904
X-10.802 Y-12.891
X-10.949 Y-12.846
X-11.144 Y-12.773
X-11.317 Y-12.696
X-11.34 Y-12.684
X-11.535 Y-12.577
X-11.658 Y-12.5
X-11.731 Y-12.45
X-11.92 Y-12.305
X-11.926 Y-12.3
X-12.024 Y-12.214
X-12.122 Y-12.121
X-12.133 Y-12.11
X-12.225 Y-12.012
X-12.31 Y-11.914
X-12.317 Y-11.905
X-12.459 Y-11.719
X-12.513 Y-11.639
X-12.584 Y-11.524
X-12.69 Y-11.328
X-12.708 Y-11.29
X-12.778 Y-11.133
X-12.85 Y-10.938
X-12.904 Y-10.753
X-12.907 Y-10.742
X-12.95 Y-10.547
X-12.979 Y-10.352
X-12.996 Y-10.156
X-13 Y-9.961
Y9.961
X-12.996 Y10.156
X-12.979 Y10.352
X-12.95 Y10.547
X-12.907 Y10.742
X-12.904 Y10.753
X-12.85 Y10.938
X-12.778 Y11.133
X-12.708 Y11.29
X-12.69 Y11.328
X-12.584 Y11.524
X-12.513 Y11.639
X-12.459 Y11.719
X-12.317 Y11.905
X-12.31 Y11.914
X-12.225 Y12.012
X-12.133 Y12.11
X-12.122 Y12.121
X-12.024 Y12.214
X-11.926 Y12.3
X-11.92 Y12.305
X-11.731 Y12.45
X-11.658 Y12.5
X-11.535 Y12.577
X-11.34 Y12.684
X-11.317 Y12.696
X-11.144 Y12.773
X-10.949 Y12.846
X-10.802 Y12.891
X-10.753 Y12.904
X-10.558 Y12.948
X-10.362 Y12.978
X-10.167 Y12.995
X-9.971 Y13
X1.615
X1.958
X2.301 Z-2.001
X2.644 Z-2.003
X2.987 Z-2.005
X3.33 Z-2.007
X3.673 Z-2.01
X4.016 Z-2.014
X4.359 Z-2.018
X4.702 Z-2.022
X4.874 Z-2.025
X5.045 Z-2.027
X5.217 Z-2.03
X5.388 Z-2.033
X5.56 Z-2.036
X5.731 Z-2.039
X5.903 Z-2.042
X6.074 Z-2.045
X6.246 Z-2.049
X6.418 Z-2.052
X6.589 Z-2.056
X6.761 Z-2.06
X6.932 Z-2.063
X7.104 Z-2.067
X7.275 Z-2.071
X7.447 Z-2.075
X7.618 Z-2.08
X7.79 Z-2.084
X7.961 Z-2.088
X8.133 Z-2.093
X8.304 Z-2.097
X8.476 Z-2.102
X8.647 Z-2.107
X8.819 Z-2.112
X8.991 Z-2.117
X9.076 Z-2.119
X9.162 Z-2.122
X9.248 Z-2.124
X9.334 Z-2.127
X9.419 Z-2.129
X9.505 Z-2.132
X9.591 Z-2.135
X9.677 Z-2.137
X9.762 Z-2.14
X9.848 Z-2.143
X9.934 Z-2.145
X10.02 Z-2.148
X10.106 Y12.998 Z-2.151
X10.191 Y12.994 Z-2.153
X10.277 Y12.987 Z-2.156
X10.362 Y12.978 Z-2.159
X10.447 Y12.967 Z-2.162
X10.532 Y12.953 Z-2.165
X10.616 Y12.936 Z-2.168
X10.699 Y12.917 Z-2.17
X10.783 Y12.896 Z-2.173
X10.865 Y12.873 Z-2.176
X10.947 Y12.847 Z-2.179
X11.028 Y12.818 Z-2.182
X11.108 Y12.788 Z-2.185
X11.187 Y12.755 Z-2.188
X11.266 Y12.72 Z-2.191
X11.343 Y12.683 Z-2.194
X11.419 Y12.643 Z-2.197
X11.494 Y12.602 Z-2.2
X11.568 Y12.558 Z-2.203
X11.64 Y12.512 Z-2.206
X11.711 Y12.464 Z-2.209
X11.781 Y12.414 Z-2.212
X11.849 Y12.362 Z-2.215
X11.916 Y12.308 Z-2.218
X11.981 Y12.253 Z-2.221
X12.045 Y12.195 Z-2.224
X12.107 Y12.136 Z-2.227
X12.167 Y12.075 Z-2.23
X12.225 Y12.012 Z-2.233
X12.282 Y11.947 Z-2.236
X12.337 Y11.881 Z-2.239
X12.39 Y11.814 Z-2.242
X12.441 Y11.745 Z-2.245
X12.489 Y11.674 Z-2.248
X12.536 Y11.602 Z-2.251
X12.581 Y11.529 Z-2.254
X12.624 Y11.455 Z-2.257
X12.664 Y11.379 Z-2.26
X12.703 Y11.302 Z-2.263
X12.739 Y11.225 Z-2.266
X12.773 Y11.146 Z-2.269
X12.804 Y11.066 Z-2.272
X12.834 Y10.985 Z-2.275
X12.861 Y10.904 Z-2.278
X12.885 Y10.822 Z-2.281
X12.908 Y10.739 Z-2.284
X12.927 Y10.656 Z-2.287
X12.945 Y10.572 Z-2.29
X12.96 Y10.487 Z-2.293
X12.973 Y10.402 Z-2.296
X12.983 Y10.317 Z-2.299
X12.991 Y10.232 Z-2.302
X12.996 Y10.146 Z-2.305
X12.999 Y10.06 Z-2.308
X13 Y9.975 Z-2.311
Y9.803 Z-2.317
Y9.717 Z-2.32
Y9.546 Z-2.326
Y9.031 Z-2.344
Y8.86 Z-2.35
Y8.259 Z-2.371
Y7.745 Z-2.389
Y7.573 Z-2.395
Y7.059 Z-2.413
Y6.801 Z-2.422
Y5.601 Z-2.463
Y4.743 Z-2.493
Y0.883 Z-2.628
Y0.712 Z-2.634
Y0.197 Z-2.652
Y0.112 Z-2.655
Y-0.06 Z-2.661
Y-0.575 Z-2.679
Y-0.746 Z-2.685
Y-1.261 Z-2.703
Y-1.432 Z-2.709
Y-1.69 Z-2.718
Y-1.861 Z-2.724
Y-1.947 Z-2.727
Y-2.118 Z-2.733
Y-2.376 Z-2.742
Y-2.547 Z-2.748
Y-2.633 Z-2.751
Y-2.805 Z-2.757
Y-3.062 Z-2.766
Y-3.233 Z-2.772
Y-3.319 Z-2.775
Y-3.491 Z-2.781
Y-3.748 Z-2.79
Y-3.92 Z-2.796
Y-4.005 Z-2.799
Y-4.091 Z-2.802
Y-4.177 Z-2.805
Y-4.263 Z-2.808
Y-4.52 Z-2.817
Y-4.606 Z-2.82
Y-4.691 Z-2.823
Y-4.777 Z-2.826
Y-4.863 Z-2.828
Y-4.949 Z-2.831
Y-5.035 Z-2.834
Y-5.12 Z-2.837
Y-5.206 Z-2.84
Y-5.292 Z-2.843
Y-5.378 Z-2.845
Y-5.463 Z-2.848
Y-5.549 Z-2.851
Y-5.635 Z-2.854
Y-5.721 Z-2.856
Y-5.806 Z-2.859
Y-5.892 Z-2.862
Y-5.978 Z-2.864
Y-6.064 Z-2.867
Y-6.149 Z-2.87
Y-6.235 Z-2.872
Y-6.321 Z-2.875
Y-6.407 Z-2.877
Y-6.493 Z-2.88
Y-6.578 Z-2.882
Y-6.75 Z-2.887
Y-6.921 Z-2.892
Y-7.093 Z-2.897
Y-7.264 Z-2.902
Y-7.436 Z-2.906
Y-7.608 Z-2.911
Y-7.779 Z-2.915
Y-7.951 Z-2.919
Y-8.122 Z-2.924
Y-8.294 Z-2.928
Y-8.465 Z-2.932
Y-8.637 Z-2.936
Y-8.808 Z-2.94
Y-8.98 Z-2.943
Y-9.151 Z-2.947
Y-9.323 Z-2.95
Y-9.494 Z-2.954
Y-9.666 Z-2.957
Y-9.837 Z-2.96
Y-10.009 Z-2.963
X12.995 Y-10.18 Z-2.966
X12.979 Y-10.351 Z-2.969
X12.954 Y-10.521 Z-2.972
X12.92 Y-10.689 Z-2.975
X12.876 Y-10.855 Z-2.977
X12.822 Y-11.018 Z-2.979
X12.759 Y-11.177 Z-2.982
X12.687 Y-11.333 Z-2.984
X12.607 Y-11.485 Z-2.986
X12.518 Y-11.631 Z-2.988
X12.42 Y-11.772 Z-2.989
X12.315 Y-11.908 Z-2.991
X12.202 Y-12.037 Z-2.993
X12.082 Y-12.16 Z-2.994
X11.955 Y-12.275 Z-2.995
X11.822 Y-12.383 Z-2.996
X11.683 Y-12.483 Z-2.997
X11.538 Y-12.576 Z-2.998
X11.389 Y-12.659 Z-2.999
X11.234 Y-12.734
X11.076 Y-12.8 Z-3
X10.914 Y-12.857
X10.749 Y-12.905
X10.715 Y-12.912
X10.558 Y-12.948
X10.362 Y-12.978
X10.167 Y-12.995
X9.971 Y-13
X-9.971
X-10.167 Y-12.995
X-10.362 Y-12.978
X-10.558 Y-12.948
X-10.753 Y-12.904
X-10.802 Y-12.891
X-10.949 Y-12.846
X-11.144 Y-12.773
X-11.317 Y-12.696
X-11.34 Y-12.684
X-11.535 Y-12.577
X-11.658 Y-12.5
X-11.731 Y-12.45
X-11.92 Y-12.305
X-11.926 Y-12.3
X-12.024 Y-12.214
X-12.122 Y-12.121
X-12.133 Y-12.11
X-12.225 Y-12.012
X-12.31 Y-11.914
X-12.317 Y-11.905
X-12.459 Y-11.719
X-12.513 Y-11.639
X-12.584 Y-11.524
X-12.69 Y-11.328
X-12.708 Y-11.29
X-12.778 Y-11.133
X-12.85 Y-10.938
X-12.904 Y-10.753
X-12.907 Y-10.742
X-12.95 Y-10.547
X-12.979 Y-10.352
X-12.996 Y-10.156
X-13 Y-9.961
Y9.961
X-12.996 Y10.156
X-12.979 Y10.352
X-12.95 Y10.547
X-12.907 Y10.742
X-12.904 Y10.753
X-12.85 Y10.938
X-12.778 Y11.133
X-12.708 Y11.29
X-12.69 Y11.328
X-12.584 Y11.524
X-12.513 Y11.639
X-12.459 Y11.719
X-12.317 Y11.905
X-12.31 Y11.914
X-12.225 Y12.012
X-12.133 Y12.11
X-12.122 Y12.121
X-12.024 Y12.214
X-11.926 Y12.3
X-11.92 Y12.305
X-11.731 Y12.45
X-11.658 Y12.5
X-11.535 Y12.577
X-11.34 Y12.684
X-11.317 Y12.696
X-11.144 Y12.773
X-10.949 Y12.846
X-10.802 Y12.891
X-10.753 Y12.904
X-10.558 Y12.948
X-10.362 Y12.978
X-10.167 Y12.995
X-9.971 Y13
X1.615
X9.971
X10.167 Y12.995
X10.362 Y12.978
X10.558 Y12.948
X10.753 Y12.904
X10.802 Y12.891
X10.949 Y12.846
X11.144 Y12.773
X11.317 Y12.696
X11.34 Y12.684
X11.535 Y12.577
X11.658 Y12.5
X11.731 Y12.45
X11.92 Y12.305
X11.926 Y12.3
X12.024 Y12.214
X12.122 Y12.121
X12.133 Y12.11
X12.225 Y12.012
X12.31 Y11.914
X12.317 Y11.905
X12.459 Y11.719
X12.513 Y11.639
X12.584 Y11.524
X12.69 Y11.328
X12.708 Y11.29
X12.778 Y11.133
X12.85 Y10.938
X12.904 Y10.753
X12.907 Y10.742
X12.95 Y10.547
X12.979 Y10.352
X12.996 Y10.156
X13 Y9.961
Y-9.961
X12.996 Y-10.156
X12.979 Y-10.352
X12.95 Y-10.547
X12.907 Y-10.742
X12.904 Y-10.753
X12.85 Y-10.938
X12.778 Y-11.133
X12.708 Y-11.29
X12.69 Y-11.328
X12.584 Y-11.524
X12.513 Y-11.639
X12.459 Y-11.719
X12.317 Y-11.905
X12.31 Y-11.914
X12.225 Y-12.012
X12.133 Y-12.11
X12.122 Y-12.121
X12.024 Y-12.214
X11.926 Y-12.3
X11.92 Y-12.305
X11.731 Y-12.45
X11.658 Y-12.5
X11.535 Y-12.577
X11.34 Y-12.684
X11.317 Y-12.696
X11.144 Y-12.773
X10.949 Y-12.846
X10.802 Y-12.891
X10.753 Y-12.904
X10.715 Y-12.912
G3 X10.373 Y-13.867 I0.131 J-0.585 F800
G1 X10.784 Y-14.394
X10.841 Y-14.468 Z-2.993
X10.897 Y-14.54 Z-2.971
X10.951 Y-14.608 Z-2.935
X11 Y-14.672 Z-2.885
X11.044 Y-14.728 Z-2.824
X11.082 Y-14.776 Z-2.753
X11.112 Y-14.815 Z-2.672
X11.134 Y-14.844 Z-2.585
X11.148 Y-14.861 Z-2.494
X11.152 Y-14.867 Z-2.4
G0 Z15
G28 G91 Z0
G90
G28 G91 X0 Y0
G90
M5
M30
