(acetal_chamfer)
(T2  D=3 CR=0 TAPER=45deg - ZMIN=-1.1 - chamfer mill)
G90 G94
G17
G21
G28 G91 Z0
G90

(2D Chamfer1)
T2
S15000 M3
G54
G0 X7.35 Y0
Z15
Z5
G1 Z2 F333.3
Z-1.1
X7.65 F1000
G3 X-7.65 Y0 I-7.65 J0
X7.65 Y0 I7.65 J0
G1 X7.35
G0 Z5
X10.65
G1 Z2 F333.3
Z-1.1
X10.35 F1000
Y-10
G2 X10 Y-10.35 I-0.35 J0
G1 X-10
G2 X-10.35 Y-10 I0 J0.35
G1 Y10
G2 X-10 Y10.35 I0.35 J0
G1 X10
G2 X10.35 Y10 I0 J-0.35
G1 Y0
X10.65
G0 Z15
G28 G91 Z0
G90
G28 G91 X0 Y0
G90
M5
M30
