(acetal_adap_square)
(T1  D=6 CR=0 - ZMIN=-3 - flat end mill)
G90 G94
G17
G21
G28 G91 Z0
G90

(Adaptive1)
T1
S18000 M3
G54
G0 X-28.589 Y-29.358
Z15
Z5
Z0.2
G1 Z-0.4 F600
X-28.587 Y-29.351 Z-0.494
X-28.581 Y-29.33 Z-0.585
X-28.572 Y-29.295 Z-0.672
X-28.56 Y-29.247 Z-0.753
X-28.545 Y-29.188 Z-0.824
X-28.527 Y-29.119 Z-0.885
X-28.507 Y-29.041 Z-0.935
X-28.486 Y-28.957 Z-0.971
X-28.463 Y-28.868 Z-0.993
X-28.44 Y-28.777 Z-1
G3 X-27.97 Y-25.511 I-14.839 J3.801
G1 Y-25.396 F1000
X-27.662 Y-24.526
X-27.446 Y-23.629
X-27.295 Y-22.719
X-27.191 Y-21.802
X-27.12 Y-20.882
X-27.071 Y-19.961
X-27.039 Y-19.039
X-27.016 Y-18.116
X-27.001 Y-17.194
X-26.991 Y-16.271
X-26.984 Y-15.349
X-26.98 Y-14.426
X-26.976 Y-13.504
X-26.973 Y-11.658
X-26.971 Y-7.968
X-26.97 Y19.71
X-26.931 Y19.819
X-26.635 Y20.173
X-25.84 Y20.641
X-24.963 Y20.928
X-24.059 Y21.111
X-23.144 Y21.231
X-22.225 Y21.31
X-21.304 Y21.363
X-20.382 Y21.398
X-19.46 Y21.422
X-18.537 Y21.437
X-17.615 Y21.448
X-16.692 Y21.455
X-15.77 Y21.46
X-14.847 Y21.463
X-13.002 Y21.467
X-9.311 Y21.469
X25.171 Y21.47
X25.279 Y21.431
X25.634 Y21.135
X26.118 Y20.35
X26.413 Y19.476
X26.602 Y18.573
X26.725 Y17.658
X26.806 Y16.739
X26.86 Y15.818
X26.896 Y14.896
X26.92 Y13.974
X26.937 Y13.052
X26.948 Y12.129
X26.955 Y11.207
X26.96 Y10.284
X26.963 Y9.361
X26.967 Y7.516
X26.969 Y3.826
X26.97 Y-19.701
X26.931 Y-19.809
X26.635 Y-20.163
X25.843 Y-20.635
X24.966 Y-20.924
X24.062 Y-21.109
X23.148 Y-21.229
X22.228 Y-21.309
X21.307 Y-21.362
X20.385 Y-21.398
X19.463 Y-21.421
X18.541 Y-21.437
X17.618 Y-21.448
X16.696 Y-21.455
X15.773 Y-21.46
X14.85 Y-21.463
X13.005 Y-21.467
X9.315 Y-21.469
X-21.477 Y-21.47
X-21.586 Y-21.431
X-21.674 Y-21.357
X-22.177 Y-20.583
X-22.468 Y-19.708
X-22.648 Y-18.803
X-22.762 Y-17.887
X-22.835 Y-16.968
X-22.882 Y-16.046
X-22.913 Y-15.124
X-22.933 Y-14.202
X-22.946 Y-13.279
X-22.954 Y-12.357
X-22.96 Y-11.434
X-22.963 Y-10.512
X-22.967 Y-8.666
X-22.968 Y-7.744
X-22.97 Y-2.208
Y15.321
X-22.931 Y15.43
X-22.662 Y15.804
X-21.947 Y16.388
X-21.098 Y16.749
X-20.206 Y16.983
X-19.296 Y17.14
X-18.38 Y17.245
X-17.46 Y17.316
X-16.538 Y17.365
X-15.616 Y17.398
X-14.694 Y17.421
X-13.772 Y17.436
X-12.849 Y17.447
X-11.927 Y17.454
X-11.004 Y17.459
X-10.081 Y17.463
X-8.236 Y17.466
X-4.546 Y17.469
X3.758 Y17.47
X20.826
X20.934 Y17.431
X21.307 Y17.159
X21.889 Y16.443
X22.249 Y15.593
X22.483 Y14.701
X22.639 Y13.792
X22.745 Y12.875
X22.816 Y11.955
X22.865 Y11.034
X22.898 Y10.112
X22.92 Y9.19
X22.936 Y8.267
X22.947 Y7.345
X22.954 Y6.422
X22.959 Y5.5
X22.962 Y4.577
X22.966 Y2.732
X22.969 Y-0.959
X22.97 Y-15.028
Y-15.259
X22.931 Y-15.367
X22.685 Y-15.758
X21.987 Y-16.361
X21.142 Y-16.731
X20.251 Y-16.972
X19.342 Y-17.132
X18.426 Y-17.24
X17.506 Y-17.313
X16.585 Y-17.362
X15.663 Y-17.396
X14.741 Y-17.419
X13.818 Y-17.435
X12.896 Y-17.446
X11.973 Y-17.454
X11.051 Y-17.459
X10.128 Y-17.462
X8.283 Y-17.466
X5.515 Y-17.469
X-4.634 Y-17.47
X-16.858
X-16.966 Y-17.431
X-17.342 Y-17.163
X-17.921 Y-16.445
X-18.276 Y-15.593
X-18.505 Y-14.699
X-18.657 Y-13.789
X-18.758 Y-12.872
X-18.826 Y-11.952
X-18.872 Y-11.031
X-18.904 Y-10.109
X-18.925 Y-9.186
X-18.939 Y-8.264
X-18.949 Y-7.341
X-18.956 Y-6.419
X-18.96 Y-5.496
X-18.966 Y-3.651
X-18.969 Y-0.883
X-18.97 Y6.498
Y11.226
X-18.931 Y11.335
X-18.676 Y11.719
X-17.979 Y12.323
X-17.136 Y12.699
X-16.247 Y12.946
X-15.34 Y13.112
X-14.424 Y13.224
X-13.504 Y13.301
X-12.583 Y13.353
X-11.661 Y13.389
X-10.739 Y13.414
X-9.817 Y13.431
X-8.894 Y13.443
X-7.972 Y13.452
X-7.049 Y13.457
X-6.126 Y13.461
X-4.281 Y13.466
X-1.513 Y13.469
X6.79 Y13.47
X11.403
X16.708
X16.817 Y13.431
X17.205 Y13.183
X17.815 Y12.49
X18.194 Y11.649
X18.443 Y10.76
X18.609 Y9.853
X18.722 Y8.937
X18.799 Y8.018
X18.852 Y7.097
X18.889 Y6.175
X18.914 Y5.253
X18.931 Y4.33
X18.943 Y3.408
X18.951 Y2.485
X18.957 Y1.562
X18.961 Y0.64
X18.966 Y-1.205
X18.969 Y-3.973
X18.97 Y-11.123
X18.907 Y-11.345
X18.843 Y-11.441
X18.555 Y-11.801
X17.831 Y-12.373
X16.981 Y-12.732
X16.089 Y-12.969
X15.18 Y-13.127
X14.264 Y-13.234
X13.344 Y-13.308
X12.423 Y-13.358
X11.501 Y-13.393
X10.579 Y-13.417
X9.656 Y-13.433
X8.734 Y-13.445
X7.811 Y-13.452
X6.889 Y-13.458
X5.966 Y-13.462
X4.121 Y-13.466
X1.353 Y-13.469
X-0.492
X-12.717 Y-13.47
X-12.825 Y-13.431
X-13.215 Y-13.185
X-13.825 Y-12.492
X-14.202 Y-11.65
X-14.45 Y-10.761
X-14.615 Y-9.854
X-14.727 Y-8.938
X-14.803 Y-8.018
X-14.855 Y-7.097
X-14.891 Y-6.175
X-14.915 Y-5.253
X-14.932 Y-4.331
X-14.944 Y-3.408
X-14.952 Y-2.486
X-14.958 Y-1.563
X-14.962 Y-0.64
X-14.966 Y1.205
X-14.969 Y3.973
X-14.97 Y7.086
X-14.944 Y7.199
X-14.742 Y7.614
X-14.079 Y8.255
X-13.592 Y8.487
X-13.451 Y8.58
X-13.343 Y8.709
X-13.274 Y8.862
X-13.25 Y9.029
X-13.249 Y9.947
X-13.243 Y10.157
X-13.228 Y10.366
X-13.195 Y10.576
X-13.144 Y10.785
X-13.017 Y11.204
X-12.921 Y11.413
X-12.894 Y11.469
X-12.812 Y11.623
X-12.681 Y11.832
X-12.521 Y12.042
X-12.475 Y12.1
X-12.334 Y12.251
X-12.265 Y12.319
X-12.121 Y12.46
X-11.846 Y12.674
X-11.636 Y12.803
X-11.501 Y12.879
X-11.427 Y12.915
X-11.217 Y13.013
X-11.007 Y13.08
X-10.798 Y13.141
X-10.588 Y13.193
X-10.378 Y13.227
X-10.169 Y13.242
X-9.959 Y13.249
X-8.701 Y13.25
X9.54
X9.959 Y13.249
X10.169 Y13.242
X10.378 Y13.227
X10.588 Y13.193
X10.798 Y13.141
X11.007 Y13.08
X11.217 Y13.013
X11.427 Y12.915
X11.501 Y12.879
X11.636 Y12.803
X11.846 Y12.674
X12.121 Y12.46
X12.265 Y12.319
X12.334 Y12.251
X12.475 Y12.1
X12.521 Y12.042
X13.118 Y11.338
X13.663 Y10.594
X14.049 Y9.756
X14.319 Y8.874
X14.509 Y7.971
X14.644 Y7.058
X14.739 Y6.14
X14.806 Y5.22
X14.854 Y4.299
X14.888 Y3.377
X14.912 Y2.455
X14.929 Y1.532
X14.941 Y0.61
X14.95 Y-0.313
X14.956 Y-1.236
X14.96 Y-2.158
X14.965 Y-4.003
X14.968 Y-7.117
X14.892 Y-7.335
X14.827 Y-7.43
X14.537 Y-7.789
X13.813 Y-8.36
X13.615 Y-8.444
X13.466 Y-8.535
X13.35 Y-8.665
X13.275 Y-8.824
X13.25 Y-8.996
X13.249 Y-9.947
X13.243 Y-10.157
X13.228 Y-10.366
X13.195 Y-10.576
X13.144 Y-10.785
X13.017 Y-11.204
X12.921 Y-11.413
X12.894 Y-11.469
X12.812 Y-11.623
X12.681 Y-11.832
X12.521 Y-12.042
X12.475 Y-12.1
X12.334 Y-12.251
X12.265 Y-12.319
X12.121 Y-12.46
X11.846 Y-12.674
X11.636 Y-12.803
X11.501 Y-12.879
X11.427 Y-12.915
X11.217 Y-13.013
X11.007 Y-13.08
X10.798 Y-13.141
X10.588 Y-13.193
X10.378 Y-13.227
X10.169 Y-13.242
X9.959 Y-13.249
X8.701 Y-13.25
X-9.54
X-9.959 Y-13.249
X-10.169 Y-13.242
X-10.378 Y-13.227
X-10.588 Y-13.193
X-10.798 Y-13.141
X-11.007 Y-13.08
X-11.217 Y-13.013
X-11.427 Y-12.915
X-11.501 Y-12.879
X-11.636 Y-12.803
X-11.846 Y-12.674
X-12.121 Y-12.46
X-12.265 Y-12.319
X-12.334 Y-12.251
X-12.475 Y-12.1
X-12.521 Y-12.042
X-12.681 Y-11.832
X-12.812 Y-11.623
X-12.894 Y-11.469
X-12.921 Y-11.413
X-13.017 Y-11.204
X-13.144 Y-10.785
X-13.195 Y-10.576
X-13.228 Y-10.366
X-13.243 Y-10.157
X-13.249 Y-9.947
X-13.25 Y-9.11
Y9.029
Y9.529 F800
X-13.249 Y9.814
Y9.947 F1000
X-13.243 Y10.157
X-13.228 Y10.366
X-13.195 Y10.576
X-13.144 Y10.785
X-13.017 Y11.204
X-12.921 Y11.413
X-12.894 Y11.469
X-12.812 Y11.623
X-12.681 Y11.832
X-12.521 Y12.042
X-12.475 Y12.1
X-12.334 Y12.251
X-12.265 Y12.319
X-12.121 Y12.46
X-11.846 Y12.674
X-11.636 Y12.803
X-11.501 Y12.879
X-11.427 Y12.915
X-11.217 Y13.013
X-11.007 Y13.08
X-10.798 Y13.141
X-10.588 Y13.193
X-10.378 Y13.227
X-10.169 Y13.242
X-9.959 Y13.249
X-9.33 Y13.25
X9.54
X9.959 Y13.249
X10.169 Y13.242
X10.378 Y13.227
X10.588 Y13.193
X10.798 Y13.141
X11.007 Y13.08
X11.217 Y13.013
X11.427 Y12.915
X11.501 Y12.879
X11.636 Y12.803
X11.846 Y12.674
X11.958 Y12.586
X12.121 Y12.46 F600
X12.265 Y12.319
X12.334 Y12.251
X12.475 Y12.1
X12.521 Y12.042
X12.681 Y11.832 F1000
X12.812 Y11.623
X12.894 Y11.469
X12.921 Y11.413
X13.017 Y11.204
X13.144 Y10.785
X13.195 Y10.576
X13.228 Y10.366
X13.243 Y10.157
X13.249 Y9.947
X13.25 Y9.11
Y-8.996
X13.26 Y-9.088 F800
X13.285 Y-9.178
X13.322 Y-9.242 Z-0.995
X13.358 Y-9.304 Z-0.982
X13.394 Y-9.365 Z-0.959
X13.455 Y-9.415 Z-0.921
X13.512 Y-9.461 Z-0.871
X13.562 Y-9.502 Z-0.812
X13.615 Y-9.522 Z-0.741
X13.658 Y-9.539 Z-0.663
X13.689 Y-9.55 Z-0.579
X13.708 Y-9.558 Z-0.491
X13.715 Y-9.56 Z-0.4
G0 Z5
X-28.589 Y-29.358
Z-0.8
G1 Z-1.4 F600
X-28.587 Y-29.351 Z-1.494
X-28.581 Y-29.33 Z-1.585
X-28.572 Y-29.295 Z-1.672
X-28.56 Y-29.247 Z-1.753
X-28.545 Y-29.188 Z-1.824
X-28.527 Y-29.119 Z-1.885
X-28.507 Y-29.041 Z-1.935
X-28.486 Y-28.957 Z-1.971
X-28.463 Y-28.868 Z-1.993
X-28.44 Y-28.777 Z-2
G3 X-27.97 Y-25.511 I-14.839 J3.801
G1 Y-25.396 F1000
X-27.662 Y-24.526
X-27.446 Y-23.629
X-27.295 Y-22.719
X-27.191 Y-21.802
X-27.12 Y-20.882
X-27.071 Y-19.961
X-27.039 Y-19.039
X-27.016 Y-18.116
X-27.001 Y-17.194
X-26.991 Y-16.271
X-26.984 Y-15.349
X-26.98 Y-14.426
X-26.976 Y-13.504
X-26.973 Y-11.658
X-26.971 Y-7.968
X-26.97 Y19.71
X-26.931 Y19.819
X-26.635 Y20.173
X-25.84 Y20.641
X-24.963 Y20.928
X-24.059 Y21.111
X-23.144 Y21.231
X-22.225 Y21.31
X-21.304 Y21.363
X-20.382 Y21.398
X-19.46 Y21.422
X-18.537 Y21.437
X-17.615 Y21.448
X-16.692 Y21.455
X-15.77 Y21.46
X-14.847 Y21.463
X-13.002 Y21.467
X-9.311 Y21.469
X25.171 Y21.47
X25.279 Y21.431
X25.634 Y21.135
X26.118 Y20.35
X26.413 Y19.476
X26.602 Y18.573
X26.725 Y17.658
X26.806 Y16.739
X26.86 Y15.818
X26.896 Y14.896
X26.92 Y13.974
X26.937 Y13.052
X26.948 Y12.129
X26.955 Y11.207
X26.96 Y10.284
X26.963 Y9.361
X26.967 Y7.516
X26.969 Y3.826
X26.97 Y-19.701
X26.931 Y-19.809
X26.635 Y-20.163
X25.843 Y-20.635
X24.966 Y-20.924
X24.062 Y-21.109
X23.148 Y-21.229
X22.228 Y-21.309
X21.307 Y-21.362
X20.385 Y-21.398
X19.463 Y-21.421
X18.541 Y-21.437
X17.618 Y-21.448
X16.696 Y-21.455
X15.773 Y-21.46
X14.85 Y-21.463
X13.005 Y-21.467
X9.315 Y-21.469
X-21.477 Y-21.47
X-21.586 Y-21.431
X-21.674 Y-21.357
X-22.177 Y-20.583
X-22.468 Y-19.708
X-22.648 Y-18.803
X-22.762 Y-17.887
X-22.835 Y-16.968
X-22.882 Y-16.046
X-22.913 Y-15.124
X-22.933 Y-14.202
X-22.946 Y-13.279
X-22.954 Y-12.357
X-22.96 Y-11.434
X-22.963 Y-10.512
X-22.967 Y-8.666
X-22.968 Y-7.744
X-22.97 Y-2.208
Y15.321
X-22.931 Y15.43
X-22.662 Y15.804
X-21.947 Y16.388
X-21.098 Y16.749
X-20.206 Y16.983
X-19.296 Y17.14
X-18.38 Y17.245
X-17.46 Y17.316
X-16.538 Y17.365
X-15.616 Y17.398
X-14.694 Y17.421
X-13.772 Y17.436
X-12.849 Y17.447
X-11.927 Y17.454
X-11.004 Y17.459
X-10.081 Y17.463
X-8.236 Y17.466
X-4.546 Y17.469
X3.758 Y17.47
X20.826
X20.934 Y17.431
X21.307 Y17.159
X21.889 Y16.443
X22.249 Y15.593
X22.483 Y14.701
X22.639 Y13.792
X22.745 Y12.875
X22.816 Y11.955
X22.865 Y11.034
X22.898 Y10.112
X22.92 Y9.19
X22.936 Y8.267
X22.947 Y7.345
X22.954 Y6.422
X22.959 Y5.5
X22.962 Y4.577
X22.966 Y2.732
X22.969 Y-0.959
X22.97 Y-15.028
Y-15.259
X22.931 Y-15.367
X22.685 Y-15.758
X21.987 Y-16.361
X21.142 Y-16.731
X20.251 Y-16.972
X19.342 Y-17.132
X18.426 Y-17.24
X17.506 Y-17.313
X16.585 Y-17.362
X15.663 Y-17.396
X14.741 Y-17.419
X13.818 Y-17.435
X12.896 Y-17.446
X11.973 Y-17.454
X11.051 Y-17.459
X10.128 Y-17.462
X8.283 Y-17.466
X5.515 Y-17.469
X-4.634 Y-17.47
X-16.858
X-16.966 Y-17.431
X-17.342 Y-17.163
X-17.921 Y-16.445
X-18.276 Y-15.593
X-18.505 Y-14.699
X-18.657 Y-13.789
X-18.758 Y-12.872
X-18.826 Y-11.952
X-18.872 Y-11.031
X-18.904 Y-10.109
X-18.925 Y-9.186
X-18.939 Y-8.264
X-18.949 Y-7.341
X-18.956 Y-6.419
X-18.96 Y-5.496
X-18.966 Y-3.651
X-18.969 Y-0.883
X-18.97 Y6.498
Y11.226
X-18.931 Y11.335
X-18.676 Y11.719
X-17.979 Y12.323
X-17.136 Y12.699
X-16.247 Y12.946
X-15.34 Y13.112
X-14.424 Y13.224
X-13.504 Y13.301
X-12.583 Y13.353
X-11.661 Y13.389
X-10.739 Y13.414
X-9.817 Y13.431
X-8.894 Y13.443
X-7.972 Y13.452
X-7.049 Y13.457
X-6.126 Y13.461
X-4.281 Y13.466
X-1.513 Y13.469
X6.79 Y13.47
X11.403
X16.708
X16.817 Y13.431
X17.205 Y13.183
X17.815 Y12.49
X18.194 Y11.649
X18.443 Y10.76
X18.609 Y9.853
X18.722 Y8.937
X18.799 Y8.018
X18.852 Y7.097
X18.889 Y6.175
X18.914 Y5.253
X18.931 Y4.33
X18.943 Y3.408
X18.951 Y2.485
X18.957 Y1.562
X18.961 Y0.64
X18.966 Y-1.205
X18.969 Y-3.973
X18.97 Y-11.123
X18.907 Y-11.345
X18.843 Y-11.441
X18.555 Y-11.801
X17.831 Y-12.373
X16.981 Y-12.732
X16.089 Y-12.969
X15.18 Y-13.127
X14.264 Y-13.234
X13.344 Y-13.308
X12.423 Y-13.358
X11.501 Y-13.393
X10.579 Y-13.417
X9.656 Y-13.433
X8.734 Y-13.445
X7.811 Y-13.452
X6.889 Y-13.458
X5.966 Y-13.462
X4.121 Y-13.466
X1.353 Y-13.469
X-0.492
X-12.717 Y-13.47
X-12.825 Y-13.431
X-13.215 Y-13.185
X-13.825 Y-12.492
X-14.202 Y-11.65
X-14.45 Y-10.761
X-14.615 Y-9.854
X-14.727 Y-8.938
X-14.803 Y-8.018
X-14.855 Y-7.097
X-14.891 Y-6.175
X-14.915 Y-5.253
X-14.932 Y-4.331
X-14.944 Y-3.408
X-14.952 Y-2.486
X-14.958 Y-1.563
X-14.962 Y-0.64
X-14.966 Y1.205
X-14.969 Y3.973
X-14.97 Y7.086
X-14.944 Y7.199
X-14.742 Y7.614
X-14.079 Y8.255
X-13.592 Y8.487
X-13.451 Y8.58
X-13.343 Y8.709
X-13.274 Y8.862
X-13.25 Y9.029
X-13.249 Y9.947
X-13.243 Y10.157
X-13.228 Y10.366
X-13.195 Y10.576
X-13.144 Y10.785
X-13.017 Y11.204
X-12.921 Y11.413
X-12.894 Y11.469
X-12.812 Y11.623
X-12.681 Y11.832
X-12.521 Y12.042
X-12.475 Y12.1
X-12.334 Y12.251
X-12.265 Y12.319
X-12.121 Y12.46
X-11.846 Y12.674
X-11.636 Y12.803
X-11.501 Y12.879
X-11.427 Y12.915
X-11.217 Y13.013
X-11.007 Y13.08
X-10.798 Y13.141
X-10.588 Y13.193
X-10.378 Y13.227
X-10.169 Y13.242
X-9.959 Y13.249
X-8.701 Y13.25
X9.54
X9.959 Y13.249
X10.169 Y13.242
X10.378 Y13.227
X10.588 Y13.193
X10.798 Y13.141
X11.007 Y13.08
X11.217 Y13.013
X11.427 Y12.915
X11.501 Y12.879
X11.636 Y12.803
X11.846 Y12.674
X12.121 Y12.46
X12.265 Y12.319
X12.334 Y12.251
X12.475 Y12.1
X12.521 Y12.042
X13.118 Y11.338
X13.663 Y10.594
X14.049 Y9.756
X14.319 Y8.874
X14.509 Y7.971
X14.644 Y7.058
X14.739 Y6.14
X14.806 Y5.22
X14.854 Y4.299
X14.888 Y3.377
X14.912 Y2.455
X14.929 Y1.532
X14.941 Y0.61
X14.95 Y-0.313
X14.956 Y-1.236
X14.96 Y-2.158
X14.965 Y-4.003
X14.968 Y-7.117
X14.892 Y-7.335
X14.827 Y-7.43
X14.537 Y-7.789
X13.813 Y-8.36
X13.615 Y-8.444
X13.466 Y-8.535
X13.35 Y-8.665
X13.275 Y-8.824
X13.25 Y-8.996
X13.249 Y-9.947
X13.243 Y-10.157
X13.228 Y-10.366
X13.195 Y-10.576
X13.144 Y-10.785
X13.017 Y-11.204
X12.921 Y-11.413
X12.894 Y-11.469
X12.812 Y-11.623
X12.681 Y-11.832
X12.521 Y-12.042
X12.475 Y-12.1
X12.334 Y-12.251
X12.265 Y-12.319
X12.121 Y-12.46
X11.846 Y-12.674
X11.636 Y-12.803
X11.501 Y-12.879
X11.427 Y-12.915
X11.217 Y-13.013
X11.007 Y-13.08
X10.798 Y-13.141
X10.588 Y-13.193
X10.378 Y-13.227
X10.169 Y-13.242
X9.959 Y-13.249
X8.701 Y-13.25
X-9.54
X-9.959 Y-13.249
X-10.169 Y-13.242
X-10.378 Y-13.227
X-10.588 Y-13.193
X-10.798 Y-13.141
X-11.007 Y-13.08
X-11.217 Y-13.013
X-11.427 Y-12.915
X-11.501 Y-12.879
X-11.636 Y-12.803
X-11.846 Y-12.674
X-12.121 Y-12.46
X-12.265 Y-12.319
X-12.334 Y-12.251
X-12.475 Y-12.1
X-12.521 Y-12.042
X-12.681 Y-11.832
X-12.812 Y-11.623
X-12.894 Y-11.469
X-12.921 Y-11.413
X-13.017 Y-11.204
X-13.144 Y-10.785
X-13.195 Y-10.576
X-13.228 Y-10.366
X-13.243 Y-10.157
X-13.249 Y-9.947
X-13.25 Y-9.11
Y9.029
Y9.529 F800
X-13.249 Y9.814
Y9.947 F1000
X-13.243 Y10.157
X-13.228 Y10.366
X-13.195 Y10.576
X-13.144 Y10.785
X-13.017 Y11.204
X-12.921 Y11.413
X-12.894 Y11.469
X-12.812 Y11.623
X-12.681 Y11.832
X-12.521 Y12.042
X-12.475 Y12.1
X-12.334 Y12.251
X-12.265 Y12.319
X-12.121 Y12.46
X-11.846 Y12.674
X-11.636 Y12.803
X-11.501 Y12.879
X-11.427 Y12.915
X-11.217 Y13.013
X-11.007 Y13.08
X-10.798 Y13.141
X-10.588 Y13.193
X-10.378 Y13.227
X-10.169 Y13.242
X-9.959 Y13.249
X-9.33 Y13.25
X9.54
X9.959 Y13.249
X10.169 Y13.242
X10.378 Y13.227
X10.588 Y13.193
X10.798 Y13.141
X11.007 Y13.08
X11.217 Y13.013
X11.427 Y12.915
X11.501 Y12.879
X11.636 Y12.803
X11.846 Y12.674
X11.958 Y12.586
X12.121 Y12.46 F600
X12.265 Y12.319
X12.334 Y12.251
X12.475 Y12.1
X12.521 Y12.042
X12.681 Y11.832 F1000
X12.812 Y11.623
X12.894 Y11.469
X12.921 Y11.413
X13.017 Y11.204
X13.144 Y10.785
X13.195 Y10.576
X13.228 Y10.366
X13.243 Y10.157
X13.249 Y9.947
X13.25 Y9.11
Y-8.996
X13.26 Y-9.088 F800
X13.285 Y-9.178
X13.322 Y-9.242 Z-1.995
X13.358 Y-9.304 Z-1.982
X13.394 Y-9.365 Z-1.959
X13.455 Y-9.415 Z-1.921
X13.512 Y-9.461 Z-1.871
X13.562 Y-9.502 Z-1.812
X13.615 Y-9.522 Z-1.741
X13.658 Y-9.539 Z-1.663
X13.689 Y-9.55 Z-1.579
X13.708 Y-9.558 Z-1.491
X13.715 Y-9.56 Z-1.4
G0 Z5
X-28.589 Y-29.358
Z-1.8
G1 Z-2.4 F600
X-28.587 Y-29.351 Z-2.494
X-28.581 Y-29.33 Z-2.585
X-28.572 Y-29.295 Z-2.672
X-28.56 Y-29.247 Z-2.753
X-28.545 Y-29.188 Z-2.824
X-28.527 Y-29.119 Z-2.885
X-28.507 Y-29.041 Z-2.935
X-28.486 Y-28.957 Z-2.971
X-28.463 Y-28.868 Z-2.993
X-28.44 Y-28.777 Z-3
G3 X-27.97 Y-25.511 I-14.839 J3.801
G1 Y-25.396 F1000
X-27.662 Y-24.526
X-27.446 Y-23.629
X-27.295 Y-22.719
X-27.191 Y-21.802
X-27.12 Y-20.882
X-27.071 Y-19.961
X-27.039 Y-19.039
X-27.016 Y-18.116
X-27.001 Y-17.194
X-26.991 Y-16.271
X-26.984 Y-15.349
X-26.98 Y-14.426
X-26.976 Y-13.504
X-26.973 Y-11.658
X-26.971 Y-7.968
X-26.97 Y19.71
X-26.931 Y19.819
X-26.635 Y20.173
X-25.84 Y20.641
X-24.963 Y20.928
X-24.059 Y21.111
X-23.144 Y21.231
X-22.225 Y21.31
X-21.304 Y21.363
X-20.382 Y21.398
X-19.46 Y21.422
X-18.537 Y21.437
X-17.615 Y21.448
X-16.692 Y21.455
X-15.77 Y21.46
X-14.847 Y21.463
X-13.002 Y21.467
X-9.311 Y21.469
X25.171 Y21.47
X25.279 Y21.431
X25.634 Y21.135
X26.118 Y20.35
X26.413 Y19.476
X26.602 Y18.573
X26.725 Y17.658
X26.806 Y16.739
X26.86 Y15.818
X26.896 Y14.896
X26.92 Y13.974
X26.937 Y13.052
X26.948 Y12.129
X26.955 Y11.207
X26.96 Y10.284
X26.963 Y9.361
X26.967 Y7.516
X26.969 Y3.826
X26.97 Y-19.701
X26.931 Y-19.809
X26.635 Y-20.163
X25.843 Y-20.635
X24.966 Y-20.924
X24.062 Y-21.109
X23.148 Y-21.229
X22.228 Y-21.309
X21.307 Y-21.362
X20.385 Y-21.398
X19.463 Y-21.421
X18.541 Y-21.437
X17.618 Y-21.448
X16.696 Y-21.455
X15.773 Y-21.46
X14.85 Y-21.463
X13.005 Y-21.467
X9.315 Y-21.469
X-21.477 Y-21.47
X-21.586 Y-21.431
X-21.674 Y-21.357
X-22.177 Y-20.583
X-22.468 Y-19.708
X-22.648 Y-18.803
X-22.762 Y-17.887
X-22.835 Y-16.968
X-22.882 Y-16.046
X-22.913 Y-15.124
X-22.933 Y-14.202
X-22.946 Y-13.279
X-22.954 Y-12.357
X-22.96 Y-11.434
X-22.963 Y-10.512
X-22.967 Y-8.666
X-22.968 Y-7.744
X-22.97 Y-2.208
Y15.321
X-22.931 Y15.43
X-22.662 Y15.804
X-21.947 Y16.388
X-21.098 Y16.749
X-20.206 Y16.983
X-19.296 Y17.14
X-18.38 Y17.245
X-17.46 Y17.316
X-16.538 Y17.365
X-15.616 Y17.398
X-14.694 Y17.421
X-13.772 Y17.436
X-12.849 Y17.447
X-11.927 Y17.454
X-11.004 Y17.459
X-10.081 Y17.463
X-8.236 Y17.466
X-4.546 Y17.469
X3.758 Y17.47
X20.826
X20.934 Y17.431
X21.307 Y17.159
X21.889 Y16.443
X22.249 Y15.593
X22.483 Y14.701
X22.639 Y13.792
X22.745 Y12.875
X22.816 Y11.955
X22.865 Y11.034
X22.898 Y10.112
X22.92 Y9.19
X22.936 Y8.267
X22.947 Y7.345
X22.954 Y6.422
X22.959 Y5.5
X22.962 Y4.577
X22.966 Y2.732
X22.969 Y-0.959
X22.97 Y-15.028
Y-15.259
X22.931 Y-15.367
X22.685 Y-15.758
X21.987 Y-16.361
X21.142 Y-16.731
X20.251 Y-16.972
X19.342 Y-17.132
X18.426 Y-17.24
X17.506 Y-17.313
X16.585 Y-17.362
X15.663 Y-17.396
X14.741 Y-17.419
X13.818 Y-17.435
X12.896 Y-17.446
X11.973 Y-17.454
X11.051 Y-17.459
X10.128 Y-17.462
X8.283 Y-17.466
X5.515 Y-17.469
X-4.634 Y-17.47
X-16.858
X-16.966 Y-17.431
X-17.342 Y-17.163
X-17.921 Y-16.445
X-18.276 Y-15.593
X-18.505 Y-14.699
X-18.657 Y-13.789
X-18.758 Y-12.872
X-18.826 Y-11.952
X-18.872 Y-11.031
X-18.904 Y-10.109
X-18.925 Y-9.186
X-18.939 Y-8.264
X-18.949 Y-7.341
X-18.956 Y-6.419
X-18.96 Y-5.496
X-18.966 Y-3.651
X-18.969 Y-0.883
X-18.97 Y6.498
Y11.226
X-18.931 Y11.335
X-18.676 Y11.719
X-17.979 Y12.323
X-17.136 Y12.699
X-16.247 Y12.946
X-15.34 Y13.112
X-14.424 Y13.224
X-13.504 Y13.301
X-12.583 Y13.353
X-11.661 Y13.389
X-10.739 Y13.414
X-9.817 Y13.431
X-8.894 Y13.443
X-7.972 Y13.452
X-7.049 Y13.457
X-6.126 Y13.461
X-4.281 Y13.466
X-1.513 Y13.469
X6.79 Y13.47
X11.403
X16.708
X16.817 Y13.431
X17.205 Y13.183
X17.815 Y12.49
X18.194 Y11.649
X18.443 Y10.76
X18.609 Y9.853
X18.722 Y8.937
X18.799 Y8.018
X18.852 Y7.097
X18.889 Y6.175
X18.914 Y5.253
X18.931 Y4.33
X18.943 Y3.408
X18.951 Y2.485
X18.957 Y1.562
X18.961 Y0.64
X18.966 Y-1.205
X18.969 Y-3.973
X18.97 Y-11.123
X18.907 Y-11.345
X18.843 Y-11.441
X18.555 Y-11.801
X17.831 Y-12.373
X16.981 Y-12.732
X16.089 Y-12.969
X15.18 Y-13.127
X14.264 Y-13.234
X13.344 Y-13.308
X12.423 Y-13.358
X11.501 Y-13.393
X10.579 Y-13.417
X9.656 Y-13.433
X8.734 Y-13.445
X7.811 Y-13.452
X6.889 Y-13.458
X5.966 Y-13.462
X4.121 Y-13.466
X1.353 Y-13.469
X-0.492
X-12.717 Y-13.47
X-12.825 Y-13.431
X-13.215 Y-13.185
X-13.825 Y-12.492
X-14.202 Y-11.65
X-14.45 Y-10.761
X-14.615 Y-9.854
X-14.727 Y-8.938
X-14.803 Y-8.018
X-14.855 Y-7.097
X-14.891 Y-6.175
X-14.915 Y-5.253
X-14.932 Y-4.331
X-14.944 Y-3.408
X-14.952 Y-2.486
X-14.958 Y-1.563
X-14.962 Y-0.64
X-14.966 Y1.205
X-14.969 Y3.973
X-14.97 Y7.086
X-14.944 Y7.199
X-14.742 Y7.614
X-14.079 Y8.255
X-13.592 Y8.487
X-13.451 Y8.58
X-13.343 Y8.709
X-13.274 Y8.862
X-13.25 Y9.029
X-13.249 Y9.947
X-13.243 Y10.157
X-13.228 Y10.366
X-13.195 Y10.576
X-13.144 Y10.785
X-13.017 Y11.204
X-12.921 Y11.413
X-12.894 Y11.469
X-12.812 Y11.623
X-12.681 Y11.832
X-12.521 Y12.042
X-12.475 Y12.1
X-12.334 Y12.251
X-12.265 Y12.319
X-12.121 Y12.46
X-11.846 Y12.674
X-11.636 Y12.803
X-11.501 Y12.879
X-11.427 Y12.915
X-11.217 Y13.013
X-11.007 Y13.08
X-10.798 Y13.141
X-10.588 Y13.193
X-10.378 Y13.227
X-10.169 Y13.242
X-9.959 Y13.249
X-8.701 Y13.25
X9.54
X9.959 Y13.249
X10.169 Y13.242
X10.378 Y13.227
X10.588 Y13.193
X10.798 Y13.141
X11.007 Y13.08
X11.217 Y13.013
X11.427 Y12.915
X11.501 Y12.879
X11.636 Y12.803
X11.846 Y12.674
X12.121 Y12.46
X12.265 Y12.319
X12.334 Y12.251
X12.475 Y12.1
X12.521 Y12.042
X13.118 Y11.338
X13.663 Y10.594
X14.049 Y9.756
X14.319 Y8.874
X14.509 Y7.971
X14.644 Y7.058
X14.739 Y6.14
X14.806 Y5.22
X14.854 Y4.299
X14.888 Y3.377
X14.912 Y2.455
X14.929 Y1.532
X14.941 Y0.61
X14.95 Y-0.313
X14.956 Y-1.236
X14.96 Y-2.158
X14.965 Y-4.003
X14.968 Y-7.117
X14.892 Y-7.335
X14.827 Y-7.43
X14.537 Y-7.789
X13.813 Y-8.36
X13.615 Y-8.444
X13.466 Y-8.535
X13.35 Y-8.665
X13.275 Y-8.824
X13.25 Y-8.996
X13.249 Y-9.947
X13.243 Y-10.157
X13.228 Y-10.366
X13.195 Y-10.576
X13.144 Y-10.785
X13.017 Y-11.204
X12.921 Y-11.413
X12.894 Y-11.469
X12.812 Y-11.623
X12.681 Y-11.832
X12.521 Y-12.042
X12.475 Y-12.1
X12.334 Y-12.251
X12.265 Y-12.319
X12.121 Y-12.46
X11.846 Y-12.674
X11.636 Y-12.803
X11.501 Y-12.879
X11.427 Y-12.915
X11.217 Y-13.013
X11.007 Y-13.08
X10.798 Y-13.141
X10.588 Y-13.193
X10.378 Y-13.227
X10.169 Y-13.242
X9.959 Y-13.249
X8.701 Y-13.25
X-9.54
X-9.959 Y-13.249
X-10.169 Y-13.242
X-10.378 Y-13.227
X-10.588 Y-13.193
X-10.798 Y-13.141
X-11.007 Y-13.08
X-11.217 Y-13.013
X-11.427 Y-12.915
X-11.501 Y-12.879
X-11.636 Y-12.803
X-11.846 Y-12.674
X-12.121 Y-12.46
X-12.265 Y-12.319
X-12.334 Y-12.251
X-12.475 Y-12.1
X-12.521 Y-12.042
X-12.681 Y-11.832
X-12.812 Y-11.623
X-12.894 Y-11.469
X-12.921 Y-11.413
X-13.017 Y-11.204
X-13.144 Y-10.785
X-13.195 Y-10.576
X-13.228 Y-10.366
X-13.243 Y-10.157
X-13.249 Y-9.947
X-13.25 Y-9.11
Y9.029
Y9.529 F800
X-13.249 Y9.814
Y9.947 F1000
X-13.243 Y10.157
X-13.228 Y10.366
X-13.195 Y10.576
X-13.144 Y10.785
X-13.017 Y11.204
X-12.921 Y11.413
X-12.894 Y11.469
X-12.812 Y11.623
X-12.681 Y11.832
X-12.521 Y12.042
X-12.475 Y12.1
X-12.334 Y12.251
X-12.265 Y12.319
X-12.121 Y12.46
X-11.846 Y12.674
X-11.636 Y12.803
X-11.501 Y12.879
X-11.427 Y12.915
X-11.217 Y13.013
X-11.007 Y13.08
X-10.798 Y13.141
X-10.588 Y13.193
X-10.378 Y13.227
X-10.169 Y13.242
X-9.959 Y13.249
X-9.33 Y13.25
X9.54
X9.959 Y13.249
X10.169 Y13.242
X10.378 Y13.227
X10.588 Y13.193
X10.798 Y13.141
X11.007 Y13.08
X11.217 Y13.013
X11.427 Y12.915
X11.501 Y12.879
X11.636 Y12.803
X11.846 Y12.674
X11.958 Y12.586
X12.121 Y12.46 F600
X12.265 Y12.319
X12.334 Y12.251
X12.475 Y12.1
X12.521 Y12.042
X12.681 Y11.832 F1000
X12.812 Y11.623
X12.894 Y11.469
X12.921 Y11.413
X13.017 Y11.204
X13.144 Y10.785
X13.195 Y10.576
X13.228 Y10.366
X13.243 Y10.157
X13.249 Y9.947
X13.25 Y9.11
Y-8.996
G3 X13.715 Y-9.56 I0.6 J0.021 F800
G1 X13.806 Y-9.581 Z-2.993
X13.895 Y-9.602 Z-2.971
X13.98 Y-9.621 Z-2.935
X14.058 Y-9.639 Z-2.885
X14.128 Y-9.656 Z-2.824
X14.188 Y-9.669 Z-2.753
X14.236 Y-9.68 Z-2.672
X14.271 Y-9.688 Z-2.585
X14.292 Y-9.693 Z-2.494
X14.299 Y-9.695 Z-2.4
G0 Z15
G28 G91 Z0
G90
G28 G91 X0 Y0
G90
M5
M30
