(acetal_bore_contour)
(T1  D=6 CR=0 - ZMIN=-6 - flat end mill)
G90 G94
G17
G21
G28 G91 Z0
G90

(Contour1)
T1
S18000 M3
G54
G0 X-3.793 Y0.117
Z15
Z1.598
G1 Z-0.4 F600
X-3.8 Y0.116 Z-0.494
X-3.822 Y0.113 Z-0.585
X-3.857 Y0.108 Z-0.672
X-3.906 Y0.101 Z-0.753
X-3.967 Y0.092 Z-0.824
X-4.037 Y0.082 Z-0.885
X-4.117 Y0.071 Z-0.935
X-4.203 Y0.059 Z-0.971
X-4.294 Y0.046 Z-0.993
X-4.387 Y0.033 Z-1
X-4.443 Y0.025
G3 X-4.952 Y-0.654 I0.084 J-0.594
G1 X-4.921 Y-0.874 F1000
X-4.88 Y-1.068
X-4.835 Y-1.262
X-4.758 Y-1.527
X-4.715 Y-1.651
X-4.644 Y-1.845
X-4.564 Y-2.03
X-4.56 Y-2.039
X-4.471 Y-2.233
X-4.366 Y-2.428
X-4.252 Y-2.622
X-4.129 Y-2.816
X-3.986 Y-3.01
X-3.981 Y-3.017
X-3.832 Y-3.204
X-3.787 Y-3.257
X-3.663 Y-3.399
X-3.473 Y-3.593
X-3.399 Y-3.663
X-3.204 Y-3.834
X-3.017 Y-3.981
X-3.01 Y-3.986
X-2.816 Y-4.126
X-2.622 Y-4.254
X-2.428 Y-4.365
X-2.42 Y-4.37
X-2.233 Y-4.469
X-2.033 Y-4.564
X-1.845 Y-4.642
X-1.651 Y-4.717
X-1.521 Y-4.758
X-1.457 Y-4.778
X-1.262 Y-4.835
X-1.068 Y-4.88
X-0.874 Y-4.919
X-0.664 Y-4.952
X-0.486 Y-4.972
X-0.291 Y-4.989
X-0.097 Y-4.994
X0.097 Y-4.997
X0.291 Y-4.987
X0.486 Y-4.973
X0.68 Y-4.949
X0.874 Y-4.919
X1.068 Y-4.881
X1.262 Y-4.833
X1.457 Y-4.78
X1.525 Y-4.758
X1.651 Y-4.714
X1.845 Y-4.644
X2.039 Y-4.56
X2.233 Y-4.468
X2.428 Y-4.368
X2.622 Y-4.252
X2.747 Y-4.175
X2.816 Y-4.127
X3.021 Y-3.981
X3.204 Y-3.832
X3.259 Y-3.787
X3.399 Y-3.661
X3.47 Y-3.593
X3.593 Y-3.473
X3.787 Y-3.261
X3.834 Y-3.204
X3.988 Y-3.01
X4.126 Y-2.816
X4.175 Y-2.743
X4.253 Y-2.622
X4.37 Y-2.423
X4.468 Y-2.233
X4.563 Y-2.039
X4.642 Y-1.845
X4.715 Y-1.651
X4.779 Y-1.457
X4.833 Y-1.262
X4.882 Y-1.068
X4.918 Y-0.874
X4.951 Y-0.68
X4.972 Y-0.486
X4.988 Y-0.291
X4.995 Y-0.097
Y0.097
X4.988 Y0.291
X4.972 Y0.486
X4.951 Y0.68
X4.918 Y0.874
X4.882 Y1.068
X4.833 Y1.262
X4.779 Y1.457
X4.715 Y1.651
X4.642 Y1.845
X4.563 Y2.039
X4.468 Y2.233
X4.37 Y2.423
X4.253 Y2.622
X4.175 Y2.743
X4.126 Y2.816
X3.988 Y3.01
X3.834 Y3.204
X3.787 Y3.261
X3.593 Y3.473
X3.47 Y3.593
X3.399 Y3.661
X3.259 Y3.787
X3.204 Y3.832
X3.021 Y3.981
X2.816 Y4.127
X2.747 Y4.175
X2.622 Y4.252
X2.428 Y4.368
X2.233 Y4.468
X2.039 Y4.56
X1.845 Y4.644
X1.651 Y4.714
X1.525 Y4.758
X1.457 Y4.78
X1.262 Y4.833
X1.068 Y4.881
X0.874 Y4.919
X0.68 Y4.949
X0.486 Y4.973
X0.291 Y4.987
X0.097 Y4.997
X-0.097 Y4.994
X-0.291 Y4.989
X-0.486 Y4.972
X-0.664 Y4.952
X-0.874 Y4.919
X-1.068 Y4.88
X-1.262 Y4.835
X-1.457 Y4.778
X-1.521 Y4.758
X-1.651 Y4.717
X-1.845 Y4.642
X-2.033 Y4.564
X-2.233 Y4.469
X-2.42 Y4.37
X-2.428 Y4.365
X-2.622 Y4.254
X-2.816 Y4.126
X-3.01 Y3.986
X-3.017 Y3.981
X-3.204 Y3.834
X-3.399 Y3.663
X-3.473 Y3.593
X-3.663 Y3.399
X-3.787 Y3.257
X-3.832 Y3.204
X-3.981 Y3.017
X-3.986 Y3.01
X-4.129 Y2.816
X-4.252 Y2.622
X-4.366 Y2.428
X-4.471 Y2.233
X-4.56 Y2.039
X-4.564 Y2.03
X-4.644 Y1.845
X-4.715 Y1.651
X-4.758 Y1.527
X-4.835 Y1.262
X-4.88 Y1.068
X-4.921 Y0.874
X-4.952 Y0.654
X-4.973 Y0.486
X-4.987 Y0.291
X-4.995 Y0.097
Y-0.097
X-4.987 Y-0.291
X-4.973 Y-0.486
X-4.952 Y-0.654
X-4.896 Y-0.99
X-4.817 Y-1.322 Z-1.001
X-4.716 Y-1.648 Z-1.003
X-4.593 Y-1.966 Z-1.005
X-4.448 Y-2.275 Z-1.007
X-4.283 Y-2.573 Z-1.01
X-4.097 Y-2.86 Z-1.014
X-3.893 Y-3.133 Z-1.018
X-3.67 Y-3.391 Z-1.022
X-3.551 Y-3.513 Z-1.025
X-3.431 Y-3.634 Z-1.027
X-3.303 Y-3.747 Z-1.03
X-3.175 Y-3.86 Z-1.033
X-3.039 Y-3.964 Z-1.036
X-2.904 Y-4.068 Z-1.039
X-2.762 Y-4.162 Z-1.042
X-2.619 Y-4.256 Z-1.045
X-2.471 Y-4.341 Z-1.048
X-2.323 Y-4.425 Z-1.052
X-2.169 Y-4.5 Z-1.055
X-2.015 Y-4.572 Z-1.059
X-1.857 Y-4.637 Z-1.063
X-1.698 Y-4.699 Z-1.067
X-1.536 Y-4.753 Z-1.071
X-1.374 Y-4.804 Z-1.075
X-1.209 Y-4.847 Z-1.079
X-1.042 Y-4.886 Z-1.083
X-0.875 Y-4.919 Z-1.087
X-0.707 Y-4.946 Z-1.092
X-0.537 Y-4.967 Z-1.096
X-0.367 Y-4.982 Z-1.101
X-0.197 Y-4.992 Z-1.106
X-0.027 Y-4.995 Z-1.111
X0.144 Y-4.994 Z-1.115
X0.314 Y-4.985 Z-1.12
X0.4 Y-4.981 Z-1.123
X0.485 Y-4.973 Z-1.126
X0.569 Y-4.963 Z-1.128
X0.654 Y-4.952 Z-1.131
X0.738 Y-4.942 Z-1.133
X0.823 Y-4.929 Z-1.136
X0.907 Y-4.912 Z-1.139
X0.99 Y-4.896 Z-1.141
X1.074 Y-4.879 Z-1.144
X1.157 Y-4.862 Z-1.147
X1.24 Y-4.839 Z-1.149
X1.322 Y-4.817 Z-1.152
X1.404 Y-4.795 Z-1.155
X1.487 Y-4.772 Z-1.157
X1.567 Y-4.744 Z-1.16
X1.648 Y-4.715 Z-1.163
X1.728 Y-4.687 Z-1.166
X1.809 Y-4.659 Z-1.169
X1.887 Y-4.626 Z-1.172
X1.966 Y-4.592 Z-1.174
X2.044 Y-4.558 Z-1.177
X2.122 Y-4.525 Z-1.18
X2.199 Y-4.486 Z-1.183
X2.35 Y-4.408 Z-1.189
X2.426 Y-4.369 Z-1.192
X2.5 Y-4.326 Z-1.195
X2.573 Y-4.282 Z-1.198
X2.718 Y-4.193 Z-1.204
X2.789 Y-4.146 Z-1.207
X2.859 Y-4.096 Z-1.21
X2.998 Y-3.997 Z-1.216
X3.066 Y-3.946 Z-1.219
X3.132 Y-3.892 Z-1.222
X3.264 Y-3.783 Z-1.228
X3.328 Y-3.728 Z-1.231
X3.39 Y-3.669 Z-1.234
X3.514 Y-3.552 Z-1.24
X3.575 Y-3.492 Z-1.243
X3.633 Y-3.429 Z-1.246
X3.748 Y-3.303 Z-1.252
X3.805 Y-3.24 Z-1.255
X3.858 Y-3.173 Z-1.258
X3.964 Y-3.04 Z-1.264
X4.017 Y-2.973 Z-1.267
X4.066 Y-2.903 Z-1.27
X4.162 Y-2.762 Z-1.275
X4.211 Y-2.692 Z-1.278
X4.255 Y-2.619 Z-1.281
X4.341 Y-2.471 Z-1.287
X4.384 Y-2.398 Z-1.29
X4.424 Y-2.322 Z-1.293
X4.5 Y-2.169 Z-1.299
X4.537 Y-2.093 Z-1.302
X4.572 Y-2.015 Z-1.305
X4.637 Y-1.857 Z-1.311
X4.669 Y-1.778 Z-1.314
X4.7 Y-1.699 Z-1.317
X4.753 Y-1.536 Z-1.323
X4.78 Y-1.455 Z-1.326
X4.805 Y-1.374 Z-1.329
X4.847 Y-1.208 Z-1.335
X4.868 Y-1.126 Z-1.338
X4.888 Y-1.043 Z-1.341
X4.918 Y-0.875 Z-1.347
X4.948 Y-0.707 Z-1.353
X4.957 Y-0.622 Z-1.356
X4.984 Y-0.368 Z-1.365
X4.988 Y-0.282 Z-1.368
X4.997 Y-0.027 Z-1.377
X4.996 Y0.059 Z-1.38
X4.987 Y0.314 Z-1.389
X4.981 Y0.4 Z-1.392
X4.954 Y0.654 Z-1.401
X4.942 Y0.739 Z-1.404
X4.897 Y0.991 Z-1.413
X4.881 Y1.074 Z-1.415
X4.818 Y1.322 Z-1.424
X4.796 Y1.405 Z-1.427
X4.716 Y1.648 Z-1.436
X4.69 Y1.729 Z-1.439
X4.56 Y2.045 Z-1.451
X4.523 Y2.122 Z-1.454
X4.41 Y2.351 Z-1.463
X4.368 Y2.426 Z-1.466
X4.239 Y2.646 Z-1.475
X4.193 Y2.718 Z-1.478
X4.048 Y2.929 Z-1.487
X3.998 Y2.998 Z-1.49
X3.838 Y3.199 Z-1.499
X3.784 Y3.264 Z-1.502
X3.611 Y3.453 Z-1.511
X3.553 Y3.515 Z-1.514
X3.367 Y3.691 Z-1.523
X3.305 Y3.749 Z-1.526
X3.041 Y3.966 Z-1.538
X2.972 Y4.016 Z-1.541
X2.763 Y4.164 Z-1.549
X2.691 Y4.21 Z-1.552
X2.472 Y4.343 Z-1.561
X2.398 Y4.384 Z-1.564
X2.17 Y4.501 Z-1.573
X2.093 Y4.537 Z-1.576
X1.858 Y4.638 Z-1.585
X1.778 Y4.67 Z-1.588
X1.617 Y4.726 Z-1.594
X1.537 Y4.754 Z-1.597
X1.456 Y4.781 Z-1.6
X1.291 Y4.825 Z-1.606
X1.209 Y4.848 Z-1.609
X1.126 Y4.869 Z-1.612
X0.959 Y4.902 Z-1.618
X0.791 Y4.935 Z-1.624
X0.707 Y4.946 Z-1.627
X0.453 Y4.977 Z-1.636
X0.367 Y4.983 Z-1.639
X0.197 Y4.992 Z-1.645
X0.112 Y4.996 Z-1.648
X0.027 Z-1.651
X-0.144 Y4.993 Z-1.657
X-0.229 Y4.992 Z-1.66
X-0.314 Y4.987 Z-1.663
X-0.484 Y4.972 Z-1.669
X-0.569 Y4.964 Z-1.672
X-0.654 Y4.954 Z-1.675
X-0.822 Y4.927 Z-1.68
X-0.907 Y4.913 Z-1.683
X-0.991 Y4.898 Z-1.686
X-1.157 Y4.859 Z-1.692
X-1.24 Y4.84 Z-1.695
X-1.323 Y4.819 Z-1.698
X-1.486 Y4.769 Z-1.704
X-1.567 Y4.744 Z-1.707
X-1.649 Y4.718 Z-1.71
X-1.808 Y4.656 Z-1.716
X-1.967 Y4.595 Z-1.722
X-2.044 Y4.559 Z-1.725
X-2.198 Y4.486 Z-1.731
X-2.276 Y4.449 Z-1.734
X-2.351 Y4.409 Z-1.737
X-2.499 Y4.325 Z-1.743
X-2.574 Y4.283 Z-1.746
X-2.646 Y4.238 Z-1.749
X-2.789 Y4.144 Z-1.755
X-2.86 Y4.098 Z-1.758
X-2.929 Y4.048 Z-1.761
X-3.065 Y3.944 Z-1.767
X-3.133 Y3.893 Z-1.77
X-3.199 Y3.839 Z-1.773
X-3.327 Y3.726 Z-1.779
X-3.391 Y3.67 Z-1.782
X-3.454 Y3.612 Z-1.785
X-3.573 Y3.49 Z-1.791
X-3.633 Y3.429 Z-1.794
X-3.692 Y3.368 Z-1.797
X-3.803 Y3.238 Z-1.803
X-3.858 Y3.173 Z-1.806
X-3.914 Y3.108 Z-1.809
X-3.965 Y3.04 Z-1.812
X-4.015 Y2.971 Z-1.814
X-4.066 Y2.902 Z-1.817
X-4.117 Y2.834 Z-1.82
X-4.163 Y2.762 Z-1.823
X-4.209 Y2.69 Z-1.826
X-4.254 Y2.618 Z-1.829
X-4.3 Y2.546 Z-1.832
X-4.342 Y2.472 Z-1.835
X-4.383 Y2.397 Z-1.838
X-4.423 Y2.322 Z-1.84
X-4.463 Y2.247 Z-1.843
X-4.501 Y2.17 Z-1.846
X-4.536 Y2.092 Z-1.849
X-4.571 Y2.014 Z-1.851
X-4.606 Y1.937 Z-1.854
X-4.639 Y1.858 Z-1.857
X-4.668 Y1.778 Z-1.859
X-4.698 Y1.698 Z-1.862
X-4.727 Y1.618 Z-1.865
X-4.755 Y1.537 Z-1.867
X-4.779 Y1.455 Z-1.87
X-4.803 Y1.373 Z-1.872
X-4.826 Y1.291 Z-1.875
X-4.849 Y1.209 Z-1.878
X-4.867 Y1.126 Z-1.88
X-4.885 Y1.042 Z-1.883
X-4.921 Y0.875 Z-1.887
X-4.945 Y0.707 Z-1.892
X-4.969 Y0.538 Z-1.897
X-4.982 Y0.367 Z-1.902
X-4.994 Y0.197 Z-1.906
X-4.995 Y0.027 Z-1.911
Y-0.144 Z-1.915
X-4.985 Y-0.314 Z-1.919
X-4.973 Y-0.485 Z-1.924
X-4.952 Y-0.654 Z-1.928
X-4.928 Y-0.823 Z-1.932
X-4.896 Y-0.99 Z-1.936
X-4.86 Y-1.157 Z-1.94
X-4.817 Y-1.322 Z-1.943
X-4.77 Y-1.486 Z-1.947
X-4.716 Y-1.648 Z-1.95
X-4.657 Y-1.808 Z-1.954
X-4.593 Y-1.966 Z-1.957
X-4.523 Y-2.121 Z-1.96
X-4.448 Y-2.275 Z-1.963
X-4.367 Y-2.425 Z-1.966
X-4.283 Y-2.573 Z-1.969
X-4.192 Y-2.717 Z-1.972
X-4.097 Y-2.86 Z-1.974
X-3.893 Y-3.133 Z-1.979
X-3.67 Y-3.391 Z-1.984
X-3.431 Y-3.634 Z-1.988
X-3.175 Y-3.86 Z-1.991
X-2.904 Y-4.068 Z-1.994
X-2.619 Y-4.256 Z-1.996
X-2.323 Y-4.425 Z-1.998
X-2.015 Y-4.572 Z-1.999
X-1.698 Y-4.699 Z-2
X-1.474 Y-4.773
X-1.457 Y-4.778
X-1.262 Y-4.835
X-1.068 Y-4.88
X-0.874 Y-4.919
X-0.664 Y-4.952
X-0.486 Y-4.972
X-0.291 Y-4.989
X-0.097 Y-4.994
X0.097 Y-4.997
X0.291 Y-4.987
X0.486 Y-4.973
X0.68 Y-4.949
X0.874 Y-4.919
X1.068 Y-4.881
X1.262 Y-4.833
X1.457 Y-4.78
X1.525 Y-4.758
X1.651 Y-4.714
X1.845 Y-4.644
X2.039 Y-4.56
X2.233 Y-4.468
X2.428 Y-4.368
X2.622 Y-4.252
X2.747 Y-4.175
X2.816 Y-4.127
X3.021 Y-3.981
X3.204 Y-3.832
X3.259 Y-3.787
X3.399 Y-3.661
X3.47 Y-3.593
X3.593 Y-3.473
X3.787 Y-3.261
X3.834 Y-3.204
X3.988 Y-3.01
X4.126 Y-2.816
X4.175 Y-2.743
X4.253 Y-2.622
X4.37 Y-2.423
X4.468 Y-2.233
X4.563 Y-2.039
X4.642 Y-1.845
X4.715 Y-1.651
X4.779 Y-1.457
X4.833 Y-1.262
X4.882 Y-1.068
X4.918 Y-0.874
X4.951 Y-0.68
X4.972 Y-0.486
X4.988 Y-0.291
X4.995 Y-0.097
Y0.097
X4.988 Y0.291
X4.972 Y0.486
X4.951 Y0.68
X4.918 Y0.874
X4.882 Y1.068
X4.833 Y1.262
X4.779 Y1.457
X4.715 Y1.651
X4.642 Y1.845
X4.563 Y2.039
X4.468 Y2.233
X4.37 Y2.423
X4.253 Y2.622
X4.175 Y2.743
X4.126 Y2.816
X3.988 Y3.01
X3.834 Y3.204
X3.787 Y3.261
X3.593 Y3.473
X3.47 Y3.593
X3.399 Y3.661
X3.259 Y3.787
X3.204 Y3.832
X3.021 Y3.981
X2.816 Y4.127
X2.747 Y4.175
X2.622 Y4.252
X2.428 Y4.368
X2.233 Y4.468
X2.039 Y4.56
X1.845 Y4.644
X1.651 Y4.714
X1.525 Y4.758
X1.457 Y4.78
X1.262 Y4.833
X1.068 Y4.881
X0.874 Y4.919
X0.68 Y4.949
X0.486 Y4.973
X0.291 Y4.987
X0.097 Y4.997
X-0.097 Y4.994
X-0.291 Y4.989
X-0.486 Y4.972
X-0.664 Y4.952
X-0.874 Y4.919
X-1.068 Y4.88
X-1.262 Y4.835
X-1.457 Y4.778
X-1.521 Y4.758
X-1.651 Y4.717
X-1.845 Y4.642
X-2.033 Y4.564
X-2.233 Y4.469
X-2.42 Y4.37
X-2.428 Y4.365
X-2.622 Y4.254
X-2.816 Y4.126
X-3.01 Y3.986
X-3.017 Y3.981
X-3.204 Y3.834
X-3.399 Y3.663
X-3.473 Y3.593
X-3.663 Y3.399
X-3.787 Y3.257
X-3.832 Y3.204
X-3.981 Y3.017
X-3.986 Y3.01
X-4.129 Y2.816
X-4.252 Y2.622
X-4.366 Y2.428
X-4.471 Y2.233
X-4.56 Y2.039
X-4.564 Y2.03
X-4.644 Y1.845
X-4.715 Y1.651
X-4.758 Y1.527
X-4.835 Y1.262
X-4.88 Y1.068
X-4.921 Y0.874
X-4.952 Y0.654
X-4.973 Y0.486
X-4.987 Y0.291
X-4.995 Y0.097
Y-0.097
X-4.987 Y-0.291
X-4.973 Y-0.486
X-4.952 Y-0.654
X-4.921 Y-0.874
X-4.88 Y-1.068
X-4.835 Y-1.262
X-4.758 Y-1.527
X-4.715 Y-1.651
X-4.644 Y-1.845
X-4.564 Y-2.03
X-4.56 Y-2.039
X-4.471 Y-2.233
X-4.366 Y-2.428
X-4.252 Y-2.622
X-4.129 Y-2.816
X-3.986 Y-3.01
X-3.981 Y-3.017
X-3.832 Y-3.204
X-3.787 Y-3.257
X-3.663 Y-3.399
X-3.473 Y-3.593
X-3.399 Y-3.663
X-3.204 Y-3.834
X-3.017 Y-3.981
X-3.01 Y-3.986
X-2.816 Y-4.126
X-2.622 Y-4.254
X-2.428 Y-4.365
X-2.42 Y-4.37
X-2.233 Y-4.469
X-2.033 Y-4.564
X-1.845 Y-4.642
X-1.651 Y-4.717
X-1.521 Y-4.758
X-1.474 Y-4.773
X-1.145 Y-4.862
X-0.81 Y-4.929 Z-2.001
X-0.472 Y-4.973 Z-2.003
X-0.131 Y-4.993 Z-2.005
X0.21 Y-4.991 Z-2.007
X0.55 Y-4.965 Z-2.01
X0.887 Y-4.916 Z-2.014
X1.221 Y-4.844 Z-2.018
X1.549 Y-4.75 Z-2.022
X1.71 Y-4.694 Z-2.025
X1.869 Y-4.633 Z-2.027
X2.026 Y-4.566 Z-2.03
X2.181 Y-4.495 Z-2.033
X2.333 Y-4.417 Z-2.036
X2.483 Y-4.336 Z-2.039
X2.629 Y-4.247 Z-2.042
X2.773 Y-4.157 Z-2.045
X2.912 Y-4.058 Z-2.048
X3.051 Y-3.958 Z-2.052
X3.183 Y-3.85 Z-2.055
X3.314 Y-3.741 Z-2.059
X3.438 Y-3.624 Z-2.063
X3.562 Y-3.506 Z-2.067
X3.677 Y-3.381 Z-2.071
X3.792 Y-3.255 Z-2.075
X3.899 Y-3.122 Z-2.079
X4.005 Y-2.988 Z-2.083
X4.103 Y-2.849 Z-2.087
X4.2 Y-2.708 Z-2.092
X4.288 Y-2.562 Z-2.096
X4.374 Y-2.415 Z-2.101
X4.453 Y-2.263 Z-2.106
X4.529 Y-2.11 Z-2.111
X4.597 Y-1.954 Z-2.115
X4.662 Y-1.796 Z-2.12
X4.694 Y-1.717 Z-2.123
X4.72 Y-1.636 Z-2.126
X4.747 Y-1.555 Z-2.128
X4.773 Y-1.474 Z-2.131
X4.8 Y-1.393 Z-2.133
X4.821 Y-1.31 Z-2.136
X4.842 Y-1.227 Z-2.139
X4.863 Y-1.145 Z-2.141
X4.884 Y-1.062 Z-2.144
X4.899 Y-0.978 Z-2.147
X4.914 Y-0.894 Z-2.149
X4.929 Y-0.81 Z-2.152
X4.944 Y-0.726 Z-2.155
X4.955 Y-0.642 Z-2.157
X4.964 Y-0.557 Z-2.16
X4.973 Y-0.472 Z-2.163
X4.982 Y-0.387 Z-2.166
X4.987 Y-0.302 Z-2.169
X4.99 Y-0.217 Z-2.172
X4.993 Y-0.131 Z-2.174
X4.997 Y-0.046 Z-2.177
Y0.039 Z-2.18
X4.994 Y0.124 Z-2.183
X4.988 Y0.295 Z-2.189
X4.983 Y0.38 Z-2.192
X4.974 Y0.465 Z-2.195
X4.965 Y0.55 Z-2.198
X4.956 Y0.635 Z-2.201
X4.946 Y0.719 Z-2.204
X4.901 Y0.971 Z-2.213
X4.885 Y1.055 Z-2.216
X4.823 Y1.303 Z-2.225
X4.802 Y1.386 Z-2.228
X4.776 Y1.467 Z-2.231
X4.749 Y1.548 Z-2.234
X4.696 Y1.71 Z-2.24
X4.665 Y1.79 Z-2.243
X4.632 Y1.869 Z-2.246
X4.568 Y2.027 Z-2.252
X4.532 Y2.104 Z-2.255
X4.494 Y2.181 Z-2.258
X4.418 Y2.334 Z-2.264
X4.378 Y2.409 Z-2.267
X4.335 Y2.482 Z-2.27
X4.249 Y2.63 Z-2.275
X4.204 Y2.702 Z-2.278
X4.155 Y2.772 Z-2.281
X4.059 Y2.913 Z-2.287
X4.01 Y2.983 Z-2.29
X3.957 Y3.05 Z-2.293
X3.851 Y3.183 Z-2.299
X3.797 Y3.25 Z-2.302
X3.739 Y3.313 Z-2.305
X3.624 Y3.438 Z-2.311
X3.567 Y3.501 Z-2.314
X3.505 Y3.56 Z-2.317
X3.381 Y3.678 Z-2.323
X3.319 Y3.736 Z-2.326
X3.254 Y3.791 Z-2.329
X3.122 Y3.9 Z-2.335
X3.056 Y3.954 Z-2.338
X2.988 Y4.005 Z-2.341
X2.849 Y4.103 Z-2.347
X2.779 Y4.153 Z-2.35
X2.708 Y4.199 Z-2.353
X2.489 Y4.333 Z-2.362
X2.415 Y4.375 Z-2.365
X2.187 Y4.492 Z-2.374
X2.111 Y4.53 Z-2.377
X1.876 Y4.631 Z-2.386
X1.797 Y4.663 Z-2.389
X1.555 Y4.748 Z-2.398
X1.475 Y4.776 Z-2.401
X1.228 Y4.843 Z-2.409
X1.145 Y4.865 Z-2.412
X1.062 Y4.882 Z-2.415
X0.81 Y4.931 Z-2.424
X0.726 Y4.943 Z-2.427
X0.472 Y4.975 Z-2.436
X0.387 Y4.982 Z-2.439
X0.131 Y4.995 Z-2.448
X0.046 Y4.997 Z-2.451
X-0.21 Y4.992 Z-2.46
X-0.295 Y4.988 Z-2.463
X-0.55 Y4.966 Z-2.472
X-0.635 Y4.957 Z-2.475
X-0.887 Y4.917 Z-2.484
X-0.972 Y4.903 Z-2.487
X-1.304 Y4.825 Z-2.499
X-1.386 Y4.8 Z-2.502
X-1.63 Y4.724 Z-2.511
X-1.71 Y4.694 Z-2.514
X-1.948 Y4.602 Z-2.523
X-2.026 Y4.567 Z-2.526
X-2.258 Y4.458 Z-2.535
X-2.334 Y4.418 Z-2.538
X-2.557 Y4.293 Z-2.547
X-2.63 Y4.249 Z-2.549
X-2.843 Y4.108 Z-2.558
X-2.914 Y4.06 Z-2.561
X-3.117 Y3.904 Z-2.57
X-3.184 Y3.852 Z-2.573
X-3.376 Y3.682 Z-2.582
X-3.44 Y3.626 Z-2.585
X-3.679 Y3.382 Z-2.597
X-3.735 Y3.318 Z-2.6
X-3.846 Y3.188 Z-2.606
X-3.901 Y3.123 Z-2.609
X-3.953 Y3.056 Z-2.612
X-4.054 Y2.918 Z-2.618
X-4.105 Y2.85 Z-2.621
X-4.153 Y2.779 Z-2.624
X-4.244 Y2.635 Z-2.63
X-4.29 Y2.563 Z-2.633
X-4.333 Y2.489 Z-2.636
X-4.414 Y2.339 Z-2.642
X-4.454 Y2.264 Z-2.645
X-4.493 Y2.188 Z-2.648
X-4.528 Y2.11 Z-2.651
X-4.598 Y1.954 Z-2.657
X-4.632 Y1.876 Z-2.66
X-4.662 Y1.796 Z-2.663
X-4.72 Y1.636 Z-2.669
X-4.75 Y1.556 Z-2.672
X-4.773 Y1.474 Z-2.675
X-4.821 Y1.31 Z-2.68
X-4.845 Y1.228 Z-2.683
X-4.863 Y1.145 Z-2.686
X-4.899 Y0.978 Z-2.692
X-4.917 Y0.895 Z-2.695
X-4.93 Y0.81 Z-2.698
X-4.954 Y0.641 Z-2.704
X-4.966 Y0.557 Z-2.707
X-4.974 Y0.472 Z-2.71
X-4.986 Y0.302 Z-2.716
X-4.992 Y0.217 Z-2.719
X-4.995 Y0.131 Z-2.722
Y-0.039 Z-2.728
Y-0.125 Z-2.731
X-4.993 Y-0.21 Z-2.734
X-4.981 Y-0.38 Z-2.74
X-4.975 Y-0.465 Z-2.743
X-4.967 Y-0.55 Z-2.746
X-4.943 Y-0.719 Z-2.752
X-4.931 Y-0.803 Z-2.755
X-4.918 Y-0.888 Z-2.758
X-4.882 Y-1.055 Z-2.764
X-4.847 Y-1.221 Z-2.77
X-4.823 Y-1.303 Z-2.773
X-4.775 Y-1.467 Z-2.779
X-4.752 Y-1.549 Z-2.782
X-4.723 Y-1.63 Z-2.785
X-4.664 Y-1.79 Z-2.791
X-4.634 Y-1.87 Z-2.794
X-4.601 Y-1.948 Z-2.797
X-4.531 Y-2.104 Z-2.803
X-4.496 Y-2.181 Z-2.806
X-4.457 Y-2.258 Z-2.809
X-4.417 Y-2.333 Z-2.812
X-4.377 Y-2.408 Z-2.814
X-4.336 Y-2.483 Z-2.817
X-4.293 Y-2.557 Z-2.82
X-4.248 Y-2.629 Z-2.823
X-4.202 Y-2.701 Z-2.826
X-4.156 Y-2.773 Z-2.829
X-4.109 Y-2.844 Z-2.832
X-4.058 Y-2.913 Z-2.835
X-4.008 Y-2.981 Z-2.838
X-3.957 Y-3.05 Z-2.84
X-3.906 Y-3.118 Z-2.843
X-3.85 Y-3.183 Z-2.846
X-3.795 Y-3.248 Z-2.849
X-3.74 Y-3.313 Z-2.851
X-3.684 Y-3.378 Z-2.854
X-3.624 Y-3.438 Z-2.857
X-3.564 Y-3.499 Z-2.859
X-3.505 Y-3.56 Z-2.862
X-3.445 Y-3.621 Z-2.865
X-3.381 Y-3.678 Z-2.867
X-3.317 Y-3.734 Z-2.87
X-3.253 Y-3.791 Z-2.872
X-3.19 Y-3.847 Z-2.875
X-3.123 Y-3.9 Z-2.878
X-3.055 Y-3.952 Z-2.88
X-2.987 Y-4.004 Z-2.883
X-2.849 Y-4.104 Z-2.887
X-2.707 Y-4.198 Z-2.892
X-2.563 Y-4.29 Z-2.897
X-2.414 Y-4.373 Z-2.902
X-2.264 Y-4.455 Z-2.906
X-2.11 Y-4.528 Z-2.911
X-1.955 Y-4.599 Z-2.915
X-1.796 Y-4.661 Z-2.919
X-1.637 Y-4.722 Z-2.924
X-1.474 Y-4.773 Z-2.928
X-1.311 Y-4.823 Z-2.932
X-1.145 Y-4.862 Z-2.936
X-0.978 Y-4.901 Z-2.94
X-0.81 Y-4.929 Z-2.943
X-0.642 Y-4.956 Z-2.947
X-0.472 Y-4.973 Z-2.95
X-0.302 Y-4.988 Z-2.954
X-0.131 Y-4.993 Z-2.957
X0.039 Y-4.996 Z-2.96
X0.21 Y-4.991 Z-2.963
X0.38 Y-4.982 Z-2.966
X0.55 Y-4.965 Z-2.969
X0.719 Y-4.944 Z-2.972
X0.887 Y-4.916 Z-2.974
X1.221 Y-4.844 Z-2.979
X1.549 Y-4.75 Z-2.984
X1.869 Y-4.633 Z-2.988
X2.181 Y-4.495 Z-2.991
X2.483 Y-4.336 Z-2.994
X2.773 Y-4.157 Z-2.996
X3.051 Y-3.958 Z-2.998
X3.314 Y-3.741 Z-2.999
X3.562 Y-3.506 Z-3
X3.722 Y-3.332
X3.787 Y-3.261
X3.834 Y-3.204
X3.988 Y-3.01
X4.126 Y-2.816
X4.175 Y-2.743
X4.253 Y-2.622
X4.37 Y-2.423
X4.468 Y-2.233
X4.563 Y-2.039
X4.642 Y-1.845
X4.715 Y-1.651
X4.779 Y-1.457
X4.833 Y-1.262
X4.882 Y-1.068
X4.918 Y-0.874
X4.951 Y-0.68
X4.972 Y-0.486
X4.988 Y-0.291
X4.995 Y-0.097
Y0.097
X4.988 Y0.291
X4.972 Y0.486
X4.951 Y0.68
X4.918 Y0.874
X4.882 Y1.068
X4.833 Y1.262
X4.779 Y1.457
X4.715 Y1.651
X4.642 Y1.845
X4.563 Y2.039
X4.468 Y2.233
X4.37 Y2.423
X4.253 Y2.622
X4.175 Y2.743
X4.126 Y2.816
X3.988 Y3.01
X3.834 Y3.204
X3.787 Y3.261
X3.593 Y3.473
X3.47 Y3.593
X3.399 Y3.661
X3.259 Y3.787
X3.204 Y3.832
X3.021 Y3.981
X2.816 Y4.127
X2.747 Y4.175
X2.622 Y4.252
X2.428 Y4.368
X2.233 Y4.468
X2.039 Y4.56
X1.845 Y4.644
X1.651 Y4.714
X1.525 Y4.758
X1.457 Y4.78
X1.262 Y4.833
X1.068 Y4.881
X0.874 Y4.919
X0.68 Y4.949
X0.486 Y4.973
X0.291 Y4.987
X0.097 Y4.997
X-0.097 Y4.994
X-0.291 Y4.989
X-0.486 Y4.972
X-0.664 Y4.952
X-0.874 Y4.919
X-1.068 Y4.88
X-1.262 Y4.835
X-1.457 Y4.778
X-1.521 Y4.758
X-1.651 Y4.717
X-1.845 Y4.642
X-2.033 Y4.564
X-2.233 Y4.469
X-2.42 Y4.37
X-2.428 Y4.365
X-2.622 Y4.254
X-2.816 Y4.126
X-3.01 Y3.986
X-3.017 Y3.981
X-3.204 Y3.834
X-3.399 Y3.663
X-3.473 Y3.593
X-3.663 Y3.399
X-3.787 Y3.257
X-3.832 Y3.204
X-3.981 Y3.017
X-3.986 Y3.01
X-4.129 Y2.816
X-4.252 Y2.622
X-4.366 Y2.428
X-4.471 Y2.233
X-4.56 Y2.039
X-4.564 Y2.03
X-4.644 Y1.845
X-4.715 Y1.651
X-4.758 Y1.527
X-4.835 Y1.262
X-4.88 Y1.068
X-4.921 Y0.874
X-4.952 Y0.654
X-4.973 Y0.486
X-4.987 Y0.291
X-4.995 Y0.097
Y-0.097
X-4.987 Y-0.291
X-4.973 Y-0.486
X-4.952 Y-0.654
X-4.921 Y-0.874
X-4.88 Y-1.068
X-4.835 Y-1.262
X-4.758 Y-1.527
X-4.715 Y-1.651
X-4.644 Y-1.845
X-4.564 Y-2.03
X-4.56 Y-2.039
X-4.471 Y-2.233
X-4.366 Y-2.428
X-4.252 Y-2.622
X-4.129 Y-2.816
X-3.986 Y-3.01
X-3.981 Y-3.017
X-3.832 Y-3.204
X-3.787 Y-3.257
X-3.663 Y-3.399
X-3.473 Y-3.593
X-3.399 Y-3.663
X-3.204 Y-3.834
X-3.017 Y-3.981
X-3.01 Y-3.986
X-2.816 Y-4.126
X-2.622 Y-4.254
X-2.428 Y-4.365
X-2.42 Y-4.37
X-2.233 Y-4.469
X-2.033 Y-4.564
X-1.845 Y-4.642
X-1.651 Y-4.717
X-1.521 Y-4.758
X-1.474 Y-4.773
X-1.457 Y-4.778
X-1.262 Y-4.835
X-1.068 Y-4.88
X-0.874 Y-4.919
X-0.664 Y-4.952
X-0.486 Y-4.972
X-0.291 Y-4.989
X-0.097 Y-4.994
X0.097 Y-4.997
X0.291 Y-4.987
X0.486 Y-4.973
X0.68 Y-4.949
X0.874 Y-4.919
X1.068 Y-4.881
X1.262 Y-4.833
X1.457 Y-4.78
X1.525 Y-4.758
X1.651 Y-4.714
X1.845 Y-4.644
X2.039 Y-4.56
X2.233 Y-4.468
X2.428 Y-4.368
X2.622 Y-4.252
X2.747 Y-4.175
X2.816 Y-4.127
X3.021 Y-3.981
X3.204 Y-3.832
X3.259 Y-3.787
X3.399 Y-3.661
X3.47 Y-3.593
X3.593 Y-3.473
X3.722 Y-3.332
X3.94 Y-3.07
X4.141 Y-2.794 Z-3.001
X4.322 Y-2.505 Z-3.003
X4.482 Y-2.204 Z-3.005
X4.622 Y-1.893 Z-3.007
X4.741 Y-1.573 Z-3.01
X4.837 Y-1.246 Z-3.014
X4.911 Y-0.913 Z-3.018
X4.962 Y-0.576 Z-3.022
X4.98 Y-0.406 Z-3.025
X4.99 Y-0.236 Z-3.027
X4.996 Y-0.065 Z-3.03
X4.994 Y0.105 Z-3.033
X4.988 Y0.276 Z-3.036
X4.976 Y0.446 Z-3.039
X4.958 Y0.616 Z-3.042
X4.934 Y0.785 Z-3.045
X4.904 Y0.952 Z-3.048
X4.869 Y1.119 Z-3.052
X4.827 Y1.285 Z-3.055
X4.782 Y1.449 Z-3.059
X4.728 Y1.611 Z-3.063
X4.672 Y1.772 Z-3.067
X4.607 Y1.93 Z-3.071
X4.54 Y2.087 Z-3.075
X4.465 Y2.24 Z-3.079
X4.388 Y2.392 Z-3.083
X4.301 Y2.539 Z-3.087
X4.214 Y2.686 Z-3.092
X4.118 Y2.827 Z-3.096
X4.022 Y2.968 Z-3.101
X3.915 Y3.101 Z-3.106
X3.809 Y3.235 Z-3.111
X3.695 Y3.361 Z-3.115
X3.58 Y3.487 Z-3.12
X3.519 Y3.547 Z-3.123
X3.457 Y3.606 Z-3.126
X3.395 Y3.665 Z-3.128
X3.333 Y3.723 Z-3.131
X3.269 Y3.779 Z-3.133
X3.203 Y3.833 Z-3.136
X3.137 Y3.888 Z-3.139
X3.071 Y3.942 Z-3.141
X3.003 Y3.994 Z-3.144
X2.934 Y4.043 Z-3.147
X2.864 Y4.092 Z-3.149
X2.795 Y4.142 Z-3.152
X2.724 Y4.19 Z-3.155
X2.651 Y4.234 Z-3.157
X2.578 Y4.278 Z-3.16
X2.505 Y4.323 Z-3.163
X2.432 Y4.366 Z-3.166
X2.356 Y4.405 Z-3.169
X2.28 Y4.444 Z-3.172
X2.204 Y4.483 Z-3.174
X2.128 Y4.522 Z-3.177
X2.05 Y4.556 Z-3.18
X1.972 Y4.589 Z-3.183
X1.815 Y4.657 Z-3.189
X1.734 Y4.685 Z-3.192
X1.654 Y4.713 Z-3.195
X1.573 Y4.741 Z-3.198
X1.493 Y4.769 Z-3.201
X1.411 Y4.793 Z-3.204
X1.164 Y4.86 Z-3.213
X1.08 Y4.878 Z-3.216
X0.829 Y4.928 Z-3.225
X0.745 Y4.941 Z-3.228
X0.491 Y4.972 Z-3.237
X0.406 Y4.981 Z-3.24
X0.15 Y4.994 Z-3.249
X0.065 Y4.997 Z-3.252
X-0.191 Y4.992 Z-3.261
X-0.276 Y4.99 Z-3.264
X-0.531 Y4.968 Z-3.272
X-0.616 Y4.96 Z-3.275
X-0.784 Y4.933 Z-3.281
X-0.953 Y4.906 Z-3.287
X-1.036 Y4.887 Z-3.29
X-1.119 Y4.868 Z-3.293
X-1.285 Y4.829 Z-3.299
X-1.367 Y4.806 Z-3.302
X-1.449 Y4.78 Z-3.305
X-1.612 Y4.73 Z-3.311
X-1.692 Y4.701 Z-3.314
X-1.772 Y4.67 Z-3.317
X-1.931 Y4.609 Z-3.323
X-2.009 Y4.575 Z-3.326
X-2.086 Y4.539 Z-3.329
X-2.241 Y4.466 Z-3.335
X-2.317 Y4.428 Z-3.338
X-2.391 Y4.386 Z-3.341
X-2.54 Y4.302 Z-3.347
X-2.614 Y4.26 Z-3.35
X-2.756 Y4.166 Z-3.356
X-2.828 Y4.119 Z-3.359
X-2.899 Y4.072 Z-3.362
X-3.034 Y3.968 Z-3.368
X-3.17 Y3.864 Z-3.374
X-3.234 Y3.808 Z-3.377
X-3.426 Y3.639 Z-3.386
X-3.486 Y3.579 Z-3.389
X-3.666 Y3.396 Z-3.398
X-3.723 Y3.333 Z-3.401
X-3.889 Y3.138 Z-3.409
X-3.942 Y3.071 Z-3.412
X-4.094 Y2.865 Z-3.421
X-4.142 Y2.795 Z-3.424
X-4.279 Y2.579 Z-3.433
X-4.324 Y2.506 Z-3.436
X-4.445 Y2.281 Z-3.445
X-4.485 Y2.205 Z-3.448
X-4.625 Y1.894 Z-3.46
X-4.655 Y1.814 Z-3.463
X-4.743 Y1.574 Z-3.472
X-4.768 Y1.492 Z-3.475
X-4.839 Y1.246 Z-3.484
X-4.859 Y1.163 Z-3.487
X-4.913 Y0.913 Z-3.496
X-4.927 Y0.829 Z-3.499
X-4.963 Y0.576 Z-3.508
X-4.973 Y0.491 Z-3.511
X-4.991 Y0.236 Z-3.52
X-4.995 Y0.151 Z-3.523
Y-0.105 Z-3.532
X-4.994 Y-0.191 Z-3.535
X-4.976 Y-0.446 Z-3.544
X-4.97 Y-0.531 Z-3.547
X-4.922 Y-0.869 Z-3.558
X-4.904 Y-0.953 Z-3.561
X-4.851 Y-1.203 Z-3.57
X-4.828 Y-1.285 Z-3.573
X-4.757 Y-1.531 Z-3.582
X-4.729 Y-1.612 Z-3.585
X-4.641 Y-1.852 Z-3.594
X-4.609 Y-1.931 Z-3.597
X-4.504 Y-2.164 Z-3.606
X-4.467 Y-2.241 Z-3.609
X-4.345 Y-2.466 Z-3.618
X-4.303 Y-2.541 Z-3.621
X-4.167 Y-2.757 Z-3.63
X-4.12 Y-2.829 Z-3.633
X-3.918 Y-3.103 Z-3.645
X-3.863 Y-3.168 Z-3.648
X-3.807 Y-3.233 Z-3.651
X-3.697 Y-3.363 Z-3.657
X-3.638 Y-3.425 Z-3.66
X-3.578 Y-3.486 Z-3.663
X-3.458 Y-3.607 Z-3.669
X-3.396 Y-3.665 Z-3.672
X-3.332 Y-3.722 Z-3.675
X-3.204 Y-3.835 Z-3.68
X-3.138 Y-3.889 Z-3.683
X-3.07 Y-3.94 Z-3.686
X-2.934 Y-4.044 Z-3.692
X-2.865 Y-4.094 Z-3.695
X-2.794 Y-4.141 Z-3.698
X-2.652 Y-4.235 Z-3.704
X-2.579 Y-4.28 Z-3.707
X-2.505 Y-4.322 Z-3.71
X-2.356 Y-4.406 Z-3.716
X-2.281 Y-4.447 Z-3.719
X-2.204 Y-4.483 Z-3.722
X-2.05 Y-4.556 Z-3.728
X-1.973 Y-4.592 Z-3.731
X-1.893 Y-4.623 Z-3.734
X-1.734 Y-4.685 Z-3.74
X-1.655 Y-4.716 Z-3.743
X-1.573 Y-4.742 Z-3.746
X-1.41 Y-4.792 Z-3.752
X-1.329 Y-4.817 Z-3.755
X-1.246 Y-4.838 Z-3.758
X-1.08 Y-4.877 Z-3.764
X-0.997 Y-4.897 Z-3.767
X-0.913 Y-4.912 Z-3.77
X-0.745 Y-4.939 Z-3.776
X-0.66 Y-4.953 Z-3.779
X-0.576 Y-4.964 Z-3.782
X-0.406 Y-4.979 Z-3.788
X-0.321 Y-4.986 Z-3.791
X-0.236 Y-4.992 Z-3.794
X-0.065 Y-4.995 Z-3.8
X0.02 Y-4.996 Z-3.803
X0.105 Z-3.806
X0.191 Y-4.992 Z-3.809
X0.276 Y-4.987 Z-3.811
X0.361 Y-4.983 Z-3.814
X0.446 Y-4.978 Z-3.817
X0.531 Y-4.967 Z-3.82
X0.616 Y-4.957 Z-3.823
X0.7 Y-4.946 Z-3.826
X0.785 Y-4.936 Z-3.829
X0.869 Y-4.92 Z-3.832
X0.952 Y-4.903 Z-3.835
X1.036 Y-4.887 Z-3.837
X1.12 Y-4.87 Z-3.84
X1.202 Y-4.849 Z-3.843
X1.285 Y-4.827 Z-3.846
X1.367 Y-4.805 Z-3.849
X1.449 Y-4.782 Z-3.851
X1.531 Y-4.756 Z-3.854
X1.611 Y-4.728 Z-3.857
X1.692 Y-4.7 Z-3.859
X1.772 Y-4.672 Z-3.862
X1.852 Y-4.641 Z-3.865
X1.93 Y-4.607 Z-3.867
X2.009 Y-4.574 Z-3.87
X2.087 Y-4.54 Z-3.872
X2.164 Y-4.504 Z-3.875
X2.24 Y-4.465 Z-3.878
X2.316 Y-4.426 Z-3.88
X2.392 Y-4.387 Z-3.883
X2.54 Y-4.302 Z-3.887
X2.685 Y-4.213 Z-3.892
X2.827 Y-4.119 Z-3.897
X2.966 Y-4.02 Z-3.902
X3.102 Y-3.916 Z-3.906
X3.234 Y-3.808 Z-3.911
X3.362 Y-3.696 Z-3.915
X3.486 Y-3.578 Z-3.919
X3.607 Y-3.458 Z-3.924
X3.722 Y-3.332 Z-3.928
X3.834 Y-3.204 Z-3.932
X3.94 Y-3.07 Z-3.936
X4.044 Y-2.935 Z-3.94
X4.141 Y-2.794 Z-3.943
X4.235 Y-2.652 Z-3.947
X4.322 Y-2.505 Z-3.95
X4.407 Y-2.357 Z-3.954
X4.482 Y-2.204 Z-3.957
X4.558 Y-2.051 Z-3.96
X4.622 Y-1.893 Z-3.963
X4.687 Y-1.735 Z-3.966
X4.741 Y-1.573 Z-3.969
X4.794 Y-1.411 Z-3.972
X4.837 Y-1.246 Z-3.974
X4.911 Y-0.913 Z-3.979
X4.962 Y-0.576 Z-3.984
X4.99 Y-0.236 Z-3.988
X4.994 Y0.105 Z-3.991
X4.976 Y0.446 Z-3.994
X4.934 Y0.785 Z-3.996
X4.869 Y1.119 Z-3.998
X4.782 Y1.449 Z-3.999
X4.672 Y1.772 Z-4
X4.582 Y1.992
X4.563 Y2.039
X4.468 Y2.233
X4.37 Y2.423
X4.253 Y2.622
X4.175 Y2.743
X4.126 Y2.816
X3.988 Y3.01
X3.834 Y3.204
X3.787 Y3.261
X3.593 Y3.473
X3.47 Y3.593
X3.399 Y3.661
X3.259 Y3.787
X3.204 Y3.832
X3.021 Y3.981
X2.816 Y4.127
X2.747 Y4.175
X2.622 Y4.252
X2.428 Y4.368
X2.233 Y4.468
X2.039 Y4.56
X1.845 Y4.644
X1.651 Y4.714
X1.525 Y4.758
X1.457 Y4.78
X1.262 Y4.833
X1.068 Y4.881
X0.874 Y4.919
X0.68 Y4.949
X0.486 Y4.973
X0.291 Y4.987
X0.097 Y4.997
X-0.097 Y4.994
X-0.291 Y4.989
X-0.486 Y4.972
X-0.664 Y4.952
X-0.874 Y4.919
X-1.068 Y4.88
X-1.262 Y4.835
X-1.457 Y4.778
X-1.521 Y4.758
X-1.651 Y4.717
X-1.845 Y4.642
X-2.033 Y4.564
X-2.233 Y4.469
X-2.42 Y4.37
X-2.428 Y4.365
X-2.622 Y4.254
X-2.816 Y4.126
X-3.01 Y3.986
X-3.017 Y3.981
X-3.204 Y3.834
X-3.399 Y3.663
X-3.473 Y3.593
X-3.663 Y3.399
X-3.787 Y3.257
X-3.832 Y3.204
X-3.981 Y3.017
X-3.986 Y3.01
X-4.129 Y2.816
X-4.252 Y2.622
X-4.366 Y2.428
X-4.471 Y2.233
X-4.56 Y2.039
X-4.564 Y2.03
X-4.644 Y1.845
X-4.715 Y1.651
X-4.758 Y1.527
X-4.835 Y1.262
X-4.88 Y1.068
X-4.921 Y0.874
X-4.952 Y0.654
X-4.973 Y0.486
X-4.987 Y0.291
X-4.995 Y0.097
Y-0.097
X-4.987 Y-0.291
X-4.973 Y-0.486
X-4.952 Y-0.654
X-4.921 Y-0.874
X-4.88 Y-1.068
X-4.835 Y-1.262
X-4.758 Y-1.527
X-4.715 Y-1.651
X-4.644 Y-1.845
X-4.564 Y-2.03
X-4.56 Y-2.039
X-4.471 Y-2.233
X-4.366 Y-2.428
X-4.252 Y-2.622
X-4.129 Y-2.816
X-3.986 Y-3.01
X-3.981 Y-3.017
X-3.832 Y-3.204
X-3.787 Y-3.257
X-3.663 Y-3.399
X-3.473 Y-3.593
X-3.399 Y-3.663
X-3.204 Y-3.834
X-3.017 Y-3.981
X-3.01 Y-3.986
X-2.816 Y-4.126
X-2.622 Y-4.254
X-2.428 Y-4.365
X-2.42 Y-4.37
X-2.233 Y-4.469
X-2.033 Y-4.564
X-1.845 Y-4.642
X-1.651 Y-4.717
X-1.521 Y-4.758
X-1.457 Y-4.778
X-1.262 Y-4.835
X-1.068 Y-4.88
X-0.874 Y-4.919
X-0.664 Y-4.952
X-0.486 Y-4.972
X-0.291 Y-4.989
X-0.097 Y-4.994
X0.097 Y-4.997
X0.291 Y-4.987
X0.486 Y-4.973
X0.68 Y-4.949
X0.874 Y-4.919
X1.068 Y-4.881
X1.262 Y-4.833
X1.457 Y-4.78
X1.525 Y-4.758
X1.651 Y-4.714
X1.845 Y-4.644
X2.039 Y-4.56
X2.233 Y-4.468
X2.428 Y-4.368
X2.622 Y-4.252
X2.747 Y-4.175
X2.816 Y-4.127
X3.021 Y-3.981
X3.204 Y-3.832
X3.259 Y-3.787
X3.399 Y-3.661
X3.47 Y-3.593
X3.593 Y-3.473
X3.722 Y-3.332
X3.787 Y-3.261
X3.834 Y-3.204
X3.988 Y-3.01
X4.126 Y-2.816
X4.175 Y-2.743
X4.253 Y-2.622
X4.37 Y-2.423
X4.468 Y-2.233
X4.563 Y-2.039
X4.642 Y-1.845
X4.715 Y-1.651
X4.779 Y-1.457
X4.833 Y-1.262
X4.882 Y-1.068
X4.918 Y-0.874
X4.951 Y-0.68
X4.972 Y-0.486
X4.988 Y-0.291
X4.995 Y-0.097
Y0.097
X4.988 Y0.291
X4.972 Y0.486
X4.951 Y0.68
X4.918 Y0.874
X4.882 Y1.068
X4.833 Y1.262
X4.779 Y1.457
X4.715 Y1.651
X4.642 Y1.845
X4.582 Y1.992
X4.435 Y2.3
X4.268 Y2.597 Z-4.001
X4.08 Y2.882 Z-4.003
X3.874 Y3.154 Z-4.005
X3.65 Y3.411 Z-4.007
X3.408 Y3.652 Z-4.01
X3.151 Y3.876 Z-4.014
X2.879 Y4.082 Z-4.018
X2.594 Y4.269 Z-4.022
X2.448 Y4.357 Z-4.025
X2.297 Y4.436 Z-4.027
X2.145 Y4.514 Z-4.03
X1.989 Y4.582 Z-4.033
X1.832 Y4.65 Z-4.036
X1.671 Y4.707 Z-4.039
X1.51 Y4.763 Z-4.042
X1.346 Y4.81 Z-4.045
X1.182 Y4.855 Z-4.048
X1.015 Y4.891 Z-4.052
X0.847 Y4.924 Z-4.055
X0.679 Y4.949 Z-4.059
X0.509 Y4.97 Z-4.063
X0.339 Y4.984 Z-4.067
X0.169 Y4.993 Z-4.071
X-0.002 Y4.996 Z-4.075
X-0.172 Y4.993 Z-4.079
X-0.342 Y4.984 Z-4.083
X-0.512 Y4.969 Z-4.087
X-0.682 Y4.949 Z-4.092
X-0.85 Y4.922 Z-4.096
X-1.018 Y4.892 Z-4.101
X-1.184 Y4.853 Z-4.106
X-1.35 Y4.811 Z-4.111
X-1.513 Y4.761 Z-4.115
X-1.675 Y4.708 Z-4.12
X-1.754 Y4.677 Z-4.123
X-1.834 Y4.646 Z-4.126
X-1.913 Y4.615 Z-4.128
X-1.992 Y4.583 Z-4.131
X-2.07 Y4.547 Z-4.133
X-2.147 Y4.51 Z-4.136
X-2.224 Y4.474 Z-4.139
X-2.301 Y4.437 Z-4.141
X-2.375 Y4.395 Z-4.144
X-2.449 Y4.353 Z-4.147
X-2.524 Y4.311 Z-4.149
X-2.598 Y4.27 Z-4.152
X-2.67 Y4.223 Z-4.155
X-2.741 Y4.176 Z-4.157
X-2.812 Y4.129 Z-4.16
X-2.883 Y4.082 Z-4.163
X-2.952 Y4.031 Z-4.166
X-3.019 Y3.979 Z-4.169
X-3.087 Y3.927 Z-4.172
X-3.155 Y3.875 Z-4.174
X-3.22 Y3.82 Z-4.177
X-3.284 Y3.764 Z-4.18
X-3.348 Y3.707 Z-4.183
X-3.412 Y3.651 Z-4.186
X-3.473 Y3.592 Z-4.189
X-3.533 Y3.531 Z-4.192
X-3.593 Y3.47 Z-4.195
X-3.653 Y3.409 Z-4.198
X-3.711 Y3.347 Z-4.201
X-3.766 Y3.282 Z-4.204
X-3.877 Y3.152 Z-4.21
X-3.931 Y3.086 Z-4.213
X-4.032 Y2.948 Z-4.219
X-4.083 Y2.88 Z-4.222
X-4.132 Y2.811 Z-4.225
X-4.224 Y2.666 Z-4.231
X-4.269 Y2.594 Z-4.234
X-4.315 Y2.522 Z-4.237
X-4.396 Y2.372 Z-4.243
X-4.436 Y2.297 Z-4.246
X-4.477 Y2.222 Z-4.249
X-4.512 Y2.144 Z-4.252
X-4.618 Y1.911 Z-4.261
X-4.649 Y1.831 Z-4.264
X-4.737 Y1.591 Z-4.272
X-4.763 Y1.51 Z-4.275
X-4.834 Y1.264 Z-4.284
X-4.855 Y1.181 Z-4.287
X-4.909 Y0.931 Z-4.296
X-4.925 Y0.848 Z-4.299
X-4.961 Y0.594 Z-4.308
X-4.971 Y0.51 Z-4.311
X-4.99 Y0.254 Z-4.32
X-4.995 Y0.169 Z-4.323
Y-0.172 Z-4.335
X-4.989 Y-0.257 Z-4.338
X-4.983 Y-0.342 Z-4.341
X-4.971 Y-0.513 Z-4.347
X-4.96 Y-0.597 Z-4.35
X-4.936 Y-0.766 Z-4.356
X-4.924 Y-0.851 Z-4.359
X-4.908 Y-0.934 Z-4.362
X-4.872 Y-1.101 Z-4.368
X-4.854 Y-1.185 Z-4.371
X-4.833 Y-1.267 Z-4.374
X-4.786 Y-1.431 Z-4.38
X-4.762 Y-1.513 Z-4.383
X-4.736 Y-1.594 Z-4.386
X-4.677 Y-1.754 Z-4.392
X-4.647 Y-1.834 Z-4.395
X-4.616 Y-1.914 Z-4.398
X-4.511 Y-2.147 Z-4.406
X-4.475 Y-2.225 Z-4.409
X-4.354 Y-2.45 Z-4.418
X-4.313 Y-2.525 Z-4.421
X-4.131 Y-2.813 Z-4.433
X-4.081 Y-2.882 Z-4.436
X-3.929 Y-3.088 Z-4.445
X-3.875 Y-3.154 Z-4.448
X-3.709 Y-3.349 Z-4.457
X-3.651 Y-3.412 Z-4.46
X-3.471 Y-3.594 Z-4.469
X-3.41 Y-3.653 Z-4.472
X-3.218 Y-3.822 Z-4.481
X-3.152 Y-3.877 Z-4.484
X-2.949 Y-4.033 Z-4.493
X-2.881 Y-4.084 Z-4.496
X-2.667 Y-4.225 Z-4.505
X-2.595 Y-4.271 Z-4.508
X-2.298 Y-4.438 Z-4.52
X-2.221 Y-4.475 Z-4.523
X-1.99 Y-4.584 Z-4.532
X-1.91 Y-4.617 Z-4.535
X-1.672 Y-4.709 Z-4.544
X-1.591 Y-4.736 Z-4.547
X-1.347 Y-4.812 Z-4.555
X-1.264 Y-4.834 Z-4.558
X-1.015 Y-4.892 Z-4.567
X-0.931 Y-4.909 Z-4.57
X-0.679 Y-4.95 Z-4.579
X-0.594 Y-4.962 Z-4.582
X-0.339 Y-4.985 Z-4.591
X-0.254 Y-4.991 Z-4.594
X0.087 Y-4.997 Z-4.606
X0.172 Y-4.993 Z-4.609
X0.428 Y-4.979 Z-4.618
X0.512 Y-4.97 Z-4.621
X0.766 Y-4.938 Z-4.63
X0.851 Y-4.923 Z-4.633
X1.102 Y-4.874 Z-4.642
X1.185 Y-4.854 Z-4.645
X1.432 Y-4.787 Z-4.654
X1.513 Y-4.762 Z-4.657
X1.755 Y-4.678 Z-4.666
X1.835 Y-4.648 Z-4.669
X2.07 Y-4.547 Z-4.678
X2.148 Y-4.513 Z-4.68
X2.375 Y-4.395 Z-4.689
X2.451 Y-4.356 Z-4.692
X2.67 Y-4.223 Z-4.701
X2.742 Y-4.178 Z-4.704
X2.812 Y-4.129 Z-4.707
X2.882 Y-4.08 Z-4.71
X3.021 Y-3.981 Z-4.716
X3.088 Y-3.928 Z-4.719
X3.154 Y-3.874 Z-4.722
X3.285 Y-3.765 Z-4.728
X3.349 Y-3.708 Z-4.731
X3.411 Y-3.65 Z-4.734
X3.534 Y-3.532 Z-4.74
X3.594 Y-3.471 Z-4.743
X3.652 Y-3.408 Z-4.746
X3.767 Y-3.283 Z-4.752
X3.823 Y-3.218 Z-4.755
X3.876 Y-3.151 Z-4.758
X3.982 Y-3.018 Z-4.764
X4.034 Y-2.95 Z-4.767
X4.082 Y-2.88 Z-4.77
X4.178 Y-2.739 Z-4.776
X4.226 Y-2.668 Z-4.779
X4.269 Y-2.594 Z-4.782
X4.355 Y-2.447 Z-4.788
X4.398 Y-2.373 Z-4.791
X4.437 Y-2.297 Z-4.794
X4.512 Y-2.144 Z-4.8
X4.55 Y-2.068 Z-4.803
X4.583 Y-1.989 Z-4.806
X4.615 Y-1.91 Z-4.809
X4.648 Y-1.831 Z-4.811
X4.68 Y-1.752 Z-4.814
X4.708 Y-1.672 Z-4.817
X4.735 Y-1.591 Z-4.82
X4.762 Y-1.51 Z-4.823
X4.788 Y-1.429 Z-4.826
X4.812 Y-1.347 Z-4.829
X4.833 Y-1.264 Z-4.832
X4.854 Y-1.181 Z-4.835
X4.874 Y-1.098 Z-4.837
X4.893 Y-1.015 Z-4.84
X4.908 Y-0.931 Z-4.843
X4.923 Y-0.847 Z-4.846
X4.938 Y-0.763 Z-4.849
X4.951 Y-0.679 Z-4.851
X4.96 Y-0.594 Z-4.854
X4.969 Y-0.509 Z-4.857
X4.978 Y-0.424 Z-4.859
X4.986 Y-0.34 Z-4.862
X4.989 Y-0.254 Z-4.865
X4.992 Y-0.169 Z-4.867
X4.995 Y-0.084 Z-4.87
X4.998 Y0.002 Z-4.872
X4.995 Y0.087 Z-4.875
X4.992 Y0.172 Z-4.878
X4.989 Y0.257 Z-4.88
X4.986 Y0.343 Z-4.883
X4.969 Y0.512 Z-4.887
X4.951 Y0.682 Z-4.892
X4.922 Y0.85 Z-4.897
X4.892 Y1.018 Z-4.902
X4.853 Y1.184 Z-4.906
X4.811 Y1.35 Z-4.911
X4.761 Y1.513 Z-4.915
X4.707 Y1.675 Z-4.919
X4.647 Y1.834 Z-4.924
X4.582 Y1.992 Z-4.928
X4.511 Y2.147 Z-4.932
X4.435 Y2.3 Z-4.936
X4.354 Y2.45 Z-4.939
X4.268 Y2.597 Z-4.943
X4.177 Y2.741 Z-4.947
X4.08 Y2.882 Z-4.95
X3.98 Y3.02 Z-4.954
X3.874 Y3.154 Z-4.957
X3.765 Y3.285 Z-4.96
X3.65 Y3.411 Z-4.963
X3.532 Y3.534 Z-4.966
X3.408 Y3.652 Z-4.969
X3.283 Y3.767 Z-4.972
X3.151 Y3.876 Z-4.974
X2.879 Y4.082 Z-4.979
X2.594 Y4.269 Z-4.984
X2.297 Y4.436 Z-4.988
X1.989 Y4.582 Z-4.991
X1.671 Y4.707 Z-4.994
X1.346 Y4.81 Z-4.996
X1.015 Y4.891 Z-4.998
X0.679 Y4.949 Z-4.999
X0.339 Y4.984 Z-5
X0.102 Y4.997
X0.097
X-0.097 Y4.994
X-0.291 Y4.989
X-0.486 Y4.972
X-0.664 Y4.952
X-0.874 Y4.919
X-1.068 Y4.88
X-1.262 Y4.835
X-1.457 Y4.778
X-1.521 Y4.758
X-1.651 Y4.717
X-1.845 Y4.642
X-2.033 Y4.564
X-2.233 Y4.469
X-2.42 Y4.37
X-2.428 Y4.365
X-2.622 Y4.254
X-2.816 Y4.126
X-3.01 Y3.986
X-3.017 Y3.981
X-3.204 Y3.834
X-3.399 Y3.663
X-3.473 Y3.593
X-3.663 Y3.399
X-3.787 Y3.257
X-3.832 Y3.204
X-3.981 Y3.017
X-3.986 Y3.01
X-4.129 Y2.816
X-4.252 Y2.622
X-4.366 Y2.428
X-4.471 Y2.233
X-4.56 Y2.039
X-4.564 Y2.03
X-4.644 Y1.845
X-4.715 Y1.651
X-4.758 Y1.527
X-4.835 Y1.262
X-4.88 Y1.068
X-4.921 Y0.874
X-4.952 Y0.654
X-4.973 Y0.486
X-4.987 Y0.291
X-4.995 Y0.097
Y-0.097
X-4.987 Y-0.291
X-4.973 Y-0.486
X-4.952 Y-0.654
X-4.921 Y-0.874
X-4.88 Y-1.068
X-4.835 Y-1.262
X-4.758 Y-1.527
X-4.715 Y-1.651
X-4.644 Y-1.845
X-4.564 Y-2.03
X-4.56 Y-2.039
X-4.471 Y-2.233
X-4.366 Y-2.428
X-4.252 Y-2.622
X-4.129 Y-2.816
X-3.986 Y-3.01
X-3.981 Y-3.017
X-3.832 Y-3.204
X-3.787 Y-3.257
X-3.663 Y-3.399
X-3.473 Y-3.593
X-3.399 Y-3.663
X-3.204 Y-3.834
X-3.017 Y-3.981
X-3.01 Y-3.986
X-2.816 Y-4.126
X-2.622 Y-4.254
X-2.428 Y-4.365
X-2.42 Y-4.37
X-2.233 Y-4.469
X-2.033 Y-4.564
X-1.845 Y-4.642
X-1.651 Y-4.717
X-1.521 Y-4.758
X-1.457 Y-4.778
X-1.262 Y-4.835
X-1.068 Y-4.88
X-0.874 Y-4.919
X-0.664 Y-4.952
X-0.486 Y-4.972
X-0.291 Y-4.989
X-0.097 Y-4.994
X0.097 Y-4.997
X0.291 Y-4.987
X0.486 Y-4.973
X0.68 Y-4.949
X0.874 Y-4.919
X1.068 Y-4.881
X1.262 Y-4.833
X1.457 Y-4.78
X1.525 Y-4.758
X1.651 Y-4.714
X1.845 Y-4.644
X2.039 Y-4.56
X2.233 Y-4.468
X2.428 Y-4.368
X2.622 Y-4.252
X2.747 Y-4.175
X2.816 Y-4.127
X3.021 Y-3.981
X3.204 Y-3.832
X3.259 Y-3.787
X3.399 Y-3.661
X3.47 Y-3.593
X3.593 Y-3.473
X3.787 Y-3.261
X3.834 Y-3.204
X3.988 Y-3.01
X4.126 Y-2.816
X4.175 Y-2.743
X4.253 Y-2.622
X4.37 Y-2.423
X4.468 Y-2.233
X4.563 Y-2.039
X4.642 Y-1.845
X4.715 Y-1.651
X4.779 Y-1.457
X4.833 Y-1.262
X4.882 Y-1.068
X4.918 Y-0.874
X4.951 Y-0.68
X4.972 Y-0.486
X4.988 Y-0.291
X4.995 Y-0.097
Y0.097
X4.988 Y0.291
X4.972 Y0.486
X4.951 Y0.68
X4.918 Y0.874
X4.882 Y1.068
X4.833 Y1.262
X4.779 Y1.457
X4.715 Y1.651
X4.642 Y1.845
X4.582 Y1.992
X4.563 Y2.039
X4.468 Y2.233
X4.37 Y2.423
X4.253 Y2.622
X4.175 Y2.743
X4.126 Y2.816
X3.988 Y3.01
X3.834 Y3.204
X3.787 Y3.261
X3.593 Y3.473
X3.47 Y3.593
X3.399 Y3.661
X3.259 Y3.787
X3.204 Y3.832
X3.021 Y3.981
X2.816 Y4.127
X2.747 Y4.175
X2.622 Y4.252
X2.428 Y4.368
X2.233 Y4.468
X2.039 Y4.56
X1.845 Y4.644
X1.651 Y4.714
X1.525 Y4.758
X1.457 Y4.78
X1.262 Y4.833
X1.068 Y4.881
X0.874 Y4.919
X0.68 Y4.949
X0.486 Y4.973
X0.291 Y4.987
X0.102 Y4.997
X-0.239 Y4.992
X-0.579 Y4.963 Z-5.001
X-0.917 Y4.912 Z-5.003
X-1.25 Y4.838 Z-5.005
X-1.577 Y4.741 Z-5.007
X-1.896 Y4.622 Z-5.01
X-2.207 Y4.482 Z-5.014
X-2.508 Y4.32 Z-5.018
X-2.797 Y4.139 Z-5.022
X-2.937 Y4.042 Z-5.025
X-3.073 Y3.938 Z-5.027
X-3.206 Y3.832 Z-5.03
X-3.334 Y3.719 Z-5.033
X-3.461 Y3.605 Z-5.036
X-3.58 Y3.483 Z-5.039
X-3.699 Y3.361 Z-5.042
X-3.81 Y3.231 Z-5.045
X-3.92 Y3.101 Z-5.048
X-4.021 Y2.963 Z-5.052
X-4.122 Y2.826 Z-5.055
X-4.214 Y2.682 Z-5.059
X-4.305 Y2.538 Z-5.063
X-4.387 Y2.388 Z-5.067
X-4.468 Y2.238 Z-5.071
X-4.54 Y2.083 Z-5.075
X-4.61 Y1.928 Z-5.079
X-4.672 Y1.768 Z-5.083
X-4.731 Y1.608 Z-5.087
X-4.782 Y1.446 Z-5.092
X-4.829 Y1.282 Z-5.096
X-4.869 Y1.116 Z-5.101
X-4.905 Y0.949 Z-5.106
X-4.934 Y0.781 Z-5.111
X-4.958 Y0.612 Z-5.115
X-4.976 Y0.443 Z-5.12
X-4.982 Y0.358 Z-5.123
X-4.988 Y0.272 Z-5.126
X-4.994 Y0.187 Z-5.128
X-4.995 Y0.102 Z-5.131
Y0.017 Z-5.133
Y-0.069 Z-5.136
Y-0.154 Z-5.139
X-4.991 Y-0.239 Z-5.141
X-4.985 Y-0.324 Z-5.144
X-4.979 Y-0.409 Z-5.147
X-4.973 Y-0.494 Z-5.149
X-4.963 Y-0.579 Z-5.152
X-4.951 Y-0.664 Z-5.155
X-4.939 Y-0.748 Z-5.157
X-4.927 Y-0.833 Z-5.16
X-4.912 Y-0.917 Z-5.163
X-4.894 Y-1 Z-5.166
X-4.876 Y-1.083 Z-5.169
X-4.858 Y-1.167 Z-5.172
X-4.838 Y-1.25 Z-5.174
X-4.815 Y-1.332 Z-5.177
X-4.791 Y-1.414 Z-5.18
X-4.767 Y-1.496 Z-5.183
X-4.742 Y-1.577 Z-5.186
X-4.713 Y-1.657 Z-5.189
X-4.683 Y-1.737 Z-5.192
X-4.654 Y-1.817 Z-5.195
X-4.624 Y-1.897 Z-5.198
X-4.554 Y-2.053 Z-5.204
X-4.484 Y-2.208 Z-5.21
X-4.444 Y-2.284 Z-5.213
X-4.363 Y-2.434 Z-5.219
X-4.322 Y-2.509 Z-5.222
X-4.278 Y-2.582 Z-5.225
X-4.186 Y-2.726 Z-5.231
X-4.141 Y-2.798 Z-5.234
X-4.092 Y-2.868 Z-5.237
X-3.99 Y-3.005 Z-5.243
X-3.94 Y-3.074 Z-5.246
X-3.887 Y-3.14 Z-5.249
X-3.776 Y-3.27 Z-5.255
X-3.721 Y-3.335 Z-5.258
X-3.663 Y-3.399 Z-5.261
X-3.544 Y-3.52 Z-5.267
X-3.484 Y-3.581 Z-5.27
X-3.423 Y-3.641 Z-5.273
X-3.295 Y-3.754 Z-5.278
X-3.231 Y-3.81 Z-5.281
X-3.167 Y-3.866 Z-5.284
X-3.031 Y-3.97 Z-5.29
X-2.964 Y-4.022 Z-5.293
X-2.896 Y-4.074 Z-5.296
X-2.825 Y-4.121 Z-5.299
X-2.611 Y-4.261 Z-5.308
X-2.537 Y-4.304 Z-5.311
X-2.314 Y-4.429 Z-5.32
X-2.237 Y-4.467 Z-5.323
X-2.006 Y-4.577 Z-5.332
X-1.927 Y-4.61 Z-5.335
X-1.689 Y-4.703 Z-5.344
X-1.608 Y-4.731 Z-5.347
X-1.364 Y-4.807 Z-5.356
X-1.282 Y-4.83 Z-5.359
X-1.033 Y-4.888 Z-5.368
X-0.949 Y-4.907 Z-5.371
X-0.697 Y-4.947 Z-5.38
X-0.612 Y-4.96 Z-5.383
X-0.272 Y-4.99 Z-5.395
X-0.187 Y-4.992 Z-5.398
X-0.017 Y-4.996 Z-5.404
X0.069 Y-4.997 Z-5.407
X0.154 Y-4.994 Z-5.41
X0.409 Y-4.98 Z-5.418
X0.494 Y-4.972 Z-5.421
X0.748 Y-4.94 Z-5.43
X0.833 Y-4.927 Z-5.433
X1.084 Y-4.878 Z-5.442
X1.167 Y-4.859 Z-5.445
X1.414 Y-4.792 Z-5.454
X1.496 Y-4.768 Z-5.457
X1.738 Y-4.684 Z-5.466
X1.818 Y-4.655 Z-5.469
X2.132 Y-4.521 Z-5.481
X2.207 Y-4.482 Z-5.484
X2.435 Y-4.364 Z-5.493
X2.508 Y-4.321 Z-5.496
X2.727 Y-4.188 Z-5.505
X2.797 Y-4.14 Z-5.508
X3.006 Y-3.992 Z-5.517
X3.074 Y-3.94 Z-5.52
X3.271 Y-3.777 Z-5.529
X3.335 Y-3.721 Z-5.532
X3.521 Y-3.545 Z-5.541
X3.582 Y-3.485 Z-5.544
X3.755 Y-3.296 Z-5.552
X3.812 Y-3.232 Z-5.555
X3.971 Y-3.032 Z-5.564
X4.024 Y-2.965 Z-5.567
X4.216 Y-2.683 Z-5.579
X4.26 Y-2.61 Z-5.582
X4.389 Y-2.389 Z-5.591
X4.428 Y-2.313 Z-5.594
X4.542 Y-2.084 Z-5.603
X4.576 Y-2.006 Z-5.606
X4.673 Y-1.769 Z-5.615
X4.703 Y-1.689 Z-5.618
X4.783 Y-1.446 Z-5.627
X4.807 Y-1.364 Z-5.63
X4.87 Y-1.116 Z-5.639
X4.89 Y-1.033 Z-5.642
X4.935 Y-0.781 Z-5.651
X4.949 Y-0.697 Z-5.654
X4.985 Y-0.358 Z-5.666
X4.989 Y-0.272 Z-5.669
X4.998 Y-0.017 Z-5.678
X4.996 Y0.069 Z-5.681
X4.987 Y0.324 Z-5.689
X4.98 Y0.409 Z-5.692
X4.953 Y0.664 Z-5.701
X4.94 Y0.748 Z-5.704
X4.895 Y1 Z-5.713
X4.878 Y1.084 Z-5.716
X4.816 Y1.332 Z-5.725
X4.793 Y1.414 Z-5.728
X4.713 Y1.657 Z-5.737
X4.686 Y1.738 Z-5.74
X4.589 Y1.975 Z-5.749
X4.557 Y2.054 Z-5.752
X4.519 Y2.131 Z-5.755
X4.481 Y2.207 Z-5.758
X4.405 Y2.36 Z-5.764
X4.363 Y2.434 Z-5.767
X4.32 Y2.508 Z-5.77
X4.234 Y2.655 Z-5.776
X4.187 Y2.726 Z-5.779
X4.139 Y2.797 Z-5.782
X4.042 Y2.938 Z-5.788
X3.991 Y3.006 Z-5.791
X3.938 Y3.073 Z-5.794
X3.832 Y3.206 Z-5.8
X3.777 Y3.271 Z-5.803
X3.72 Y3.334 Z-5.806
X3.662 Y3.397 Z-5.809
X3.604 Y3.46 Z-5.812
X3.545 Y3.522 Z-5.814
X3.483 Y3.581 Z-5.817
X3.422 Y3.639 Z-5.82
X3.36 Y3.698 Z-5.823
X3.297 Y3.756 Z-5.826
X3.231 Y3.81 Z-5.829
X3.165 Y3.864 Z-5.832
X3.099 Y3.918 Z-5.835
X3.033 Y3.972 Z-5.838
X2.964 Y4.022 Z-5.84
X2.894 Y4.071 Z-5.843
X2.825 Y4.121 Z-5.846
X2.755 Y4.17 Z-5.849
X2.682 Y4.215 Z-5.851
X2.61 Y4.259 Z-5.854
X2.537 Y4.304 Z-5.857
X2.464 Y4.348 Z-5.859
X2.389 Y4.388 Z-5.862
X2.313 Y4.427 Z-5.865
X2.237 Y4.466 Z-5.867
X2.161 Y4.506 Z-5.87
X2.084 Y4.541 Z-5.872
X2.005 Y4.575 Z-5.875
X1.927 Y4.609 Z-5.878
X1.849 Y4.642 Z-5.88
X1.769 Y4.673 Z-5.883
X1.608 Y4.729 Z-5.887
X1.446 Y4.783 Z-5.892
X1.282 Y4.828 Z-5.897
X1.116 Y4.871 Z-5.902
X0.949 Y4.904 Z-5.906
X0.781 Y4.936 Z-5.911
X0.612 Y4.957 Z-5.915
X0.443 Y4.978 Z-5.919
X0.272 Y4.988 Z-5.924
X0.102 Y4.997 Z-5.928
X-0.069 Y4.995 Z-5.932
X-0.239 Y4.992 Z-5.936
X-0.409 Y4.978 Z-5.94
X-0.579 Y4.963 Z-5.943
X-0.748 Y4.939 Z-5.947
X-0.917 Y4.912 Z-5.95
X-1.083 Y4.876 Z-5.954
X-1.25 Y4.838 Z-5.957
X-1.414 Y4.791 Z-5.96
X-1.577 Y4.741 Z-5.963
X-1.737 Y4.684 Z-5.966
X-1.896 Y4.622 Z-5.969
X-2.053 Y4.554 Z-5.972
X-2.207 Y4.482 Z-5.974
X-2.508 Y4.32 Z-5.979
X-2.797 Y4.139 Z-5.984
X-3.073 Y3.938 Z-5.988
X-3.334 Y3.719 Z-5.991
X-3.58 Y3.483 Z-5.994
X-3.81 Y3.231 Z-5.996
X-4.021 Y2.963 Z-5.998
X-4.214 Y2.682 Z-5.999
X-4.387 Y2.388 Z-6
X-4.496 Y2.178
X-4.56 Y2.039
X-4.564 Y2.03
X-4.644 Y1.845
X-4.715 Y1.651
X-4.758 Y1.527
X-4.835 Y1.262
X-4.88 Y1.068
X-4.921 Y0.874
X-4.952 Y0.654
X-4.973 Y0.486
X-4.987 Y0.291
X-4.995 Y0.097
Y-0.097
X-4.987 Y-0.291
X-4.973 Y-0.486
X-4.952 Y-0.654
X-4.921 Y-0.874
X-4.88 Y-1.068
X-4.835 Y-1.262
X-4.758 Y-1.527
X-4.715 Y-1.651
X-4.644 Y-1.845
X-4.564 Y-2.03
X-4.56 Y-2.039
X-4.471 Y-2.233
X-4.366 Y-2.428
X-4.252 Y-2.622
X-4.129 Y-2.816
X-3.986 Y-3.01
X-3.981 Y-3.017
X-3.832 Y-3.204
X-3.787 Y-3.257
X-3.663 Y-3.399
X-3.473 Y-3.593
X-3.399 Y-3.663
X-3.204 Y-3.834
X-3.017 Y-3.981
X-3.01 Y-3.986
X-2.816 Y-4.126
X-2.622 Y-4.254
X-2.428 Y-4.365
X-2.42 Y-4.37
X-2.233 Y-4.469
X-2.033 Y-4.564
X-1.845 Y-4.642
X-1.651 Y-4.717
X-1.521 Y-4.758
X-1.457 Y-4.778
X-1.262 Y-4.835
X-1.068 Y-4.88
X-0.874 Y-4.919
X-0.664 Y-4.952
X-0.486 Y-4.972
X-0.291 Y-4.989
X-0.097 Y-4.994
X0.097 Y-4.997
X0.291 Y-4.987
X0.486 Y-4.973
X0.68 Y-4.949
X0.874 Y-4.919
X1.068 Y-4.881
X1.262 Y-4.833
X1.457 Y-4.78
X1.525 Y-4.758
X1.651 Y-4.714
X1.845 Y-4.644
X2.039 Y-4.56
X2.233 Y-4.468
X2.428 Y-4.368
X2.622 Y-4.252
X2.747 Y-4.175
X2.816 Y-4.127
X3.021 Y-3.981
X3.204 Y-3.832
X3.259 Y-3.787
X3.399 Y-3.661
X3.47 Y-3.593
X3.593 Y-3.473
X3.787 Y-3.261
X3.834 Y-3.204
X3.988 Y-3.01
X4.126 Y-2.816
X4.175 Y-2.743
X4.253 Y-2.622
X4.37 Y-2.423
X4.468 Y-2.233
X4.563 Y-2.039
X4.642 Y-1.845
X4.715 Y-1.651
X4.779 Y-1.457
X4.833 Y-1.262
X4.882 Y-1.068
X4.918 Y-0.874
X4.951 Y-0.68
X4.972 Y-0.486
X4.988 Y-0.291
X4.995 Y-0.097
Y0.097
X4.988 Y0.291
X4.972 Y0.486
X4.951 Y0.68
X4.918 Y0.874
X4.882 Y1.068
X4.833 Y1.262
X4.779 Y1.457
X4.715 Y1.651
X4.642 Y1.845
X4.563 Y2.039
X4.468 Y2.233
X4.37 Y2.423
X4.253 Y2.622
X4.175 Y2.743
X4.126 Y2.816
X3.988 Y3.01
X3.834 Y3.204
X3.787 Y3.261
X3.593 Y3.473
X3.47 Y3.593
X3.399 Y3.661
X3.259 Y3.787
X3.204 Y3.832
X3.021 Y3.981
X2.816 Y4.127
X2.747 Y4.175
X2.622 Y4.252
X2.428 Y4.368
X2.233 Y4.468
X2.039 Y4.56
X1.845 Y4.644
X1.651 Y4.714
X1.525 Y4.758
X1.457 Y4.78
X1.262 Y4.833
X1.068 Y4.881
X0.874 Y4.919
X0.68 Y4.949
X0.486 Y4.973
X0.291 Y4.987
X0.102 Y4.997
X0.097
X-0.097 Y4.994
X-0.291 Y4.989
X-0.486 Y4.972
X-0.664 Y4.952
X-0.874 Y4.919
X-1.068 Y4.88
X-1.262 Y4.835
X-1.457 Y4.778
X-1.521 Y4.758
X-1.651 Y4.717
X-1.845 Y4.642
X-2.033 Y4.564
X-2.233 Y4.469
X-2.42 Y4.37
X-2.428 Y4.365
X-2.622 Y4.254
X-2.816 Y4.126
X-3.01 Y3.986
X-3.017 Y3.981
X-3.204 Y3.834
X-3.399 Y3.663
X-3.473 Y3.593
X-3.663 Y3.399
X-3.787 Y3.257
X-3.832 Y3.204
X-3.981 Y3.017
X-3.986 Y3.01
X-4.129 Y2.816
X-4.252 Y2.622
X-4.366 Y2.428
X-4.471 Y2.233
X-4.496 Y2.178
G3 X-3.944 Y1.327 I0.545 J-0.251 F800
G1 X-3.276 Y1.335
X-3.182 Y1.336 Z-5.993
X-3.091 Y1.337 Z-5.971
X-3.004 Y1.338 Z-5.935
X-2.923 Y1.339 Z-5.885
X-2.852 Y1.34 Z-5.824
X-2.791 Y1.341 Z-5.753
X-2.741 Z-5.672
X-2.705 Y1.342 Z-5.585
X-2.683 Z-5.494
X-2.676 Z-5.4
G0 Z15
G28 G91 Z0
G90
G28 G91 X0 Y0
G90
M5
M30
