(afr2_finishing)
(T3  D=2 CR=1 - ZMIN=2.844 - ball end mill)
G90 G94
G17
G21
G28 G91 Z0
G90

(Parallel1)
T3
S5000 M3
G54
G0 X5.047 Y-69.53
Z36
Z9.851
G1 Z7.758 F2000
G18 G3 X4.857 Z7.558 I-0.2 K0
G1 X4.567 Z7.545
X3.938 Z7.476
X3.535 Z7.401
X3.218 Z7.323
G3 X2.97 Z7.517 I-0.048 K0.194
G0 Z26
X-1.104 Y-69.23
Z9.663
G1 Z7.563 F2000
G2 X-0.887 Z7.364 I0.2 K0
G1 X-0.512 Z7.397
X-0.014 Z7.407
X0.212 Z7.422
X0.754 Z7.406
X1.083 Z7.411
X1.573 Z7.367
X1.829 Z7.364
X2.191 Z7.385
X2.309 Z7.402
X2.529 Z7.414
X3.114 Z7.519
X3.319 Z7.572
X3.689 Z7.648
X4.504 Z7.774
X5.03 Z7.81
X5.359 Z7.813
X5.612 Z7.789
X5.825 Z7.773
X6.329 Z7.757
X6.549 Z7.727
X6.781 Z7.682
X7.102 Z7.653
X7.428 Z7.579
X7.869 Z7.495
X7.904
X7.937 Z7.506
X7.964 Z7.528
X7.981 Z7.559
X7.987 Z7.593
X7.995 Y-69.228 Z7.631
X8.016 Y-69.223 Z7.664
X8.047 Y-69.215 Z7.686
X8.085 Y-69.207 Z7.693
X9.136 Y-68.953
X9.173 Y-68.944 Z7.686
X9.205 Y-68.937 Z7.664
X9.226 Y-68.932 Z7.631
X9.233 Y-68.93 Z7.593
Z7.561
X9.226 Z7.524
X9.205 Z7.492
X9.174 Z7.47
X9.137 Z7.461
X9.1 Z7.467
X8.888 Z7.542
X8.668 Z7.598
X8.245 Z7.707
X8.04 Z7.731
X7.868 Z7.744
X7.388 Z7.815
X7.064 Z7.867
X6.78 Z7.879
X6.465 Z7.929
X6.209 Z7.938
X6.128 Z7.933
X5.681 Z7.934
X5.318 Z7.949
X5.008 Z7.938
X4.532 Z7.899
X4.24 Z7.846
X3.79 Z7.778
X3.208 Z7.658
X2.663 Z7.541
X2.311 Z7.506
X2.109 Z7.489
X1.692 Z7.494
X1.401 Z7.515
X1.19 Z7.546
X0.224 Z7.596
X-0.163 Z7.599
X-0.528 Z7.619
X-0.973 Z7.613
X-1.651 Z7.616
X-2.006 Z7.624
X-2.5 Z7.6
X-2.568 Z7.598
X-2.742 Z7.582
X-2.815 Z7.57
X-2.849
X-2.882 Z7.582
X-2.908 Z7.605
X-2.925 Z7.634
X-2.931 Z7.669
Z7.854
X-2.939 Y-68.928 Z7.892
X-2.96 Y-68.922 Z7.925
X-2.991 Y-68.914 Z7.947
X-3.028 Y-68.904 Z7.954
X-3.97 Y-68.656
X-4.007 Y-68.646 Z7.947
X-4.038 Y-68.637 Z7.925
X-4.059 Y-68.632 Z7.892
X-4.066 Y-68.63 Z7.854
X-4.059 Z7.817
X-4.038 Z7.785
X-4.007 Z7.763
X-3.97 Z7.754
X-3.933 Z7.76
X-3.871 Z7.782
X-3.655 Z7.838
X-3.5 Z7.856
X-3.268 Z7.854
X-2.833 Z7.846
X-2.401 Z7.823
X-1.99 Z7.812
X-1.772 Z7.791
X-1.004 Z7.746
X-0.424 Z7.726
X-0.212 Z7.708
X0.483 Z7.673
X0.979 Z7.615
X1.415 Z7.59
X1.846 Z7.557
X2.093 Z7.561
X2.295 Z7.582
X2.547 Z7.607
X2.685 Z7.638
X2.93 Z7.673
X3.357 Z7.779
X3.74 Z7.862
X4.259 Z7.945
X4.679 Z8.006
X5.038 Z8.035
X5.374 Z8.057
X5.697 Z8.056
X6.391 Z8.064
X6.717 Z8.014
X7.064 Z7.996
X7.769 Z7.895
X8.153 Z7.882
X8.586 Z7.804
X9.451 Z7.625
X9.66 Z7.555
X9.85 Z7.482
X10.071 Z7.396
X10.098 Z7.39
X10.125 Z7.391
X10.152 Z7.4
X10.173 Z7.407
X10.196 Z7.41
X11.031
X11.055 Y-68.628 Z7.409
X11.079 Y-68.623 Z7.408
X11.101 Y-68.614 Z7.405
X11.122 Y-68.601 Z7.402
X11.141 Y-68.586 Z7.398
X11.156 Y-68.568 Z7.393
X11.169 Y-68.548 Z7.388
X11.178 Y-68.526 Z7.382
X11.184 Y-68.503 Z7.376
X11.186 Y-68.48 Z7.37
X11.184 Y-68.456 Z7.364
X11.178 Y-68.434 Z7.358
X11.169 Y-68.412 Z7.352
X11.156 Y-68.392 Z7.347
X11.141 Y-68.374 Z7.342
X11.122 Y-68.359 Z7.338
X11.101 Y-68.346 Z7.335
X11.079 Y-68.337 Z7.332
X11.055 Y-68.332 Z7.331
X11.031 Y-68.33 Z7.33
X11.008 Z7.328
X10.987 Z7.32
X10.96 Z7.311
X10.932 Z7.31
X10.904 Z7.318
X10.436 Z7.514
X10.101 Z7.626
X9.425 Z7.783
X9.228 Z7.805
X8.795 Z7.883
X8.23 Z7.99
X7.77 Z8.022
X7.334 Z8.079
X7.108 Z8.106
X6.823 Z8.114
X6.474 Z8.157
X6.089 Z8.177
X5.426 Z8.165
X4.98 Z8.135
X4.086 Z8.013
X3.585 Z7.91
X3.059 Z7.779
X2.711 Z7.719
X2.628 Z7.698
X2.21 Z7.647
X2.075 Z7.63
X1.828 Z7.626
X1.255 Z7.65
X1.025 Z7.669
X0.827 Z7.69
X0.476 Z7.749
X0.022 Z7.762
X-0.265 Z7.795
X-0.85 Z7.82
X-1.356 Z7.849
X-1.71 Z7.889
X-2.133 Z7.904
X-2.758 Z7.98
X-3.475 Z8.061
X-3.735 Z8.055
X-3.938 Z8.026
X-4.136 Z7.966
X-4.279 Z7.897
X-4.386 Z7.821
X-4.414 Z7.808
X-4.444 Z7.803
X-4.745
X-4.77 Y-68.328 Z7.804
X-4.794 Y-68.323 Z7.806
X-4.817 Y-68.314 Z7.809
X-4.838 Y-68.301 Z7.813
X-4.857 Y-68.286 Z7.818
X-4.873 Y-68.268 Z7.824
X-4.886 Y-68.248 Z7.831
X-4.896 Y-68.226 Z7.839
X-4.902 Y-68.203 Z7.847
X-4.904 Y-68.18 Z7.855
X-4.902 Y-68.157 Z7.863
X-4.896 Y-68.134 Z7.871
X-4.886 Y-68.112 Z7.878
X-4.873 Y-68.092 Z7.885
X-4.857 Y-68.074 Z7.891
X-4.838 Y-68.059 Z7.897
X-4.817 Y-68.046 Z7.901
X-4.794 Y-68.037 Z7.904
X-4.77 Y-68.032 Z7.906
X-4.745 Y-68.03 Z7.907
X-4.715 Z7.911
X-4.687 Z7.925
X-4.621 Z7.972
X-4.477 Z8.048
X-4.172 Z8.151
X-3.969 Z8.187
X-3.746 Z8.196
X-3.407 Z8.161
X-2.877 Z8.067
X-2.572 Z8.041
X-2.138 Z7.97
X-1.865 Z7.954
X-1.612 Z7.964
X-1.462 Z7.953
X-1.164 Z7.897
X-0.9 Z7.898
X-0.68 Z7.877
X-0.323 Z7.864
X-0.246 Z7.869
X-0.07 Z7.877
X0.434 Z7.82
X0.715 Z7.761
X0.814 Z7.75
X1.221 Z7.741
X1.511 Z7.706
X1.657 Z7.708
X1.859 Z7.698
X2.311 Z7.723
X2.612 Z7.764
X2.809 Z7.811
X3.06 Z7.853
X3.734 Z8.011
X4.015 Z8.062
X4.163 Z8.105
X5.017 Z8.228
X5.268 Z8.262
X6.001 Z8.287
X6.379 Z8.25
X6.524 Z8.253
X6.886 Z8.218
X7.177 Z8.204
X7.327 Z8.192
X7.747 Z8.134
X8.277 Z8.093
X9.063 Z7.948
X9.361 Z7.88
X9.548 Z7.846
X9.959 Z7.774
X10.329 Z7.695
X10.531 Z7.635
X10.819 Z7.56
X11.102 Z7.482
X11.517 Z7.345
X11.656 Z7.287
X11.694 Z7.279
X11.733 Z7.286
X11.766 Z7.308
X11.787 Z7.34
X11.795 Z7.379
Z7.424
X11.802 Y-68.027 Z7.491
X11.823 Y-68.019 Z7.554
X11.856 Y-68.005 Z7.611
X11.9 Y-67.988 Z7.658
X11.952 Y-67.966 Z7.694
X12.011 Y-67.942 Z7.716
X12.073 Y-67.917 Z7.724
X12.258 Y-67.843
X12.32 Y-67.817 Z7.716
X12.379 Y-67.794 Z7.694
X12.431 Y-67.772 Z7.658
X12.475 Y-67.755 Z7.611
X12.509 Y-67.741 Z7.554
X12.529 Y-67.733 Z7.491
X12.536 Y-67.73 Z7.424
X12.529 Z7.387
X12.509 Z7.356
X12.479 Z7.334
X12.443 Z7.324
X12.406 Z7.328
X12.193 Z7.396
X12.055 Z7.429
X11.842 Z7.474
X11.601 Z7.534
X11.282 Z7.591
X11.094 Z7.618
X10.268 Z7.785
X9.477 Z7.927
X8.995 Z8.058
X8.549 Z8.144
X8.101 Z8.221
X7.796 Z8.244
X7.59 Z8.267
X7.356 Z8.297
X6.519 Z8.35
X6.132 Z8.351
X5.87 Z8.382
X5.641 Z8.379
X5.346 Z8.36
X5.068 Z8.316
X4.294 Z8.204
X4.03 Z8.138
X3.798 Z8.093
X3.599 Z8.051
X3.321 Z7.979
X2.957 Z7.913
X2.759 Z7.855
X2.308 Z7.792
X1.935 Z7.761
X1.629 Z7.767
X1.421 Z7.801
X1.191 Z7.805
X0.969
X0.64 Z7.854
X0.215 Z7.94
X0.016 Z7.955
X-0.431 Z7.931
X-0.893 Z7.969
X-1.01 Z7.977
X-1.388 Z8.033
X-1.575 Z8.031
X-1.862 Z8.013
X-2.135 Z8.045
X-2.418 Z8.093
X-2.801 Z8.111
X-3.149 Z8.165
X-3.58 Z8.248
X-3.909 Z8.286
X-4.2 Z8.293
X-4.412 Z8.271
X-4.677 Z8.204
X-4.855 Z8.125
X-4.988 Z8.034
X-5.021 Z8.02
X-5.057 Z8.018
X-5.091 Z8.028
X-5.119 Z8.051
X-5.138 Z8.081
X-5.144 Z8.117
Z8.131
X-5.149 Y-67.725 Z8.186
X-5.165 Y-67.71 Z8.238
X-5.189 Y-67.686 Z8.282
X-5.22 Y-67.655 Z8.316
X-5.257 Y-67.619 Z8.337
X-5.296 Y-67.58 Z8.344
X-5.335 Y-67.541 Z8.337
X-5.371 Y-67.505 Z8.316
X-5.403 Y-67.474 Z8.282
X-5.427 Y-67.45 Z8.238
X-5.442 Y-67.435 Z8.186
X-5.447 Y-67.43 Z8.131
X-5.44 Z8.093
X-5.418 Z8.061
X-5.386 Z8.039
X-5.348 Z8.031
X-5.31 Z8.038
X-5.278 Z8.059
X-5.19 Z8.143
X-5.047 Z8.248
X-4.856 Z8.34
X-4.69 Z8.386
X-4.476 Z8.405
X-4.246 Z8.398
X-4.021 Z8.373
X-3.155 Z8.209
X-2.984 Z8.205
X-2.643 Z8.155
X-2.477 Z8.151
X-2.272 Z8.152
X-2.065 Z8.113
X-1.759 Z8.078
X-1.37 Z8.087
X-1.126 Z8.084
X-0.823 Z8.041
X-0.51 Z8.028
X-0.224 Z8
X-0.087 Z8.001
X0.158 Z7.99
X0.458 Z7.957
X0.69 Z7.906
X1.065 Z7.87
X1.352 Z7.867
X1.574 Z7.838
X1.711 Z7.846
X1.942 Z7.833
X2.096 Z7.839
X2.397 Z7.862
X2.842 Z7.939
X3.104 Z8.017
X3.352 Z8.056
X3.591 Z8.124
X3.714 Z8.143
X3.863 Z8.185
X4.081 Z8.219
X4.344 Z8.289
X4.778 Z8.359
X5.082 Z8.424
X5.262 Z8.447
X5.363 Z8.466
X5.542 Z8.492
X5.694 Z8.487
X5.98 Z8.44
X6.27 Z8.429
X6.829 Z8.411
X7.133 Z8.391
X7.536 Z8.356
X7.695 Z8.35
X7.923 Z8.343
X8.428 Z8.263
X9.022 Z8.135
X9.197 Z8.079
X9.374 Z8.025
X9.524 Z7.994
X9.73 Z7.944
X11.222 Z7.69
X11.336 Z7.68
X12.075 Z7.608
X12.522 Z7.535
X12.771 Z7.453
X13.011 Z7.35
X13.039 Z7.343
X13.067 Z7.344
X13.094 Z7.352
X13.116 Z7.36
X13.138 Z7.362
X13.681
X13.704 Y-67.428
X13.727 Y-67.423
X13.749 Y-67.414
X13.769 Y-67.401 Z7.361
X13.787 Y-67.386 Z7.36
X13.802 Y-67.368 Z7.359
X13.815 Y-67.348 Z7.358
X13.824 Y-67.326 Z7.356
X13.829 Y-67.303 Z7.355
X13.831 Y-67.28 Z7.354
X13.829 Y-67.257 Z7.352
X13.824 Y-67.234 Z7.351
X13.815 Y-67.212 Z7.349
X13.802 Y-67.192 Z7.348
X13.787 Y-67.174 Z7.347
X13.769 Y-67.159 Z7.346
X13.749 Y-67.146 Z7.345
X13.727 Y-67.137
X13.704 Y-67.132
X13.681 Y-67.13
X13.658 Z7.342
X13.637 Z7.334
X13.608 Z7.325
X13.578
X13.549 Z7.334
X13.28 Z7.466
X13.071 Z7.547
X12.889 Z7.589
X12.815 Z7.603
X12.638 Z7.65
X12.421 Z7.678
X11.309 Z7.756
X11.169
X10.586 Z7.852
X9.926 Z7.968
X9.7 Z8.042
X9.503 Z8.087
X9.323 Z8.107
X9.094 Z8.202
X8.949 Z8.234
X8.799 Z8.248
X8.462 Z8.337
X8.138 Z8.391
X7.845 Z8.444
X7.653
X7.484 Z8.438
X6.91 Z8.484
X5.962 Z8.516
X5.692 Z8.548
X5.424 Z8.541
X5.282 Z8.549
X5.127 Z8.536
X4.861 Z8.47
X4.445 Z8.397
X3.853 Z8.237
X3.787 Z8.217
X3.571 Z8.173
X3.425 Z8.13
X3.182 Z8.096
X2.854 Z8.011
X2.604 Z7.959
X2.505 Z7.936
X2.091 Z7.898
X1.561 Z7.902
X1.341 Z7.929
X0.823 Z7.959
X0.534 Z8.002
X0.012 Z8.042
X-0.405 Z8.11
X-0.636 Z8.108
X-0.834 Z8.14
X-1.062 Z8.145
X-1.265 Z8.136
X-1.457 Z8.14
X-1.582 Z8.135
X-2.066 Z8.188
X-2.366 Z8.193
X-2.588 Z8.223
X-2.739 Z8.234
X-3.079 Z8.248
X-3.499 Z8.309
X-3.996 Z8.416
X-4.191 Z8.455
X-4.426 Z8.498
X-4.57 Z8.504
X-4.817 Z8.472
X-5.049 Z8.405
X-5.238 Z8.319
X-5.356 Z8.241
X-5.46 Z8.147
X-5.506 Z8.095
X-5.527 Z8.076
X-5.553 Z8.065
X-5.581 Z8.061
X-5.778
X-5.801 Y-67.128
X-5.825 Y-67.123 Z8.062
X-5.847 Y-67.114 Z8.064
X-5.867 Y-67.101 Z8.066
X-5.885 Y-67.086 Z8.068
X-5.901 Y-67.068 Z8.071
X-5.913 Y-67.048 Z8.074
X-5.922 Y-67.026 Z8.078
X-5.928 Y-67.003 Z8.081
X-5.93 Y-66.98 Z8.085
X-5.928 Y-66.957 Z8.089
X-5.922 Y-66.934 Z8.093
X-5.913 Y-66.912 Z8.096
X-5.901 Y-66.892 Z8.099
X-5.885 Y-66.874 Z8.102
X-5.867 Y-66.859 Z8.105
X-5.847 Y-66.846 Z8.107
X-5.825 Y-66.837 Z8.108
X-5.801 Y-66.832 Z8.109
X-5.778 Y-66.83
X-5.748 Z8.114
X-5.722 Z8.126
X-5.7 Z8.146
X-5.67 Z8.184
X-5.542 Z8.309
X-5.368 Z8.425
X-5.241 Z8.485
X-5.109 Z8.525
X-4.906 Z8.558
X-4.613 Z8.556
X-4.237 Z8.512
X-4.015 Z8.477
X-3.679 Z8.38
X-3.469 Z8.34
X-3.124 Z8.307
X-2.99 Z8.301
X-2.755 Z8.312
X-2.527 Z8.302
X-2.228 Z8.262
X-2.136 Z8.245
X-1.767 Z8.236
X-1.482 Z8.202
X-1.327 Z8.209
X-1.041 Z8.194
X-0.852 Z8.212
X-0.573 Z8.213
X-0.285 Z8.166
X0.108 Z8.08
X0.241 Z8.068
X0.396 Z8.066
X0.546 Z8.059
X0.714 Z8.03
X0.911 Z8.025
X1.13 Z7.997
X1.285 Z7.988
X1.555 Z7.967
X2.175 Z7.964
X2.643 Z8.021
X2.774 Z8.06
X2.941 Z8.091
X3.188 Z8.155
X3.482 Z8.192
X3.69 Z8.261
X4.266 Z8.383
X5.071 Z8.59
X5.318 Z8.624
X5.504 Z8.619
X5.814 Z8.616
X6.201 Z8.598
X6.623 Z8.564
X6.984 Z8.556
X7.45 Z8.52
X7.643 Z8.527
X7.83 Z8.515
X8.188 Z8.443
X8.376 Z8.427
X8.56 Z8.393
X8.823 Z8.302
X9.003 Z8.278
X9.146 Z8.239
X9.275 Z8.183
X9.374 Z8.18
X9.523 Z8.164
X9.739 Z8.106
X9.976 Z8.009
X10.305 Z7.957
X10.528 Z7.917
X10.699 Z7.888
X11.02 Z7.827
X11.143 Z7.814
X11.414 Z7.811
X11.755 Z7.783
X12.119 Z7.746
X12.42 Z7.742
X12.91 Z7.691
X13.316 Z7.602
X13.539 Z7.535
X13.87 Z7.397
X14.064 Z7.293
X14.097 Z7.282
X14.131 Z7.283
X14.163 Z7.296
X14.189 Z7.318
X14.206 Z7.348
X14.212 Z7.381
X14.219 Y-66.827 Z7.448
X14.239 Y-66.819 Z7.512
X14.272 Y-66.805 Z7.568
X14.316 Y-66.786 Z7.616
X14.368 Y-66.764 Z7.652
X14.427 Y-66.74 Z7.674
X14.488 Y-66.714 Z7.681
X14.652 Y-66.646
X14.714 Y-66.62 Z7.674
X14.772 Y-66.596 Z7.652
X14.825 Y-66.574 Z7.616
X14.868 Y-66.555 Z7.568
X14.901 Y-66.541 Z7.512
X14.922 Y-66.533 Z7.448
X14.929 Y-66.53 Z7.381
Z7.065
X14.922 Z7.028
X14.901 Z6.996
X14.871 Z6.974
X14.834 Z6.965
X14.797 Z6.971
X14.764 Z6.989
X14.556 Z7.167
X14.255 Z7.375
X13.98 Z7.511
X13.722 Z7.589
X13.325 Z7.678
X12.759 Z7.753
X12.457 Z7.785
X12.282
X12.208 Z7.781
X11.781 Z7.831
X11.163 Z7.863
X11.028 Z7.877
X10.706 Z7.937
X10.518 Z7.96
X10.234 Z8.01
X10.121 Z8.025
X9.906 Z8.088
X9.696 Z8.175
X9.552 Z8.214
X9.403 Z8.235
X9.248 Z8.237
X9.106 Z8.289
X8.907 Z8.333
X8.608 Z8.436
X8.463 Z8.473
X8.015 Z8.548
X7.678 Z8.599
X7.446 Z8.607
X7.145 Z8.629
X6.896
X6.535 Z8.676
X6.251 Z8.665
X5.672 Z8.657
X5.293 Z8.646
X4.647 Z8.555
X4.312 Z8.455
X3.712 Z8.321
X3.473 Z8.244
X3.174 Z8.199
X2.966 Z8.156
X2.627 Z8.077
X2.176 Z8.027
X1.605 Z8.028
X1.466 Z8.047
X1.232 Z8.044
X0.998 Z8.079
X0.81 Z8.078
X0.589 Z8.109
X0.359 Z8.125
X0.073 Z8.151
X-0.026 Z8.16
X-0.197 Z8.215
X-0.457 Z8.257
X-0.607 Z8.265
X-0.987 Z8.242
X-1.257 Z8.272
X-1.447 Z8.275
X-1.631 Z8.29
X-1.96 Z8.289
X-2.225 Z8.346
X-2.413 Z8.355
X-2.704 Z8.343
X-2.939 Z8.358
X-3.287 Z8.359
X-3.548 Z8.388
X-3.883 Z8.497
X-4.086 Z8.532
X-4.355 Z8.545
X-4.637 Z8.604
X-4.862 Z8.634
X-5.015 Z8.632
X-5.293 Z8.584
X-5.425 Z8.54
X-5.613 Z8.446
X-5.728 Z8.359
X-5.882 Z8.195
X-5.903 Z8.178
X-5.928 Z8.167
X-5.955 Z8.163
X-6.138
X-6.161 Y-66.528 Z8.164
X-6.184 Y-66.523
X-6.206 Y-66.514 Z8.166
X-6.227 Y-66.501 Z8.167
X-6.245 Y-66.486 Z8.17
X-6.26 Y-66.468 Z8.172
X-6.273 Y-66.448 Z8.175
X-6.282 Y-66.426 Z8.178
X-6.287 Y-66.403 Z8.181
X-6.289 Y-66.38 Z8.185
X-6.287 Y-66.357 Z8.188
X-6.282 Y-66.334 Z8.191
X-6.273 Y-66.312 Z8.194
X-6.26 Y-66.292 Z8.197
X-6.245 Y-66.274 Z8.2
X-6.227 Y-66.259 Z8.202
X-6.206 Y-66.246 Z8.203
X-6.184 Y-66.237 Z8.205
X-6.161 Y-66.232 Z8.206
X-6.138 Y-66.23
X-6.11 Z8.21
X-6.085 Z8.221
X-6.064 Z8.238
X-5.952 Z8.36
X-5.843 Z8.452
X-5.723 Z8.529
X-5.534 Z8.617
X-5.37 Z8.672
X-5.2 Z8.698
X-4.989 Z8.694
X-4.595 Z8.641
X-4.152 Z8.538
X-3.993 Z8.532
X-3.807 Z8.51
X-3.613 Z8.455
X-3.439 Z8.409
X-3.221 Z8.414
X-2.857 Z8.393
X-2.53 Z8.379
X-2.356 Z8.388
X-2.173 Z8.389
X-2.02 Z8.364
X-1.715 Z8.328
X-1.451 Z8.337
X-0.682 Z8.272
X-0.555 Z8.284
X-0.36 Z8.278
X0.134 Z8.189
X0.286 Z8.186
X0.483 Z8.158
X0.805 Z8.137
X1.235 Z8.082
X1.387 Z8.091
X1.61 Z8.071
X2.283 Z8.088
X2.484 Z8.122
X2.698 Z8.141
X2.945 Z8.203
X3.147 Z8.223
X3.241 Z8.25
X3.507 Z8.307
X3.963 Z8.443
X4.344 Z8.522
X4.602 Z8.599
X4.735 Z8.636
X4.972 Z8.672
X5.37 Z8.707
X5.722 Z8.69
X6.198 Z8.715
X6.421 Z8.702
X6.652 Z8.715
X7.012 Z8.682
X7.301 Z8.69
X7.434 Z8.672
X7.758 Z8.641
X8.468 Z8.521
X8.685 Z8.469
X8.893 Z8.38
X8.98 Z8.364
X9.184 Z8.306
X9.293 Z8.282
X9.616 Z8.237
X9.758 Z8.196
X9.959 Z8.109
X10.403 Z8.017
X11.109 Z7.917
X11.552 Z7.896
X12.137 Z7.828
X12.255 Z7.832
X12.443 Z7.829
X12.743 Z7.781
X13.179 Z7.725
X13.516 Z7.677
X13.872 Z7.606
X14.05 Z7.555
X14.5 Z7.351
X14.663 Z7.265
X14.817 Z7.175
X15.048 Z7.006
X15.216 Z6.84
X15.34 Z6.687
X15.422 Z6.54
X15.5 Z6.387
X15.559 Z6.189
X15.629 Z5.914
X15.644 Z5.881
X15.67 Z5.856
X15.703 Z5.841
X15.739 Z5.839
X15.773 Z5.85
X15.801 Z5.872
X15.82 Z5.903
X15.826 Z5.938
X15.834 Y-66.228 Z5.977
X15.854 Y-66.222 Z6.009
X15.886 Y-66.213 Z6.031
X15.922 Y-66.203 Z6.038
X16.785 Y-65.957
X16.822 Y-65.947 Z6.031
X16.853 Y-65.938 Z6.009
X16.874 Y-65.932 Z5.977
X16.881 Y-65.93 Z5.938
Z4.691
X16.874 Z4.652
X16.852 Z4.62
X16.819 Z4.598
X16.78 Z4.591
X16.492 Z4.593
X16.264 Z4.564
X16.078 Z5.436
X15.966 Z5.971
X15.872 Z6.291
X15.709 Z6.592
X15.606 Z6.72
X15.479 Z6.862
X15.324 Z6.996
X15.079 Z7.163
X14.881 Z7.266
X14.603 Z7.38
X14.114 Z7.541
X13.896 Z7.607
X13.286 Z7.735
X12.853 Z7.794
X12.498 Z7.862
X12.348 Z7.875
X12.117 Z7.867
X11.521 Z7.943
X11.309 Z7.957
X11.154 Z7.963
X10.718 Z8.036
X10.341 Z8.075
X9.857 Z8.188
X9.637 Z8.264
X9.191 Z8.348
X8.932 Z8.423
X8.858 Z8.435
X8.658 Z8.52
X8.513 Z8.553
X7.774 Z8.685
X7.556 Z8.717
X7.33 Z8.738
X7.118 Z8.729
X6.599 Z8.771
X6.025 Z8.753
X5.787 Z8.74
X5.447 Z8.758
X4.986 Z8.716
X4.871 Z8.709
X4.694 Z8.671
X4.4 Z8.59
X4.104 Z8.524
X3.956 Z8.483
X3.681 Z8.396
X3.386 Z8.334
X3.107 Z8.265
X2.898 Z8.242
X2.73 Z8.199
X2.507 Z8.186
X2.314 Z8.146
X1.852 Z8.117
X1.698 Z8.113
X1.413 Z8.13
X1.222 Z8.127
X0.859 Z8.167
X0.648 Z8.181
X0.445 Z8.216
X0.183 Z8.225
X-0.137 Z8.263
X-0.591 Z8.306
X-0.951 Z8.359
X-1.254 Z8.382
X-1.441 Z8.372
X-1.701 Z8.405
X-2.222 Z8.432
X-2.532 Z8.413
X-2.949 Z8.445
X-3.162 Z8.452
X-3.433 Z8.449
X-3.573 Z8.464
X-3.841 Z8.511
X-3.992 Z8.531
X-4.573 Z8.667
X-4.924 Z8.737
X-5.246 Z8.752
X-5.44 Z8.732
X-5.507 Z8.719
X-5.65 Z8.697
X-5.805 Z8.645
X-5.977 Z8.557
X-6.093 Z8.472
X-6.196 Z8.369
X-6.251 Z8.302
X-6.273 Z8.282
X-6.3 Z8.27
X-6.328 Z8.266
X-6.491
X-6.515 Y-65.928
X-6.538 Y-65.923 Z8.267
X-6.56 Y-65.914 Z8.269
X-6.581 Y-65.901 Z8.272
X-6.599 Y-65.886 Z8.276
X-6.615 Y-65.868 Z8.28
X-6.628 Y-65.848 Z8.284
X-6.637 Y-65.826 Z8.289
X-6.642 Y-65.803 Z8.294
X-6.644 Y-65.78 Z8.299
X-6.642 Y-65.757 Z8.304
X-6.637 Y-65.734 Z8.309
X-6.628 Y-65.712 Z8.314
X-6.615 Y-65.692 Z8.319
X-6.599 Y-65.674 Z8.323
X-6.581 Y-65.659 Z8.326
X-6.56 Y-65.646 Z8.329
X-6.538 Y-65.637 Z8.331
X-6.515 Y-65.632 Z8.332
X-6.491 Y-65.63 Z8.333
X-6.463 Z8.336
X-6.438 Z8.348
X-6.417 Z8.365
X-6.292 Z8.503
X-6.15 Z8.613
X-5.965 Z8.711
X-5.834 Z8.757
X-5.622 Z8.798
X-5.448 Z8.804
X-4.861 Z8.761
X-4.656 Z8.71
X-4.374 Z8.651
X-3.962 Z8.553
X-3.677 Z8.508
X-3.538 Z8.507
X-3.237 Z8.476
X-3.094 Z8.483
X-2.864 Z8.486
X-2.296 Z8.423
X-1.879 Z8.448
X-1.687 Z8.452
X-1.31 Z8.413
X-1.243 Z8.417
X-1.028 Z8.416
X-0.764 Z8.394
X-0.482 Z8.334
X0.164 Z8.265
X0.49 Z8.247
X0.854 Z8.188
X1.009 Z8.183
X1.298 Z8.161
X1.547 Z8.177
X1.856 Z8.165
X2.328 Z8.189
X2.482 Z8.23
X2.702 Z8.259
X2.994 Z8.279
X3.175 Z8.315
X3.468 Z8.407
X3.717 Z8.46
X4.059 Z8.557
X4.464 Z8.656
X4.88 Z8.742
X5.47 Z8.8
X5.857 Z8.784
X6.105 Z8.804
X6.298 Z8.801
X6.583 Z8.821
X7.01 Z8.795
X7.339 Z8.788
X7.547 Z8.774
X7.975 Z8.677
X8.424 Z8.602
X8.561 Z8.573
X8.843 Z8.464
X9.06 Z8.413
X9.196 Z8.385
X9.55 Z8.311
X10.242 Z8.138
X10.378 Z8.119
X10.754 Z8.086
X11.053 Z8.021
X11.318 Z8.01
X12.125 Z7.9
X12.349 Z7.894
X12.559 Z7.856
X12.712 Z7.849
X13.137 Z7.78
X13.35 Z7.724
X13.844 Z7.616
X14.054 Z7.545
X14.626 Z7.391
X14.916 Z7.31
X15.253 Z7.171
X15.569 Z6.987
X15.805 Z6.807
X15.904 Z6.709
X16.1 Z6.446
X16.18 Z6.285
X16.266 Z6.084
X16.344 Z5.739
X16.536 Z4.741
X16.655 Z4.751
X16.922 Z4.752
X17.183 Z4.709
X17.437 Z4.646
X17.473 Z4.644
X17.507 Z4.655
X17.535 Z4.677
X17.554 Z4.708
X17.561 Z4.743
X17.567 Y-65.627 Z4.81
X17.587 Y-65.617 Z4.873
X17.619 Y-65.601 Z4.93
X17.662 Y-65.58 Z4.978
X17.713 Y-65.555 Z5.014
X17.77 Y-65.527 Z5.036
X17.83 Y-65.497 Z5.043
X17.9 Y-65.463
X17.96 Y-65.433 Z5.036
X18.017 Y-65.405 Z5.014
X18.068 Y-65.38 Z4.978
X18.111 Y-65.359 Z4.93
X18.143 Y-65.343 Z4.873
X18.163 Y-65.333 Z4.81
X18.169 Y-65.33 Z4.743
Z4.691
X18.162 Z4.654
X18.142 Z4.622
X18.112 Z4.6
X18.075 Z4.591
X18.038 Z4.596
X17.861 Z4.654
X17.751 Z4.685
X17.476 Z4.758
X17.179 Z4.812
X16.961 Z4.829
X16.81 Z4.832
X16.64 Z5.74
X16.557 Z6.059
X16.481 Z6.225
X16.342 Z6.471
X16.207 Z6.638
X15.991 Z6.837
X15.75 Z7.006
X15.46 Z7.142
X15.146 Z7.257
X14.008 Z7.552
X13.699 Z7.651
X13.451 Z7.687
X12.839 Z7.86
X12.691 Z7.889
X12.531 Z7.897
X12.335 Z7.941
X11.875 Z7.965
X11.442 Z8.057
X11.102 Z8.078
X11.063 Z8.079
X10.691 Z8.135
X10.313 Z8.17
X9.808 Z8.275
X9.699 Z8.287
X9.566 Z8.32
X9.357 Z8.388
X9.144 Z8.43
X8.845 Z8.492
X8.58 Z8.569
X8.18 Z8.659
X7.922 Z8.742
X7.569 Z8.803
X7.419 Z8.824
X7.191 Z8.832
X6.642 Z8.86
X6.386 Z8.843
X6.173 Z8.854
X5.824 Z8.826
X5.47 Z8.834
X4.971 Z8.786
X4.82 Z8.765
X4.39 Z8.678
X4.24 Z8.654
X4.09 Z8.619
X3.96 Z8.579
X3.6 Z8.502
X3.404 Z8.431
X3.279 Z8.384
X3.093 Z8.348
X2.916 Z8.293
X2.692 Z8.298
X2.547 Z8.281
X2.348 Z8.235
X1.849 Z8.211
X1.603 Z8.214
X1.291 Z8.192
X0.976 Z8.209
X0.689 Z8.255
X0.321 Z8.279
X-0.061 Z8.337
X-0.384 Z8.361
X-0.78 Z8.428
X-1.526 Z8.473
X-1.816 Z8.454
X-2.18 Z8.48
X-2.439
X-2.739 Z8.523
X-2.89 Z8.522
X-3.148 Z8.506
X-3.511 Z8.548
X-3.684 Z8.542
X-3.742 Z8.536
X-4.023 Z8.593
X-4.53 Z8.691
X-4.733 Z8.758
X-4.88 Z8.785
X-5.182 Z8.814
X-5.316 Z8.835
X-5.542 Z8.857
X-5.772 Z8.851
X-5.909 Z8.835
X-6.125 Z8.774
X-6.236 Z8.725
X-6.357 Z8.65
X-6.466 Z8.557
X-6.518 Z8.5
X-6.576 Z8.424
X-6.58 Z8.418
X-6.602 Z8.397
X-6.629 Z8.383
X-6.659 Z8.379
X-6.817
X-6.841 Y-65.328
X-6.864 Y-65.323
X-6.885 Y-65.314
X-6.905 Y-65.301 Z8.378
X-6.923 Y-65.286
X-6.939 Y-65.268
X-6.951 Y-65.248
X-6.96 Y-65.226
X-6.965 Y-65.203 Z8.377
X-6.967 Y-65.18
X-6.965 Y-65.157
X-6.96 Y-65.134
X-6.951 Y-65.112 Z8.376
X-6.939 Y-65.092
X-6.923 Y-65.074
X-6.905 Y-65.059
X-6.885 Y-65.046
X-6.864 Y-65.037 Z8.375
X-6.841 Y-65.032
X-6.817 Y-65.03
X-6.786 Z8.381
X-6.757 Z8.395
X-6.735 Z8.418
X-6.705 Z8.462
X-6.609 Z8.572
X-6.448 Z8.715
X-6.328 Z8.79
X-6.201 Z8.846
X-6.002 Z8.905
X-5.848 Z8.923
X-5.716 Z8.919
X-5.499 Z8.883
X-5.215 Z8.852
X-4.781 Z8.789
X-4.301 Z8.646
X-3.756 Z8.553
X-3.674 Z8.554
X-3.292 Z8.548
X-3.004 Z8.528
X-2.775 Z8.544
X-2.273 Z8.501
X-2.164 Z8.515
X-1.95 Z8.535
X-1.798 Z8.528
X-1.576 Z8.486
X-1.494 Z8.492
X-1.285 Z8.49
X-1.009 Z8.452
X-0.672 Z8.441
X-0.387 Z8.391
X-0.086 Z8.364
X0.407 Z8.293
X0.734 Z8.285
X1.093 Z8.231
X1.352 Z8.227
X1.487 Z8.234
X1.73 Z8.247
X2.052 Z8.253
X2.439 Z8.297
X2.628 Z8.3
X2.735 Z8.319
X2.954 Z8.342
X3.125 Z8.404
X3.391 Z8.462
X3.514 Z8.515
X3.711 Z8.585
X3.96 Z8.63
X4.191 Z8.696
X4.947 Z8.818
X5.499 Z8.861
X5.779 Z8.866
X5.896 Z8.873
X6.227 Z8.894
X6.827 Z8.881
X7.091 Z8.854
X7.353 Z8.851
X7.789 Z8.783
X7.972 Z8.747
X8.245 Z8.654
X8.525 Z8.585
X8.749 Z8.548
X9.121 Z8.474
X9.266 Z8.44
X9.412 Z8.397
X9.692 Z8.322
X9.842 Z8.299
X10.125 Z8.249
X10.405 Z8.212
X10.56 Z8.219
X10.784 Z8.193
X10.987 Z8.138
X11.054 Z8.125
X11.312 Z8.102
X11.5 Z8.086
X12.02 Z7.98
X12.17 Z7.976
X12.357 Z7.961
X12.613 Z7.895
X12.755 Z7.889
X12.94 Z7.863
X13.081 Z7.819
X13.22 Z7.75
X13.352 Z7.707
X13.501 Z7.697
X13.685 Z7.666
X14.031 Z7.551
X15.396 Z7.199
X15.609 Z7.127
X15.902 Z6.99
X16.097 Z6.884
X16.327 Z6.713
X16.519 Z6.532
X16.658 Z6.346
X16.777 Z6.122
X16.843 Z5.963
X16.926 Z5.602
X17.06 Z4.843
X17.668 Z4.802
X18.136 Z4.725
X18.354 Z4.695
X18.602 Z4.645
X18.637
X18.67 Z4.656
X18.698 Z4.679
X18.715 Z4.709
X18.722 Z4.743
X18.728 Y-65.026 Z4.809
X18.747 Y-65.015 Z4.871
X18.777 Y-64.997 Z4.927
X18.817 Y-64.974 Z4.974
X18.865 Y-64.945 Z5.009
X18.919 Y-64.913 Z5.031
X18.975 Y-64.88 Z5.038
X19.032 Y-64.847 Z5.031
X19.085 Y-64.815 Z5.009
X19.133 Y-64.787 Z4.974
X19.174 Y-64.763 Z4.927
X19.204 Y-64.745 Z4.871
X19.223 Y-64.734 Z4.809
X19.229 Y-64.73 Z4.743
Z4.732
X19.222 Z4.694
X19.2 Z4.662
X19.169 Z4.64
X19.131 Z4.632
X19.093 Z4.638
X18.882 Z4.72
X18.665 Z4.777
X18.29 Z4.817
X18.168 Z4.813
X17.883 Z4.825
X17.545 Z4.836
X17.341 Z4.831
X17.176 Z5.669
X17.121 Z5.836
X17.033 Z6.056
X16.935 Z6.233
X16.776 Z6.448
X16.652 Z6.58
X16.514 Z6.701
X16.333 Z6.824
X16.067 Z6.959
X15.787 Z7.068
X15.47 Z7.179
X14.213 Z7.509
X13.92 Z7.59
X13.665 Z7.682
X13.444 Z7.725
X13.226 Z7.761
X12.978 Z7.858
X12.798 Z7.905
X12.526 Z7.926
X12.263 Z7.992
X12.085 Z8.01
X11.587 Z8.12
X11.395 Z8.136
X11.295
X10.991 Z8.193
X10.861 Z8.225
X10.674 Z8.243
X10.492 Z8.254
X10.268 Z8.285
X9.748 Z8.344
X9.53 Z8.385
X9.124 Z8.502
X8.938 Z8.53
X8.809 Z8.539
X8.58 Z8.597
X8.326 Z8.645
X8.194 Z8.685
X7.983 Z8.764
X7.801 Z8.802
X7.613 Z8.818
X7.251 Z8.875
X7.043 Z8.914
X6.35 Z8.94
X6.17 Z8.927
X6.121 Z8.92
X5.874 Z8.919
X5.31 Z8.873
X4.805 Z8.816
X4.655 Z8.797
X4.086 Z8.701
X3.804 Z8.637
X3.563 Z8.554
X3.235 Z8.484
X2.894 Z8.378
X2.609 Z8.332
X2.464
X2.284 Z8.307
X2.082 Z8.299
X1.924 Z8.278
X1.579 Z8.272
X1.409 Z8.261
X1.017 Z8.271
X0.68 Z8.306
X0.363 Z8.314
X-0.366 Z8.414
X-0.737 Z8.455
X-1.181 Z8.506
X-1.327 Z8.513
X-1.544 Z8.561
X-1.77 Z8.573
X-1.992 Z8.558
X-2.169 Z8.526
X-2.565 Z8.56
X-2.69 Z8.562
X-3.063 Z8.546
X-3.72 Z8.574
X-4.349 Z8.66
X-4.695 Z8.787
X-4.877 Z8.826
X-5.366 Z8.882
X-5.633 Z8.943
X-5.821 Z8.959
X-6.005 Z8.947
X-6.274 Z8.896
X-6.405 Z8.852
X-6.53 Z8.788
X-6.674 Z8.682
X-6.821 Z8.536
X-6.876 Z8.463
X-6.902 Z8.439
X-6.934 Z8.425
X-6.97 Z8.424
X-7.003 Z8.435
X-7.031 Z8.458
X-7.049 Z8.488
X-7.055 Z8.523
X-7.058 Y-64.724 Z8.57
X-7.066 Y-64.706 Z8.612
X-7.079 Y-64.678 Z8.648
X-7.095 Y-64.642 Z8.673
X-7.114 Y-64.601 Z8.686
X-7.133 Y-64.559
X-7.152 Y-64.518 Z8.673
X-7.168 Y-64.482 Z8.648
X-7.181 Y-64.454 Z8.612
X-7.189 Y-64.436 Z8.57
X-7.191 Y-64.43 Z8.523
Z8.51
X-7.185 Z8.474
X-7.166 Z8.443
X-7.137 Z8.421
X-7.102 Z8.41
X-7.065 Z8.413
X-7.033 Z8.429
X-7.007 Z8.455
X-6.961 Z8.527
X-6.866 Z8.641
X-6.706 Z8.779
X-6.587 Z8.856
X-6.46 Z8.914
X-6.327 Z8.954
X-6.175 Z8.978
X-5.999 Z8.988
X-5.593 Z8.955
X-5.24 Z8.873
X-4.827 Z8.812
X-4.646 Z8.77
X-4.39 Z8.67
X-4.243 Z8.627
X-4.113 Z8.636
X-3.775 Z8.62
X-3.024 Z8.553
X-2.858 Z8.554
X-2.645 Z8.568
X-2.415 Z8.582
X-1.968 Z8.539
X-1.755 Z8.577
X-1.6 Z8.587
X-1.427 Z8.578
X-1.252 Z8.546
X-0.672 Z8.471
X-0.166 Z8.399
X0.406 Z8.326
X0.977 Z8.314
X1.183 Z8.318
X1.563 Z8.293
X1.805 Z8.3
X2.325 Z8.323
X2.46 Z8.351
X2.669 Z8.369
X3.083 Z8.475
X3.227 Z8.53
X3.426 Z8.592
X3.724 Z8.64
X3.902 Z8.698
X4.072 Z8.742
X5.406 Z8.908
X5.595 Z8.919
X5.848 Z8.937
X6.178 Z8.959
X6.991 Z8.946
X7.179 Z8.93
X7.739 Z8.794
X7.963 Z8.76
X8.315 Z8.666
X8.595 Z8.617
X9.115 Z8.494
X9.265 Z8.478
X9.621 Z8.405
X10.131 Z8.364
X10.509 Z8.297
X10.83 Z8.268
X11.255 Z8.195
X11.476 Z8.181
X11.624 Z8.158
X11.847 Z8.091
X11.971 Z8.068
X12.321 Z8.012
X12.676 Z7.928
X12.897 Z7.883
X13.019 Z7.842
X13.15 Z7.8
X13.37 Z7.772
X13.589 Z7.728
X13.86 Z7.625
X14.795 Z7.361
X15.512 Z7.165
X16.072 Z6.976
X16.211 Z6.924
X16.533 Z6.764
X16.721 Z6.645
X16.893 Z6.507
X17.047 Z6.351
X17.244 Z6.093
X17.337 Z5.922
X17.454 Z5.627
X17.509 Z5.374
X17.608 Z4.816
X17.663 Z4.818
X18.171 Z4.852
X18.441 Z4.854
X18.779 Z4.816
X19.075 Z4.754
X19.557 Z4.627
X19.592 Z4.625
X19.626 Z4.634
X19.644 Z4.643
X19.665 Z4.651
X19.688 Z4.653
X20.138
G17 G3 X20.138 Y-64.13 I0 J0.15
G1 X20.115 Z4.651
X20.094 Z4.643
X20.058 Z4.633
X20.021 Z4.637
X19.75 Z4.719
X19.383 Z4.768
X18.854 Z4.812
X18.557 Z4.831
X18.315 Z4.828
X17.977 Z4.784
X17.857 Z4.767
X17.751 Z5.358
X17.659 Z5.681
X17.587 Z5.852
X17.462 Z6.061
X17.355 Z6.208
X17.205 Z6.367
X17.036 Z6.505
X16.79 Z6.673
X16.59 Z6.773
X16.345 Z6.877
X15.791 Z7.071
X15.555 Z7.15
X14.84 Z7.357
X14.435 Z7.484
X13.758 Z7.67
X13.552 Z7.759
X13.371 Z7.801
X13.183 Z7.816
X12.966 Z7.863
X12.833 Z7.905
X12.64 Z7.969
X12.293 Z8.037
X12.101 Z8.079
X11.903 Z8.107
X11.696 Z8.178
X11.55 Z8.21
X11.362 Z8.224
X11.226 Z8.223
X10.899 Z8.305
X10.563 Z8.35
X10.374 Z8.363
X10.037 Z8.407
X9.769 Z8.423
X9.332 Z8.469
X9.009 Z8.524
X8.764 Z8.58
X8.54 Z8.628
X8.22 Z8.697
X8.051 Z8.733
X7.751 Z8.786
X7.342 Z8.894
X7.06 Z8.938
X6.673 Z8.952
X5.992 Z8.972
X5.777 Z8.948
X5.491 Z8.942
X4.599 Z8.829
X4.289 Z8.817
X4.121 Z8.786
X3.891 Z8.719
X3.359 Z8.612
X2.867 Z8.47
X2.463 Z8.373
X2.374 Z8.358
X2.111 Z8.342
X1.762 Z8.344
X1.588 Z8.336
X1.174 Z8.363
X0.985 Z8.348
X0.884 Z8.339
X0.467 Z8.337
X-0.287 Z8.424
X-0.554 Z8.48
X-0.947 Z8.513
X-1.167 Z8.569
X-1.391 Z8.593
X-1.609 Z8.584
X-1.89 Z8.555
X-2.287 Z8.589
X-2.697 Z8.564
X-2.817 Z8.563
X-3.208 Z8.577
X-3.575 Z8.612
X-3.975 Z8.62
X-4.155 Z8.623
X-4.206 Z8.62
X-4.351 Z8.662
X-4.695 Z8.774
X-5.065 Z8.851
X-5.363 Z8.9
X-5.702 Z8.976
X-5.95 Z9.001
X-6.237 Z8.996
X-6.398 Z8.969
X-6.579 Z8.91
X-6.781 Z8.807
X-6.896 Z8.721
X-7.044 Z8.569
X-7.119 Z8.466
X-7.145 Z8.441
X-7.178 Z8.427
X-7.213 Z8.426
X-7.247 Z8.437
X-7.275 Z8.459
X-7.293 Z8.49
X-7.3 Z8.525
X-7.303 Y-64.123 Z8.575
X-7.311 Y-64.101 Z8.62
X-7.325 Y-64.068 Z8.656
X-7.342 Y-64.026 Z8.679
X-7.361 Y-63.98 Z8.687
X-7.38 Y-63.934 Z8.679
X-7.397 Y-63.892 Z8.656
X-7.41 Y-63.859 Z8.62
X-7.419 Y-63.837 Z8.575
X-7.422 Y-63.83 Z8.525
Z8.521
X-7.415 Z8.485
X-7.396 Z8.454
X-7.367 Z8.432
X-7.331 Z8.421
X-7.295 Z8.425
X-7.262 Z8.441
X-7.237 Z8.468
X-7.198 Z8.531
X-7.104 Z8.647
X-6.997 Z8.745
X-6.853 Z8.849
X-6.695 Z8.928
X-6.563 Z8.969
X-6.427 Z8.992
X-6.176 Z9
X-5.793 Z8.985
X-5.495 Z8.945
X-5.141 Z8.852
X-4.993 Z8.821
X-4.845 Z8.786
X-4.555 Z8.702
X-4.281 Z8.627
X-4.151 Z8.628
X-3.934 Z8.611
X-3.396 Z8.607
X-3.241 Z8.588
X-3.027 Z8.602
X-2.788 Z8.607
X-2.541 Z8.578
X-2.304 Z8.596
X-1.695 Z8.58
X-1.234 Z8.594
X-1.047 Z8.576
X-0.917 Z8.543
X-0.745 Z8.506
X-0.557 Z8.488
X-0.215 Z8.426
X0.299 Z8.366
X0.98 Z8.361
X1.27 Z8.382
X1.671 Z8.362
X2.399 Z8.397
X2.692 Z8.48
X2.918 Z8.512
X3.253 Z8.633
X3.512 Z8.692
X4.033 Z8.785
X4.1 Z8.8
X4.354 Z8.841
X4.744 Z8.864
X5.255 Z8.933
X5.504 Z8.956
X5.911 Z8.983
X6.143
X6.372 Z8.974
X6.694 Z8.942
X7.064 Z8.922
X7.359 Z8.86
X7.542 Z8.841
X7.892 Z8.753
X8.203 Z8.702
X8.603 Z8.604
X8.886 Z8.552
X9.339 Z8.508
X10.201 Z8.414
X10.661 Z8.386
X10.909 Z8.334
X11.087 Z8.315
X11.38 Z8.24
X11.542 Z8.228
X11.683 Z8.197
X11.905 Z8.144
X12.075 Z8.103
X12.15 Z8.091
X12.486 Z8.035
X12.761 Z7.951
X12.947 Z7.901
X13.331 Z7.815
X13.478 Z7.777
X14.32 Z7.53
X14.943 Z7.342
X15.524 Z7.164
X16.453 Z6.835
X16.664 Z6.753
X16.934 Z6.627
X17.19 Z6.468
X17.368 Z6.341
X17.579 Z6.134
X17.72 Z5.955
X17.831 Z5.758
X17.918 Z5.537
X17.981 Z5.328
X18.087 Z4.706
X18.518 Z4.76
X19.043 Z4.783
X19.249 Z4.797
X19.553 Z4.803
X19.919 Z4.762
X20.133 Z4.714
X20.413 Z4.602
X20.44 Z4.595
X20.468 Z4.596
X20.494 Z4.605
X20.516 Z4.612
X20.538 Z4.615
X20.905
X20.929 Y-63.828
X20.952 Y-63.823 Z4.614
X20.974 Y-63.814 Z4.613
X20.994 Y-63.801 Z4.611
X21.012 Y-63.786 Z4.609
X21.028 Y-63.768 Z4.607
X21.04 Y-63.748 Z4.604
X21.049 Y-63.726 Z4.601
X21.055 Y-63.704 Z4.598
X21.056 Y-63.68 Z4.595
X21.055 Y-63.657 Z4.592
X21.049 Y-63.634 Z4.588
X21.04 Y-63.612 Z4.586
X21.028 Y-63.592 Z4.583
X21.012 Y-63.574 Z4.58
X20.994 Y-63.559 Z4.578
X20.974 Y-63.546 Z4.577
X20.952 Y-63.537 Z4.575
X20.929 Y-63.532
X20.905 Y-63.53 Z4.574
X20.883 Z4.572
X20.861 Z4.564
X20.835 Z4.556
X20.808 Z4.554
X20.782 Z4.56
X20.492 Z4.669
X20.211 Z4.744
X19.969 Z4.779
X19.778 Z4.799
X19.554 Z4.794
X18.863 Z4.692
X18.318 Z4.587
X18.216 Z5.192
X18.167 Z5.395
X18.106 Z5.564
X17.971 Z5.826
X17.83 Z6.016
X17.643 Z6.21
X17.421 Z6.379
X17.231 Z6.489
X16.975 Z6.623
X16.556 Z6.793
X15.433 Z7.205
X14.999 Z7.337
X14.727 Z7.442
X14.344 Z7.552
X13.868 Z7.696
X13.376 Z7.845
X13.004 Z7.923
X12.804 Z7.991
X12.55 Z8.039
X12.434 Z8.082
X12.336 Z8.11
X11.85 Z8.183
X11.304 Z8.295
X10.913 Z8.38
X10.743 Z8.418
X10.139 Z8.466
X9.931 Z8.508
X9.704 Z8.519
X9.515 Z8.529
X8.884 Z8.578
X8.728 Z8.583
X8.401 Z8.652
X7.529 Z8.819
X7.17 Z8.886
X6.863 Z8.913
X6.444 Z8.981
X5.837 Z8.994
X5.565 Z8.976
X5.295 Z8.952
X5.106 Z8.935
X4.754 Z8.887
X4.479 Z8.873
X3.89 Z8.785
X3.345 Z8.686
X3.176 Z8.634
X3.08 Z8.599
X2.637 Z8.526
X2.344 Z8.43
X1.995 Z8.406
X1.87 Z8.387
X1.648 Z8.406
X1.107 Z8.38
X0.145 Z8.394
X-0.294 Z8.452
X-0.596 Z8.488
X-1.051 Z8.581
X-1.247 Z8.585
X-1.396 Z8.577
X-1.684 Z8.6
X-1.99 Z8.612
X-2.306 Z8.605
X-2.514 Z8.623
X-2.967 Z8.611
X-3.19 Z8.59
X-3.433 Z8.608
X-3.89 Z8.615
X-4.29 Z8.648
X-4.532 Z8.657
X-5.19 Z8.872
X-5.408 Z8.911
X-5.784 Z8.957
X-6.142 Z9.02
X-6.319 Z9.026
X-6.562 Z8.993
X-6.75 Z8.945
X-6.941 Z8.857
X-7.114 Z8.737
X-7.218 Z8.638
X-7.331 Z8.492
X-7.358 Z8.449
X-7.38 Z8.424
X-7.41 Z8.407
X-7.443 Z8.402
X-7.553
X-7.577 Y-63.528
X-7.6 Y-63.523
X-7.621 Y-63.514
X-7.641 Y-63.501
X-7.659 Y-63.486
X-7.675 Y-63.468 Z8.403
X-7.687 Y-63.448
X-7.696 Y-63.426
X-7.701 Y-63.404
X-7.703 Y-63.38 Z8.404
X-7.701 Y-63.357
X-7.696 Y-63.334
X-7.687 Y-63.312
X-7.675 Y-63.292 Z8.405
X-7.659 Y-63.274
X-7.641 Y-63.259
X-7.621 Y-63.246
X-7.6 Y-63.237
X-7.577 Y-63.232
X-7.553 Y-63.23
X-7.521 Z8.411
X-7.493 Z8.426
X-7.471 Z8.449
X-7.47 Z8.451
X-7.407 Z8.543
X-7.31 Z8.653
X-7.15 Z8.791
X-7.03 Z8.867
X-6.903 Z8.924
X-6.77 Z8.963
X-6.567 Z8.994
X-6.331 Z8.998
X-6.024 Z9
X-5.453 Z8.92
X-5.146 Z8.858
X-4.727 Z8.719
X-4.463 Z8.642
X-4.206 Z8.632
X-3.818 Z8.636
X-3.591 Z8.625
X-3.401 Z8.621
X-3.106 Z8.605
X-2.884 Z8.622
X-2.615 Z8.623
X-2.428 Z8.645
X-2.197 Z8.648
X-1.97 Z8.627
X-1.777 Z8.629
X-1.441 Z8.591
X-1.296 Z8.584
X-0.924 Z8.555
X-0.591 Z8.491
X-0.041 Z8.424
X0.009 Z8.425
X0.422 Z8.415
X0.615 Z8.418
X0.807 Z8.43
X1.055 Z8.405
X1.364 Z8.395
X1.595 Z8.425
X1.818 Z8.44
X2.021 Z8.428
X2.355 Z8.471
X2.47 Z8.513
X2.644 Z8.559
X2.869 Z8.588
X3.017 Z8.621
X3.362 Z8.715
X3.631 Z8.762
X4.3 Z8.851
X4.499 Z8.887
X4.705 Z8.919
X4.86 Z8.917
X5.153 Z8.958
X5.385 Z8.961
X5.775 Z8.99
X5.958 Z8.973
X6.108 Z8.967
X6.562 Z8.945
X6.78 Z8.91
X7.067 Z8.882
X7.215 Z8.86
X7.646 Z8.774
X8.361 Z8.642
X8.59 Z8.61
X8.781 Z8.608
X9.492 Z8.566
X9.87 Z8.553
X10.078 Z8.513
X10.494 Z8.479
X10.794 Z8.44
X11.411 Z8.317
X11.771 Z8.264
X12.108 Z8.171
X12.24 Z8.145
X12.692 Z8.067
X12.947 Z8.003
X13.269 Z7.892
X13.399 Z7.868
X13.537 Z7.825
X13.888 Z7.724
X14.305 Z7.589
X14.597 Z7.512
X14.937 Z7.377
X15.155 Z7.306
X15.441 Z7.207
X15.866 Z7.047
X16.561 Z6.789
X16.934 Z6.641
X17.38 Z6.43
X17.568 Z6.329
X17.808 Z6.165
X17.971 Z6.018
X18.106 Z5.855
X18.204 Z5.701
X18.31 Z5.495
X18.375 Z5.326
X18.442 Z5.067
X18.543 Z4.461
X18.664 Z4.487
X19.125 Z4.636
X19.474 Z4.723
X19.698 Z4.756
X20.027
X20.388 Z4.729
X20.674 Z4.684
X20.931 Z4.638
X21.151 Z4.589
X21.186 Z4.588
X21.22 Z4.599
X21.248 Z4.621
X21.266 Z4.652
X21.272 Z4.687
Z4.702
X21.278 Y-63.226 Z4.759
X21.294 Y-63.213 Z4.813
X21.319 Y-63.192 Z4.86
X21.353 Y-63.165 Z4.899
X21.393 Y-63.133 Z4.925
X21.437 Y-63.098 Z4.939
X21.482 Y-63.062
X21.525 Y-63.027 Z4.925
X21.565 Y-62.995 Z4.899
X21.599 Y-62.968 Z4.86
X21.625 Y-62.947 Z4.813
X21.64 Y-62.934 Z4.759
X21.646 Y-62.93 Z4.702
X21.639 Z4.664
X21.618 Z4.632
X21.587 Z4.611
X21.551 Z4.602
X21.513 Z4.607
X21.301 Z4.681
X21.08 Z4.723
X20.852 Z4.73
X20.12 Z4.708
X19.78 Z4.666
X19.445 Z4.599
X19.215 Z4.528
X18.816 Z4.396
X18.755 Z4.371
X18.636 Z5.079
X18.564 Z5.315
X18.451 Z5.557
X18.336 Z5.739
X18.198 Z5.9
X18.037 Z6.051
X17.773 Z6.246
X17.609 Z6.336
X17.347 Z6.453
X17.056 Z6.589
X16.496 Z6.81
X15.39 Z7.231
X14.835 Z7.436
X14.585 Z7.54
X14.441 Z7.58
X13.991 Z7.745
X13.329 Z7.925
X13.06 Z8.022
X12.906 Z8.055
X12.708 Z8.121
X12.522 Z8.146
X12.434 Z8.158
X12.091 Z8.241
X11.69 Z8.32
X11.436 Z8.36
X10.929 Z8.45
X10.719 Z8.474
X10.517 Z8.52
X9.997 Z8.556
X9.863 Z8.582
X8.981 Z8.631
X8.436
X8.169 Z8.658
X7.845 Z8.697
X7.415 Z8.797
X7.042 Z8.867
X6.591 Z8.916
X6.051 Z8.951
X5.848 Z8.98
X5.631 Z8.981
X5.356 Z8.985
X5.143 Z8.959
X4.888 Z8.925
X4.696 Z8.915
X3.539 Z8.761
X3.314 Z8.732
X3.039 Z8.667
X2.843 Z8.616
X2.411 Z8.531
X2.278 Z8.501
X2.015 Z8.472
X1.815 Z8.471
X1.679 Z8.452
X1.538 Z8.424
X1.151 Z8.43
X0.939 Z8.458
X0.73 Z8.451
X0.577 Z8.438
X0.303 Z8.459
X0.002 Z8.449
X-0.153 Z8.443
X-0.447 Z8.485
X-0.67 Z8.5
X-0.911 Z8.542
X-1.099 Z8.562
X-1.533 Z8.63
X-1.684 Z8.633
X-2.008 Z8.675
X-2.141 Z8.674
X-2.355 Z8.646
X-2.965 Z8.624
X-3.222 Z8.652
X-3.446 Z8.645
X-3.651 Z8.629
X-4.137 Z8.636
X-4.229 Z8.633
X-4.359 Z8.667
X-4.541 Z8.695
X-4.758 Z8.69
X-5.231 Z8.864
X-5.395 Z8.898
X-5.545 Z8.916
X-5.889 Z8.972
X-6.661 Z9.011
X-6.796 Z8.998
X-6.997 Z8.949
X-7.127 Z8.899
X-7.249 Z8.83
X-7.363 Z8.742
X-7.463 Z8.636
X-7.581 Z8.464
X-7.604 Z8.44
X-7.632 Z8.425
X-7.664 Z8.42
X-7.78
X-7.803 Y-62.928
X-7.826 Y-62.923 Z8.419
X-7.848 Y-62.914
X-7.868 Y-62.901 Z8.417
X-7.886 Y-62.886 Z8.416
X-7.902 Y-62.868 Z8.414
X-7.914 Y-62.848 Z8.412
X-7.923 Y-62.826 Z8.41
X-7.929 Y-62.804 Z8.408
X-7.931 Y-62.78 Z8.405
X-7.929 Y-62.757 Z8.403
X-7.923 Y-62.734 Z8.401
X-7.914 Y-62.712 Z8.399
X-7.902 Y-62.692 Z8.397
X-7.886 Y-62.674 Z8.395
X-7.868 Y-62.659 Z8.394
X-7.848 Y-62.646 Z8.392
X-7.826 Y-62.637 Z8.391
X-7.803 Y-62.632
X-7.78 Y-62.63
X-7.747 Z8.396
X-7.718 Z8.412
X-7.696 Z8.436
X-7.631 Z8.537
X-7.534 Z8.649
X-7.372 Z8.793
X-7.224 Z8.886
X-7.05 Z8.966
X-6.866 Z9.012
X-6.758 Z9.023
X-6.567 Z9.018
X-6.057 Z8.944
X-5.772 Z8.929
X-5.625 Z8.9
X-5.432 Z8.835
X-5.257 Z8.805
X-4.973 Z8.707
X-4.751 Z8.71
X-4.44 Z8.684
X-4.255 Z8.639
X-3.445 Z8.631
X-3.21 Z8.669
X-2.973 Z8.673
X-2.8 Z8.654
X-2.292 Z8.655
X-2.02 Z8.674
X-1.819 Z8.676
X-1.61 Z8.649
X-0.936 Z8.541
X-0.653 Z8.484
X-0.414 Z8.475
X-0.275 Z8.462
X0.173 Z8.465
X0.751 Z8.464
X0.893 Z8.469
X1.125
X1.51 Z8.459
X1.585 Z8.464
X1.776 Z8.504
X1.93 Z8.521
X2.06 Z8.518
X2.268 Z8.543
X2.863 Z8.655
X3.276 Z8.749
X3.578 Z8.785
X4.451 Z8.891
X4.718 Z8.917
X4.853 Z8.942
X5.123 Z8.952
X5.394 Z8.985
X5.624 Z8.988
X6.322 Z8.917
X6.665 Z8.865
X6.82 Z8.856
X7.047 Z8.836
X7.492 Z8.747
X7.839 Z8.664
X8.177 Z8.647
X8.34 Z8.653
X8.782 Z8.648
X9.087 Z8.654
X9.704 Z8.624
X9.914 Z8.597
X10.516 Z8.561
X10.724 Z8.515
X10.926 Z8.488
X11.295 Z8.447
X11.573 Z8.379
X11.788 Z8.35
X12.026 Z8.301
X12.196 Z8.286
X12.34 Z8.251
X12.481 Z8.197
X12.598 Z8.181
X12.782 Z8.143
X12.977 Z8.07
X13.252 Z7.994
X13.617 Z7.907
X13.81 Z7.83
X13.92 Z7.801
X14.208 Z7.714
X14.544 Z7.591
X14.892 Z7.434
X16.293 Z6.887
X17.277 Z6.489
X17.674 Z6.311
X17.955 Z6.162
X18.155 Z6.029
X18.363 Z5.852
X18.506 Z5.685
X18.625 Z5.512
X18.722 Z5.324
X18.813 Z5.073
X18.859 Z4.875
X18.945 Z4.334
X19.89 Z4.559
X20.524 Z4.709
X20.708 Z4.741
X20.809 Z4.76
X20.987 Z4.772
X21.288 Z4.744
X21.532 Z4.692
X21.859 Z4.602
X21.895 Z4.599
X21.929 Z4.609
X21.951 Z4.617
X21.973 Z4.619
X22.325
G3 X22.325 Y-62.33 I0 J0.15
G1 X22.302 Z4.617
X22.281 Z4.609
X22.278 Z4.608
X22.241 Z4.598
X22.203 Z4.602
X22.199 Z4.604
X21.986 Z4.673
X21.698 Z4.731
X21.163 Z4.752
X20.89 Z4.74
X20.678 Z4.705
X20.448 Z4.63
X19.902 Z4.396
X19.616 Z4.31
X19.471 Z4.284
X19.168 Z4.253
X19.123 Z4.245
X19.046 Z4.742
X18.969 Z5.071
X18.865 Z5.331
X18.724 Z5.563
X18.569 Z5.745
X18.39 Z5.901
X18.165 Z6.063
X17.969 Z6.167
X17.497 Z6.391
X16.733 Z6.701
X15.725 Z7.091
X15.339 Z7.262
X15.215 Z7.312
X15.093 Z7.373
X14.355 Z7.702
X14.149 Z7.771
X13.455 Z7.991
X13.186 Z8.088
X12.859 Z8.163
X12.356 Z8.315
X12.135 Z8.369
X11.677 Z8.434
X11.534 Z8.443
X11.26 Z8.51
X10.779 Z8.566
X10.624 Z8.576
X10.344 Z8.614
X10.032 Z8.629
X9.707 Z8.649
X9.262 Z8.673
X9.034 Z8.667
X8.746 Z8.68
X8.153 Z8.653
X7.96 Z8.642
X7.689 Z8.653
X7.499 Z8.688
X7.236 Z8.751
X7.013 Z8.794
X6.71 Z8.812
X6.29 Z8.884
X5.914 Z8.927
X5.769 Z8.953
X5.618 Z8.96
X5.423 Z8.937
X5.274 Z8.923
X5.107 Z8.931
X4.844 Z8.905
X4.542 Z8.909
X3.873 Z8.816
X3.284 Z8.761
X2.979 Z8.71
X2.729 Z8.67
X2.313 Z8.594
X2.048 Z8.578
X1.86 Z8.565
X1.624 Z8.509
X1.197 Z8.508
X0.942 Z8.499
X0.85 Z8.49
X0.736 Z8.5
X0.561 Z8.496
X0.025 Z8.479
X-0.285 Z8.471
X-0.531 Z8.461
X-0.851 Z8.509
X-1.169 Z8.579
X-1.506 Z8.633
X-1.713 Z8.654
X-1.835 Z8.656
X-2.101 Z8.687
X-2.446 Z8.684
X-2.851 Z8.694
X-3.141 Z8.672
X-3.428 Z8.641
X-4.045 Z8.637
X-4.575 Z8.652
X-4.768 Z8.671
X-4.957 Z8.677
X-5.166 Z8.747
X-5.35 Z8.792
X-5.735 Z8.909
X-5.94 Z8.937
X-6.243 Z8.984
X-6.473
X-6.648 Z8.991
X-6.83 Z8.997
X-6.984 Z8.978
X-7.184 Z8.925
X-7.312 Z8.871
X-7.433 Z8.798
X-7.623 Z8.645
X-7.742 Z8.507
X-7.807 Z8.401
X-7.83 Z8.376
X-7.859 Z8.36
X-7.892 Z8.354
X-7.992
X-8.016 Y-62.328
X-8.039 Y-62.323 Z8.353
X-8.06 Y-62.314
X-8.08 Y-62.301
X-8.098 Y-62.286 Z8.352
X-8.114 Y-62.268 Z8.351
X-8.126 Y-62.248 Z8.35
X-8.135 Y-62.226 Z8.349
X-8.14 Y-62.204 Z8.348
X-8.142 Y-62.18 Z8.347
X-8.14 Y-62.157 Z8.346
X-8.135 Y-62.134 Z8.345
X-8.126 Y-62.112 Z8.344
X-8.114 Y-62.092 Z8.343
X-8.098 Y-62.074 Z8.342
X-8.08 Y-62.059
X-8.06 Y-62.046 Z8.341
X-8.039 Y-62.037
X-8.016 Y-62.032
X-7.992 Y-62.03 Z8.34
X-7.96 Z8.346
X-7.932 Z8.361
X-7.91 Z8.384
X-7.827 Z8.505
X-7.68 Z8.66
X-7.57 Z8.747
X-7.393 Z8.857
X-7.264 Z8.912
X-7.131 Z8.949
X-6.957 Z8.974
X-6.609 Z8.971
X-6.019 Z8.925
X-5.674 Z8.871
X-5.23 Z8.728
X-4.958 Z8.614
X-4.687 Z8.641
X-4.455 Z8.639
X-4.051 Z8.635
X-3.547 Z8.671
X-3.202 Z8.669
X-2.711 Z8.7
X-2.481 Z8.71
X-2.192 Z8.683
X-1.852 Z8.676
X-1.309 Z8.594
X-0.975 Z8.512
X-0.598 Z8.456
X-0.079 Z8.492
X0.254 Z8.507
X0.777 Z8.536
X0.924 Z8.53
X1.036 Z8.536
X1.35 Z8.571
X1.495 Z8.566
X1.684 Z8.564
X1.81 Z8.598
X2.012 Z8.634
X2.457 Z8.663
X2.794 Z8.72
X3.083 Z8.74
X3.218 Z8.757
X3.891 Z8.811
X4.192 Z8.85
X4.459 Z8.902
X4.614 Z8.915
X4.807 Z8.907
X5.117 Z8.911
X5.268 Z8.904
X5.419 Z8.89
X5.479 Z8.896
X5.695 Z8.922
X5.883 Z8.913
X6.126 Z8.853
X6.362 Z8.832
X6.674 Z8.783
X6.9 Z8.759
X7.124 Z8.722
X7.519 Z8.639
X7.657 Z8.637
X8.191 Z8.666
X8.325 Z8.681
X8.527 Z8.699
X9.007 Z8.686
X9.532 Z8.691
X9.924 Z8.661
X10.137 Z8.681
X10.289 Z8.673
X10.495 Z8.631
X10.779 Z8.626
X11.114 Z8.586
X11.363 Z8.534
X11.618 Z8.508
X11.885 Z8.459
X12.149 Z8.421
X12.332 Z8.387
X12.473 Z8.336
X12.55 Z8.324
X12.731 Z8.28
X12.998 Z8.175
X13.096 Z8.164
X13.279 Z8.123
X13.804 Z7.947
X14.234 Z7.799
X14.648 Z7.616
X15.127 Z7.393
X15.304 Z7.284
X15.545 Z7.144
X15.743 Z7.06
X15.886 Z7.009
X17.193 Z6.506
X17.796 Z6.259
X18.22 Z6.042
X18.413 Z5.932
X18.649 Z5.749
X18.808 Z5.598
X18.916 Z5.459
X19.034 Z5.255
X19.133 Z5
X19.205 Z4.716
X19.301 Z4.118
X19.402 Z4.13
X19.903 Z4.269
X20.227 Z4.419
X20.478 Z4.533
X20.799 Z4.631
X21.274 Z4.728
X21.626 Z4.759
X21.894 Z4.743
X22.152 Z4.715
X22.396 Z4.666
X22.537 Z4.618
X22.576 Z4.612
X22.614 Z4.622
X22.635 Z4.63
X22.658 Z4.633
X22.967
X22.99 Y-62.028 Z4.632
X23.013 Y-62.023
X23.035 Y-62.014
X23.055 Y-62.001 Z4.631
X23.073 Y-61.986 Z4.63
X23.088 Y-61.968 Z4.629
X23.101 Y-61.948 Z4.627
X23.11 Y-61.926 Z4.626
X23.115 Y-61.904 Z4.624
X23.117 Y-61.88 Z4.623
X23.115 Y-61.857 Z4.621
X23.11 Y-61.834 Z4.62
X23.101 Y-61.812 Z4.619
X23.088 Y-61.792 Z4.617
X23.073 Y-61.774 Z4.616
X23.055 Y-61.759 Z4.615
X23.035 Y-61.746 Z4.614
X23.013 Y-61.737
X22.99 Y-61.732 Z4.613
X22.967 Y-61.73
X22.944 Z4.611
X22.923 Z4.603
X22.896 Z4.594
X22.868
X22.84 Z4.601
X22.661 Z4.675
X22.419 Z4.747
X22.232 Z4.768
X21.982
X21.624 Z4.735
X21.226 Z4.644
X20.905 Z4.539
X20.744 Z4.467
X20.391 Z4.346
X20.263 Z4.313
X19.726 Z4.209
X19.449 Z4.133
X19.354 Z4.675
X19.28 Z4.948
X19.203 Z5.151
X19.066 Z5.397
X18.898 Z5.604
X18.722 Z5.761
X18.54 Z5.881
X18.225 Z6.061
X17.955 Z6.194
X17.054 Z6.548
X16.478 Z6.74
X16.142 Z6.879
X15.874 Z6.962
X15.479 Z7.214
X15.303 Z7.328
X14.96 Z7.521
X14.5 Z7.763
X14.332 Z7.844
X14.046 Z7.938
X13.722 Z8.072
X13.146 Z8.253
X12.85 Z8.315
X12.675 Z8.339
X12.614 Z8.348
X12.385 Z8.433
X12.128 Z8.488
X11.647 Z8.577
X11.475 Z8.612
X11.246 Z8.619
X10.957 Z8.659
X10.631 Z8.677
X10.304 Z8.715
X10.157 Z8.719
X9.977 Z8.702
X9.594 Z8.71
X9.502 Z8.705
X9.214 Z8.724
X9.045 Z8.715
X8.869 Z8.697
X8.568 Z8.713
X8.413 Z8.702
X8.127 Z8.675
X7.593 Z8.639
X7.516 Z8.632
X7.297 Z8.635
X6.752 Z8.73
X6.414 Z8.773
X6.131 Z8.804
X5.98 Z8.835
X5.603 Z8.87
X5.432 Z8.862
X5.14 Z8.89
X4.817 Z8.876
X4.605 Z8.891
X4.427 Z8.873
X4.194 Z8.819
X3.219 Z8.754
X2.755 Z8.735
X2.485 Z8.702
X2.103 Z8.688
X1.764 Z8.621
X1.357 Z8.615
X1.146 Z8.584
X0.73 Z8.563
X0.458 Z8.538
X0.052 Z8.526
X-0.487 Z8.469
X-0.756 Z8.461
X-0.952 Z8.491
X-1.234 Z8.576
X-1.492 Z8.629
X-1.718 Z8.654
X-1.898 Z8.69
X-2.567 Z8.73
X-2.722 Z8.726
X-3.162 Z8.697
X-3.443 Z8.693
X-3.864 Z8.642
X-4.692 Z8.633
X-5.002 Z8.625
X-5.131 Z8.609
X-5.577 Z8.775
X-5.77 Z8.819
X-5.982 Z8.848
X-6.134 Z8.857
X-6.49 Z8.916
X-7.011 Z8.947
X-7.166 Z8.935
X-7.358 Z8.885
X-7.495 Z8.835
X-7.619 Z8.769
X-7.734 Z8.684
X-7.885 Z8.529
X-7.976 Z8.41
X-8.002 Z8.368
X-8.025 Z8.342
X-8.054 Z8.326
X-8.088 Z8.32
X-8.188
X-8.212 Y-61.728
X-8.235 Y-61.723 Z8.319
X-8.257 Y-61.714 Z8.317
X-8.277 Y-61.701 Z8.315
X-8.296 Y-61.686 Z8.312
X-8.311 Y-61.668 Z8.309
X-8.324 Y-61.648 Z8.305
X-8.333 Y-61.626 Z8.301
X-8.338 Y-61.604 Z8.297
X-8.34 Y-61.58 Z8.293
X-8.338 Y-61.557 Z8.289
X-8.333 Y-61.534 Z8.284
X-8.324 Y-61.512 Z8.281
X-8.311 Y-61.492 Z8.277
X-8.296 Y-61.474 Z8.274
X-8.277 Y-61.459 Z8.271
X-8.257 Y-61.446 Z8.269
X-8.235 Y-61.437 Z8.267
X-8.212 Y-61.432 Z8.266
X-8.188 Y-61.43
X-8.155 Z8.271
X-8.126 Z8.287
X-8.104 Z8.311
X-8.048 Z8.397
X-7.921 Z8.556
X-7.815 Z8.654
X-7.699 Z8.736
X-7.512 Z8.83
X-7.316 Z8.897
X-7.112 Z8.926
X-6.826 Z8.935
X-6.508 Z8.919
X-6.004 Z8.816
X-5.64 Z8.717
X-5.287 Z8.591
X-5.159 Z8.593
X-5.024 Z8.622
X-4.809 Z8.64
X-3.982 Z8.643
X-3.637 Z8.677
X-2.72 Z8.744
X-2.137 Z8.719
X-1.954 Z8.701
X-1.724 Z8.638
X-1.481 Z8.601
X-1.334 Z8.57
X-0.972 Z8.461
X-0.838 Z8.433
X-0.779 Z8.444
X-0.527 Z8.486
X0.045 Z8.546
X0.355 Z8.565
X0.813 Z8.598
X1.151 Z8.645
X1.53 Z8.659
X1.815 Z8.686
X2.46 Z8.736
X2.995 Z8.749
X3.492 Z8.757
X3.989 Z8.786
X4.2 Z8.796
X4.558 Z8.819
X4.863 Z8.806
X4.993 Z8.817
X5.196 Z8.814
X5.474 Z8.829
X5.627 Z8.823
X5.912 Z8.774
X6.14 Z8.758
X6.311 Z8.726
X6.424 Z8.709
X6.858 Z8.641
X7.137 Z8.61
X7.76 Z8.664
X8.38 Z8.715
X8.753 Z8.731
X8.903 Z8.718
X9.315 Z8.743
X9.556 Z8.728
X9.809 Z8.753
X9.997 Z8.765
X10.545 Z8.736
X10.854 Z8.734
X11.218 Z8.698
X11.447 Z8.684
X11.613 Z8.655
X11.871 Z8.607
X12.35 Z8.494
X12.566 Z8.476
X12.828 Z8.436
X13.25 Z8.323
X13.448 Z8.245
X13.652 Z8.196
X13.819 Z8.143
X14.141 Z7.993
X14.642 Z7.763
X14.988 Z7.575
X15.146 Z7.486
X15.312 Z7.402
X16.009 Z6.944
X16.214 Z6.784
X16.25 Z6.769
X16.72 Z6.636
X17.151 Z6.493
X18.044 Z6.163
X18.224 Z6.086
X18.644 Z5.848
X18.771 Z5.769
X18.89 Z5.684
X19.025 Z5.564
X19.173 Z5.398
X19.319 Z5.164
X19.42 Z4.937
X19.5 Z4.673
X19.606 Z4.119
X19.607
X20.061 Z4.205
X20.463 Z4.233
X20.663 Z4.284
X21.265 Z4.552
X21.669 Z4.696
X21.935 Z4.763
X22.139 Z4.783
X22.293 Z4.787
X22.554 Z4.748
X22.734 Z4.7
X22.956 Z4.595
X23.113 Z4.503
X23.146 Z4.492
X23.181 Z4.491
X23.213 Z4.503
X23.24 Z4.526
X23.257 Z4.556
X23.264 Z4.59
X23.268 Y-61.425 Z4.641
X23.281 Y-61.41 Z4.689
X23.302 Y-61.386 Z4.73
X23.328 Y-61.355 Z4.762
X23.36 Y-61.319 Z4.781
X23.393 Y-61.28 Z4.788
X23.427 Y-61.241 Z4.781
X23.458 Y-61.205 Z4.762
X23.485 Y-61.174 Z4.73
X23.506 Y-61.15 Z4.689
X23.518 Y-61.135 Z4.641
X23.523 Y-61.13 Z4.59
Z4.493
X23.517 Z4.46
X23.501 Z4.431
X23.477 Z4.409
X23.446 Z4.396
X23.413 Z4.394
X23.38 Z4.403
X22.982 Z4.589
X22.662 Z4.699
X22.478 Z4.735
X22.328 Z4.748
X22.099 Z4.73
X21.897 Z4.694
X21.669 Z4.615
X21.45 Z4.513
X21.216 Z4.369
X21.083 Z4.3
X20.901 Z4.23
X20.38 Z4.103
X20.248 Z4.086
X19.925 Z4.066
X19.762 Z4.032
X19.67 Z4.517
X19.584 Z4.837
X19.496 Z5.06
X19.35 Z5.304
X19.265 Z5.414
X19.11 Z5.565
X18.937 Z5.703
X18.813 Z5.782
X18.682 Z5.857
X18.202 Z6.108
X18.022 Z6.183
X17.593 Z6.331
X16.896 Z6.544
X16.752 Z6.582
X16.575 Z6.621
X16.202 Z6.891
X15.976 Z7.059
X15.66 Z7.266
X15.085 Z7.603
X14.951 Z7.667
X14.768 Z7.77
X14.426 Z7.931
X14.238 Z8.029
X14.135 Z8.075
X13.967 Z8.163
X13.696 Z8.279
X13.516 Z8.329
X13.223 Z8.42
X13.098 Z8.472
X12.955 Z8.509
X12.731 Z8.556
X12.341 Z8.656
X12.079 Z8.683
X11.883 Z8.684
X11.549 Z8.753
X10.692 Z8.813
X10.51 Z8.801
X10.323 Z8.822
X9.977 Z8.819
X9.822 Z8.801
X9.679 Z8.781
X9.452 Z8.762
X9.189 Z8.756
X8.956 Z8.761
X8.712 Z8.734
X8.645 Z8.723
X8.445 Z8.717
X8.177 Z8.721
X7.735 Z8.665
X7.01 Z8.602
X6.937 Z8.598
X6.33 Z8.69
X5.899 Z8.751
X5.608 Z8.765
X5.161 Z8.745
X4.723 Z8.76
X4.508 Z8.778
X4.302 Z8.766
X4.087 Z8.777
X3.943 Z8.766
X3.663 Z8.741
X3.311 Z8.735
X2.846 Z8.756
X2.401 Z8.774
X1.724 Z8.722
X1.399 Z8.73
X1.128 Z8.704
X0.791 Z8.654
X0.363 Z8.601
X0.167 Z8.592
X0.032 Z8.566
X-0.496 Z8.515
X-0.988 Z8.423
X-1.332 Z8.536
X-1.628 Z8.599
X-1.828 Z8.671
X-2.049 Z8.715
X-2.235 Z8.727
X-2.374 Z8.715
X-2.592 Z8.746
X-2.913 Z8.742
X-3.938 Z8.675
X-4.13 Z8.649
X-4.554 Z8.646
X-5.083 Z8.615
X-5.359 Z8.573
X-5.408 Z8.583
X-5.548 Z8.641
X-5.689 Z8.688
X-6.045 Z8.794
X-6.465 Z8.89
X-6.752 Z8.913
X-7.086 Z8.894
X-7.39 Z8.849
X-7.589 Z8.795
X-7.716 Z8.736
X-7.921 Z8.6
X-8.053 Z8.478
X-8.194 Z8.305
X-8.219 Z8.266
X-8.241 Z8.241
X-8.27 Z8.225
X-8.303 Z8.22
X-8.415
X-8.439 Y-61.128
X-8.462 Y-61.123 Z8.219
X-8.484 Y-61.114 Z8.218
X-8.504 Y-61.101 Z8.216
X-8.522 Y-61.086 Z8.214
X-8.537 Y-61.068 Z8.211
X-8.55 Y-61.048 Z8.208
X-8.559 Y-61.026 Z8.205
X-8.564 Y-61.004 Z8.202
X-8.566 Y-60.98 Z8.199
X-8.564 Y-60.957 Z8.195
X-8.559 Y-60.934 Z8.192
X-8.55 Y-60.912 Z8.189
X-8.537 Y-60.892 Z8.186
X-8.522 Y-60.874 Z8.184
X-8.504 Y-60.859 Z8.181
X-8.484 Y-60.846 Z8.18
X-8.462 Y-60.837 Z8.178
X-8.439 Y-60.832
X-8.415 Y-60.83 Z8.177
X-8.384 Z8.182
X-8.355 Z8.197
X-8.333 Z8.22
X-8.232 Z8.363
X-8.109 Z8.496
X-7.942 Z8.624
X-7.821 Z8.694
X-7.629 Z8.773
X-7.465 Z8.809
X-7.049 Z8.842
X-6.819 Z8.85
X-6.677 Z8.833
X-6.024 Z8.747
X-5.853 Z8.7
X-5.472 Z8.555
X-5.425
X-5.198 Z8.602
X-5.053 Z8.622
X-4.853 Z8.618
X-4.12 Z8.662
X-3.816 Z8.704
X-3.03 Z8.748
X-2.596 Z8.75
X-2.078 Z8.708
X-1.875 Z8.671
X-1.083 Z8.41
X-0.45 Z8.552
X-0.231 Z8.576
X0.102 Z8.642
X0.291 Z8.666
X0.635 Z8.668
X0.948 Z8.716
X1.124 Z8.733
X1.258 Z8.756
X1.478 Z8.782
X1.897 Z8.77
X2.181 Z8.786
X2.625 Z8.775
X3.082 Z8.719
X3.772 Z8.711
X4.037 Z8.75
X4.541 Z8.745
X4.676 Z8.73
X5.189 Z8.7
X5.603 Z8.675
X5.729 Z8.676
X5.942 Z8.7
X6.167 Z8.686
X6.523 Z8.611
X6.736 Z8.575
X6.836 Z8.584
X7.794 Z8.681
X7.959 Z8.724
X8.141 Z8.753
X8.298 Z8.752
X8.523 Z8.721
X8.672 Z8.754
X8.882 Z8.773
X9.429 Z8.784
X9.647 Z8.834
X9.975 Z8.86
X10.164 Z8.849
X10.56 Z8.863
X10.766 Z8.861
X11.116 Z8.86
X11.55 Z8.803
X11.66 Z8.809
X11.891 Z8.825
X12.267 Z8.794
X12.561 Z8.722
X12.832 Z8.633
X13.016 Z8.588
X13.194 Z8.537
X13.399 Z8.442
X13.582 Z8.395
X13.789 Z8.321
X13.931 Z8.267
X14.136 Z8.181
X14.385 Z8.025
X14.933 Z7.745
X15.301 Z7.549
X15.76 Z7.286
X16.694 Z6.657
X16.907 Z6.503
X16.927 Z6.499
X17.269 Z6.409
X18.041 Z6.169
X18.294 Z6.073
X18.699 Z5.87
X19.019 Z5.684
X19.2 Z5.551
X19.381 Z5.368
X19.524 Z5.183
X19.648 Z4.952
X19.736 Z4.72
X19.81 Z4.458
X19.927 Z3.866
X20.162 Z3.892
X20.382 Z3.972
X20.578 Z4.042
X20.973 Z4.115
X21.031 Z4.141
X21.383 Z4.347
X21.66 Z4.482
X21.788 Z4.535
X21.993 Z4.597
X22.28 Z4.639
X22.433 Z4.644
X22.726 Z4.61
X23.02 Z4.567
X23.451 Z4.486
X23.667 Z4.42
X23.705 Z4.416
X23.741 Z4.426
X23.762 Z4.434
X23.785 Z4.436
X24.08
X24.104 Y-60.828 Z4.437
X24.127 Y-60.823 Z4.438
X24.149 Y-60.814 Z4.439
X24.169 Y-60.801 Z4.442
X24.188 Y-60.786 Z4.444
X24.203 Y-60.768 Z4.448
X24.216 Y-60.748 Z4.451
X24.225 Y-60.726 Z4.455
X24.23 Y-60.704 Z4.46
X24.232 Y-60.68 Z4.464
X24.23 Y-60.657 Z4.468
X24.225 Y-60.634 Z4.472
X24.216 Y-60.612 Z4.476
X24.203 Y-60.592 Z4.48
X24.188 Y-60.574 Z4.483
X24.169 Y-60.559 Z4.486
X24.149 Y-60.546 Z4.488
X24.127 Y-60.537 Z4.49
X24.104 Y-60.532 Z4.491
X24.08 Y-60.53
X24.057 Z4.489
X24.036 Z4.481
X24.002 Z4.472
X23.967 Z4.474
X23.75 Z4.529
X23.507 Z4.563
X23.22 Z4.569
X22.926 Z4.555
X22.628 Z4.528
X22.065 Z4.449
X21.865 Z4.402
X21.49 Z4.287
X20.971 Z4.071
X20.435 Z3.889
X20.067 Z3.713
X19.989 Z4.174
X19.903 Z4.521
X19.811 Z4.793
X19.675 Z5.064
X19.557 Z5.239
X19.388 Z5.428
X19.165 Z5.619
X18.979 Z5.733
X18.473 Z5.993
X18.283 Z6.066
X17.886 Z6.203
X17.392 Z6.349
X17.255 Z6.378
X16.41 Z6.965
X16.026 Z7.206
X15.507 Z7.504
X15.326 Z7.623
X14.964 Z7.824
X14.45 Z8.084
X14.27 Z8.23
X14.09 Z8.339
X13.919 Z8.404
X13.773 Z8.435
X13.675 Z8.445
X13.469 Z8.536
X13.123 Z8.638
X12.83 Z8.724
X12.561 Z8.824
X12.341 Z8.871
X12.117 Z8.906
X11.741 Z8.951
X11.511 Z8.952
X11.123 Z8.921
X10.556 Z8.927
X10.33 Z8.9
X9.765 Z8.887
X9.579 Z8.857
X9.48 Z8.834
X9.238 Z8.828
X8.875 Z8.764
X8.593 Z8.756
X8.381 Z8.739
X8.254 Z8.758
X8.103 Z8.761
X7.942 Z8.739
X7.683 Z8.685
X7.37 Z8.663
X6.848 Z8.6
X6.472 Z8.547
X6.054 Z8.609
X5.832 Z8.617
X5.75 Z8.616
X5.52 Z8.652
X4.547 Z8.699
X4.334 Z8.709
X4.024 Z8.704
X3.86 Z8.679
X3.246 Z8.685
X2.618 Z8.774
X1.792 Z8.816
X1.599 Z8.812
X1.329 Z8.777
X1.056 Z8.769
X0.854 Z8.737
X0.152 Z8.696
X-0.03 Z8.669
X-0.295 Z8.608
X-0.661 Z8.551
X-0.87 Z8.508
X-1.111 Z8.44
X-1.243 Z8.41
X-1.447 Z8.508
X-1.804 Z8.624
X-2.022 Z8.687
X-2.453 Z8.744
X-2.604 Z8.743
X-2.897 Z8.767
X-3.659 Z8.736
X-3.795 Z8.719
X-4.064 Z8.682
X-4.593 Z8.647
X-4.947 Z8.603
X-5.234 Z8.576
X-5.537 Z8.53
X-5.801 Z8.645
X-6.091 Z8.719
X-6.392 Z8.753
X-6.727 Z8.794
X-6.911 Z8.816
X-7.131 Z8.813
X-7.491 Z8.789
X-7.626 Z8.765
X-7.823 Z8.705
X-8.01 Z8.612
X-8.182 Z8.486
X-8.332 Z8.337
X-8.415 Z8.232
X-8.45 Z8.177
X-8.472 Z8.152
X-8.501 Z8.136
X-8.534 Z8.131
X-8.651
X-8.675 Y-60.528 Z8.13
X-8.698 Y-60.523 Z8.129
X-8.72 Y-60.514 Z8.128
X-8.74 Y-60.501 Z8.126
X-8.758 Y-60.486 Z8.123
X-8.774 Y-60.468 Z8.12
X-8.786 Y-60.448 Z8.117
X-8.796 Y-60.426 Z8.113
X-8.801 Y-60.404 Z8.109
X-8.803 Y-60.38 Z8.105
X-8.801 Y-60.357 Z8.101
X-8.796 Y-60.334 Z8.097
X-8.786 Y-60.312 Z8.093
X-8.774 Y-60.292 Z8.09
X-8.758 Y-60.274 Z8.087
X-8.74 Y-60.259 Z8.084
X-8.72 Y-60.246 Z8.082
X-8.698 Y-60.237 Z8.081
X-8.675 Y-60.232 Z8.08
X-8.651 Y-60.23 Z8.079
X-8.619 Z8.085
X-8.59 Z8.1
X-8.568 Z8.124
X-8.534 Z8.174
X-8.408 Z8.336
X-8.303 Z8.433
X-8.132 Z8.561
X-7.946 Z8.652
X-7.748 Z8.717
X-7.569 Z8.75
X-7.105 Z8.795
X-6.8 Z8.782
X-6.532 Z8.728
X-6.34 Z8.718
X-6.153 Z8.697
X-5.859 Z8.629
X-5.703 Z8.574
X-5.592 Z8.518
X-5.287 Z8.578
X-4.715 Z8.637
X-4.429 Z8.674
X-3.989 Z8.706
X-3.626 Z8.749
X-3.114 Z8.777
X-2.868 Z8.766
X-2.423 Z8.734
X-2.032 Z8.658
X-1.632 Z8.53
X-1.353 Z8.407
X-1.092 Z8.501
X-0.893 Z8.556
X-0.68 Z8.582
X-0.491 Z8.637
X-0.206 Z8.681
X0.211 Z8.732
X0.449 Z8.753
X1.261 Z8.803
X1.771 Z8.844
X1.926 Z8.843
X2.529 Z8.778
X3.037 Z8.694
X3.4 Z8.65
X3.886 Z8.645
X4.156 Z8.666
X4.574 Z8.64
X4.77 Z8.642
X5.037 Z8.626
X5.385 Z8.619
X5.613 Z8.611
X5.846 Z8.567
X6.06 Z8.559
X6.226 Z8.528
X6.289 Z8.541
X6.543 Z8.581
X6.99 Z8.636
X7.219 Z8.65
X7.486 Z8.7
X7.665 Z8.713
X7.891 Z8.743
X8.094 Z8.758
X8.287 Z8.745
X8.512 Z8.756
X8.722 Z8.8
X8.934 Z8.811
X9.137 Z8.848
X9.514 Z8.871
X9.71 Z8.915
X9.865 Z8.926
X10.029 Z8.912
X10.174 Z8.928
X10.568 Z8.955
X10.723 Z8.975
X11.052 Z9.058
X11.237 Z9.086
X11.469 Z9.087
X11.976 Z9.022
X12.336 Z8.934
X12.483 Z8.92
X12.683 Z8.871
X12.862 Z8.8
X13.225 Z8.678
X13.336 Z8.654
X13.515 Z8.604
X13.663 Z8.533
X13.791 Z8.528
X13.865 Z8.518
X14.082 Z8.46
X14.245 Z8.384
X14.392 Z8.279
X14.55 Z8.128
X14.95 Z7.924
X15.416 Z7.678
X15.604 Z7.559
X15.842 Z7.376
X16.208 Z7.18
X16.716 Z6.858
X17.198 Z6.516
X17.39 Z6.395
X17.576 Z6.267
X17.732 Z6.23
X17.948 Z6.173
X18.217 Z6.062
X18.502 Z5.97
X19 Z5.733
X19.157 Z5.638
X19.366 Z5.479
X19.514 Z5.346
X19.69 Z5.147
X19.843 Z4.902
X19.925 Z4.731
X20.039 Z4.398
X20.122 Z4.069
X20.185 Z3.684
X20.973 Z3.998
X21.356 Z4.138
X21.783 Z4.229
X22.154 Z4.281
X22.348 Z4.343
X22.631 Z4.435
X22.885 Z4.505
X23.118 Z4.563
X23.465 Z4.606
X23.679 Z4.617
X23.904 Z4.594
X24.069 Z4.563
X24.264 Z4.491
X24.29 Z4.485
X24.317 Z4.486
X24.343 Z4.495
X24.364 Z4.502
X24.387 Z4.505
X24.6
X24.624 Y-60.228
X24.647 Y-60.223 Z4.506
X24.669 Y-60.214 Z4.507
X24.689 Y-60.201 Z4.509
X24.707 Y-60.186 Z4.511
X24.723 Y-60.168 Z4.514
X24.735 Y-60.148 Z4.517
X24.744 Y-60.126 Z4.52
X24.75 Y-60.104 Z4.523
X24.752 Y-60.08 Z4.526
X24.75 Y-60.057 Z4.529
X24.744 Y-60.034 Z4.533
X24.735 Y-60.012 Z4.536
X24.723 Y-59.992 Z4.539
X24.707 Y-59.974 Z4.541
X24.689 Y-59.959 Z4.543
X24.669 Y-59.946 Z4.545
X24.647 Y-59.937 Z4.546
X24.624 Y-59.932 Z4.547
X24.6 Y-59.93
X24.578 Z4.545
X24.556 Z4.537
X24.53 Z4.528
X24.502 Z4.527
X24.475 Z4.534
X24.336 Z4.59
X24.192 Z4.625
X23.948 Z4.66
X23.737 Z4.652
X23.458 Z4.621
X23.183 Z4.552
X22.784 Z4.395
X22.542 Z4.27
X22.264 Z4.15
X22.117 Z4.099
X21.565 Z4.046
X21.16 Z3.95
X20.867 Z3.838
X20.37 Z3.633
X20.295 Z3.598
X20.251 Z3.865
X20.154 Z4.278
X20.077 Z4.534
X19.973 Z4.79
X19.819 Z5.052
X19.648 Z5.259
X19.471 Z5.42
X19.18 Z5.621
X18.987 Z5.735
X18.639 Z5.875
X18.321 Z6.021
X18.039 Z6.128
X17.814 Z6.189
X17.199 Z6.636
X16.834 Z6.872
X16.331 Z7.18
X16.106 Z7.3
X15.934 Z7.444
X15.666 Z7.619
X15.508 Z7.718
X15.38 Z7.792
X15.113 Z7.932
X14.642 Z8.16
X14.424 Z8.347
X14.268 Z8.44
X14.098 Z8.517
X13.956 Z8.557
X13.883 Z8.568
X13.732 Z8.577
X13.528 Z8.663
X13.31 Z8.722
X13.02 Z8.842
X12.639 Z8.955
X12.416 Z8.992
X11.991 Z9.112
X11.617 Z9.167
X11.467 Z9.184
X11.277 Z9.192
X11.161 Z9.184
X10.875 Z9.148
X10.612 Z9.069
X10.396 Z9
X10.14 Z8.96
X9.837 Z8.932
X9.632 Z8.921
X9.059 Z8.868
X8.861 Z8.827
X8.64 Z8.82
X8.433 Z8.781
X8.16 Z8.725
X7.775 Z8.731
X7.528 Z8.706
X7.277 Z8.675
X6.967 Z8.666
X6.757 Z8.623
X6.525 Z8.617
X6.347 Z8.58
X6.183 Z8.535
X5.95 Z8.502
X5.651 Z8.562
X5.451 Z8.577
X5.223 Z8.578
X5.006 Z8.607
X4.653
X4.549 Z8.604
X4.345 Z8.622
X4.081 Z8.611
X3.55 Z8.616
X3.094 Z8.677
X2.901 Z8.685
X2.343 Z8.788
X1.891 Z8.838
X1.74 Z8.842
X0.866 Z8.82
X0.483 Z8.795
X0.33 Z8.775
X0.127 Z8.773
X-0.219 Z8.719
X-0.423 Z8.689
X-0.739 Z8.615
X-0.99 Z8.582
X-1.172 Z8.523
X-1.462 Z8.405
X-1.719 Z8.52
X-1.972 Z8.592
X-2.238 Z8.679
X-2.458 Z8.729
X-2.985 Z8.765
X-3.125 Z8.77
X-3.385 Z8.78
X-4.26 Z8.704
X-4.606 Z8.656
X-4.831 Z8.628
X-5.094 Z8.575
X-5.27 Z8.577
X-5.466 Z8.547
X-5.669 Z8.502
X-5.863 Z8.601
X-6.002 Z8.649
X-6.148 Z8.677
X-6.376 Z8.696
X-6.647 Z8.714
X-6.896 Z8.76
X-7.202 Z8.767
X-7.577 Z8.717
X-7.836 Z8.68
X-7.977 Z8.644
X-8.167 Z8.561
X-8.348 Z8.454
X-8.516 Z8.317
X-8.613 Z8.207
X-8.686 Z8.101
X-8.708 Z8.078
X-8.737 Z8.063
X-8.768 Z8.058
X-8.884
X-8.908 Y-59.928
X-8.93 Y-59.923
X-8.952 Y-59.914
X-8.972 Y-59.902 Z8.057
X-8.99 Y-59.886 Z8.056
X-9.006 Y-59.868 Z8.055
X-9.018 Y-59.848
X-9.027 Y-59.826 Z8.054
X-9.032 Y-59.804 Z8.053
X-9.034 Y-59.78 Z8.051
X-9.032 Y-59.757 Z8.05
X-9.027 Y-59.734 Z8.049
X-9.018 Y-59.712 Z8.048
X-9.006 Y-59.692 Z8.047
X-8.99 Y-59.674
X-8.972 Y-59.659 Z8.046
X-8.952 Y-59.646 Z8.045
X-8.93 Y-59.637
X-8.908 Y-59.632
X-8.884 Y-59.63
X-8.854 Z8.049
X-8.826 Z8.063
X-8.804 Z8.085
X-8.722 Z8.195
X-8.623 Z8.293
X-8.458 Z8.425
X-8.263 Z8.535
X-8.088 Z8.611
X-7.954 Z8.647
X-7.367 Z8.721
X-7.212 Z8.735
X-6.879 Z8.719
X-6.745 Z8.693
X-6.468 Z8.678
X-6.056 Z8.629
X-5.915 Z8.588
X-5.714 Z8.492
X-5.617 Z8.517
X-5.414 Z8.562
X-5.217 Z8.573
X-4.962 Z8.597
X-4.827 Z8.628
X-4.677 Z8.649
X-4.392 Z8.694
X-3.728 Z8.76
X-3.375 Z8.779
X-3.01 Z8.774
X-2.725 Z8.737
X-2.612 Z8.731
X-2.426 Z8.706
X-2.288 Z8.663
X-2.1 Z8.621
X-1.96 Z8.572
X-1.779 Z8.483
X-1.558 Z8.419
X-1.302 Z8.516
X-0.946 Z8.622
X-0.163 Z8.771
X0.03 Z8.779
X0.115 Z8.787
X0.333 Z8.801
X0.564 Z8.836
X1.18 Z8.853
X1.72 Z8.846
X2.062 Z8.809
X2.879 Z8.658
X3.148 Z8.65
X3.435 Z8.608
X3.879 Z8.596
X4.11 Z8.578
X4.448 Z8.589
X4.6 Z8.568
X5.02 Z8.589
X5.17 Z8.573
X5.311 Z8.538
X5.417 Z8.531
X5.609 Z8.505
X5.747 Z8.491
X6.041 Z8.562
X6.452 Z8.618
X6.714 Z8.652
X6.864 Z8.685
X7.019 Z8.705
X7.289 Z8.699
X7.516 Z8.721
X7.742 Z8.713
X8.113 Z8.758
X8.179 Z8.776
X8.446 Z8.84
X8.591 Z8.85
X8.816 Z8.841
X8.862 Z8.849
X9.12 Z8.891
X9.345
X10.128 Z9.01
X10.412 Z9.125
X10.731 Z9.215
X10.951 Z9.262
X11.159 Z9.276
X11.468
X11.617 Z9.259
X12.231 Z9.121
X12.707 Z8.999
X13.07 Z8.891
X13.625 Z8.7
X13.886 Z8.581
X14.045 Z8.558
X14.221 Z8.503
X14.37 Z8.428
X14.58 Z8.288
X14.849 Z8.132
X15.363 Z7.892
X15.755 Z7.672
X16.157 Z7.395
X16.324 Z7.245
X16.583 Z7.107
X16.777 Z6.99
X17.352 Z6.626
X17.582 Z6.452
X18.1 Z6.079
X18.263 Z6.037
X18.333 Z6.014
X18.952 Z5.738
X19.397 Z5.493
X19.6 Z5.336
X19.777 Z5.152
X19.924 Z4.955
X20.075 Z4.666
X20.175 Z4.38
X20.294 Z3.895
X20.36 Z3.487
X20.757 Z3.653
X21.079 Z3.764
X21.228 Z3.807
X21.361 Z3.836
X21.496 Z3.859
X22.142 Z3.919
X22.23 Z3.946
X22.412 Z4.059
X22.528 Z4.115
X22.762 Z4.277
X23.016 Z4.417
X23.263 Z4.533
X23.474 Z4.613
X23.775 Z4.675
X23.952 Z4.693
X24.257 Z4.675
X24.476 Z4.624
X24.684 Z4.546
X24.71 Z4.54
X24.738 Z4.542
X24.763 Z4.55
X24.785 Z4.558
X24.807 Z4.56
X25.016
X25.039 Y-59.628
X25.062 Y-59.623
X25.084 Y-59.614 Z4.559
X25.104 Y-59.602
X25.122 Y-59.586 Z4.558
X25.137 Y-59.568 Z4.557
X25.15 Y-59.548 Z4.556
X25.159 Y-59.527 Z4.555
X25.164 Y-59.504 Z4.553
X25.166 Y-59.48 Z4.552
X25.164 Y-59.457 Z4.551
X25.159 Y-59.434 Z4.55
X25.15 Y-59.412 Z4.548
X25.137 Y-59.392 Z4.547
X25.122 Y-59.374 Z4.546
X25.104 Y-59.359 Z4.545
X25.084 Y-59.347
X25.062 Y-59.338 Z4.544
X25.039 Y-59.332
X25.016 Y-59.33
X24.993 Z4.541
X24.972 Z4.534
X24.946 Z4.525
X24.918 Z4.524
X24.891 Z4.53
X24.696 Z4.607
X24.448 Z4.674
X24.25 Z4.694
X24.028 Z4.69
X23.757 Z4.648
X23.542 Z4.588
X23.366 Z4.514
X23.044 Z4.36
X22.751 Z4.179
X22.408 Z3.923
X22.119 Z3.69
X21.572 Z3.677
X21.334 Z3.648
X21.132 Z3.607
X20.61 Z3.449
X20.418 Z3.413
X20.364 Z3.785
X20.284 Z4.139
X20.17 Z4.531
X20.054 Z4.788
X19.945 Z4.967
X19.813 Z5.134
X19.573 Z5.362
X19.422 Z5.467
X18.838 Z5.781
X18.495 Z5.935
X18.358 Z5.978
X18.147 Z6.144
X17.509 Z6.601
X16.885 Z7.005
X16.755 Z7.076
X16.521 Z7.195
X16.358 Z7.351
X16.182 Z7.478
X15.787 Z7.738
X15.542 Z7.878
X14.641 Z8.328
X14.284 Z8.505
X14.144 Z8.558
X13.811 Z8.711
X13.671 Z8.76
X12.963 Z8.992
X12.673 Z9.079
X12.246 Z9.187
X11.694 Z9.298
X11.533 Z9.327
X11.08 Z9.341
X10.869 Z9.311
X10.502 Z9.229
X10.134 Z9.095
X9.992 Z9.042
X9.568 Z8.935
X9.27 Z8.879
X8.763 Z8.838
X8.457 Z8.84
X8.231 Z8.811
X7.987 Z8.804
X7.792 Z8.772
X7.616 Z8.727
X7.376 Z8.724
X7.25 Z8.717
X7.037 Z8.737
X6.884 Z8.729
X6.606 Z8.674
X6.539 Z8.658
X6.162 Z8.615
X5.755 Z8.524
X5.623 Z8.491
X5.483 Z8.464
X5.388 Z8.477
X5.206 Z8.531
X5.058 Z8.552
X4.872 Z8.548
X4.752 Z8.542
X4.462 Z8.561
X4.217 Z8.546
X3.526 Z8.594
X3.323 Z8.597
X3.113 Z8.626
X2.883 Z8.637
X2.668 Z8.66
X2.014 Z8.792
X1.789 Z8.828
X1.564 Z8.856
X0.792 Z8.877
X0.637 Z8.873
X0.254 Z8.819
X0.022 Z8.83
X-0.157 Z8.812
X-0.727 Z8.719
X-1.169 Z8.602
X-1.588 Z8.45
X-1.674 Z8.414
X-1.842 Z8.487
X-2.344 Z8.655
X-2.539 Z8.689
X-2.75 Z8.743
X-2.956 Z8.763
X-3.063
X-3.25 Z8.778
X-3.581 Z8.776
X-4.365 Z8.7
X-4.635 Z8.651
X-4.768 Z8.625
X-5.105 Z8.591
X-5.36 Z8.557
X-5.555 Z8.523
X-5.759 Z8.469
X-5.892 Z8.531
X-6.032 Z8.577
X-6.236 Z8.606
X-6.473 Z8.65
X-6.977 Z8.705
X-7.354 Z8.696
X-7.776 Z8.654
X-8.062 Z8.609
X-8.26 Z8.554
X-8.459 Z8.467
X-8.629 Z8.361
X-8.739 Z8.271
X-8.884 Z8.113
X-8.921 Z8.063
X-8.943 Z8.041
X-8.971 Z8.027
X-9.001 Z8.023
X-9.116
X-9.14 Y-59.328 Z8.022
X-9.163 Y-59.323
X-9.185 Y-59.314 Z8.021
X-9.205 Y-59.302 Z8.019
X-9.223 Y-59.286 Z8.018
X-9.238 Y-59.268 Z8.016
X-9.251 Y-59.248 Z8.013
X-9.26 Y-59.227 Z8.011
X-9.265 Y-59.204 Z8.008
X-9.267 Y-59.18 Z8.006
X-9.265 Y-59.157 Z8.003
X-9.26 Y-59.134 Z8.001
X-9.251 Y-59.112 Z7.998
X-9.238 Y-59.092 Z7.996
X-9.223 Y-59.074 Z7.994
X-9.205 Y-59.059 Z7.992
X-9.185 Y-59.047 Z7.991
X-9.163 Y-59.038 Z7.99
X-9.14 Y-59.032 Z7.989
X-9.116 Y-59.03
X-9.087 Z7.994
X-9.06 Z8.007
X-9.038 Z8.027
X-8.962 Z8.122
X-8.811 Z8.273
X-8.698 Z8.362
X-8.516 Z8.463
X-8.32 Z8.536
X-7.684 Z8.647
X-7.144 Z8.688
X-6.955 Z8.682
X-6.784 Z8.648
X-6.492 Z8.626
X-6.157 Z8.563
X-5.978 Z8.513
X-5.847 Z8.454
X-5.791 Z8.45
X-5.633 Z8.5
X-5.432 Z8.549
X-5.219 Z8.563
X-4.951 Z8.616
X-4.649 Z8.647
X-4.366 Z8.698
X-4.215 Z8.72
X-3.588 Z8.775
X-3.356 Z8.776
X-3.124 Z8.768
X-2.896 Z8.754
X-2.675 Z8.706
X-2.167 Z8.566
X-1.956 Z8.472
X-1.802 Z8.428
X-1.507 Z8.51
X-1.17 Z8.625
X-0.792 Z8.727
X-0.56 Z8.79
X-0.308 Z8.815
X-0.072 Z8.853
X0.15 Z8.864
X0.268 Z8.882
X0.509 Z8.895
X0.676 Z8.896
X0.977 Z8.885
X1.359 Z8.868
X2.018 Z8.763
X2.165 Z8.735
X2.431 Z8.67
X2.582 Z8.646
X2.884 Z8.616
X3.711 Z8.556
X4.255 Z8.532
X4.378 Z8.54
X4.609 Z8.537
X4.817 Z8.514
X5.027 Z8.513
X5.176 Z8.495
X5.319 Z8.457
X5.495 Z8.518
X5.663 Z8.545
X6.133 Z8.642
X6.704 Z8.716
X7.014 Z8.739
X7.264 Z8.718
X7.462 Z8.758
X7.713 Z8.789
X7.881 Z8.822
X8.036 Z8.833
X8.275 Z8.82
X8.347 Z8.821
X8.628 Z8.815
X8.693 Z8.825
X9.005 Z8.851
X9.26 Z8.879
X9.597 Z8.962
X9.911 Z9.096
X10.396 Z9.249
X10.66 Z9.322
X10.963 Z9.375
X11.142 Z9.39
X11.45 Z9.378
X11.66 Z9.353
X12.169 Z9.277
X12.578 Z9.2
X13.12 Z9.031
X13.991 Z8.718
X14.21 Z8.604
X14.542 Z8.456
X15.476 Z7.988
X15.805 Z7.801
X16.122 Z7.598
X16.489 Z7.343
X16.65 Z7.189
X16.928 Z7.036
X17.66 Z6.578
X17.868 Z6.432
X18.356 Z6.076
X18.579 Z5.88
X19.069 Z5.667
X19.329 Z5.512
X19.561 Z5.357
X19.744 Z5.21
X19.91 Z5.036
X20.023 Z4.882
X20.154 Z4.638
X20.268 Z4.3
X20.36 Z3.872
X20.434 Z3.363
X20.709 Z3.384
X21.015 Z3.39
X21.42 Z3.459
X21.997 Z3.473
X22.302 Z3.743
X22.605 Z3.983
X22.843 Z4.142
X23.266 Z4.36
X23.672 Z4.543
X23.876 Z4.613
X24.218 Z4.682
X24.373 Z4.691
X24.55 Z4.677
X24.744 Z4.638
X24.93 Z4.583
X25.111 Z4.492
X25.143 Z4.482
X25.177 Z4.484
X25.208 Z4.497
X25.234 Z4.519
X25.25 Z4.548
X25.256 Z4.582
X25.26 Y-59.025 Z4.633
X25.273 Y-59.01 Z4.682
X25.294 Y-58.986 Z4.723
X25.322 Y-58.955 Z4.755
X25.354 Y-58.919 Z4.775
X25.388 Y-58.88 Z4.782
X25.422 Y-58.841 Z4.775
X25.454 Y-58.805 Z4.755
X25.482 Y-58.774 Z4.723
X25.503 Y-58.75 Z4.682
X25.516 Y-58.735 Z4.633
X25.521 Y-58.73 Z4.582
Z4.58
X25.513 Z4.543
X25.493 Z4.512
X25.462 Z4.49
X25.426 Z4.481
X25.388 Z4.486
X25.105 Z4.583
X24.752 Z4.658
X24.527 Z4.683
X24.372 Z4.676
X24.171 Z4.637
X23.973 Z4.58
X23.844 Z4.525
X23.477 Z4.307
X22.895 Z4.047
X22.655 Z3.911
X22.541 Z3.827
X22.354 Z3.713
X22.143 Z3.546
X21.89 Z3.362
X21.667 Z3.361
X21.359 Z3.346
X21.189 Z3.331
X20.569 Z3.328
X20.464 Z3.319
X20.357 Z4.071
X20.26 Z4.468
X20.181 Z4.652
X20.08 Z4.84
X19.961 Z4.992
X19.8 Z5.16
X19.515 Z5.398
X19.202 Z5.6
X19.017 Z5.683
X18.82 Z5.759
X18.6 Z5.957
X18.446 Z6.09
X17.941 Z6.453
X17.494 Z6.733
X17.038 Z7.004
X16.871 Z7.108
X16.812 Z7.147
X16.67 Z7.279
X16.255 Z7.59
X15.873 Z7.833
X15.613 Z7.986
X15.211 Z8.198
X14.482 Z8.568
X14.105 Z8.731
X13.739 Z8.894
X13.221 Z9.087
X12.566 Z9.272
X12.381 Z9.298
X12.267 Z9.308
X12.127 Z9.332
X11.961 Z9.337
X11.657 Z9.381
X11.205 Z9.429
X11.052 Z9.428
X10.917 Z9.407
X10.634 Z9.349
X10.157 Z9.225
X9.722 Z9.075
X9.428 Z8.942
X9.075 Z8.841
X8.277 Z8.814
X7.819 Z8.829
X7.665 Z8.82
X7.378 Z8.788
X7.212 Z8.746
X7.114 Z8.741
X6.9 Z8.768
X6.708 Z8.759
X6.165 Z8.693
X5.416 Z8.53
X5.108 Z8.452
X5.078 Z8.443
X5.019 Z8.456
X4.871 Z8.496
X4.689 Z8.512
X4.482
X4.275 Z8.53
X3.674 Z8.556
X3.516 Z8.549
X3.132 Z8.576
X2.617 Z8.627
X2.466 Z8.638
X2.248 Z8.679
X1.954 Z8.749
X1.605 Z8.811
X1.17 Z8.877
X1.02 Z8.892
X0.431 Z8.921
X0.253 Z8.898
X0.185 Z8.887
X-0.013 Z8.884
X-0.211 Z8.86
X-0.538 Z8.823
X-0.718 Z8.784
X-1.273 Z8.631
X-1.438 Z8.574
X-1.58 Z8.556
X-1.794 Z8.491
X-1.944 Z8.425
X-2.085 Z8.494
X-2.265 Z8.552
X-2.535 Z8.645
X-2.792 Z8.7
X-3.018 Z8.723
X-3.165 Z8.748
X-3.545 Z8.774
X-4.138 Z8.729
X-4.289 Z8.707
X-4.423 Z8.683
X-4.713 Z8.658
X-5.14 Z8.568
X-5.348 Z8.553
X-5.582 Z8.5
X-5.681 Z8.472
X-5.896 Z8.438
X-6.029 Z8.492
X-6.173 Z8.528
X-6.539 Z8.589
X-6.708 Z8.598
X-6.891 Z8.645
X-7.04 Z8.663
X-7.195 Z8.658
X-7.709 Z8.619
X-7.995 Z8.576
X-8.272 Z8.534
X-8.504 Z8.471
X-8.664 Z8.402
X-8.844 Z8.294
X-8.982 Z8.181
X-9.125 Z8.016
X-9.155 Z7.977
X-9.177 Z7.955
X-9.204 Z7.941
X-9.235 Z7.937
X-9.349
X-9.372 Y-58.728 Z7.936
X-9.395 Y-58.723
X-9.417 Y-58.714 Z7.935
X-9.437 Y-58.702 Z7.933
X-9.455 Y-58.686 Z7.932
X-9.471 Y-58.668 Z7.93
X-9.483 Y-58.648 Z7.928
X-9.492 Y-58.627 Z7.925
X-9.498 Y-58.604 Z7.923
X-9.5 Y-58.58 Z7.92
X-9.498 Y-58.557 Z7.917
X-9.492 Y-58.534 Z7.915
X-9.483 Y-58.512 Z7.912
X-9.471 Y-58.492 Z7.91
X-9.455 Y-58.474 Z7.908
X-9.437 Y-58.459 Z7.906
X-9.417 Y-58.447 Z7.905
X-9.395 Y-58.438 Z7.904
X-9.372 Y-58.432 Z7.903
X-9.349 Y-58.43
X-9.319 Z7.908
X-9.292 Z7.921
X-9.27 Z7.942
X-9.183 Z8.054
X-9.054 Z8.178
X-8.852 Z8.319
X-8.641 Z8.414
X-8.46 Z8.472
X-7.837 Z8.579
X-7.111 Z8.628
X-6.961 Z8.621
X-6.732 Z8.568
X-6.536 Z8.564
X-6.239 Z8.512
X-5.971 Z8.422
X-5.483 Z8.519
X-4.751 Z8.651
X-4.601 Z8.673
X-4.026 Z8.738
X-3.663 Z8.763
X-3.469 Z8.76
X-3.18 Z8.756
X-2.985 Z8.735
X-2.843 Z8.694
X-2.636 Z8.603
X-2.506 Z8.576
X-2.33 Z8.518
X-2.184 Z8.486
X-2.009 Z8.422
X-1.911 Z8.47
X-1.719 Z8.555
X-1.52 Z8.61
X-1.386 Z8.63
X-1.335 Z8.646
X-1.151 Z8.707
X-0.722 Z8.812
X-0.184 Z8.905
X0.205 Z8.903
X0.414 Z8.921
X1.018 Z8.892
X1.301 Z8.846
X1.6 Z8.793
X1.806 Z8.742
X2.029 Z8.694
X2.311 Z8.627
X2.366 Z8.624
X2.979 Z8.577
X3.32 Z8.541
X3.589 Z8.552
X3.763 Z8.542
X4.277 Z8.53
X4.589 Z8.484
X4.793 Z8.482
X4.938 Z8.455
X5.278 Z8.553
X6.024 Z8.714
X6.531 Z8.779
X6.754 Z8.79
X6.964 Z8.768
X7.171 Z8.786
X7.408 Z8.821
X7.613 Z8.829
X7.786 Z8.846
X7.937 Z8.843
X8.075 Z8.819
X8.258 Z8.828
X8.566 Z8.844
X8.927 Z8.83
X9.157 Z8.889
X9.464 Z9.017
X9.768 Z9.128
X10.156 Z9.253
X10.6 Z9.364
X10.801 Z9.403
X11.175 Z9.434
X11.889 Z9.383
X12.035 Z9.374
X12.317 Z9.332
X12.534 Z9.293
X12.666 Z9.257
X13.067 Z9.174
X13.47 Z9.068
X13.791 Z8.959
X14.415 Z8.683
X15.228 Z8.262
X15.761 Z7.975
X15.889 Z7.895
X16.236 Z7.667
X16.635 Z7.379
X16.8 Z7.242
X16.948 Z7.079
X17.202 Z6.955
X17.332 Z6.886
X18.105 Z6.407
X18.473 Z6.144
X18.648 Z6.01
X18.829 Z5.835
X19.041 Z5.668
X19.342 Z5.514
X19.546 Z5.387
X19.834 Z5.154
X19.936 Z5.047
X20.07 Z4.881
X20.216 Z4.636
X20.263 Z4.517
X20.367 Z4.124
X20.487 Z3.256
X20.804 Z3.279
X21.2 Z3.276
X21.775 Z3.293
X21.834 Z3.299
X22.027 Z3.435
X22.381 Z3.664
X22.502 Z3.733
X22.882 Z3.907
X23.275 Z4.112
X23.771 Z4.407
X24.015 Z4.528
X24.212 Z4.601
X24.48 Z4.655
X24.739 Z4.677
X25.014 Z4.683
X25.203 Z4.665
X25.423 Z4.616
X25.632 Z4.538
X25.658 Z4.532
X25.685 Z4.533
X25.711 Z4.541
X25.732 Z4.549
X25.755 Z4.552
X25.989
X26.013 Y-58.428
X26.036 Y-58.423 Z4.553
X26.058 Y-58.414 Z4.554
X26.079 Y-58.402 Z4.556
X26.097 Y-58.386 Z4.558
X26.112 Y-58.368 Z4.561
X26.124 Y-58.348 Z4.564
X26.134 Y-58.327 Z4.567
X26.139 Y-58.304 Z4.57
X26.141 Y-58.28 Z4.574
X26.139 Y-58.257 Z4.577
X26.134 Y-58.234 Z4.581
X26.124 Y-58.212 Z4.584
X26.112 Y-58.192 Z4.587
X26.097 Y-58.174 Z4.589
X26.079 Y-58.159 Z4.592
X26.058 Y-58.147 Z4.593
X26.036 Y-58.138 Z4.595
X26.013 Y-58.132 Z4.596
X25.989 Y-58.13
X25.967 Z4.593
X25.945 Z4.586
X25.919 Z4.577
X25.892 Z4.576
X25.865 Z4.582
X25.601 Z4.684
X25.456 Z4.717
X25.231 Z4.745
X25.078
X24.797 Z4.715
X24.597 Z4.668
X24.194 Z4.527
X23.489 Z4.168
X22.798 Z3.787
X22.304 Z3.542
X21.973 Z3.351
X21.915 Z3.314
X21.823 Z3.275
X21.528 Z3.258
X20.499 Z3.251
X20.365 Z4.219
X20.267 Z4.544
X20.204 Z4.696
X20.081 Z4.888
X19.959 Z5.04
X19.776 Z5.23
X19.636 Z5.341
X19.256 Z5.561
X18.977 Z5.8
X18.757 Z5.993
X18.636 Z6.074
X18.411 Z6.261
X18.225 Z6.383
X17.385 Z6.905
X17.065 Z7.051
X16.917 Z7.202
X16.66 Z7.425
X16.217 Z7.744
X15.768 Z8.039
X15.245 Z8.324
X14.469 Z8.737
X14.192 Z8.856
X13.872 Z8.985
X13.243 Z9.175
X12.761 Z9.268
X12.592 Z9.293
X12.46 Z9.326
X12.328 Z9.353
X12.043 Z9.397
X11.893 Z9.413
X11.586 Z9.432
X11.278 Z9.438
X10.802 Z9.404
X10.566 Z9.364
X10.417 Z9.332
X10.022 Z9.225
X9.55 Z9.084
X9.228 Z8.966
X8.959 Z8.866
X8.811 Z8.824
X8.555 Z8.853
X8.325 Z8.85
X8.033 Z8.825
X7.647 Z8.841
X7.447 Z8.839
X7.311 Z8.843
X7.162 Z8.826
X6.926 Z8.789
X6.576 Z8.803
X6.344 Z8.8
X6.131 Z8.777
X5.846 Z8.735
X5.414 Z8.654
X5.265 Z8.614
X5.136 Z8.568
X5 Z8.547
X4.804 Z8.481
X4.711 Z8.448
X4.538 Z8.49
X4.238 Z8.533
X3.694 Z8.535
X3.503 Z8.543
X3.271 Z8.531
X3.139 Z8.548
X2.97 Z8.551
X2.686 Z8.567
X2.515 Z8.594
X2.196 Z8.604
X1.779 Z8.713
X1.576 Z8.768
X1.278 Z8.821
X1.007 Z8.888
X0.54 Z8.916
X0.414 Z8.921
X0.14 Z8.912
X-0.036 Z8.926
X-0.225 Z8.909
X-0.461 Z8.872
X-0.654 Z8.858
X-1.201 Z8.729
X-1.459 Z8.645
X-1.738 Z8.564
X-2.155 Z8.4
X-2.469 Z8.511
X-2.682 Z8.604
X-2.914 Z8.685
X-3.06 Z8.716
X-3.562 Z8.754
X-4.073 Z8.734
X-4.645 Z8.669
X-5.005 Z8.607
X-5.344 Z8.531
X-5.793 Z8.456
X-5.994 Z8.414
X-6.046 Z8.402
X-6.25 Z8.484
X-6.395 Z8.519
X-6.582 Z8.532
X-6.696 Z8.533
X-6.98 Z8.59
X-7.131 Z8.595
X-7.721 Z8.569
X-8.491 Z8.449
X-8.707 Z8.388
X-8.928 Z8.291
X-9.081 Z8.203
X-9.243 Z8.067
X-9.376 Z7.92
X-9.396 Z7.894
X-9.418 Z7.873
X-9.445 Z7.859
X-9.475 Z7.855
X-9.598
X-9.622 Y-58.128
X-9.645 Y-58.123 Z7.854
X-9.667 Y-58.114 Z7.853
X-9.687 Y-58.102 Z7.851
X-9.705 Y-58.086 Z7.849
X-9.721 Y-58.068 Z7.847
X-9.733 Y-58.048 Z7.844
X-9.742 Y-58.027 Z7.841
X-9.748 Y-58.004 Z7.839
X-9.75 Y-57.98 Z7.836
X-9.748 Y-57.957 Z7.832
X-9.742 Y-57.934 Z7.83
X-9.733 Y-57.912 Z7.827
X-9.721 Y-57.892 Z7.824
X-9.705 Y-57.874 Z7.822
X-9.687 Y-57.859 Z7.82
X-9.667 Y-57.847 Z7.818
X-9.645 Y-57.838 Z7.817
X-9.622 Y-57.832 Z7.816
X-9.598 Y-57.83
X-9.57 Z7.82
X-9.544 Z7.832
X-9.522 Z7.851
X-9.449 Z7.937
X-9.268 Z8.107
X-9.119 Z8.202
X-8.902 Z8.31
X-8.706 Z8.37
X-8.373 Z8.453
X-7.749 Z8.54
X-7.448 Z8.555
X-7.098 Z8.541
X-6.912 Z8.526
X-6.491 Z8.494
X-6.272 Z8.444
X-6.077 Z8.379
X-5.747 Z8.457
X-5.355 Z8.521
X-5.059 Z8.583
X-4.793 Z8.645
X-4.658 Z8.668
X-4.168 Z8.72
X-3.683 Z8.744
X-3.213 Z8.727
X-2.988 Z8.692
X-2.81 Z8.639
X-2.68 Z8.574
X-2.652 Z8.567
X-2.471 Z8.504
X-2.279 Z8.4
X-1.944 Z8.522
X-1.761 Z8.577
X-1.671 Z8.61
X-1.038 Z8.809
X-0.703 Z8.878
X-0.272 Z8.898
X-0.097 Z8.919
X0.251 Z8.927
X0.768 Z8.897
X0.918 Z8.88
X1.211 Z8.808
X1.452 Z8.739
X1.577 Z8.722
X1.772 Z8.679
X2.17 Z8.558
X2.276 Z8.551
X2.478 Z8.562
X2.663 Z8.543
X2.827 Z8.53
X3.059 Z8.545
X3.255 Z8.532
X4.016 Z8.524
X4.383 Z8.486
X4.583 Z8.491
X4.702 Z8.519
X4.846 Z8.573
X5.028 Z8.627
X5.156 Z8.643
X5.474 Z8.729
X6.04 Z8.819
X6.512 Z8.846
X7.037 Z8.839
X7.27 Z8.868
X7.421 Z8.864
X7.575 Z8.842
X7.641 Z8.844
X7.827
X7.972 Z8.822
X8.349 Z8.844
X8.609 Z8.823
X8.657 Z8.837
X8.845 Z8.884
X9.111 Z8.97
X9.696 Z9.138
X10.201 Z9.274
X10.82 Z9.398
X11.246 Z9.443
X11.651 Z9.454
X11.916 Z9.437
X12.352 Z9.36
X12.58 Z9.344
X12.824 Z9.318
X13.174 Z9.243
X13.609 Z9.109
X14.039 Z8.971
X14.584 Z8.737
X14.88 Z8.608
X15.118 Z8.465
X15.876 Z8.027
X16.258 Z7.78
X16.38 Z7.695
X16.799 Z7.375
X17.025 Z7.181
X17.177 Z7.029
X17.249 Z7
X17.41 Z6.923
X18.318 Z6.368
X18.869 Z5.978
X19.195 Z5.674
X19.372 Z5.544
X19.48 Z5.437
X19.68 Z5.286
X19.906 Z5.098
X20.052 Z4.942
X20.174 Z4.77
X20.324 Z4.459
X20.372 Z4.282
X20.513 Z3.251
X21.68 Z3.252
X21.831 Z3.269
X22.115 Z3.354
X22.323 Z3.451
X23.241 Z3.916
X24.264 Z4.488
X24.607 Z4.647
X24.867 Z4.738
X25.068 Z4.78
X25.291 Z4.796
X25.521 Z4.791
X25.707 Z4.766
X25.961 Z4.699
X26.168 Z4.614
X26.206 Z4.606
X26.245 Z4.614
X26.277 Z4.636
X26.299 Z4.668
X26.306 Z4.706
Z4.71
X26.312 Y-57.826 Z4.77
X26.329 Y-57.813 Z4.827
X26.357 Y-57.792 Z4.877
X26.394 Y-57.765 Z4.917
X26.437 Y-57.733 Z4.946
X26.485 Y-57.698 Z4.96
X26.534 Y-57.662
X26.581 Y-57.627 Z4.946
X26.624 Y-57.595 Z4.917
X26.661 Y-57.568 Z4.877
X26.689 Y-57.547 Z4.827
X26.706 Y-57.535 Z4.77
X26.712 Y-57.53 Z4.71
X26.705 Z4.673
X26.685 Z4.642
X26.656 Z4.62
X26.62 Z4.61
X26.583 Z4.614
X26.404 Z4.668
X26.127 Z4.757
X25.907 Z4.809
X25.628 Z4.839
X25.278 Z4.816
X25.077 Z4.779
X24.88 Z4.712
X24.683 Z4.635
X24.034 Z4.295
X23.725 Z4.129
X23.451 Z3.964
X23.056 Z3.685
X22.618 Z3.488
X22.193 Z3.33
X21.984 Z3.271
X21.764 Z3.252
X20.55 Z3.25
X20.436 Z4.066
X20.344 Z4.452
X20.273 Z4.622
X20.159 Z4.798
X20.069 Z4.915
X19.778 Z5.193
X19.653 Z5.297
X19.53 Z5.45
X19.375 Z5.591
X19.186 Z5.734
X18.883 Z6.022
X18.694 Z6.168
X18.469 Z6.319
X17.935 Z6.635
X17.497 Z6.905
X17.299 Z6.995
X17.076 Z7.215
X16.757 Z7.483
X16.424 Z7.731
X15.899 Z8.074
X15.272 Z8.461
X14.985 Z8.599
X14.599 Z8.769
X14.319 Z8.894
X14.129 Z8.985
X13.337 Z9.239
X13.193 Z9.283
X13.047 Z9.318
X12.674 Z9.386
X12.063 Z9.418
X11.737 Z9.463
X11.39 Z9.46
X10.934 Z9.406
X10.159 Z9.245
X9.544 Z9.111
X8.986 Z8.972
X8.838 Z8.939
X8.69 Z8.899
X8.375 Z8.805
X8.066 Z8.816
X7.953 Z8.819
X7.831 Z8.835
X7.679 Z8.838
X7.464 Z8.871
X7.311
X7.152 Z8.852
X6.868 Z8.872
X6.511 Z8.862
X6.283 Z8.875
X6.069 Z8.863
X5.563 Z8.805
X5.08 Z8.705
X4.865 Z8.656
X4.525 Z8.549
X4.307 Z8.515
X4.24 Z8.5
X4.064 Z8.488
X3.845 Z8.509
X3.585 Z8.533
X2.943 Z8.52
X2.797 Z8.538
X2.584 Z8.531
X2.448 Z8.52
X2.222 Z8.532
X2.021 Z8.54
X1.876 Z8.585
X1.676 Z8.649
X1.485 Z8.677
X1.192 Z8.78
X0.833 Z8.864
X0.609 Z8.888
X0.066 Z8.928
X-0.122 Z8.92
X-0.354 Z8.895
X-0.562 Z8.908
X-0.736 Z8.896
X-1.07 Z8.818
X-1.493 Z8.692
X-1.715 Z8.616
X-1.892 Z8.555
X-2.105 Z8.497
X-2.326 Z8.4
X-2.57 Z8.496
X-2.66 Z8.523
X-2.861 Z8.61
X-3.005 Z8.648
X-3.227 Z8.687
X-3.397 Z8.698
X-3.545 Z8.719
X-3.956 Z8.72
X-4.166 Z8.713
X-4.537 Z8.681
X-5.155 Z8.566
X-5.601 Z8.474
X-5.765 Z8.427
X-5.982 Z8.389
X-6.115 Z8.351
X-6.152 Z8.353
X-6.415 Z8.441
X-6.6 Z8.468
X-6.883 Z8.496
X-7.08 Z8.532
X-7.305
X-7.75 Z8.513
X-8.415 Z8.423
X-8.828 Z8.321
X-9.062 Z8.24
X-9.22 Z8.168
X-9.423 Z8.031
X-9.554 Z7.909
X-9.648 Z7.8
X-9.67 Z7.782
X-9.696 Z7.77
X-9.724 Z7.766
X-9.848
X-9.872 Y-57.528 Z7.765
X-9.896 Y-57.523 Z7.764
X-9.918 Y-57.514 Z7.762
X-9.939 Y-57.502 Z7.759
X-9.957 Y-57.486 Z7.755
X-9.973 Y-57.468 Z7.751
X-9.986 Y-57.448 Z7.746
X-9.995 Y-57.427 Z7.741
X-10.001 Y-57.404 Z7.736
X-10.003 Y-57.38 Z7.73
X-10.001 Y-57.357 Z7.724
X-9.995 Y-57.334 Z7.719
X-9.986 Y-57.312 Z7.714
X-9.973 Y-57.292 Z7.709
X-9.957 Y-57.274 Z7.705
X-9.939 Y-57.259 Z7.701
X-9.918 Y-57.247 Z7.698
X-9.896 Y-57.238 Z7.696
X-9.872 Y-57.232 Z7.695
X-9.848 Y-57.23 Z7.694
X-9.82 Z7.698
X-9.794 Z7.71
X-9.772 Z7.73
X-9.675 Z7.844
X-9.517 Z7.98
X-9.346 Z8.104
X-9.186 Z8.184
X-8.883 Z8.288
X-8.489 Z8.386
X-7.714 Z8.491
X-7.218 Z8.5
X-7.006 Z8.469
X-6.661 Z8.454
X-6.475 Z8.427
X-6.193 Z8.332
X-5.937 Z8.38
X-5.446 Z8.505
X-5.098 Z8.58
X-4.662 Z8.649
X-4.374 Z8.686
X-4.096 Z8.703
X-3.613 Z8.705
X-3.407 Z8.692
X-3.281 Z8.664
X-3.14 Z8.61
X-2.981 Z8.586
X-2.784 Z8.525
X-2.589 Z8.433
X-2.423 Z8.372
X-2.263 Z8.448
X-1.892 Z8.566
X-1.654 Z8.649
X-1.184 Z8.8
X-0.716 Z8.901
X-0.561 Z8.913
X-0.342 Z8.894
X-0.069 Z8.912
X0.258 Z8.897
X0.654 Z8.86
X0.912 Z8.804
X1.189 Z8.72
X1.411 Z8.675
X1.639 Z8.597
X1.89 Z8.54
X2.095 Z8.493
X2.224 Z8.504
X2.481 Z8.501
X2.722 Z8.515
X2.857 Z8.508
X2.973 Z8.513
X3.39 Z8.53
X3.58 Z8.523
X3.702 Z8.522
X3.852 Z8.508
X3.992 Z8.478
X4.106 Z8.495
X4.196 Z8.532
X4.392 Z8.604
X4.605 Z8.645
X4.82 Z8.719
X5.235 Z8.812
X5.385 Z8.84
X5.743 Z8.891
X6.431 Z8.92
X6.949 Z8.887
X7.161 Z8.837
X7.234 Z8.844
X7.389 Z8.856
X7.69 Z8.826
X7.993 Z8.806
X8.187 Z8.777
X8.593 Z8.918
X8.86 Z8.98
X9.667 Z9.122
X10.172 Z9.23
X10.322 Z9.252
X11.033 Z9.409
X11.373 Z9.45
X11.613 Z9.454
X11.873 Z9.441
X12.184 Z9.451
X12.509 Z9.439
X13.033 Z9.356
X13.253 Z9.308
X13.398 Z9.264
X13.864 Z9.121
X14.218 Z8.979
X14.77 Z8.711
X15.314 Z8.478
X15.581 Z8.341
X16.444 Z7.782
X16.687 Z7.605
X16.924 Z7.42
X17.263 Z7.12
X17.437 Z6.941
X17.676 Z6.827
X17.973 Z6.648
X18.582 Z6.291
X18.797 Z6.144
X18.964 Z6.002
X19.061 Z5.907
X19.337 Z5.664
X19.553 Z5.455
X19.825 Z5.162
X20.062 Z4.926
X20.148 Z4.812
X20.291 Z4.575
X20.357 Z4.394
X20.395 Z4.2
X20.534 Z3.25
X21.988 Z3.256
X22.273 Z3.283
X22.773 Z3.435
X22.89 Z3.505
X23.401 Z3.872
X23.653 Z4.025
X24.286 Z4.306
X24.738 Z4.58
X25.017 Z4.708
X25.195 Z4.778
X25.396 Z4.822
X25.625 Z4.855
X25.836 Z4.852
X26.312 Z4.814
X26.683 Z4.745
X26.892 Z4.668
X26.93 Z4.662
X26.967 Z4.67
X26.999 Z4.692
X27.02 Z4.724
X27.027 Z4.762
Z4.763
X27.032 Y-57.225 Z4.819
X27.048 Y-57.21 Z4.871
X27.073 Y-57.186 Z4.916
X27.105 Y-57.155 Z4.951
X27.143 Y-57.119 Z4.972
X27.184 Y-57.08 Z4.98
X27.225 Y-57.041 Z4.972
X27.263 Y-57.005 Z4.951
X27.295 Y-56.974 Z4.916
X27.32 Y-56.95 Z4.871
X27.336 Y-56.935 Z4.819
X27.341 Y-56.93 Z4.763
X27.336 Z4.73
X27.32 Z4.7
X27.295 Z4.678
X27.264 Z4.665
X27.231 Z4.663
X27.199 Z4.672
X26.998 Z4.766
X26.773 Z4.826
X26.348 Z4.872
X25.926 Z4.859
X25.57 Z4.814
X25.304 Z4.75
X25.111 Z4.672
X24.861 Z4.541
X24.681 Z4.414
X24.335 Z4.167
X24.203 Z4.112
X23.945 Z4.042
X23.722 Z3.954
X23.448 Z3.798
X23.273 Z3.68
X22.945 Z3.646
X22.527 Z3.57
X22.262 Z3.503
X22.067 Z3.435
X21.724 Z3.259
X21.592 Z3.253
X20.52 Z3.251
X20.379 Z4.288
X20.358 Z4.395
X20.293 Z4.576
X20.154 Z4.815
X20.024 Z4.981
X19.706 Z5.354
X19.049 Z5.981
X18.756 Z6.208
X18.451 Z6.403
X17.824 Z6.77
X17.559 Z6.888
X17.398 Z7.069
X17.024 Z7.401
X16.91 Z7.495
X16.575 Z7.745
X15.799 Z8.254
X15.533 Z8.389
X15.057 Z8.623
X14.635 Z8.796
X14.248 Z8.995
X13.908 Z9.139
X13.768 Z9.19
X13.262 Z9.346
X12.74 Z9.428
X12.373 Z9.472
X12.017 Z9.468
X11.675 Z9.425
X11.369 Z9.431
X10.913 Z9.367
X10.417 Z9.248
X10.132 Z9.207
X9.811 Z9.129
X9.433 Z9.076
X8.634 Z8.936
X8.436 Z8.878
X8.237 Z8.813
X8.047 Z8.764
X7.843 Z8.8
X7.54 Z8.845
X7.347
X7.237 Z8.84
X7.073 Z8.891
X6.877 Z8.92
X6.57 Z8.947
X6.186 Z8.965
X5.765 Z8.952
X5.251 Z8.876
X5.095 Z8.842
X4.87 Z8.81
X4.484 Z8.707
X4.292 Z8.628
X3.967 Z8.499
X3.789 Z8.513
X3.598 Z8.497
X3.483 Z8.518
X3.339 Z8.528
X2.687 Z8.488
X2.316 Z8.499
X2.059 Z8.477
X1.935 Z8.482
X1.668 Z8.532
X1.497 Z8.596
X1.277 Z8.642
X1.237 Z8.647
X0.97 Z8.745
X0.584 Z8.832
X0.3 Z8.874
X-0.158 Z8.897
X-0.285 Z8.892
X-0.561 Z8.907
X-0.75 Z8.889
X-1.208 Z8.803
X-1.413 Z8.738
X-1.781 Z8.61
X-2.034 Z8.547
X-2.203 Z8.482
X-2.403 Z8.38
X-2.554 Z8.34
X-2.704 Z8.417
X-2.915 Z8.49
X-3.069 Z8.561
X-3.247 Z8.61
X-3.545 Z8.66
X-3.929 Z8.672
X-4.161 Z8.688
X-4.685 Z8.65
X-5.175 Z8.567
X-5.886 Z8.395
X-6.066 Z8.348
X-6.213 Z8.318
X-6.348 Z8.37
X-6.567 Z8.422
X-6.929 Z8.444
X-7.064 Z8.439
X-7.291 Z8.472
X-7.637 Z8.466
X-7.913 Z8.436
X-8.381 Z8.368
X-8.6 Z8.343
X-8.8 Z8.289
X-9.289 Z8.125
X-9.423 Z8.062
X-9.655 Z7.909
X-9.761 Z7.812
X-9.893 Z7.654
X-9.914 Z7.635
X-9.941 Z7.622
X-9.969 Z7.618
X-10.089
X-10.114 Y-56.928
X-10.137 Y-56.923 Z7.616
X-10.159 Y-56.914 Z7.614
X-10.18 Y-56.902 Z7.611
X-10.198 Y-56.886 Z7.608
X-10.214 Y-56.868 Z7.603
X-10.227 Y-56.848 Z7.598
X-10.236 Y-56.827 Z7.593
X-10.242 Y-56.804 Z7.588
X-10.244 Y-56.78 Z7.582
X-10.242 Y-56.757 Z7.577
X-10.236 Y-56.734 Z7.571
X-10.227 Y-56.712 Z7.566
X-10.214 Y-56.692 Z7.561
X-10.198 Y-56.674 Z7.557
X-10.18 Y-56.659 Z7.553
X-10.159 Y-56.647 Z7.55
X-10.137 Y-56.638 Z7.548
X-10.114 Y-56.632 Z7.547
X-10.089 Y-56.63 Z7.546
X-10.061 Z7.55
X-10.035 Z7.563
X-10.013 Z7.582
X-9.906 Z7.708
X-9.693 Z7.893
X-9.515 Z7.999
X-9.32 Z8.095
X-9.12 Z8.166
X-8.701 Z8.299
X-8.499 Z8.347
X-8.142 Z8.373
X-8.008 Z8.396
X-7.796 Z8.426
X-7.614 Z8.431
X-7.469 Z8.442
X-7.317 Z8.443
X-7.116 Z8.415
X-6.886 Z8.42
X-6.736 Z8.406
X-6.515 Z8.359
X-6.275 Z8.274
X-5.815 Z8.416
X-5.17 Z8.566
X-4.886 Z8.612
X-4.597 Z8.651
X-4.151 Z8.676
X-3.699 Z8.636
X-3.475 Z8.579
X-3.331 Z8.574
X-3.184 Z8.55
X-3.073 Z8.515
X-2.848 Z8.413
X-2.791 Z8.394
X-2.615 Z8.325
X-2.416 Z8.4
X-2.112 Z8.529
X-1.204 Z8.807
X-0.987 Z8.841
X-0.511 Z8.906
X-0.303 Z8.905
X0.205 Z8.857
X0.522 Z8.81
X0.855 Z8.711
X1.025 Z8.669
X1.204 Z8.613
X1.314 Z8.586
X1.493 Z8.538
X1.701 Z8.448
X1.84 Z8.46
X2.072 Z8.456
X2.32 Z8.483
X2.475 Z8.493
X2.63 Z8.485
X2.936 Z8.499
X3.372 Z8.519
X3.568 Z8.493
X3.644 Z8.509
X3.839 Z8.528
X4.437 Z8.769
X4.766 Z8.861
X5.051 Z8.91
X5.24 Z8.924
X5.388 Z8.96
X5.804 Z9.008
X6.269 Z8.996
X6.48 Z8.981
X6.78 Z8.967
X7.077 Z8.917
X7.282 Z8.851
X7.476 Z8.844
X7.618 Z8.826
X7.985 Z8.752
X8.077 Z8.781
X8.407 Z8.87
X8.907 Z8.961
X9.544 Z9.064
X9.724 Z9.069
X10.006 Z9.15
X10.372 Z9.21
X10.778 Z9.305
X11.273 Z9.38
X11.504 Z9.382
X11.675 Z9.41
X12.046 Z9.468
X12.275 Z9.478
X12.577 Z9.455
X12.99 Z9.406
X13.47 Z9.302
X13.76 Z9.212
X14.04 Z9.111
X14.367 Z8.942
X14.58 Z8.859
X14.86 Z8.749
X15.849 Z8.261
X16.037 Z8.135
X16.534 Z7.81
X16.857 Z7.599
X17.297 Z7.24
X17.561 Z6.982
X17.702 Z6.825
X17.777 Z6.795
X17.982 Z6.71
X18.491 Z6.419
X18.855 Z6.178
X19.2 Z5.894
X19.525 Z5.581
X19.836 Z5.261
X20.131 Z4.859
X20.25 Z4.653
X20.33 Z4.48
X20.375 Z4.305
X20.518 Z3.256
X21.367
X21.443 Z3.298
X21.722 Z3.463
X22.051 Z3.612
X22.329 Z3.694
X22.663 Z3.763
X23.218 Z3.849
X24.107 Z3.949
X24.175 Z3.96
X24.356 Z4.062
X24.662 Z4.297
X24.852 Z4.435
X25.241 Z4.642
X25.566 Z4.746
X25.948 Z4.827
X26.252 Z4.874
X26.581 Z4.892
X26.769 Z4.877
X27.063 Z4.816
X27.236 Z4.756
X27.383 Z4.706
X27.591 Z4.616
X27.629 Z4.608
X27.668 Z4.616
X27.701 Z4.637
X27.723 Z4.67
X27.731 Z4.708
Z4.714
X27.736 Y-56.625 Z4.771
X27.753 Y-56.61 Z4.826
X27.779 Y-56.586 Z4.872
X27.814 Y-56.555 Z4.908
X27.854 Y-56.519 Z4.93
X27.897 Y-56.48 Z4.938
X27.94 Y-56.441 Z4.93
X27.98 Y-56.405 Z4.908
X28.015 Y-56.374 Z4.872
X28.041 Y-56.35 Z4.826
X28.058 Y-56.335 Z4.771
X28.063 Y-56.33 Z4.714
X28.058 Z4.68
X28.041 Z4.65
X28.015 Z4.628
X27.983 Z4.615
X27.948
X27.916 Z4.626
X27.788 Z4.694
X27.507 Z4.795
X27.212 Z4.856
X26.909 Z4.885
X26.653 Z4.884
X26.354 Z4.851
X26.083 Z4.784
X25.224 Z4.543
X25.023 Z4.466
X24.838 Z4.372
X24.535 Z4.176
X24.4 Z4.068
X23.26 Z3.976
X22.507 Z3.841
X22.157 Z3.759
X21.85 Z3.654
X21.571 Z3.514
X21.177 Z3.264
X21.082 Z3.26
X20.504 Z3.257
X20.371 Z4.229
X20.326 Z4.421
X20.217 Z4.721
X20.116 Z4.891
X19.873 Z5.25
X19.627 Z5.526
X19.306 Z5.84
X18.783 Z6.255
X18.619 Z6.384
X18.454 Z6.48
X17.967 Z6.717
X17.858 Z6.76
X17.718 Z6.914
X17.451 Z7.18
X17.281 Z7.329
X16.999 Z7.552
X16.301 Z7.999
X15.999 Z8.206
X15.803 Z8.306
X15.473 Z8.458
X14.994 Z8.695
X14.757 Z8.821
X14.547 Z8.904
X14.333 Z8.977
X14.224 Z9.016
X13.87 Z9.171
X13.586 Z9.273
X13.144 Z9.371
X12.845 Z9.416
X12.394 Z9.467
X12.163 Z9.46
X11.876 Z9.433
X11.462 Z9.339
X11.329 Z9.307
X11.116 Z9.308
X10.903 Z9.283
X10.598 Z9.227
X10.206 Z9.136
X9.873 Z9.083
X9.619 Z9.027
X9.412 Z9.017
X8.858 Z8.937
X8.572 Z8.896
X8.139 Z8.817
X7.876 Z8.744
X7.564 Z8.818
X7.324 Z8.84
X7.037 Z8.938
X6.78 Z8.992
X6.592 Z9.001
X6.55 Z9
X6.408 Z9.021
X6.063 Z9.03
X5.723 Z9.055
X5.544 Z9.036
X5.371 Z9.003
X5.112 Z8.99
X4.892 Z8.949
X4.471 Z8.858
X4.3 Z8.793
X4.094 Z8.707
X3.959 Z8.675
X3.703 Z8.576
X3.5 Z8.516
X3.444 Z8.499
X2.989 Z8.502
X2.68 Z8.488
X2.544 Z8.479
X2.353 Z8.471
X2.171 Z8.454
X1.965 Z8.457
X1.701 Z8.428
X1.593 Z8.436
X1.316 Z8.535
X1.128 Z8.62
X0.949 Z8.667
X0.757 Z8.695
X0.613 Z8.742
X0.469 Z8.784
X0.322 Z8.815
X0.173 Z8.838
X-0.415 Z8.901
X-0.609 Z8.895
X-1.096 Z8.831
X-1.51 Z8.728
X-1.982 Z8.582
X-2.335 Z8.452
X-2.669 Z8.294
X-2.841 Z8.361
X-3.097 Z8.424
X-3.3 Z8.515
X-3.498 Z8.566
X-3.834 Z8.623
X-4.192 Z8.656
X-4.64 Z8.636
X-5.137 Z8.565
X-5.42 Z8.505
X-5.923 Z8.39
X-6.061 Z8.352
X-6.273 Z8.293
X-6.357 Z8.269
X-6.529 Z8.326
X-6.71 Z8.373
X-6.897 Z8.389
X-7.128 Z8.387
X-7.329 Z8.414
X-7.897 Z8.4
X-8.242 Z8.347
X-8.461 Z8.326
X-8.662 Z8.288
X-8.812 Z8.253
X-9.201 Z8.126
X-9.345 Z8.07
X-9.607 Z7.947
X-9.784 Z7.836
X-9.974 Z7.68
X-10.091 Z7.562
X-10.134 Z7.508
X-10.16 Z7.485
X-10.193 Z7.472
X-10.228
X-10.261 Z7.483
X-10.288 Z7.506
X-10.306 Z7.536
X-10.312 Z7.57
X-10.315 Y-56.324 Z7.617
X-10.323 Y-56.306 Z7.659
X-10.335 Y-56.278 Z7.694
X-10.351 Y-56.243 Z7.72
X-10.369 Y-56.202 Z7.733
X-10.388 Y-56.159
X-10.406 Y-56.118 Z7.72
X-10.422 Y-56.082 Z7.694
X-10.435 Y-56.054 Z7.659
X-10.443 Y-56.036 Z7.617
X-10.445 Y-56.03 Z7.57
Z7.485
X-10.439 Z7.451
X-10.423 Z7.422
X-10.397 Z7.399
X-10.365 Z7.387
X-10.331 Z7.386
X-10.298 Z7.397
X-10.271 Z7.418
X-10.137 Z7.566
X-9.996 Z7.691
X-9.805 Z7.83
X-9.623 Z7.928
X-9.237 Z8.101
X-9.004 Z8.177
X-8.7 Z8.266
X-8.342 Z8.328
X-7.934 Z8.376
X-7.376 Z8.384
X-7.198 Z8.371
X-6.902 Z8.359
X-6.609 Z8.311
X-6.434 Z8.253
X-6.398 Z8.249
X-6.245 Z8.284
X-5.924 Z8.381
X-5.329 Z8.52
X-5.179 Z8.549
X-4.781 Z8.61
X-4.434 Z8.634
X-4.089 Z8.627
X-3.472 Z8.508
X-3.292 Z8.46
X-3.027 Z8.35
X-2.91 Z8.297
X-2.789 Z8.254
X-2.708 Z8.293
X-2.47 Z8.399
X-2.191 Z8.535
X-1.979 Z8.598
X-1.575 Z8.726
X-1.146 Z8.821
X-1.01 Z8.843
X-0.426 Z8.871
X-0.124 Z8.844
X0.185 Z8.807
X0.565 Z8.711
X0.735 Z8.685
X0.952 Z8.63
X1.165 Z8.551
X1.301 Z8.493
X1.457 Z8.402
X1.562 Z8.399
X1.926 Z8.444
X2.253 Z8.453
X2.998 Z8.519
X3.358 Z8.51
X3.397 Z8.525
X3.562 Z8.613
X3.737 Z8.683
X3.829 Z8.725
X4.031 Z8.803
X4.185 Z8.836
X4.36 Z8.901
X4.493 Z8.94
X5.143 Z9.065
X5.504 Z9.082
X5.716 Z9.106
X5.869 Z9.102
X6.152 Z9.066
X6.347 Z9.046
X6.585 Z9.003
X6.709 Z9
X6.867 Z8.98
X7.06 Z8.93
X7.208 Z8.89
X7.781 Z8.752
X7.939 Z8.789
X8.292 Z8.84
X8.484 Z8.867
X8.845 Z8.92
X9.065 Z8.944
X9.434 Z8.959
X9.782 Z9.023
X10.364 Z9.124
X10.562 Z9.171
X10.743 Z9.206
X10.976 Z9.231
X11.191 Z9.22
X11.403 Z9.301
X11.602 Z9.358
X12.005 Z9.434
X12.382 Z9.447
X12.969 Z9.383
X13.417 Z9.308
X13.767 Z9.2
X14.108 Z9.054
X14.279 Z9.014
X14.458 Z8.966
X14.785 Z8.821
X15.085 Z8.649
X15.59 Z8.428
X15.879 Z8.288
X16.074 Z8.187
X16.247 Z8.066
X16.637 Z7.827
X17.134 Z7.506
X17.251 Z7.422
X17.485 Z7.23
X17.705 Z7.028
X17.907 Z6.827
X18.03 Z6.676
X18.146 Z6.628
X18.383 Z6.52
X18.754 Z6.29
X19.076 Z6.058
X19.276 Z5.89
X19.566 Z5.628
X19.88 Z5.278
X20.058 Z5.047
X20.183 Z4.828
X20.263 Z4.646
X20.368 Z4.237
X20.504 Z3.252
X21.046 Z3.261
X21.081 Z3.269
X21.375 Z3.466
X21.759 Z3.679
X22.085 Z3.79
X22.648 Z3.913
X23.147 Z4.007
X23.399 Z4.04
X23.997 Z4.082
X24.438 Z4.107
X24.498 Z4.129
X24.563 Z4.167
X24.808 Z4.295
X25.13 Z4.415
X25.395 Z4.485
X25.759 Z4.545
X25.882 Z4.601
X26.115 Z4.702
X26.475 Z4.826
X26.81 Z4.888
X27.023 Z4.912
X27.252 Z4.906
X27.431 Z4.892
X27.623 Z4.856
X27.783 Z4.801
X27.97 Z4.721
X28.093 Z4.644
X28.118 Z4.633
X28.146 Z4.629
X28.302
X28.325 Y-56.028
X28.348 Y-56.023
X28.37 Y-56.014 Z4.63
X28.39 Y-56.002 Z4.631
X28.408 Y-55.986 Z4.632
X28.423 Y-55.968 Z4.633
X28.436 Y-55.948 Z4.634
X28.445 Y-55.927 Z4.635
X28.45 Y-55.904 Z4.636
X28.452 Y-55.88 Z4.638
X28.45 Y-55.857 Z4.639
X28.445 Y-55.834 Z4.64
X28.436 Y-55.812 Z4.642
X28.423 Y-55.792 Z4.643
X28.408 Y-55.774 Z4.644
X28.39 Y-55.759 Z4.645
X28.37 Y-55.747
X28.348 Y-55.738 Z4.646
X28.325 Y-55.732
X28.302 Y-55.73
X28.276 Z4.65
X28.252 Z4.659
X28.06 Z4.769
X27.781 Z4.873
X27.562 Z4.922
X27.257 Z4.937
X27.051 Z4.928
X26.682 Z4.856
X26.439 Z4.77
X26.082 Z4.598
X25.691 Z4.368
X25.288 Z4.323
X25.08 Z4.279
X24.817 Z4.199
X24.599 Z4.097
X24.513 Z4.074
X23.847 Z4.046
X23.812 Z4.042
X23.525 Z4.052
X23.177 Z4.019
X22.315 Z3.841
X21.871 Z3.715
X21.681 Z3.635
X21.468 Z3.522
X21.139 Z3.31
X21.056 Z3.262
X20.473 Z3.251
X20.336 Z4.228
X20.28 Z4.571
X20.217 Z4.745
X20.111 Z4.974
X19.993 Z5.147
X19.762 Z5.44
X19.448 Z5.758
X19.109 Z6.055
X18.933 Z6.188
X18.691 Z6.333
X18.507 Z6.464
X18.376 Z6.53
X18.187 Z6.598
X18.026 Z6.807
X17.706 Z7.114
X17.231 Z7.479
X16.983 Z7.643
X16.397 Z7.996
X16.108 Z8.19
X15.977 Z8.256
X15.442 Z8.523
X15.193 Z8.651
X14.974 Z8.722
X14.811 Z8.812
X14.473 Z8.983
X14.334 Z9.033
X13.965 Z9.107
X13.837 Z9.12
X13.703 Z9.187
X13.338 Z9.307
X12.956 Z9.367
X12.372 Z9.427
X12.077 Z9.412
X11.739 Z9.368
X11.538 Z9.318
X11.264 Z9.228
X11.059 Z9.137
X10.757 Z9.14
X10.55 Z9.114
X10.051 Z9.017
X9.65 Z8.963
X9.375 Z8.893
X8.943 Z8.9
X8.731 Z8.877
X8.285 Z8.821
X7.897 Z8.823
X7.613 Z8.792
X7.209 Z8.908
X6.968 Z8.949
X6.702 Z9.005
X6.423 Z9.07
X6.273 Z9.086
X5.915 Z9.153
X5.763 Z9.157
X5.381 Z9.128
X5.148 Z9.126
X4.868 Z9.089
X4.401 Z8.991
X4.269 Z8.948
X3.926 Z8.863
X3.735 Z8.779
X3.471 Z8.627
X3.262 Z8.542
X2.93 Z8.514
X2.794 Z8.506
X2.556 Z8.501
X2.354 Z8.464
X2.287 Z8.449
X1.636 Z8.398
X1.456 Z8.395
X1.364 Z8.389
X1.134 Z8.507
X0.854 Z8.615
X0.709 Z8.652
X0.063 Z8.787
X-0.153 Z8.819
X-0.304 Z8.833
X-0.455 Z8.838
X-1.074 Z8.828
X-1.278 Z8.797
X-1.823 Z8.663
X-2.084 Z8.586
X-2.364 Z8.46
X-2.539 Z8.395
X-2.902 Z8.235
X-3.087 Z8.318
X-3.379 Z8.42
X-3.626 Z8.516
X-3.994 Z8.595
X-4.182 Z8.61
X-4.728 Z8.606
X-5.243 Z8.53
X-5.393 Z8.501
X-5.804 Z8.392
X-6.099 Z8.334
X-6.478 Z8.231
X-6.608 Z8.275
X-6.792 Z8.309
X-7.32 Z8.356
X-7.716 Z8.369
X-7.939 Z8.349
X-8.665 Z8.257
X-8.995 Z8.174
X-9.572 Z7.941
X-9.764 Z7.842
X-9.969 Z7.716
X-10.163 Z7.567
X-10.342 Z7.404
X-10.434 Z7.334
X-10.462 Z7.319
X-10.495 Z7.313
X-10.687
X-10.71 Y-55.728
X-10.733 Y-55.723
X-10.755 Y-55.714
X-10.775 Y-55.702
X-10.793 Y-55.686
X-10.808 Y-55.668
X-10.82 Y-55.648
X-10.829 Y-55.627 Z7.312
X-10.835 Y-55.604
X-10.837 Y-55.58
X-10.835 Y-55.557
X-10.829 Y-55.534
X-10.82 Y-55.512
X-10.808 Y-55.492 Z7.311
X-10.793 Y-55.474
X-10.775 Y-55.459
X-10.755 Y-55.447
X-10.733 Y-55.438
X-10.71 Y-55.432
X-10.687 Y-55.43
X-10.653 Z7.317
X-10.623 Z7.334
X-10.61 Z7.344
X-10.475 Z7.456
X-10.312 Z7.546
X-10.094 Z7.622
X-9.979 Z7.702
X-9.575 Z7.923
X-9.355 Z8.022
X-8.954 Z8.167
X-8.755 Z8.221
X-8.487 Z8.27
X-8.269 Z8.295
X-8.134 Z8.318
X-7.965 Z8.333
X-7.816
X-7.682 Z8.338
X-7.43 Z8.342
X-7.128 Z8.319
X-6.771 Z8.286
X-6.534 Z8.225
X-6.144 Z8.296
X-6.016 Z8.339
X-5.868 Z8.382
X-5.453 Z8.478
X-4.885 Z8.575
X-4.653 Z8.587
X-4.206 Z8.576
X-4.056 Z8.564
X-3.684 Z8.494
X-3.46 Z8.434
X-3.262 Z8.35
X-3.081 Z8.243
X-2.993 Z8.205
X-2.845 Z8.282
X-2.638 Z8.36
X-2.481 Z8.436
X-2.108 Z8.586
X-1.977 Z8.63
X-1.88 Z8.657
X-1.676 Z8.696
X-1.242 Z8.803
X-1.056 Z8.829
X-0.902 Z8.826
X-0.347 Z8.816
X0.315 Z8.715
X0.493 Z8.673
X0.567 Z8.657
X0.747 Z8.612
X0.958 Z8.515
X1.08 Z8.465
X1.283 Z8.36
X1.477 Z8.381
X1.666 Z8.396
X1.767 Z8.412
X2.239 Z8.453
X2.449 Z8.475
X2.765 Z8.501
X3.18 Z8.574
X3.292 Z8.643
X3.453 Z8.719
X3.63 Z8.815
X3.851 Z8.906
X3.997 Z8.955
X4.341 Z9.049
X4.791 Z9.143
X5.188 Z9.188
X5.411 Z9.182
X5.46 Z9.19
X5.643 Z9.212
X5.794 Z9.205
X6.266 Z9.127
X6.452 Z9.096
X6.949 Z8.961
X7.214 Z8.898
X7.468 Z8.864
X7.643 Z8.879
X7.876 Z8.873
X8.103 Z8.858
X8.316 Z8.82
X8.632 Z8.854
X9.074 Z8.859
X9.328 Z8.823
X9.466 Z8.872
X9.6 Z8.905
X9.906 Z8.931
X10.358 Z9.008
X10.711 Z9.049
X10.901 Z9.043
X10.962 Z9.072
X11.182 Z9.171
X11.542 Z9.282
X11.844 Z9.341
X12.285 Z9.38
X12.506 Z9.385
X12.883 Z9.349
X13.221 Z9.297
X13.402 Z9.254
X13.659 Z9.149
X13.887 Z9.132
X14.108 Z9.091
X14.464 Z8.973
X14.667 Z8.873
X14.918 Z8.758
X15.205 Z8.662
X15.378 Z8.594
X15.847 Z8.334
X16.118 Z8.204
X16.473 Z7.974
X17.091 Z7.6
X17.602 Z7.25
X17.922 Z6.991
X18.158 Z6.751
X18.32 Z6.541
X18.485 Z6.473
X18.626 Z6.387
X18.936 Z6.201
X19.096 Z6.081
X19.635 Z5.586
X19.83 Z5.36
X20.033 Z5.058
X20.135 Z4.88
X20.22 Z4.656
X20.288 Z4.44
X20.452 Z3.25
X20.708 Z3.253
X21.167 Z3.272
X21.361 Z3.385
X21.738 Z3.589
X22.027 Z3.699
X22.404 Z3.813
X23.276 Z3.969
X23.579 Z3.984
X23.929 Z3.975
X24.342 Z3.992
X24.629 Z3.991
X24.723 Z4.002
X24.969 Z4.076
X25.237 Z4.127
X25.529 Z4.17
X25.625 Z4.231
X25.969 Z4.474
X26.319 Z4.68
X26.488 Z4.761
X26.778 Z4.858
X27.139 Z4.932
X27.355 Z4.947
X27.584 Z4.945
X27.881 Z4.898
X28.009 Z4.86
X28.286 Z4.746
X28.412 Z4.67
X28.437 Z4.659
X28.463 Z4.655
X28.624
X28.648 Y-55.428
X28.671 Y-55.423
X28.692 Y-55.414
X28.713 Y-55.402 Z4.654
X28.73 Y-55.386 Z4.653
X28.746 Y-55.368 Z4.652
X28.758 Y-55.348 Z4.651
X28.767 Y-55.327 Z4.65
X28.773 Y-55.304 Z4.649
X28.774 Y-55.28 Z4.647
X28.773 Y-55.257 Z4.646
X28.767 Y-55.234 Z4.645
X28.758 Y-55.212 Z4.644
X28.746 Y-55.192 Z4.643
X28.73 Y-55.174 Z4.642
X28.713 Y-55.159 Z4.641
X28.692 Y-55.147 Z4.64
X28.671 Y-55.138
X28.648 Y-55.132 Z4.639
X28.624 Y-55.13
X28.597 Z4.643
X28.571 Z4.655
X28.382 Z4.773
X28.196 Z4.85
X27.933 Z4.921
X27.743 Z4.944
X27.428 Z4.949
X26.99 Z4.888
X26.572 Z4.774
X26.444 Z4.722
X25.951 Z4.451
X25.502 Z4.179
X24.984 Z3.952
X24.712 Z3.857
X24.64 Z3.849
X24.412 Z3.859
X24.063 Z3.835
X23.908 Z3.837
X23.667 Z3.866
X23.437 Z3.879
X23.292 Z3.867
X22.805 Z3.787
X22.388 Z3.709
X22.1 Z3.608
X21.846 Z3.49
X21.407 Z3.287
X21.239 Z3.283
X20.628 Z3.252
X20.419 Z3.254
X20.284 Z4.224
X20.21 Z4.627
X20.154 Z4.795
X20.012 Z5.079
X19.833 Z5.362
X19.648 Z5.586
X19.187 Z6.02
X18.913 Z6.21
X18.643 Z6.354
X18.494 Z6.439
X18.393 Z6.586
X18.171 Z6.833
X17.958 Z7.027
X17.78 Z7.155
X17.297 Z7.494
X17.042 Z7.65
X16.585 Z7.924
X16.277 Z8.122
X15.984 Z8.294
X15.146 Z8.686
X14.672 Z8.857
X14.404 Z8.982
X14.031 Z9.115
X13.717 Z9.174
X13.475 Z9.186
X13.417
X13.101 Z9.273
X12.88 Z9.316
X12.654 Z9.341
X12.463 Z9.342
X11.941 Z9.306
X11.431 Z9.207
X11.152 Z9.122
X10.851 Z8.998
X10.747 Z8.945
X10.595 Z8.955
X10.217 Z8.936
X9.871 Z8.877
X9.565 Z8.85
X9.431 Z8.818
X9.301 Z8.775
X9.082 Z8.82
X8.857 Z8.839
X8.557 Z8.857
X8.286 Z8.832
X8.003 Z8.902
X7.779 Z8.929
X7.549 Z8.94
X6.961 Z9.005
X6.859 Z9.013
X6.346 Z9.151
X6.142 Z9.178
X6.063 Z9.195
X5.889 Z9.237
X5.739 Z9.249
X5.448 Z9.234
X5.188 Z9.239
X4.84 Z9.215
X4.31 Z9.1
X4.03 Z9.031
X3.771 Z8.943
X3.629 Z8.874
X3.511 Z8.805
X3.308 Z8.709
X3.099 Z8.621
X2.944 Z8.542
X2.5 Z8.481
X2.155 Z8.447
X1.966 Z8.44
X1.687 Z8.398
X1.174 Z8.345
X0.837 Z8.517
X0.578 Z8.606
X0.426 Z8.657
X0.07 Z8.718
X-0.135 Z8.77
X-0.321 Z8.791
X-0.902 Z8.822
X-1.091 Z8.807
X-1.325 Z8.759
X-1.587 Z8.732
X-1.758 Z8.693
X-2.036 Z8.616
X-2.182 Z8.568
X-2.467 Z8.441
X-2.681 Z8.384
X-2.81 Z8.33
X-2.932 Z8.263
X-3.096 Z8.217
X-3.257 Z8.303
X-3.431 Z8.369
X-3.576 Z8.401
X-3.673 Z8.413
X-3.918 Z8.501
X-4.083 Z8.531
X-4.308 Z8.56
X-4.616 Z8.559
X-4.925 Z8.551
X-5.138 Z8.521
X-5.454 Z8.461
X-5.936 Z8.356
X-6.329 Z8.249
X-6.557 Z8.211
X-6.773 Z8.264
X-7.357 Z8.316
X-7.921 Z8.319
X-8.383 Z8.271
X-8.814 Z8.188
X-9.206 Z8.062
X-9.599 Z7.898
X-9.904 Z7.74
X-9.991 Z7.685
X-10.163 Z7.66
X-10.328 Z7.61
X-10.521 Z7.528
X-10.713 Z7.405
X-10.78 Z7.349
X-10.81 Z7.332
X-10.844 Z7.326
X-11.019
X-11.043 Y-55.128
X-11.066 Y-55.123
X-11.088 Y-55.114 Z7.325
X-11.108 Y-55.102 Z7.323
X-11.126 Y-55.086 Z7.322
X-11.141 Y-55.068 Z7.32
X-11.154 Y-55.048 Z7.318
X-11.163 Y-55.027 Z7.316
X-11.168 Y-55.004 Z7.314
X-11.17 Y-54.98 Z7.312
X-11.168 Y-54.957 Z7.309
X-11.163 Y-54.934 Z7.307
X-11.154 Y-54.912 Z7.305
X-11.141 Y-54.892 Z7.303
X-11.126 Y-54.874 Z7.301
X-11.108 Y-54.859 Z7.3
X-11.088 Y-54.847 Z7.298
X-11.066 Y-54.838 Z7.297
X-11.043 Y-54.832
X-11.019 Y-54.83
X-10.983 Z7.304
X-10.952 Z7.323
X-10.879 Z7.39
X-10.725 Z7.501
X-10.538 Z7.594
X-10.407 Z7.638
X-10.265 Z7.668
X-9.921 Z7.706
X-9.848 Z7.753
X-9.695 Z7.831
X-9.556 Z7.892
X-9.092 Z8.088
X-8.813 Z8.164
X-8.505 Z8.23
X-8.015 Z8.29
X-7.521 Z8.298
X-7.008 Z8.263
X-6.783 Z8.242
X-6.565 Z8.19
X-6.349 Z8.253
X-6.065 Z8.305
X-5.735 Z8.389
X-5.117 Z8.512
X-4.575 Z8.536
X-4.385 Z8.531
X-3.976 Z8.465
X-3.617 Z8.352
X-3.205 Z8.169
X-2.849 Z8.344
X-2.656 Z8.425
X-2.443 Z8.48
X-2.149 Z8.585
X-1.973 Z8.632
X-1.646 Z8.727
X-1.438 Z8.766
X-1.076 Z8.787
X-0.849 Z8.819
X-0.698 Z8.817
X-0.263 Z8.757
X0.034 Z8.701
X0.181 Z8.667
X0.325 Z8.625
X0.47 Z8.579
X0.604 Z8.545
X0.78 Z8.489
X0.91 Z8.423
X1.045 Z8.334
X1.557 Z8.405
X1.745 Z8.415
X1.845 Z8.43
X2.025 Z8.449
X2.362 Z8.487
X2.611 Z8.51
X2.711 Z8.534
X2.911 Z8.571
X3.08 Z8.682
X3.201 Z8.754
X3.48 Z8.87
X3.601 Z8.932
X3.793 Z9.012
X4.12 Z9.113
X4.599 Z9.225
X4.992 Z9.281
X5.301 Z9.287
X5.692 Z9.254
X5.779 Z9.249
X5.993 Z9.224
X6.138 Z9.231
X6.287 Z9.216
X6.42 Z9.183
X6.602 Z9.109
X6.768 Z9.078
X6.886
X7.073 Z9.069
X7.204 Z9.042
X7.489 Z8.994
X7.852 Z8.948
X8.001 Z8.92
X8.215 Z8.862
X8.407 Z8.879
X8.652 Z8.884
X8.895 Z8.852
X9.236 Z8.759
X10.021 Z8.859
X10.321 Z8.876
X10.625 Z8.86
X10.713 Z8.908
X10.869 Z8.986
X11.16 Z9.089
X11.556 Z9.195
X11.826 Z9.242
X12.408 Z9.302
X12.715 Z9.298
X12.986 Z9.256
X13.16 Z9.204
X13.322 Z9.215
X13.609 Z9.195
X13.87 Z9.156
X14.05 Z9.106
X14.958 Z8.77
X15.305 Z8.619
X16.106 Z8.224
X16.373 Z8.091
X16.727 Z7.856
X17.375 Z7.468
X17.819 Z7.183
X18.124 Z6.96
X18.236 Z6.869
X18.418 Z6.682
X18.579 Z6.487
X18.694 Z6.299
X18.735 Z6.28
X18.923 Z6.183
X19.161 Z6.018
X19.586 Z5.637
X19.818 Z5.366
X19.942 Z5.197
X20.081 Z4.947
X20.167 Z4.716
X20.221 Z4.51
X20.391 Z3.269
X20.527 Z3.26
X21.266 Z3.299
X21.777 Z3.271
X22.128 Z3.46
X22.335 Z3.548
X22.5 Z3.598
X23.253 Z3.736
X23.437 Z3.754
X23.771 Z3.738
X23.95 Z3.756
X24.382 Z3.82
X24.54 Z3.86
X24.965 Z3.986
X25.518 Z4.189
X25.969 Z4.461
X26.409 Z4.681
X26.666 Z4.779
X26.997 Z4.861
X27.148 Z4.886
X27.433 Z4.924
X27.649 Z4.946
X27.881 Z4.94
X28.178 Z4.888
X28.318 Z4.842
X28.536 Z4.729
X28.69 Z4.632
X28.716 Z4.621
X28.744 Z4.617
X28.821
X28.844 Y-54.828
X28.867 Y-54.823 Z4.616
X28.889 Y-54.814
X28.909 Y-54.802 Z4.615
X28.927 Y-54.786 Z4.614
X28.943 Y-54.768 Z4.613
X28.955 Y-54.748 Z4.612
X28.964 Y-54.727 Z4.611
X28.969 Y-54.704 Z4.61
X28.971 Y-54.68 Z4.609
X28.969 Y-54.657 Z4.607
X28.964 Y-54.634 Z4.606
X28.955 Y-54.612 Z4.605
X28.943 Y-54.592 Z4.604
X28.927 Y-54.574 Z4.603
X28.909 Y-54.559 Z4.602
X28.889 Y-54.547 Z4.601
X28.867 Y-54.538
X28.844 Y-54.532
X28.821 Y-54.53
X28.791 Z4.605
X28.764 Z4.618
X28.583 Z4.744
X28.417 Z4.82
X28.24 Z4.885
X28.096 Z4.919
X27.821 Z4.937
X27.635 Z4.925
X27.208 Z4.853
X26.803 Z4.755
X26.371 Z4.623
X25.955 Z4.437
X25.555 Z4.199
X24.75 Z3.935
X24.46 Z3.85
X24.247 Z3.796
X23.88 Z3.746
X23.292 Z3.694
X22.918 Z3.623
X22.693 Z3.56
X22.358 Z3.424
X22.004 Z3.262
X21.852
X21.165 Z3.309
X20.468 Z3.282
X20.354 Z3.288
X20.195 Z4.443
X20.105 Z4.823
X20.028 Z5.012
X19.929 Z5.196
X19.764 Z5.424
X19.56 Z5.65
X19.453 Z5.751
X19.167 Z5.992
X18.882 Z6.173
X18.732 Z6.432
X18.61 Z6.589
X18.406 Z6.803
X18.255 Z6.932
X18.009 Z7.113
X17.888 Z7.194
X17.379 Z7.498
X16.871 Z7.795
X16.449 Z8.061
X15.446 Z8.554
X15.171 Z8.678
X14.722 Z8.868
X14.038 Z9.103
X13.54 Z9.215
X13.335 Z9.233
X13.071 Z9.224
X12.918 Z9.2
X12.725 Z9.243
X12.481 Z9.273
X12.329 Z9.271
X12.127 Z9.234
X11.777 Z9.174
X11.52 Z9.143
X11.32 Z9.097
X10.985 Z9.001
X10.66 Z8.867
X10.514 Z8.79
X10.131 Z8.817
X9.841 Z8.8
X9.56 Z8.783
X9.328 Z8.775
X9.184 Z8.759
X8.974 Z8.83
X8.678 Z8.881
X8.294 Z8.89
X8.129 Z8.888
X7.92 Z8.961
X7.7 Z9.005
X7.286 Z9.062
X7.091 Z9.111
X6.833 Z9.13
X6.528 Z9.136
X6.268 Z9.202
X6.08 Z9.218
X5.947 Z9.225
X5.809 Z9.276
X5.639 Z9.313
X5.1 Z9.332
X4.81 Z9.302
X4.509 Z9.264
X4.375 Z9.23
X3.597 Z9
X3.21 Z8.839
X3.021 Z8.727
X2.785 Z8.565
X2.636 Z8.534
X2.357 Z8.507
X1.855 Z8.441
X1.619 Z8.418
X1.2 Z8.352
X0.951 Z8.336
X0.757 Z8.443
X0.512 Z8.53
X0.185 Z8.624
X-0.391 Z8.748
X-0.616 Z8.776
X-1.018 Z8.78
X-1.191 Z8.79
X-1.379 Z8.776
X-1.547 Z8.737
X-1.675 Z8.69
X-2.042 Z8.62
X-2.565 Z8.466
X-2.883 Z8.337
X-3.007 Z8.272
X-3.241 Z8.136
X-3.368 Z8.207
X-3.578 Z8.282
X-3.795 Z8.354
X-3.92 Z8.405
X-4.101 Z8.448
X-4.422 Z8.501
X-4.806 Z8.506
X-5.077 Z8.491
X-5.528 Z8.425
X-5.963 Z8.32
X-6.179 Z8.279
X-6.329 Z8.234
X-6.527 Z8.212
X-6.629 Z8.186
X-6.789 Z8.221
X-7.659 Z8.273
X-8.08 Z8.263
X-8.467 Z8.213
X-8.618 Z8.19
X-9.032 Z8.091
X-9.163 Z8.043
X-9.622 Z7.843
X-9.853 Z7.716
X-10.356 Z7.665
X-10.556 Z7.613
X-10.812 Z7.515
X-10.991 Z7.404
X-11.127 Z7.293
X-11.157 Z7.276
X-11.191 Z7.27
X-11.367
X-11.391 Y-54.528
X-11.414 Y-54.523
X-11.435 Y-54.514 Z7.269
X-11.456 Y-54.502 Z7.268
X-11.473 Y-54.486 Z7.267
X-11.489 Y-54.468 Z7.266
X-11.501 Y-54.448 Z7.265
X-11.51 Y-54.427 Z7.264
X-11.516 Y-54.404 Z7.262
X-11.517 Y-54.38 Z7.261
X-11.516 Y-54.357 Z7.259
X-11.51 Y-54.334 Z7.258
X-11.501 Y-54.312 Z7.257
X-11.489 Y-54.292 Z7.255
X-11.473 Y-54.274 Z7.254
X-11.456 Y-54.259 Z7.253
X-11.435 Y-54.247
X-11.414 Y-54.238 Z7.252
X-11.391 Y-54.232
X-11.367 Y-54.23
X-11.333 Z7.258
X-11.303 Z7.275
X-11.271 Z7.302
X-11.063 Z7.44
X-10.86 Z7.533
X-10.537 Z7.647
X-10.334 Z7.681
X-10.131 Z7.688
X-9.941 Z7.716
X-9.791
X-9.575 Z7.837
X-9.357 Z7.94
X-9.03 Z8.068
X-8.691 Z8.151
X-8.541 Z8.179
X-8.15 Z8.231
X-7.666 Z8.252
X-7.006 Z8.217
X-6.819 Z8.206
X-6.609 Z8.162
X-6.529 Z8.185
X-6.221 Z8.25
X-5.811 Z8.36
X-5.507 Z8.405
X-5.373 Z8.43
X-4.97 Z8.474
X-4.622
X-4.373 Z8.462
X-3.983 Z8.391
X-3.805 Z8.341
X-3.67 Z8.28
X-3.492 Z8.176
X-3.354 Z8.109
X-2.99 Z8.307
X-2.54 Z8.471
X-2.078 Z8.602
X-1.87 Z8.642
X-1.239 Z8.769
X-1.036 Z8.781
X-0.798 Z8.764
X-0.354 Z8.719
X-0.131 Z8.674
X0.07 Z8.626
X0.678 Z8.406
X0.853 Z8.327
X0.914 Z8.337
X1.161 Z8.361
X1.427 Z8.385
X2.112 Z8.497
X2.569 Z8.546
X2.595 Z8.556
X2.792 Z8.639
X2.968 Z8.765
X3.215 Z8.902
X3.384 Z8.98
X3.954 Z9.165
X4.367 Z9.266
X4.516 Z9.297
X4.861 Z9.354
X5.014 Z9.363
X5.216 Z9.348
X5.457 Z9.349
X5.642 Z9.328
X6 Z9.227
X6.12 Z9.22
X6.462 Z9.16
X6.675 Z9.176
X6.949 Z9.154
X7.15 Z9.116
X7.334 Z9.088
X7.634 Z9.046
X7.853 Z8.996
X8.057 Z8.918
X8.176 Z8.924
X8.602 Z8.889
X8.752 Z8.873
X8.898 Z8.842
X9.101 Z8.772
X9.214 Z8.781
X9.601 Z8.785
X10.213 Z8.781
X10.436 Z8.755
X10.586 Z8.822
X10.824 Z8.923
X11.234 Z9.037
