(afr2_adap1)
(T1  D=6 CR=0 - ZMIN=0.5 - flat end mill)
G90 G94
G17
G21
G28 G91 Z0
G90

(Pocket1)
T1
S18000 M3
G54
G0 X-6.612 Y16.272
Z36
Z19.066
G1 Z17.1 F300
X-6.604 Y16.254 Z16.948 F2000
X-6.58 Y16.202 Z16.806
X-6.54 Y16.12 Z16.683
X-6.483 Y16.015 Z16.587
X-6.41 Y15.895 Z16.525
X-6.326 Y15.77 Z16.5
G3 X-1.687 Y19.082 Z16.187 I2.319 J1.656
X-6.326 Y15.77 Z15.875 I-2.319 J-1.656
X-1.687 Y19.082 Z15.562 I2.319 J1.656
X-6.326 Y15.77 Z15.249 I-2.319 J-1.656
X-1.687 Y19.082 Z14.937 I2.319 J1.656
X-6.326 Y15.77 Z14.624 I-2.319 J-1.656
X-1.687 Y19.082 Z14.311 I2.319 J1.656
X-6.326 Y15.77 Z13.999 I-2.319 J-1.656
X-1.687 Y19.082 Z13.686 I2.319 J1.656
X-6.326 Y15.77 Z13.373 I-2.319 J-1.656
X-1.687 Y19.082 Z13.061 I2.319 J1.656
X-6.326 Y15.77 Z12.748 I-2.319 J-1.656
X-1.687 Y19.082 Z12.435 I2.319 J1.656
X-6.326 Y15.77 Z12.123 I-2.319 J-1.656
X-3.213 Y14.689 Z12 I2.319 J1.656
G2 X0.165 Y15.449 I7.926 J-27.337
X7.508 Y15.512 I3.877 J-23.949
X9.425 Y15.106 I-2.144 J-14.848
X11.309 Y14.568 I-66.209 J-235.479
G3 X13.444 Y15.724 I0.481 J1.66
G2 X13.709 Y16.569 I48.742 J-14.858
X14 Y17.405 I19.727 J-6.39
G3 X14.11 Y17.966 I-1.651 J0.614
G2 X14.216 Y19.591 I23.254 J-0.7
G3 X12.646 Y20.772 I-1.143 J0.115
G2 X4.59 Y18.699 I-11.974 J29.849
X-3.726 Y18.92 I-3.419 J27.855
G3 X-5.614 Y17.963 I-0.307 J-1.735
G2 X-6.608 Y16.128 I-23.636 J11.617
X-7.726 Y14.367 I-30.57 J18.161
G3 X-6.873 Y13.35 I0.572 J-0.387
G2 X-3.213 Y14.689 I11.586 J-25.998
X-2.985 Y14.138 I0.084 J-0.288
G1 X-20.309 Y4.593
X-20.353 Y4.573
G2 X-20.813 Y4.414 I-8.081 J22.515
G3 X-21.086 Y2.763 I0.307 J-0.898
G2 X-20.493 Y2.291 I-14.198 J-18.43
G3 X-19.028 Y2.548 I0.622 J0.755
G2 X-17.988 Y4.16 I20.927 J-12.368
G3 X-18.827 Y5.181 I-0.564 J0.392
G2 X-20.353 Y4.573 I-9.606 J21.908
X-22.844 Y5.257 I-0.759 J2.115
G3 X-25.282 Y6.113 I-1.928 J-1.592
G2 X-27.05 Y5.784 I-8.414 J40.337
G3 X-27.495 Y5.625 I0.212 J-1.297
G2 X-28.643 Y5.011 I-10.165 J17.6
G3 X-28.551 Y3.51 I0.362 J-0.731
G2 X-19.802 Y-2.499 I-6.733 J-19.177
G3 X-18.071 Y-2.202 I0.777 J0.661
G2 X5.632 Y12.889 I22.018 J-8.422
X9.776 Y12.082 I-1.247 J-17.464
X13.702 Y10.531 I-10.27 J-31.736
G3 X15.464 Y11.474 I0.53 J1.127
G2 X15.99 Y13.993 I22.083 J-3.303
X16.779 Y16.443 I26.043 J-7.034
G3 X17.047 Y17.812 I-3.945 J1.481
G2 X18.026 Y24.099 I24.969 J-0.669
G3 X16.845 Y25.152 I-0.842 J0.245
G2 X14.639 Y24.337 I-10.717 J25.609
X12.38 Y23.679 I-12.844 J39.878
G3 X8.88 Y22.549 I8.187 J-31.354
G2 X5.316 Y21.643 I-5.543 J14.336
X0.024 Y21.425 I-3.878 J29.864
X-5.205 Y22.271 I1.1 J23.391
G3 X-7.437 Y21.147 I-0.501 J-1.784
G2 X-11.465 Y14.049 I-25.211 J9.617
X-17.683 Y8.764 I-16.267 J12.836
X-22.238 Y6.87 I-10.677 J19.254
X-25.282 Y6.113 I-11.458 J39.58
G1 X-25.346 Y6.094 Z12.008 F1500
X-25.408 Y6.068 Z12.015
X-25.463 Y6.037 Z12.037
X-25.515 Y6 Z12.059
X-25.558 Y5.963 Z12.095
X-25.597 Y5.922 Z12.131
X-25.653 Y5.845 Z12.226
X-25.687 Y5.782 Z12.34
X-25.704 Y5.741 Z12.466
X-25.709 Y5.727 Z12.6
G0 Z19.5
X-26.094 Y53.081
Z17.1
G1 X-26.075 Y53.087 Z16.948 F2000
X-26.021 Y53.107 Z16.806
X-25.936 Y53.14 Z16.683
X-25.827 Y53.188 Z16.587
X-25.701 Y53.25 Z16.525
X-25.569 Y53.324 Z16.5
G3 X-28.476 Y58.227 Z16.187 I-1.453 J2.452
X-25.569 Y53.324 Z15.875 I1.453 J-2.452
X-28.476 Y58.227 Z15.562 I-1.453 J2.452
X-25.569 Y53.324 Z15.249 I1.453 J-2.452
X-28.476 Y58.227 Z14.937 I-1.453 J2.452
X-25.569 Y53.324 Z14.624 I1.453 J-2.452
X-28.476 Y58.227 Z14.311 I-1.453 J2.452
X-25.569 Y53.324 Z13.999 I1.453 J-2.452
X-28.476 Y58.227 Z13.686 I-1.453 J2.452
X-25.569 Y53.324 Z13.373 I1.453 J-2.452
X-28.476 Y58.227 Z13.061 I-1.453 J2.452
X-25.569 Y53.324 Z12.748 I1.453 J-2.452
X-28.476 Y58.227 Z12.435 I-1.453 J2.452
X-25.569 Y53.324 Z12.123 I1.453 J-2.452
X-24.228 Y56.334 Z12 I-1.453 J2.452
G1 X-24.235 Y56.372
G3 X-25.273 Y57.175 I-0.98 J-0.193
X-26.324 Y57.08 I0.917 J-15.966
X-27.37 Y56.937 I5.159 J-41.59
X-27.423 Y55.672 I0.095 J-0.638
G2 X-26.473 Y55.418 I-3.857 J-16.313
X-25.536 Y55.12 I-8.394 J-28.045
G3 X-24.218 Y56.283 I0.323 J0.962
G1 X-24.228 Y56.334
G2 X-23.574 Y57.752 I1.301 J0.26
G3 X-23.768 Y59.302 I-0.411 J0.736
X-24.291 Y59.373 I-0.542 J-2.025
X-26.321 Y59.265 I-0.148 J-16.404
X-28.337 Y58.998 I6.936 J-60.056
X-29.076 Y58.76 I0.356 J-2.38
G2 X-33.904 Y56.904 I-11.154 J21.798
X-39.045 Y56.334 I-4.445 J16.619
G1 X-40.301 Y56.382
G3 X-40.986 Y56.147 I-0.039 J-0.998
G2 X-42.806 Y54.797 I-11.371 J13.434
G3 X-42.31 Y53.773 I0.309 J-0.483
G2 X-32.786 Y54.697 I6.678 J-19.278
X-23.603 Y52.01 I-4.629 J-32.859
X-21.253 Y50.822 I-14.026 J-30.639
G3 X-20.289 Y51.769 I0.343 J0.615
G2 X-22.239 Y57.6 I16.099 J8.625
G3 X-23.768 Y59.302 I-2.071 J-0.323
G1 X-23.834 Y59.299 Z12.008 F1500
X-23.9 Y59.288 Z12.015
X-23.961 Y59.271 Z12.037
X-24.02 Y59.248 Z12.059
X-24.071 Y59.223 Z12.095
X-24.119 Y59.192 Z12.131
X-24.192 Y59.131 Z12.226
X-24.24 Y59.078 Z12.34
X-24.267 Y59.043 Z12.466
X-24.275 Y59.03 Z12.6
G0 Z19.5
X14.409 Y21.16
G1 Z12.6 F1500
X14.414 Y21.165 Z12.506
X14.428 Y21.182 Z12.415
X14.451 Y21.21 Z12.328
X14.483 Y21.247 Z12.247
X14.523 Y21.294 Z12.176
X14.569 Y21.349 Z12.115
X14.62 Y21.41 Z12.065
X14.676 Y21.477 Z12.029
X14.735 Y21.547 Z12.007
X14.796 Y21.618 Z12
X28.515 Y37.893 F2000
G2 X28.941 Y37.926 I0.229 J-0.193
G3 X29.839 Y37.874 I0.483 J0.557
G2 X31.579 Y38.934 I11.155 J-16.362
G3 X32.235 Y40.387 I-0.625 J1.156
G2 X31.76 Y43.653 I19.291 J4.473
G3 X30.556 Y43.772 I-0.611 J-0.037
G2 X29.714 Y41.235 I-20.45 J5.383
G3 X28.735 Y38.747 I134.484 J-54.322
X28.941 Y37.926 I0.689 J-0.264
G2 X26.859 Y34.477 I-1.34 J-1.545
G3 X22.971 Y33.418 I-1.229 J-3.153
G2 X14.295 Y27.395 I-14.198 J11.189
X7.67 Y25.38 I-68.9 J214.741
X0.807 Y24.453 I-6.597 J22.961
X-3.624 Y25.1 I0.187 J16.772
X-7.791 Y26.743 I6.396 J22.331
G3 X-9.511 Y25.869 I-0.542 J-1.062
G2 X-12.226 Y18.404 I-20.677 J3.295
X-17.652 Y12.604 I-16.163 J9.682
X-22.433 Y10.229 I-10.5 J15.14
X-27.622 Y8.974 I-10.599 J32.463
G3 X-29.073 Y8.456 I0.668 J-4.161
G2 X-37.885 Y5.929 I-9.407 J16.177
X-46.851 Y7.837 I-0.609 J19.159
G3 X-47.849 Y6.929 I-0.317 J-0.654
G1 X-47.833 Y6.887
G3 X-47.594 Y6.562 I0.682 J0.252
G1 X-47.47 Y6.467
X-47.347 Y6.381
G3 X-46.54 Y5.935 I4.368 J6.945
G2 X-45.733 Y5.488 I-3.83 J-7.878
X-41.534 Y1.777 I-8.977 J-14.386
G3 X-39.169 Y0.969 I1.828 J1.489
G2 X-26.606 Y-0.948 I3.887 J-16.645
X-18.717 Y-10.911 I-8.948 J-15.19
G3 X-18.068 Y-12.756 I24.936 J7.741
X-17.085 Y-14.447 I6.051 J2.388
X-15.919 Y-13.905 I0.516 J0.415
G2 X-6.59 Y6.765 I19.23 J3.76
X16.045 Y5.369 I10.278 J-17.553
G3 X16.687 Y5.108 I0.798 J1.044
G1 X17.057 Y5.063
G3 X18.534 Y6.49 I0.159 J1.312
G2 X18.68 Y10.965 I18.748 J1.629
X19.81 Y15.297 I21.415 J-3.276
G3 X20.286 Y17.732 I-7.035 J2.639
G2 X21.661 Y24.821 I22.058 J-0.6
X25.292 Y31.063 I19.894 J-7.396
X29.446 Y34.656 I13.221 J-11.087
X34.295 Y37.234 I22.378 J-36.23
G3 X35.298 Y39.516 I-0.767 J1.699
G2 X34.446 Y44.8 I16.137 J5.313
X35.11 Y50.111 I21.293 J0.036
X35.74 Y52.449 I91.189 J-23.316
G3 X36.369 Y54.786 I-91.157 J25.814
X34.818 Y56.977 I-1.707 J0.437
G1 X34.612 Y56.996
X34.192 Y57.039
G3 X32.312 Y55.737 I-0.177 J-1.753
G2 X31.136 Y52.556 I-17.188 J4.548
X29.42 Y49.631 I-18.9 J9.123
G3 X29.025 Y48.664 I1.931 J-1.354
G2 X24.647 Y35.961 I-39.888 J6.639
X22.971 Y33.418 I-15.875 J8.647
G1 X22.931 Y33.365 Z12.008 F1500
X22.897 Y33.307 Z12.015
X22.872 Y33.249 Z12.037
X22.852 Y33.189 Z12.059
X22.84 Y33.133 Z12.095
X22.833 Y33.077 Z12.131
X22.834 Y32.982 Z12.226
X22.845 Y32.911 Z12.34
X22.855 Y32.868 Z12.466
X22.86 Y32.854 Z12.6
G0 Z19.5
X64.035 Y12.528
Z17.1
G1 X64.053 Y12.535 Z16.948 F2000
X64.106 Y12.557 Z16.806
X64.19 Y12.593 Z16.683
X64.298 Y12.645 Z16.587
X64.421 Y12.711 Z16.525
X64.551 Y12.789 Z16.5
G3 X61.476 Y17.588 Z16.187 I-1.538 J2.4
X64.551 Y12.789 Z15.875 I1.538 J-2.4
X61.476 Y17.588 Z15.562 I-1.538 J2.4
X64.551 Y12.789 Z15.249 I1.538 J-2.4
X61.476 Y17.588 Z14.937 I-1.538 J2.4
X64.551 Y12.789 Z14.624 I1.538 J-2.4
X61.476 Y17.588 Z14.311 I-1.538 J2.4
X64.551 Y12.789 Z13.999 I1.538 J-2.4
X61.476 Y17.588 Z13.686 I-1.538 J2.4
X64.551 Y12.789 Z13.373 I1.538 J-2.4
X61.476 Y17.588 Z13.061 I-1.538 J2.4
X64.551 Y12.789 Z12.748 I1.538 J-2.4
X61.476 Y17.588 Z12.435 I-1.538 J2.4
X64.551 Y12.789 Z12.123 I1.538 J-2.4
X65.787 Y15.844 Z12 I-1.538 J2.4
X65.354 Y17.436 I-24.04 J-5.677
X63.676 Y20.438 I-7.851 J-2.418
X62.487 Y19.849 I-0.516 J-0.453
G2 X62.711 Y17.762 I-11.148 J-2.25
X62.529 Y15.67 I-10.424 J-0.149
G3 X62.634 Y14.86 I1.291 J-0.245
G2 X63.728 Y12.152 I-21.871 J-10.414
X64.35 Y9.299 I-12.718 J-4.268
G3 X65.584 Y9.131 I0.638 J0.068
X65.898 Y10.352 I-4.686 J1.852
X65.957 Y11.612 I-7.969 J1.006
G2 X65.995 Y12.642 I7.472 J0.237
X66.134 Y13.664 I17.812 J-1.901
G3 X66.135 Y14.087 I-1.297 J0.214
X65.787 Y15.844 I-24.388 J-3.92
G1 X65.783 Y15.91 Z12.008 F1500
X65.771 Y15.976 Z12.015
X65.753 Y16.037 Z12.037
X65.729 Y16.095 Z12.059
X65.702 Y16.145 Z12.095
X65.671 Y16.193 Z12.131
X65.609 Y16.265 Z12.226
X65.555 Y16.312 Z12.34
X65.519 Y16.338 Z12.466
X65.506 Y16.346 Z12.6
G0 Z19.5
X39.135 Y-12.84
Z17.1
G1 X39.116 Y-12.843 Z16.948 F2000
X39.059 Y-12.852 Z16.806
X38.969 Y-12.867 Z16.683
X38.852 Y-12.893 Z16.587
X38.717 Y-12.928 Z16.525
X38.573 Y-12.974 Z16.5
G3 X40.446 Y-18.357 Z16.187 I0.937 J-2.692
X38.573 Y-12.974 Z15.875 I-0.937 J2.692
X40.446 Y-18.357 Z15.562 I0.937 J-2.692
X38.573 Y-12.974 Z15.249 I-0.937 J2.692
X40.446 Y-18.357 Z14.937 I0.937 J-2.692
X38.573 Y-12.974 Z14.624 I-0.937 J2.692
X40.446 Y-18.357 Z14.311 I0.937 J-2.692
X38.573 Y-12.974 Z13.999 I-0.937 J2.692
X40.446 Y-18.357 Z13.686 I0.937 J-2.692
X38.573 Y-12.974 Z13.373 I-0.937 J2.692
X40.446 Y-18.357 Z13.061 I0.937 J-2.692
X38.573 Y-12.974 Z12.748 I-0.937 J2.692
X40.446 Y-18.357 Z12.435 I0.937 J-2.692
X38.573 Y-12.974 Z12.123 I-0.937 J2.692
X36.659 Y-15.657 Z12 I0.937 J-2.692
G2 X36.64 Y-16.398 I-16.206 J0.05
G3 X37.941 Y-16.865 I0.722 J-0.034
G2 X38.648 Y-15.985 I12.973 J-9.7
G3 X38.214 Y-14.77 I-0.562 J0.485
G2 X37.557 Y-14.641 I2.78 J15.958
G3 X36.658 Y-15.377 I-0.157 J-0.725
G2 X36.659 Y-15.657 I-16.205 J-0.23
G1 X36.663 Y-15.724 Z12.008 F1500
X36.674 Y-15.789 Z12.015
X36.691 Y-15.851 Z12.037
X36.714 Y-15.909 Z12.059
X36.74 Y-15.96 Z12.095
X36.771 Y-16.008 Z12.131
X36.832 Y-16.08 Z12.226
X36.885 Y-16.128 Z12.34
X36.921 Y-16.154 Z12.466
X36.934 Y-16.163 Z12.6
G0 Z19.5
X8.279 Y-41.969
Z17.1
G1 X8.264 Y-41.98 Z16.948 F2000
X8.219 Y-42.016 Z16.806
X8.148 Y-42.074 Z16.683
X8.059 Y-42.154 Z16.587
X7.959 Y-42.251 Z16.525
X7.856 Y-42.362 Z16.5
G3 X12.142 Y-46.12 Z16.187 I2.143 J-1.879
X7.856 Y-42.362 Z15.875 I-2.143 J1.879
X12.142 Y-46.12 Z15.562 I2.143 J-1.879
X7.856 Y-42.362 Z15.249 I-2.143 J1.879
X12.142 Y-46.12 Z14.937 I2.143 J-1.879
X7.856 Y-42.362 Z14.624 I-2.143 J1.879
X12.142 Y-46.12 Z14.311 I2.143 J-1.879
X7.856 Y-42.362 Z13.999 I-2.143 J1.879
X12.142 Y-46.12 Z13.686 I2.143 J-1.879
X7.856 Y-42.362 Z13.373 I-2.143 J1.879
X12.142 Y-46.12 Z13.061 I2.143 J-1.879
X7.856 Y-42.362 Z12.748 I-2.143 J1.879
X12.142 Y-46.12 Z12.435 I2.143 J-1.879
X7.856 Y-42.362 Z12.123 I-2.143 J1.879
X7.516 Y-45.64 Z12 I2.143 J-1.879
G1 X7.596 Y-45.782
G3 X9.239 Y-45.933 I0.873 J0.485
G2 X9.448 Y-45.683 I21.159 J-17.468
G3 X9.007 Y-44.092 I-0.762 J0.645
G2 X8.569 Y-43.939 I8.824 J25.98
G3 X7.367 Y-45.379 I-0.337 J-0.94
G2 X7.516 Y-45.64 I-23.757 J-13.728
X7.167 Y-47.526 I-1.303 J-0.734
G3 X7.596 Y-49.395 I0.686 J-0.827
X8.708 Y-49.343 I0.468 J1.895
G2 X9.111 Y-49.206 I8.29 J-23.709
G3 X10.282 Y-48.362 I-0.756 J2.285
G2 X11.158 Y-47.258 I19.904 J-14.882
X12.08 Y-46.193 I35.416 J-29.753
G3 X12.523 Y-45.477 I-1.794 J1.603
G2 X12.931 Y-44.507 I23.345 J-9.263
G3 X11.976 Y-42.552 I-1.296 J0.578
G2 X7.91 Y-41.193 I6.404 J25.933
G1 X7.816 Y-41.15
X7.723 Y-41.107
G3 X5.673 Y-42.059 I-0.6 J-1.392
G2 X5.103 Y-43.728 I-24.039 J7.276
G3 X5.326 Y-46.488 I3.007 J-1.146
G2 X6.3 Y-48.337 I-22.332 J-12.943
G3 X7.596 Y-49.395 I1.763 J0.837
G2 X10.325 Y-51.002 I-1.328 J-5.376
G3 X13.487 Y-50.833 I1.511 J1.404
G2 X15.152 Y-48.807 I22.849 J-17.077
G3 X16.235 Y-47.054 I-4.265 J3.846
G2 X19.772 Y-41.122 I19.633 J-7.686
G3 X20.006 Y-40.539 I-0.762 J0.645
G1 X20.017 Y-40.37
G3 X18.997 Y-39.302 I-0.996 J0.07
G2 X12.794 Y-38.636 I-0.567 J23.926
X6.994 Y-36.336 I5.269 J21.745
G3 X5.664 Y-35.68 I-6.161 J-10.823
G2 X4.32 Y-35.051 I7.324 J17.405
G3 X2.691 Y-35.977 I-0.513 J-0.993
G2 X1.178 Y-42.694 I-21.433 J1.3
G3 X1.553 Y-48.018 I5.63 J-2.279
G1 X2.451 Y-49.568
G2 X3.224 Y-51.146 I-10.888 J-6.311
X3.689 Y-52.402 I-19.861 J-8.061
G3 X4.153 Y-53.658 I20.326 J6.805
X6.675 Y-54.66 I1.74 J0.706
G1 X6.759 Y-54.615
X6.841 Y-54.568
G2 X9.111 Y-53.51 I9.098 J-16.557
G3 X11.415 Y-52.528 I-13.64 J35.188
X13.471 Y-50.855 I-2.29 J4.914
G1 X13.487 Y-50.833
G2 X16.828 Y-49.823 I2.355 J-1.76
G3 X20.009 Y-48.387 I0.844 J2.372
G2 X22.961 Y-43.547 I15.859 J-6.353
G3 X23.986 Y-40.995 I-3.184 J2.761
G2 X25.142 Y-35.6 I17.124 J-0.848
G3 X24.062 Y-34.444 I-0.82 J0.317
G2 X16.343 Y-35.251 I-5.881 J18.945
X8.939 Y-32.919 I1.707 J18.336
G3 X6.658 Y-31.738 I-15.969 J-28.052
G2 X4.424 Y-30.469 I6.946 J14.835
G3 X2.931 Y-29.939 I-1.767 J-2.612
G2 X-0.245 Y-29.373 I1.573 J18.02
G3 X-1.552 Y-30.589 I-0.272 J-1.018
G2 X-1.369 Y-36.574 I-18.567 J-3.56
X-2.775 Y-42.395 I-27.462 J3.552
G3 X-3.459 Y-44.819 I16.874 J-6.07
X-3.167 Y-47.32 I3.907 J-0.811
X-1.756 Y-49.954 I24.842 J11.616
G2 X-0.413 Y-52.623 I-15.886 J-9.661
X0.465 Y-54.991 I-38.672 J-15.695
G3 X1.309 Y-57.372 I76.792 J25.876
X4.048 Y-59.284 I2.752 J1.024
X6.302 Y-58.933 I0.033 J7.205
X8.426 Y-58.098 I-5.752 J17.748
G2 X12.587 Y-56.336 I27.041 J-58.074
G3 X16.242 Y-53.678 I-3.096 J8.098
G2 X17.156 Y-52.581 I32.724 J-26.37
X18.1 Y-51.51 I55.084 J-47.563
G3 X19.971 Y-48.482 I-7.459 J6.701
G1 X20.009 Y-48.387
G2 X22.387 Y-46.855 I2.268 J-0.908
G3 X24.974 Y-45.71 I0.144 J3.17
G2 X25.289 Y-45.343 I10.894 J-9.03
G3 X26.91 Y-41.308 I-4.815 J4.277
G2 X29.394 Y-33.597 I14.959 J-0.563
X35.45 Y-28.217 I13.189 J-8.747
G3 X36.771 Y-26.141 I-1.084 J2.148
G2 X38.659 Y-19.51 I14.073 J-0.422
X43.439 Y-14.542 I12.475 J-7.221
G3 X43.064 Y-13.258 I-0.372 J0.589
G2 X35.798 Y-12.022 I-0.106 J21.365
G3 X34.425 Y-13.149 I-0.344 J-0.98
G2 X32.495 Y-24.201 I-17.936 J-2.562
X24.071 Y-31.611 I-14.008 J7.431
X14.602 Y-32.015 I-5.348 J14.214
X6.016 Y-28.003 I7.956 J28.223
G3 X3.249 Y-27.021 I-3.24 J-4.742
G2 X-10.278 Y-19.668 I1.573 J19.014
X-12.592 Y-4.445 I12.557 J9.696
X-1.056 Y6.063 I15.957 J-5.93
X14.253 Y3.044 I4.588 J-17.06
G3 X16.351 Y2.192 I2.61 J3.418
G2 X17.919 Y1.963 I-3.642 J-30.346
X19.459 Y1.588 I-2.008 J-11.606
X20.241 Y1.297 I-2.468 J-7.814
G3 X21.038 Y1.05 I1.543 J3.572
X22.266 Y2.391 I0.204 J1.046
G2 X21.39 Y7.565 I22.39 J6.452
X22.021 Y12.774 I15.014 J0.825
X22.261 Y13.48 I11.069 J-3.374
G1 X22.565 Y14.286
G3 X23.219 Y17.631 I-9.574 J3.607
G2 X27.815 Y29.369 I18.504 J-0.476
X38.781 Y35.583 I14.42 J-12.663
G3 X39.548 Y37.326 I-0.207 J1.131
G2 X37.477 Y43.187 I11.963 J7.523
X37.905 Y49.389 I16.612 J1.968
X38.76 Y52.538 I172.673 J-45.172
X39.653 Y55.677 I545.181 J-153.325
G3 X38.603 Y58.63 I-2.586 J0.743
G2 X38.096 Y58.988 I25.801 J37.114
G3 X37.582 Y59.336 I-6.984 J-9.757
X36.033 Y59.838 I-1.735 J-2.71
G2 X33.872 Y59.995 I4.232 J73.31
X31.72 Y60.244 I3.34 J38.222
G3 X29.9 Y58.84 I-0.229 J-1.584
G2 X28.942 Y54.932 I-15.736 J1.784
X27.059 Y51.375 I-15.775 J6.077
G3 X26.118 Y49.074 I4.719 J-3.273
G2 X23.304 Y39.345 I-44.848 J7.701
X16.663 Y31.697 I-14.786 J6.131
X12.413 Y29.842 I-9.671 J16.361
G1 X8.093 Y28.556
G2 X2.586 Y27.455 I-8.731 J29.338
X-3.019 Y27.818 I-1.746 J16.489
X-7.679 Y29.893 I3.241 J13.545
X-11.407 Y33.374 I9.821 J14.258
G3 X-12.569 Y32.826 I-0.517 J-0.411
G2 X-13.254 Y22.899 I-17.723 J-3.766
X-19.321 Y15.011 I-15.4 J5.569
X-23.613 Y12.91 I-9.048 J13.047
X-28.271 Y11.843 I-9.052 J28.829
G3 X-30.388 Y11.088 I0.835 J-5.682
G2 X-42.53 Y9.353 I-8.134 J13.574
X-52.302 Y16.764 I4.058 J15.501
G3 X-52.674 Y17.247 I-2.077 J-1.215
G2 X-55.991 Y21.295 I19.226 J19.136
X-58.047 Y26.108 I11.76 J7.871
X-58.003 Y35.239 I20.191 J4.469
X-54.251 Y43.563 I22.833 J-5.284
X-43.409 Y51.431 I17.154 J-12.234
X-39.991 Y52.445 I48.188 J-156.134
X-36.463 Y52.955 I3.654 J-12.825
X-29.362 Y52.053 I0.248 J-26.436
X-22.692 Y49.454 I-8.505 J-31.692
X-19.964 Y47.565 I-6.17 J-11.829
X-17.627 Y45.208 I-18.596 J-20.773
G3 X-16.524 Y45.816 I0.484 J0.426
G2 X-16.993 Y47.992 I14.485 J4.26
X-17.168 Y50.21 I18.386 J2.563
G3 X-17.489 Y51.202 I-1.797 J-0.033
G2 X-20.352 Y60.074 I13.18 J9.152
G3 X-22.012 Y61.541 I-1.497 J-0.021
G2 X-25.347 Y61.334 I-3.875 J35.456
G3 X-28.678 Y61.061 I0.379 J-25.054
X-30.007 Y60.633 I0.637 J-4.253
G2 X-34.339 Y58.943 I-10.355 J20.148
X-38.959 Y58.416 I-3.993 J14.478
G1 X-39.806 Y58.451
G2 X-40.446 Y58.482 I1.94 J46.403
G3 X-42.164 Y57.891 I-0.134 J-2.403
G2 X-44.438 Y56.25 I-9.896 J11.316
G3 X-45.313 Y55.37 I1.21 J-2.08
G2 X-47.506 Y52.248 I-18.397 J10.585
X-50.401 Y49.762 I-9.183 J7.768
X-52.536 Y48.766 I-5.437 J8.866
X-54.805 Y48.136 I-7.162 J21.388
G3 X-55.541 Y47.782 I0.39 J-1.755
G1 X-55.637 Y47.706
G3 X-56.32 Y46.261 I1.114 J-1.411
G2 X-56.91 Y41.523 I-16.745 J-0.321
X-58.94 Y37.201 I-13.428 J3.672
G1 X-58.995 Y37.11
X-59.037 Y37.011
G2 X-60.597 Y33.77 I-13.651 J4.575
G3 X-60.811 Y33.031 I1.126 J-0.728
G2 X-60.863 Y31.703 I-14.396 J-0.111
X-61.012 Y30.383 I-23.36 J1.981
G3 X-60.952 Y29.755 I1.328 J-0.189
G2 X-60.191 Y26.086 I-13.744 J-4.762
G3 X-60.036 Y25.62 I0.996 J0.073
G2 X-58.063 Y21.088 I-13.14 J-8.416
X-57.665 Y16.161 I-14.086 J-3.62
G3 X-57.438 Y14.905 I2.397 J-0.216
G2 X-57.033 Y13.975 I-12.762 J-6.112
G3 X-56.12 Y12.848 I2.239 J0.881
G2 X-50.55 Y5.771 I-7.875 J-11.928
G3 X-49.465 Y4.298 I3.026 J1.094
G2 X-49.195 Y4.088 I-7.254 J-9.588
G3 X-48.915 Y3.889 I1.871 J2.332
X-48.144 Y3.478 I3.223 J5.125
G2 X-47.37 Y3.072 I-2.659 J-6.004
X-44.843 Y1.037 I-6.653 J-10.849
X-42.758 Y-1.449 I-17.437 J-16.741
G3 X-39.969 Y-2.316 I1.978 J1.444
G2 X-28.677 Y-3.077 I4.758 J-13.557
X-21.394 Y-11.74 I-6.616 J-12.956
G3 X-19.635 Y-15.461 I13.896 J4.291
X-17.326 Y-18.869 I142.616 J94.152
X-15.796 Y-19.86 I1.976 J1.374
G2 X-5.445 Y-27.732 I-2.687 J-14.274
X-5.246 Y-40.734 I-13.67 J-6.712
G3 X-6.316 Y-44.312 I12.608 J-5.718
X-6.022 Y-48.036 I7.963 J-1.245
X-4.608 Y-50.899 I10.439 J3.373
G2 X-3.091 Y-53.709 I-12.014 J-8.302
X-1.987 Y-56.759 I-39.167 J-15.896
G3 X-0.934 Y-59.827 I70.188 J22.39
X2.205 Y-62.195 I3.411 J1.256
X6.012 Y-61.909 I0.956 J12.741
X9.623 Y-60.67 I-4.05 J17.693
G2 X14.097 Y-58.699 I49.753 J-106.851
G3 X18.124 Y-55.927 I-4.538 J10.906
X19.301 Y-54.594 I-17.504 J16.623
G2 X20.477 Y-53.26 I23.292 J-19.357
G3 X22.6 Y-49.824 I-7.471 J6.99
G2 X24.974 Y-45.71 I13.268 J-4.916
X26.554 Y-45.332 I1.043 J-0.864
G3 X28.096 Y-44.822 I0.485 J1.122
X28.701 Y-42.366 I-3.906 J2.264
G2 X30.76 Y-34.746 I13.066 J0.557
X36.734 Y-29.585 I11.704 J-7.511
G3 X38.555 Y-26.724 I-1.276 J2.822
G2 X39.782 Y-20.959 I13.346 J0.171
X43.502 Y-16.387 I10.79 J-4.98
X44.716 Y-15.643 I4.862 J-6.569
X46.007 Y-15.041 I12.098 J-24.252
X47.381 Y-14.635 I2.328 J-5.353
G3 X48.771 Y-14.292 I-1.506 J9.091
X49.508 Y-13.844 I-0.602 J1.817
G2 X50.147 Y-13.266 I7.767 J-7.948
G3 X49.442 Y-11.568 I-0.618 J0.739
G2 X47.252 Y-11.612 I-1.412 J15.573
X45.074 Y-11.38 I0.966 J19.382
G3 X44.597 Y-11.367 I-0.285 J-1.738
G2 X38.295 Y-10.937 I-1.949 J17.831
X32.477 Y-8.475 I4.961 J19.831
G3 X31.472 Y-9.356 I-0.368 J-0.594
G2 X29.9 Y-24.913 I-14.216 J-6.422
X15.29 Y-30.486 I-11.551 J8.345
X10.966 Y-28.902 I3.679 J16.742
X7.022 Y-26.524 I18.899 J35.793
G3 X3.4 Y-25.238 I-4.24 J-6.202
G2 X-8.765 Y-18.709 I1.423 J17.247
X-10.91 Y-5.07 I11.066 J8.729
X-0.51 Y4.352 I14.275 J-5.305
X13.244 Y1.563 I4.043 J-15.369
G3 X16.052 Y0.426 I3.439 J4.455
G2 X20.58 Y-0.463 I-3.183 J-28.188
X24.85 Y-2.217 I-5.491 J-19.438
G3 X25.753 Y-1.261 I0.328 J0.595
G2 X23.231 Y6.112 I14.399 J9.043
X24.307 Y13.829 I16.521 J1.631
G3 X25.004 Y17.399 I-9.329 J3.676
G2 X30.461 Y29.718 I17.045 J-0.182
X43.235 Y34.001 I11.131 J-12.006
G3 X43.744 Y35.225 I0.07 J0.689
G2 X39.663 Y41.479 I7.904 J9.617
X39.597 Y48.946 I13.739 J3.856
X41.813 Y56.592 I146.844 J-38.415
G3 X40.851 Y59.28 I-2.248 J0.711
X39.291 Y60.265 I-35.59 J-54.666
G2 X37.721 Y61.235 I105.051 J171.795
G3 X36.412 Y61.534 I-1.086 J-1.741
G2 X35.07 Y61.528 I-0.696 J6.394
X32.396 Y61.932 I2.755 J27.288
G3 X29.739 Y62.439 I-25.023 J-123.92
X28.185 Y61.07 I-0.234 J-1.302
G2 X27.606 Y56.516 I-12.962 J-0.667
X25.587 Y52.393 I-14.54 J4.564
G3 X24.355 Y49.38 I6.173 J-4.283
G2 X21.83 Y40.363 I-44.773 J7.678
X15.75 Y33.242 I-13.426 J5.305
X11.446 Y31.363 I-9.791 J16.563
X6.927 Y30.086 I-48.414 J162.713
X1.344 Y29.192 I-7.127 J26.625
X-4.242 Y30.069 I-0.753 J13.433
X-9.83 Y34.092 I4.873 J12.661
X-12.816 Y40.297 I11.092 J9.159
G3 X-12.929 Y40.618 I-1.286 J-0.27
G2 X-14.712 Y45.343 I21.432 J10.788
X-15.38 Y50.348 I19.962 J5.214
G3 X-15.959 Y52.137 I-3.153 J-0.032
G2 X-18.108 Y56.741 I11.674 J8.254
X-18.481 Y61.808 I13.372 J3.531
G3 X-20.128 Y63.625 I-1.625 J0.182
G1 X-20.333 Y63.621
X-20.435 Y63.617
X-20.537 Y63.606
G3 X-21.312 Y63.436 I0.597 J-4.577
G2 X-22.088 Y63.271 I-1.284 J4.124
X-25.604 Y63.079 I-3.263 J27.544
G3 X-29.115 Y62.804 I-0.184 J-20.155
X-30.779 Y62.248 I0.929 J-5.551
G2 X-34.697 Y60.694 I-9.594 J18.478
X-38.883 Y60.205 I-3.614 J12.753
G1 X-40.207 Y60.262
X-40.341 Y60.268
G3 X-43.346 Y59.234 I-0.232 J-4.208
G2 X-44.306 Y58.469 I-8.982 J10.28
X-45.335 Y57.799 I-7.156 J9.853
G3 X-46.866 Y56.26 I2.12 J-3.642
G2 X-48.795 Y53.5 I-16.672 J9.599
X-51.345 Y51.301 I-8.022 J6.725
X-53.248 Y50.417 I-4.776 J7.788
X-55.272 Y49.865 I-6.125 J18.488
G3 X-56.6 Y49.227 I0.664 J-3.083
G2 X-56.881 Y49.005 I-7.807 J9.583
G3 X-58.113 Y46.399 I1.92 J-2.502
G2 X-58.598 Y42.117 I-14.819 J-0.49
X-60.418 Y38.211 I-11.804 J3.122
G3 X-60.726 Y37.6 I1.928 J-1.357
G2 X-62.206 Y34.579 I-11.957 J3.984
G3 X-62.604 Y33.212 I1.96 J-1.311
G2 X-62.645 Y31.841 I-12.864 J-0.302
X-62.807 Y30.479 I-19.291 J1.608
G3 X-62.695 Y29.317 I2.33 J-0.362
G2 X-61.97 Y25.864 I-11.961 J-4.315
G3 X-61.593 Y24.732 I2.353 J0.155
G2 X-59.812 Y20.71 I-11.544 J-7.515
X-59.446 Y16.326 I-12.36 J-3.239
G3 X-59.05 Y14.129 I4.197 J-0.378
G2 X-58.7 Y13.324 I-11.15 J-5.335
G3 X-57.102 Y11.353 I3.921 J1.545
G2 X-52.174 Y4.997 I-6.893 J-10.432
G3 X-50.686 Y2.977 I3.983 J1.376
G2 X-50.264 Y2.653 I-7.317 J-9.962
G3 X-49.445 Y2.137 I2.638 J3.286
G2 X-46.759 Y0.363 I-5.071 J-10.597
X-44.553 Y-1.983 I-11.208 J-12.747
X-44.177 Y-2.514 I-6.017 J-4.666
G3 X-43.82 Y-3.059 I56.803 J36.732
X-39.989 Y-4.237 I2.631 J1.738
G2 X-29.776 Y-4.527 I4.781 J-11.614
X-23.109 Y-12.269 I-5.51 J-11.487
G3 X-21.249 Y-16.243 I15.104 J4.645
X-18.799 Y-19.884 I120.03 J78.116
X-16.121 Y-21.619 I3.46 J2.406
G2 X-7.035 Y-28.56 I-2.361 J-12.51
X-6.88 Y-39.992 I-12.088 J-5.881
G3 X-8.107 Y-44.211 I14.071 J-6.381
X-7.73 Y-48.587 I9.685 J-1.369
X-6.282 Y-51.508 I10.536 J3.404
G2 X-4.728 Y-54.374 I-12.053 J-8.388
X-3.51 Y-57.761 I-41.487 J-16.838
G3 X-2.347 Y-61.168 I71.984 J22.672
X1.302 Y-63.922 I3.965 J1.46
X10.375 Y-62.284 I1.375 J18.33
G2 X15.141 Y-60.149 I75.521 J-162.193
G3 X19.425 Y-57.162 I-5.139 J11.936
X20.565 Y-55.875 I-18.245 J17.327
G2 X21.695 Y-54.578 I26.358 J-21.809
G3 X24.324 Y-50.323 I-9.866 J9.036
G2 X27.314 Y-45.817 I11.544 J-4.417
G3 X28.096 Y-44.822 I-3.124 J3.259
G2 X30.041 Y-43.545 I2.248 J-1.303
G3 X31.581 Y-41.8 I-0.204 J1.732
G2 X33.13 Y-36.318 I10.218 J0.073
X38.5 Y-31.713 I10.024 J-6.255
G3 X40.235 Y-30.901 I-11.461 J26.744
X41.419 Y-29.395 I-1.034 J2.032
X41.425 Y-28.625 I-1.676 J0.397
G2 X41.29 Y-27.867 I9.01 J1.995
X43.146 Y-20.84 I9.412 J1.274
X49.358 Y-17.068 I7.909 J-6.022
G3 X51.048 Y-16.263 I-0.593 J3.425
G2 X52.512 Y-15.097 I13.944 J-16.002
G3 X53.784 Y-12.128 I-1.854 J2.551
G2 X53.908 Y-8.905 I9.377 J1.253
G3 X52.663 Y-7.854 I-0.903 J0.192
G2 X49.128 Y-8.675 I-4.46 J11.19
X45.502 Y-8.511 I-1.144 J14.865
G3 X44.343 Y-8.477 I-0.701 J-4.155
G2 X35.59 Y-7.234 I-1.942 J17.767
X28.914 Y-1.438 I5.291 J12.837
X26.325 Y5.427 I18.568 J10.925
X26.992 Y12.734 I13.008 J2.496
G3 X27.905 Y17.402 I-12.465 J4.86
G2 X30.555 Y25.182 I13.301 J-0.19
X36.951 Y30.342 I13.323 J-9.969
X41.053 Y31.246 I4.145 J-9.055
X45.204 Y30.609 I0.059 J-13.456
G3 X46.334 Y30.534 I0.717 J2.246
G2 X50.573 Y30.779 I3.149 J-17.684
X54.656 Y29.612 I-0.596 J-9.808
X56.426 Y28.407 I-5.029 J-9.289
G3 X58.111 Y27.086 I20.038 J23.825
X59.383 Y27.871 I0.476 J0.652
X59.34 Y28.121 I-40.086 J-6.708
X59.294 Y28.37 I-11.264 J-1.957
X58.503 Y29.145 I-0.96 J-0.189
G2 X54.83 Y30.651 I1.62 J9.186
X51.828 Y33.25 I10.242 J14.86
G3 X50.594 Y34.483 I-16.322 J-15.11
X49.102 Y35.388 I-2.975 J-3.223
G2 X43.186 Y40.41 I3.739 J10.401
X42.378 Y48.129 I8.624 J4.804
G3 X43.4 Y52.093 I-41.177 J12.726
G2 X44.422 Y56.058 I37.105 J-7.448
G3 X44.911 Y57.752 I-32.93 J10.416
X44.69 Y59.502 I-2.296 J0.599
X43.216 Y60.965 I-3.255 J-1.804
G2 X41.45 Y62.056 I9.171 J16.825
G3 X38.764 Y63.57 I-9.368 J-13.475
X35.768 Y64.299 I-3.49 J-7.828
G2 X30.929 Y65.038 I1.505 J26.072
G3 X26.134 Y66.028 I-14.25 J-56.899
G2 X25.818 Y66.083 I2.273 J13.914
G3 X25.501 Y66.132 I-0.896 J-4.797
X24.438 Y64.728 I-0.121 J-1.012
G2 X25.312 Y60.462 I-10.551 J-4.383
X24.499 Y56.184 I-11.076 J-0.113
X23.901 Y55.06 I-5.684 J2.307
X23.18 Y54.012 I-59.833 J40.349
G3 X21.504 Y49.911 I8.213 J-5.752
G2 X18.438 Y40.5 I-32.79 J5.475
X10.539 Y34.536 I-9.971 J4.993
G3 X7.729 Y33.676 I2.485 J-13.146
G2 X-0.714 Y32.426 I-6.572 J15.248
X-8.16 Y36.599 I1.241 J10.943
X-9.314 Y38.642 I6.287 J4.9
X-9.978 Y40.893 I13.732 J5.272
G3 X-10.338 Y41.922 I-4.124 J-0.865
G2 X-10.987 Y43.479 I10.545 J5.308
X-11.393 Y45.116 I10.004 J3.352
G3 X-11.635 Y45.986 I-4.158 J-0.685
G2 X-12.268 Y48.199 I10.791 J4.284
X-12.481 Y50.491 I13.132 J2.38
G3 X-13.543 Y53.743 I-5.628 J-0.037
G2 X-15.633 Y59.349 I9.188 J6.619
X-14.5 Y65.223 I10.776 J0.968
G3 X-15.746 Y66.753 I-0.961 J0.489
G2 X-17.755 Y66.417 I-2.641 J9.635
X-19.792 Y66.403 I-1.145 J18.066
G3 X-22.069 Y66.18 I-0.385 J-7.806
G2 X-24.34 Y65.902 I-2.261 J9.06
G3 X-27.693 Y65.819 I-0.073 J-64.612
X-30.979 Y65.148 I0.567 J-11.158
X-34.227 Y63.826 I17.545 J-47.759
G2 X-37.64 Y63.015 I-3.842 J8.579
X-39.56 Y63.055 I-0.657 J14.374
X-41.463 Y63.323 I1.627 J18.455
G3 X-44.343 Y62.332 I-0.581 J-2.992
G2 X-47.011 Y60.182 I-7.361 J6.407
G3 X-49.255 Y57.93 I2.703 J-4.936
G2 X-50.505 Y55.933 I-16.657 J9.037
X-52.155 Y54.253 I-6.198 J4.438
X-53.965 Y53.264 I-4.446 J5.982
X-55.945 Y52.687 I-4.676 J12.367
G3 X-58.382 Y51.516 I1.148 J-5.51
G2 X-58.757 Y51.222 I-6.025 J7.294
G3 X-61.017 Y46.44 I3.361 J-4.514
G2 X-61.37 Y42.962 I-11.785 J-0.562
X-62.851 Y39.794 I-9.095 J2.321
G3 X-63.445 Y38.617 I3.418 J-2.464
G2 X-64.576 Y36.253 I-9.222 J2.958
G3 X-65.502 Y33.071 I4.701 J-3.094
G2 X-65.54 Y32.023 I-10.007 J-0.157
X-65.664 Y30.983 I-17.774 J1.587
G3 X-65.403 Y28.277 I5.567 J-0.829
G2 X-64.868 Y25.734 I-9.274 J-3.28
G3 X-63.99 Y23.099 I5.613 J0.405
G2 X-62.591 Y19.838 I-9.071 J-5.823
X-62.363 Y16.298 I-9.858 J-2.412
G3 X-61.78 Y13.106 I5.593 J-0.626
G2 X-61.294 Y11.984 I-8.42 J-4.312
G3 X-58.95 Y9.092 I5.298 J1.898
G2 X-54.938 Y4.116 I-5.035 J-8.164
G3 X-52.347 Y0.598 I7.083 J2.505
G2 X-52.1 Y0.407 I-5.656 J-7.584
G3 X-50.674 Y-0.49 I4.688 J5.871
G2 X-47.952 Y-2.464 I-4.11 J-8.529
X-45.934 Y-5.154 I-10.06 J-9.651
G3 X-44.453 Y-6.661 I3.651 J2.104
G2 X-43.951 Y-6.985 I-4.873 J-8.109
G3 X-39.624 Y-7.261 I2.394 J3.468
G2 X-31.382 Y-6.973 I4.426 J-8.572
X-25.882 Y-13.118 I-3.877 J-9.003
G3 X-23.901 Y-17.442 I17.057 J5.198
X-21.273 Y-21.406 I90.899 J57.413
X-16.569 Y-24.486 I6.169 J4.289
G2 X-9.589 Y-29.938 I-1.918 J-9.652
X-9.521 Y-38.795 I-9.537 J-4.501
G3 X-10.982 Y-43.368 I18.78 J-8.517
X-10.868 Y-48.167 I10.989 J-2.141
X-9.645 Y-51.305 I12.422 J3.036
X-7.987 Y-54.237 I137.615 J75.868
G2 X-6.199 Y-58.641 I-14.787 J-8.57
G3 X-4.684 Y-63.146 I29.541 J7.425
X-0.018 Y-66.702 I5.459 J2.324
X8.312 Y-66.077 I2.692 J19.94
X16.111 Y-63.082 I-14.172 J48.546
X20.349 Y-60.077 I-6.78 J14.058
X23.99 Y-56.37 I-172.957 J173.491
X26.953 Y-51.575 I-9.644 J9.272
G2 X30.103 Y-47.232 I8.952 J-3.179
G3 X31.695 Y-43.245 I-2.614 J3.355
G2 X31.581 Y-41.8 I10.105 J1.518
X32.436 Y-40.509 I1.387 J0.01
G3 X33.475 Y-39.363 I-0.699 J1.678
G1 X33.55 Y-39.134
G2 X35.546 Y-35.709 I9.785 J-3.409
X38.745 Y-33.367 I6.869 J-6.027
G3 X41.365 Y-32.06 I-11.866 J27.05
X43.034 Y-29.654 I-1.645 J2.923
X43.017 Y-26.853 I-8.632 J1.347
G2 X43.223 Y-24.06 I5.786 J0.976
X45.756 Y-20.422 I7.289 J-2.374
X49.757 Y-18.512 I6.196 J-7.832
G3 X52.172 Y-17.202 I-1.111 J4.93
G2 X54.365 Y-15.548 I7.634 J-7.84
G3 X55.299 Y-13.957 I-0.924 J1.612
X55.168 Y-12.117 I-11.147 J0.129
G2 X55.984 Y-7.481 I7.212 J1.12
X59.034 Y-3.896 I10.262 J-5.641
X60.381 Y-2.944 I10.515 J-13.452
G3 X61.586 Y-1.818 I-2.41 J3.786
X61.725 Y-1.553 I-0.804 J0.592
G2 X64.24 Y2.715 I11.819 J-4.09
G3 X66.436 Y7.155 I-6.847 J6.15
G2 X67.164 Y10.48 I58.381 J-11.04
G3 X67.561 Y13.862 I-13.008 J3.241
X67.339 Y16.818 I-23.015 J-0.241
X66.294 Y19.592 I-6.69 J-0.938
X63.07 Y23.399 I-17.279 J-11.363
G2 X60.774 Y27.828 I5.009 J5.406
G3 X60.507 Y29.247 I-13.455 J-1.799
X59.567 Y30.343 I-1.552 J-0.379
X56.951 Y31.25 I-8.899 J-21.443
G2 X54.547 Y32.625 I1.543 J5.489
X52.59 Y34.772 I14.976 J15.612
G3 X50.337 Y36.606 I-5.312 J-4.224
X47.618 Y37.907 I-31.604 J-62.593
G2 X45.243 Y39.764 I2.622 J5.8
X43.626 Y46.574 I6.519 J5.145
X45.297 Y53.372 I88.01 J-18.022
X46.375 Y56.711 I52.143 J-14.989
G3 X46.156 Y60.213 I-4.172 J1.497
X43.424 Y63.003 I-5.787 J-2.935
G2 X40.044 Y64.957 I27.137 J50.848
G3 X36.872 Y65.927 I-3.402 J-5.451
G2 X33.562 Y66.144 I2.016 J56.184
X29.194 Y66.952 I2.394 J25.161
G3 X24.83 Y67.783 I-7.202 J-25.935
X23.752 Y67.789 I-0.568 J-5.353
X22.686 Y67.628 I0.931 J-9.773
X21.971 Y65.826 I0.236 J-1.136
G2 X23.699 Y60.595 I-7.84 J-5.491
X22.135 Y55.312 I-8.885 J-0.241
X21.853 Y54.931 I-5.78 J3.98
G1 X21.568 Y54.572
G3 X19.961 Y50.642 I5.97 J-4.735
G2 X17.488 Y41.758 I-27.806 J2.955
X10.187 Y36.127 I-9.104 J4.254
G3 X8.207 Y35.61 I2.45 J-13.43
X6.153 Y34.793 I7.517 J-21.914
G2 X4.026 Y34.188 I-3.089 J6.81
X-0.463 Y33.973 I-3.562 J27.428
X-4.718 Y35.422 I0.26 J7.734
X-7.097 Y37.984 I5.147 J7.166
X-8.386 Y41.234 I8.737 J5.344
G3 X-8.88 Y42.647 I-5.621 J-1.174
G2 X-9.439 Y43.983 I9.075 J4.579
X-9.788 Y45.387 I8.46 J2.849
G3 X-10.119 Y46.581 I-5.667 J-0.929
G2 X-10.662 Y48.455 I9.402 J3.741
X-10.852 Y50.396 I10.92 J2.05
G3 X-12.26 Y54.749 I-7.666 J-0.075
G2 X-13.93 Y58.555 I8.44 J5.972
X-13.856 Y62.71 I8.962 J1.92
X-13.014 Y64.702 I6.849 J-1.722
X-11.763 Y66.467 I14.782 J-9.142
G3 X-12.357 Y68.049 I-0.764 J0.616
X-13.51 Y68.233 I-6.376 J-36.195
G2 X-14.659 Y68.439 I2.402 J16.728
G3 X-15.331 Y68.431 I-0.319 J-1.484
X-15.981 Y68.257 I2.88 J-12.038
G2 X-18.558 Y67.982 I-2.033 J6.834
G3 X-21.148 Y67.883 I-0.866 J-11.302
G2 X-26.373 Y67.537 I-4.61 J29.943
G3 X-31.538 Y66.672 I-0.288 J-14.141
X-33.261 Y65.928 I5.801 J-15.791
G2 X-34.967 Y65.146 I-12.413 J24.824
X-38.673 Y64.502 I-3.263 J7.804
X-42.358 Y65.257 I0.661 J12.602
G3 X-44.827 Y64.408 I-0.712 J-1.942
G2 X-47.739 Y61.64 I-6.772 J4.21
G3 X-50.719 Y58.646 I3.734 J-6.696
G2 X-52.004 Y56.728 I-11.701 J6.451
X-53.737 Y55.202 I-5.26 J4.227
X-54.943 Y54.641 I-3.027 J4.936
X-56.227 Y54.292 I-3.877 J11.706
G3 X-59.458 Y52.739 I1.612 J-7.495
G2 X-60.104 Y52.266 I-4.948 J6.071
G3 X-62.202 Y49.312 I2.742 J-4.17
G2 X-62.37 Y48.737 I-7.596 J1.908
G3 X-62.653 Y46.524 I5.447 J-1.821
G2 X-63.539 Y41.442 I-10.787 J-0.738
X-66.072 Y36.948 I-23.734 J10.415
G3 X-67.137 Y33.287 I4.815 J-3.386
G2 X-67.155 Y32.277 I-7.888 J-0.368
X-67.267 Y31.273 I-16.828 J1.372
G3 X-66.921 Y27.686 I7.59 J-1.079
G2 X-66.518 Y25.887 I-7.709 J-2.67
X-66.354 Y24.051 I-52.182 J-5.604
G3 X-65.848 Y23.031 I1.5 J0.108
G2 X-65.112 Y22.162 I-2.586 J-2.935
X-64.076 Y19.446 I-6.478 J-4.028
X-63.975 Y16.541 I-10.392 J-1.815
G3 X-63.201 Y12.308 I7.625 J-0.792
G2 X-62.584 Y10.775 I-8.936 J-4.487
G3 X-61.938 Y9.254 I7.762 J2.4
X-61.743 Y8.998 I0.966 J0.532
X-61.491 Y8.798 I1.113 J1.137
G1 X-59.401 Y7.453
G2 X-57.521 Y5.701 I-3.914 J-6.084
X-56.864 Y4.576 I-4.61 J-3.448
X-56.401 Y3.358 I-11.422 J-5.036
G3 X-53.505 Y-0.574 I7.299 J2.345
G2 X-53.05 Y-0.918 I-4.498 J-6.412
G3 X-51.456 Y-1.92 I4.848 J5.939
G2 X-49.084 Y-3.633 I-3.343 J-7.132
X-47.337 Y-5.98 I-8.947 J-8.484
G3 X-45.304 Y-8.049 I4.981 J2.858
G2 X-44.609 Y-8.523 I-3.642 J-6.088
G3 X-43.937 Y-9.029 I20.772 J26.885
G1 X-43.884 Y-9.06
X-43.825 Y-9.078
G2 X-43.276 Y-9.224 I-0.807 J-4.15
X-42.74 Y-9.408 I-17.828 J-52.675
G3 X-39.453 Y-9.037 I1.258 J3.596
G2 X-32.307 Y-8.295 I4.326 J-6.88
X-27.439 Y-13.579 I-2.741 J-7.41
G3 X-25.38 Y-18.146 I16.039 J4.482
X-22.589 Y-22.306 I126.925 J82.154
G2 X-22.284 Y-22.764 I-11.225 J-7.805
G3 X-21.964 Y-23.213 I4.613 J2.939
X-17.167 Y-26.033 I6.018 J4.749
G2 X-11.094 Y-30.554 I-1.305 J-8.092
X-11 Y-38.124 I-8.029 J-3.886
G3 X-12.598 Y-43.217 I20.027 J-9.082
X-12.445 Y-48.553 I12.527 J-2.311
G1 X-6.963 Y-60.935
G2 X-5.512 Y-64.987 I-164.675 J-61.269
G3 X-2.242 Y-67.786 I4.017 J1.384
X4.563 Y-68.286 I5.808 J32.505
X11.234 Y-66.853 I-0.571 J18.904
X17.617 Y-63.97 I-42.723 J103.074
X23.215 Y-59.758 I-8.189 J16.708
X24.213 Y-58.58 I-17.252 J15.638
G2 X25.237 Y-57.423 I11.102 J-8.796
G3 X28.389 Y-52.397 I-9.713 J9.592
G2 X29.26 Y-50.543 I9.847 J-3.495
X30.545 Y-48.948 I6.268 J-3.736
X30.97 Y-48.601 I2.839 J-3.037
X31.417 Y-48.284 I41.351 J-57.949
G3 X33.402 Y-43.65 I-2.753 J3.922
G2 X33.201 Y-41.383 I18.432 J2.774
X33.475 Y-39.363 I6.311 J0.172
X35.324 Y-38.025 I1.809 J-0.554
G3 X37.463 Y-37.229 I0.065 J3.095
G2 X37.916 Y-36.855 I4.423 J-4.902
X41.202 Y-34.864 I11.535 J-15.328
G3 X43.736 Y-33.084 I-3.99 J8.377
X45.29 Y-30.406 I-4.153 J4.199
X45.422 Y-28.867 I-4.28 J1.14
X45.249 Y-27.332 I-34.661 J-3.132
G2 X46.525 Y-23.109 I5.266 J0.713
X50.298 Y-20.823 I5.524 J-4.86
G3 X53.031 Y-19.398 I-1.541 J6.289
G2 X55.541 Y-17.609 I10.03 J-11.416
G3 X57.174 Y-15.733 I-1.863 J3.272
X57.642 Y-13.29 I-6.099 J2.434
G2 X57.77 Y-9.772 I46.909 J0.061
X59.296 Y-6.6 I4.797 J-0.354
X61.328 Y-4.971 I12.296 J-13.26
G3 X63.214 Y-3.174 I-4.701 J6.819
X64.104 Y-1.508 I-4.691 J3.577
G2 X65.073 Y0.113 I4.307 J-1.475
G3 X68.359 Y5.128 I-13.161 J12.208
X69.758 Y10.96 I-15.612 J6.826
X69.906 Y14.932 I-94.445 J5.525
X69.334 Y18.866 I-12.4 J0.204
X66.029 Y23.37 I-8.281 J-2.612
G2 X63.125 Y28.142 I3.981 J5.693
G3 X62.389 Y30.653 I-8.57 J-1.146
X60.544 Y32.507 I-3.494 J-1.631
X58.293 Y33.246 I-4.06 J-8.581
G2 X56.188 Y34.336 I0.798 J4.116
X53.478 Y37.176 I30.749 J32.054
G3 X50.141 Y39.245 I-5.033 J-4.394
G2 X45.839 Y46.639 I1.533 J5.841
X48.23 Y54.854 I179.46 J-47.792
G3 X48.869 Y58.057 I-14.25 J4.507
X48.281 Y61.271 I-6.14 J0.537
X45.646 Y64.186 I-6.278 J-3.026
G2 X42.337 Y66.304 I53.385 J87.067
G3 X37.54 Y67.943 I-5.486 J-8.219
G2 X32.522 Y68.663 I2.424 J34.701
G3 X25.928 Y69.742 I-13.386 J-61.124
X19.259 Y69.333 I-2.143 J-19.63
X18.682 Y69.185 I3.493 J-14.835
X18.117 Y68.995 I1.457 J-5.258
X17.72 Y67.183 I0.415 J-1.04
X18.806 Y66.107 I18.32 J17.416
G2 X19.81 Y64.953 I-4.982 J-5.346
X21.316 Y60.857 I-6.987 J-4.893
X20.216 Y56.633 I-6.366 J-0.597
X19.548 Y55.822 I-5.084 J3.501
X18.782 Y55.102 I-8.728 J8.522
G3 X17.627 Y52.268 I2.194 J-2.547
G2 X17.188 Y49.057 I-7.347 J-0.63
G3 X16.718 Y47.525 I12.532 J-4.683
G2 X14.571 Y41.935 I-22.618 J5.482
X9.706 Y38.444 I-6.022 J3.257
G3 X7.494 Y37.867 I2.262 J-13.186
X5.642 Y37.107 I6.917 J-19.496
G2 X3.72 Y36.547 I-2.761 J5.898
X0.127 Y36.299 I-3.858 J29.709
X-3.306 Y37.387 I-0.051 J5.797
X-5.104 Y39.307 I3.955 J5.506
X-6.076 Y41.75 I6.274 J3.912
G3 X-6.753 Y43.684 I-7.364 J-1.492
G2 X-7.189 Y44.713 I6.848 J3.507
X-7.457 Y45.797 I6.21 J2.113
G3 X-7.91 Y47.431 I-7.42 J-1.178
G2 X-8.379 Y49.135 I7.14 J2.882
X-8.485 Y50.899 I9.322 J1.443
G3 X-10.131 Y55.854 I-7.509 J0.256
G2 X-11.6 Y61.422 I5.538 J4.439
X-8.51 Y66.282 I7.189 J-1.159
G3 X-8.142 Y66.619 I-0.992 J1.456
G2 X-6.88 Y67.936 I9.359 J-7.698
X-5.417 Y69.025 I6.643 J-7.397
G3 X-5.819 Y70.454 I-0.402 J0.658
X-7.711 Y70.358 I0.018 J-18.954
G2 X-9.602 Y70.261 I-2.159 J23.77
G3 X-11.731 Y70.23 I3.531 J-314.589
G2 X-13.844 Y70.495 I-0.135 J7.478
G3 X-16.371 Y70.443 I-1.176 J-4.289
G2 X-18.887 Y70.195 I-1.838 J5.764
G3 X-21.616 Y70.122 I-1.102 J-9.777
G2 X-24.336 Y69.897 I-2.702 J16.117
G3 X-28.847 Y69.786 I-0.1 J-87.784
X-33.181 Y68.529 I0.493 J-9.801
G2 X-37.527 Y66.914 I-7.23 J12.798
X-42.132 Y67.454 I-1.472 J7.355
G3 X-44.37 Y67.708 I-1.505 J-3.272
X-46.174 Y66.361 I0.542 J-2.608
G2 X-48.012 Y64.268 I-5.444 J2.926
X-50.39 Y62.817 I-10.8 J15.032
G3 X-51.9 Y61.15 I1.444 J-2.826
G2 X-52.887 Y59.128 I-13.102 J5.139
X-55.31 Y57.026 I-4.357 J2.575
X-58.421 Y56.245 I-4.209 J10.179
G3 X-59.162 Y55.995 I0.174 J-1.742
X-59.751 Y55.481 I1.231 J-2.006
G2 X-61.463 Y54.128 I-3.945 J3.234
G3 X-63.382 Y53.089 I10.978 J-22.552
X-64.244 Y51.236 I0.937 J-1.562
G2 X-64.449 Y49.203 I-3.918 J-0.633
G3 X-64.788 Y47.003 I5.054 J-1.906
G2 X-64.834 Y44.777 I-14.756 J-0.806
X-65.588 Y42.772 I-4.095 J0.395
G3 X-66.655 Y40.915 I8.604 J-6.181
X-67.528 Y38.847 I48.117 J-21.513
G2 X-68.851 Y37.034 I-4.171 J1.655
G3 X-69.551 Y36.099 I1.553 J-1.892
X-69.607 Y34.932 I1.55 J-0.659
G2 X-69.307 Y32.383 I-6.495 J-2.056
X-69.855 Y29.875 I-9.005 J0.654
G3 X-69.578 Y28.119 I1.693 J-0.633
G2 X-68.78 Y26.531 I-3.431 J-2.719
X-68.606 Y24.37 I-5.822 J-1.557
G3 X-68.089 Y22.264 I3.223 J-0.325
G2 X-66.616 Y19.744 I-22.941 J-15.1
X-66.067 Y16.878 I-4.59 J-2.365
X-66.453 Y14.771 I-12.665 J1.236
G3 X-65.985 Y12.681 I2.211 J-0.602
G2 X-64.565 Y9.654 I-4.797 J-4.097
G3 X-62.678 Y6.893 I3.959 J0.681
X-60.857 Y5.805 I178.888 J297.146
G2 X-59.279 Y4.386 I-2.774 J-4.673
X-57.954 Y1.742 I-6.705 J-5.015
G3 X-56.741 Y-0.955 I10.502 J3.1
X-56.286 Y-1.429 I1.357 J0.847
X-55.711 Y-1.748 I1.99 J2.915
G2 X-54.453 Y-2.639 I-1.525 J-3.485
G3 X-53.182 Y-3.513 I2.605 J2.428
G2 X-50.423 Y-5.475 I-2.736 J-6.769
X-48.608 Y-8.334 I-8.351 J-7.305
G3 X-47.07 Y-9.724 I2.31 J1.01
G2 X-45.262 Y-10.737 I-1.599 J-4.972
G3 X-43.641 Y-11.504 I2.204 J2.561
G2 X-41.967 Y-12.145 I-0.812 J-4.628
G3 X-41.014 Y-12.484 I1.25 J2.005
X-40.023 Y-12.277 I0.195 J1.539
X-39.691 Y-12.007 I-0.77 J1.289
G2 X-39.396 Y-11.696 I14.201 J-13.119
X-33.829 Y-10.153 I4.093 J-3.953
X-29.723 Y-14.217 I-1.512 J-5.634
G3 X-26.894 Y-20.238 I19.312 J5.396
X-22.836 Y-25.509 I54.274 J37.592
X-21.172 Y-27.15 I10.376 J8.857
X-19.012 Y-28.042 I2.517 J3.033
G2 X-17.377 Y-28.212 I-5.559 J-61.181
X-15.8 Y-28.679 I-0.567 J-4.811
X-12.841 Y-32.894 I-2.376 J-4.815
X-13.535 Y-37.997 I-10.457 J-1.176
G3 X-15.029 Y-44.286 I20.174 J-8.114
X-14.292 Y-50.707 I16.35 J-1.377
X-12.084 Y-55.589 I22.77 J7.357
G2 X-9.7 Y-60.387 I-30.45 J-18.124
X-7.433 Y-66.162 I-248.666 J-100.923
G3 X-2.659 Y-70.123 I5.88 J2.23
X4.819 Y-70.645 I6.166 J34.51
X12.142 Y-69.044 I-0.793 J21.182
X18.93 Y-65.848 I-30.496 J73.575
X24.853 Y-61.243 I-10.165 J19.188
X25.887 Y-59.933 I-9.014 J8.171
G2 X26.986 Y-58.676 I5.78 J-3.947
G3 X28.514 Y-57.218 I-24.087 J26.771
X29.661 Y-55.445 I-3.686 J3.643
G2 X30.981 Y-52.143 I147.895 J-57.195
X33.418 Y-49.552 I4.623 J-1.908
G3 X34.801 Y-48.473 I-1.838 J3.782
X35.491 Y-46.859 I-2.318 J1.944
X35.376 Y-43.404 I-12.071 J1.328
G2 X35.651 Y-39.959 I6.73 J1.197
X37.463 Y-37.229 I6.235 J-2.172
X41.269 Y-37.07 I1.999 J-2.215
G3 X45.078 Y-37.021 I1.873 J2.46
G1 X45.71 Y-36.514
X45.801 Y-36.434
X46.405 Y-35.838
X46.849 Y-35.362
X47.369 Y-34.753
X47.826 Y-34.173
X48.189 Y-33.622
X48.331 Y-33.37
X48.478 Y-33.087
X48.769 Y-32.484
X48.876 Y-32.231
X48.962 Y-31.999
X49.125 Y-31.427
X49.262 Y-30.872
X49.339 Y-30.361
X49.376 Y-29.814
X49.385 Y-29.212
X49.382 Y-28.597
X49.371 Y-28.324
X49.353 Y-28.075
X49.18 Y-26.8
G2 X49.873 Y-25.158 I1.734 J0.235
G1 X49.951 Y-25.1
G2 X50.694 Y-24.783 I1.041 J-1.407
G1 X50.995 Y-24.731
X51.243 Y-24.678
X51.833 Y-24.514
X52.445 Y-24.325
X52.612 Y-24.266
X52.933 Y-24.132
X53.851 Y-23.678
X54.128 Y-23.532
X54.847 Y-23.094
X55.323 Y-22.781
X55.925 Y-22.335
X56.164 Y-22.144
X56.386 Y-21.954
X56.85 Y-21.499
G2 X57.09 Y-21.302 I1.225 J-1.25
G1 X57.173 Y-21.246
X57.258 Y-21.192
X57.346 Y-21.142
X57.505 Y-21.059
X58.033 Y-20.733
X58.36 Y-20.506
X58.531 Y-20.373
X58.95 Y-19.994
X59.514 Y-19.411
X59.623 Y-19.283
X59.897 Y-18.916
X60.175 Y-18.496
X60.23 Y-18.404
X60.544 Y-17.809
X60.819 Y-17.235
X60.913 Y-16.993
X61.012 Y-16.709
X61.208 Y-16.106
X61.361 Y-15.536
X61.479 Y-14.961
X61.567 Y-14.411
X61.604 Y-13.877
X61.61 Y-13.285
X61.602 Y-12.66
X61.583 Y-12.12
X61.432 Y-11.144
G2 X61.473 Y-10.413 I1.729 J0.269
G1 X61.496 Y-10.33
G2 X61.994 Y-9.509 I1.688 J-0.462
G1 X62.173 Y-9.343
X62.226 Y-9.296
X62.785 Y-8.818
X62.844 Y-8.77
X62.976 Y-8.666
X63.094 Y-8.582
X63.321 Y-8.433
X64.564 Y-7.51
X64.769 Y-7.334
X65.104 Y-7.017
X65.373 Y-6.748
X65.697 Y-6.406
X65.891 Y-6.185
X66.369 Y-5.58
X66.812 Y-4.977
X66.826 Y-4.956
X67.073 Y-4.515
X67.317 Y-3.991
X67.566 Y-3.273
G2 X67.749 Y-2.896 I1.654 J-0.572
G1 X67.794 Y-2.827
G2 X67.982 Y-2.585 I1.47 J-0.949
G1 X68.046 Y-2.516
X68.111 Y-2.45
X68.178 Y-2.388
X68.576 Y-2.04
X69.045 Y-1.574
X69.353 Y-1.221
X69.561 Y-0.945
X69.935 Y-0.381
X70.722 Y0.88
X71.022 Y1.435
X71.123 Y1.664
X71.223 Y1.923
X71.324 Y2.221
X71.462 Y2.672
X71.517 Y2.824
X71.585 Y2.99
X71.615 Y3.059
X71.76 Y3.372
X72.045 Y4.029
X72.291 Y4.621
X72.389 Y4.89
X72.47 Y5.135
X72.613 Y5.703
X72.664 Y5.977
G2 X72.797 Y6.39 I1.72 J-0.325
G1 X72.924 Y6.662
X73.129 Y7.192
X73.274 Y7.716
X73.551 Y9.558
X73.558 Y9.599
X73.666 Y10.218
X73.698 Y10.476
X73.72 Y10.728
X73.737 Y11.307
X73.731 Y11.889
X73.723 Y12.009
G2 X73.748 Y12.431 I1.746 J0.111
G1 X73.828 Y12.878
X73.891 Y13.406
X73.903 Y13.928
X73.877 Y14.516
X73.693 Y15.661
G2 X73.672 Y15.975 I1.728 J0.278
G1 X73.685 Y16.612
X73.678 Y17.221
X73.667 Y17.485
X73.648 Y17.7
X73.55 Y18.25
X73.269 Y19.507
X73.121 Y20.061
X72.888 Y20.698
X72.687 Y21.118
X71.986 Y22.398
X71.648 Y23.005
X71.559 Y23.143
X70.964 Y23.917
X70.842 Y24.059
X70.238 Y24.687
X70.21 Y24.717
X69.6 Y25.381
X69.575 Y25.41
X68.992 Y26.074
X68.961 Y26.11
X68.346 Y26.85
X67.893 Y27.331
X67.568 Y27.649
G2 X67.057 Y28.668 I1.224 J1.251
G1 X67.018 Y28.961
X66.915 Y29.572
X66.798 Y30.168
X66.641 Y30.798
X66.472 Y31.313
X66.27 Y31.886
X66.018 Y32.439
X65.882 Y32.701
X65.738 Y32.952
X65.367 Y33.513
X65.218 Y33.705
X64.953 Y34.008
X64.36 Y34.612
X63.846 Y35.097
X63.568 Y35.317
X62.988 Y35.702
X62.82 Y35.799
X62.242 Y36.096
X61.925 Y36.233
X61.745 Y36.301
X61.177 Y36.484
X60.934 Y36.545
X60.668 Y36.6
X59.858 Y36.736
G2 X58.935 Y37.199 I0.289 J1.726
G1 X58.876 Y37.256
X58.802 Y37.331
X58.732 Y37.411
X58.212 Y38.047
X57.669 Y38.658
X57.067 Y39.283
X56.123 Y40.221
X55.802 Y40.505
X55.258 Y40.947
X54.653 Y41.386
X54.212 Y41.686
X53.463 Y42.121
X53.196 Y42.269
X52.282 Y42.688
X51.882 Y42.86
X51.49 Y42.992
X51.148 Y43.082
G2 X50.219 Y43.691 I0.444 J1.693
G1 X50.152 Y43.775
G2 X49.865 Y45.411 I1.374 J1.084
G1 X49.987 Y45.777
X50.164 Y46.398
X50.503 Y48.149
X50.526 Y48.25
X51.375 Y51.571
X51.389 Y51.621
X51.58 Y52.285
X51.593 Y52.329
X52.013 Y53.657
X52.03 Y53.708
X52.467 Y54.956
X52.615 Y55.562
X52.715 Y56.084
X52.802 Y56.649
X52.82 Y56.879
X52.829 Y57.144
X52.825 Y59.061
X52.813 Y59.319
X52.79 Y59.581
X52.713 Y60.169
X52.612 Y60.742
X52.475 Y61.304
X52.306 Y61.868
X52.037 Y62.586
X51.858 Y62.995
X51.729 Y63.239
X51.499 Y63.635
X51.215 Y64.077
X50.473 Y65.045
X49.735 Y65.808
X49.193 Y66.284
X48.288 Y67.028
X47.959 Y67.275
X47.34 Y67.716
X46.038 Y68.564
X45.994 Y68.593
X44.539 Y69.605
X43.4 Y70.334
X42.797 Y70.701
X42.229 Y71
X41.633 Y71.266
X41.269 Y71.418
X40.787 Y71.587
X40.531 Y71.663
X39.932 Y71.812
X39.051 Y72.002
X38.72 Y72.066
X38.168 Y72.135
X36.227 Y72.247
X36.152 Y72.253
X34.163 Y72.454
X33.589 Y72.505
X33.48 Y72.519
X33.371 Y72.539
X32.653 Y72.696
X30.019 Y73.169
X30.01 Y73.171
X27.381 Y73.659
X26.77 Y73.745
X25.479 Y73.9
X25.196 Y73.926
X24.942 Y73.941
X23.727 Y73.943
X23.198 Y73.904
X22.626 Y73.813
X22.001 Y73.698
X20.242 Y73.332
X20.198 Y73.323
X18.672 Y73.046
X18.399 Y72.987
X18.146 Y72.923
X17.506 Y72.719
X16.938 Y72.526
X13.948 Y71.332
X13.779 Y71.257
G2 X12.548 Y71.183 I-0.713 J1.598
G1 X12.481 Y71.204
X12.37 Y71.242
X12.262 Y71.288
X11.634 Y71.579
X11.054 Y71.815
X10.51 Y72
X9.267 Y72.301
X8.662 Y72.438
X8.075 Y72.535
X7.278 Y72.64
X6.885 Y72.671
X5.612 Y72.738
X4.999 Y72.743
X3.764 Y72.733
X2.908 Y72.644
X1.946 Y72.507
X1.336 Y72.396
X0.277 Y72.174
G2 X-0.284 Y72.148 I-0.36 J1.713
G1 X-0.367 Y72.158
G2 X-1.24 Y72.515 I0.201 J1.738
G1 X-1.378 Y72.621
X-1.82 Y72.936
X-1.919 Y73.001
X-2.49 Y73.333
X-3.023 Y73.592
X-3.574 Y73.797
X-4.125 Y73.976
X-4.635 Y74.089
X-5.138 Y74.154
X-5.691 Y74.17
X-6.301
X-6.571 Y74.16
X-6.85 Y74.14
X-7.247 Y74.102
X-7.332 Y74.095
X-7.417 Y74.093
X-9.645 Y74.096
X-10.238 Y74.082
X-10.487 Y74.061
X-10.788 Y74.025
G2 X-11.308 Y74.04 I-0.21 J1.737
G1 X-11.597 Y74.092
X-12.22 Y74.171
G2 X-12.516 Y74.236 I0.222 J1.736
G1 X-12.794 Y74.322
X-13.366 Y74.458
X-13.929 Y74.566
X-14.16 Y74.593
X-14.408 Y74.61
X-15.006 Y74.621
X-15.602 Y74.616
X-16.151 Y74.581
X-16.38 Y74.549
X-16.628 Y74.502
X-17.205 Y74.361
X-17.748 Y74.199
G2 X-18.443 Y74.138 I-0.499 J1.677
G1 X-19.156 Y74.218
X-19.413 Y74.236
X-19.673 Y74.242
X-21.792 Y74.213
X-22.055 Y74.18
X-22.286 Y74.136
X-22.746 Y74.021
X-23.046 Y73.931
G2 X-23.565 Y73.857 I-0.503 J1.676
G1 X-24.331 Y73.864
X-25.606 Y73.856
X-26.873 Y73.783
X-27.49 Y73.732
X-28.766 Y73.586
X-30.721 Y73.293
X-32.024 Y73.075
X-32.613 Y72.966
X-33.148 Y72.826
X-33.724 Y72.622
X-34.296 Y72.404
X-34.87 Y72.123
X-35.133 Y71.985
X-35.566 Y71.722
G2 X-35.862 Y71.579 I-0.908 J1.496
G1 X-36.365 Y71.391
X-37 Y71.138
X-37.402 Y70.97
G2 X-38.197 Y70.839 I-0.675 J1.615
G1 X-38.406 Y70.853
X-39.005 Y70.866
X-39.645 Y70.86
G2 X-40.392 Y71.02 I-0.015 J1.75
G1 X-40.475 Y71.059
X-40.567 Y71.104
X-40.657 Y71.156
X-40.863 Y71.282
X-41.229 Y71.477
X-41.617 Y71.647
X-42.144 Y71.819
X-42.37 Y71.875
X-42.607 Y71.92
X-42.988 Y71.971
X-43.674 Y71.995
X-44.25 Y71.984
X-44.399 Y71.974
X-44.74 Y71.934
X-44.992 Y71.89
X-45.22 Y71.841
X-45.774 Y71.672
X-46.027 Y71.581
X-46.315 Y71.462
X-46.807 Y71.213
X-47.245 Y70.945
X-47.994 Y70.367
X-48.058 Y70.312
X-48.408 Y69.973
X-48.474 Y69.901
X-48.969 Y69.312
X-49.164 Y69.049
X-49.355 Y68.77
X-49.49 Y68.556
X-49.67 Y68.24
X-49.919 Y67.75
G2 X-50.363 Y67.194 I-1.56 J0.793
G1 X-50.439 Y67.132
G2 X-51.053 Y66.803 I-1.115 J1.349
G1 X-51.264 Y66.74
X-51.676 Y66.594
X-51.918 Y66.486
X-52.195 Y66.35
X-52.436 Y66.223
X-52.695 Y66.061
X-52.93 Y65.898
X-53.203 Y65.687
X-53.442 Y65.472
X-53.717 Y65.194
X-54.2 Y64.654
X-54.601 Y64.09
X-55.043 Y63.43
X-56.04 Y61.593
X-56.071 Y61.537
X-56.302 Y61.147
X-56.352 Y61.067
X-56.405 Y60.991
X-56.471 Y60.903
G2 X-57.943 Y60.2 I-1.403 J1.046
G1 X-58.339 Y60.216
X-58.582 Y60.21
X-58.816 Y60.195
X-59.349 Y60.123
X-59.617 Y60.063
X-59.822 Y60.008
X-60.386 Y59.821
X-60.628 Y59.723
X-60.878 Y59.608
X-61.192 Y59.44
X-61.356 Y59.339
X-61.754 Y59.056
X-62.096 Y58.761
X-62.407 Y58.457
X-62.624 Y58.226
X-62.82 Y57.997
X-63.032 Y57.728
G2 X-63.7 Y57.209 I-1.375 J1.083
G1 X-63.784 Y57.172
X-63.87 Y57.137
X-63.958 Y57.106
X-64.413 Y56.961
X-64.786 Y56.819
X-64.918 Y56.763
X-65.165 Y56.639
X-65.423 Y56.493
X-65.683 Y56.328
X-65.931 Y56.15
X-66.112 Y56.004
X-66.302 Y55.835
X-66.404 Y55.734
X-66.811 Y55.299
X-66.936 Y55.145
X-67.173 Y54.819
X-67.49 Y54.29
X-67.596 Y54.071
X-67.7 Y53.824
X-67.788 Y53.577
X-67.861 Y53.334
X-67.942 Y53.001
X-67.966 Y52.868
X-68.036 Y52.309
X-68.048 Y52.081
X-68.053 Y51.478
X-68.049 Y51.251
G2 X-68.161 Y50.603 I-1.75 J-0.031
G1 X-68.192 Y50.52
X-68.254 Y50.376
X-68.4 Y50.073
X-68.507 Y49.829
X-68.654 Y49.414
X-68.761 Y49.036
X-68.814 Y48.812
X-68.89 Y48.3
X-68.916 Y47.863
X-68.728 Y46.185
G2 X-68.72 Y45.884 I-1.739 J-0.195
G1 X-68.73 Y45.718
X-68.735 Y45.656
X-68.783 Y45.158
G2 X-69.153 Y44.24 I-1.742 J0.168
G1 X-69.284 Y44.074
X-69.301 Y44.054
X-69.605 Y43.68
X-69.724 Y43.519
X-70.058 Y42.974
X-70.218 Y42.662
X-70.304 Y42.479
X-70.512 Y41.939
X-70.681 Y41.372
X-70.758 Y41.072
G2 X-70.873 Y40.754 I-1.695 J0.436
G1 X-70.899 Y40.7
G2 X-71.368 Y40.1 I-1.58 J0.753
G1 X-71.817 Y39.732
X-72.256 Y39.3
X-72.327 Y39.221
X-72.679 Y38.789
X-72.858 Y38.535
X-72.993 Y38.314
X-73.127 Y38.062
X-73.248 Y37.809
X-73.349 Y37.563
X-73.429 Y37.327
X-73.505 Y37.066
X-73.56 Y36.844
X-73.641 Y36.331
X-73.676 Y35.818
X-73.667 Y35.273
X-73.629 Y34.733
X-73.594 Y34.515
X-73.547 Y34.284
X-73.391 Y33.734
X-73.309 Y33.499
G2 X-73.221 Y32.73 I-1.652 J-0.577
G1 X-73.282 Y32.184
G2 X-73.343 Y31.88 I-1.739 J0.192
G1 X-73.367 Y31.797
X-73.421 Y31.642
X-73.572 Y31.265
X-73.662 Y31.007
X-73.728 Y30.785
X-73.835 Y30.271
X-73.892 Y29.77
X-73.901 Y29.247
X-73.876 Y28.705
X-73.847 Y28.473
X-73.809 Y28.241
X-73.681 Y27.708
X-73.606 Y27.483
X-73.509 Y27.226
X-73.409 Y26.997
X-73.209 Y26.615
X-72.954 Y26.219
X-72.899 Y26.141
G2 X-72.631 Y25.575 I-1.423 J-1.018
G1 X-72.613 Y25.506
G2 X-72.554 Y25.058 I-1.691 J-0.452
G1 X-72.551 Y23.939
X-72.542 Y23.667
X-72.525 Y23.429
X-72.445 Y22.864
X-72.339 Y22.298
X-72.195 Y21.747
X-72.119 Y21.517
X-72.026 Y21.268
X-71.768 Y20.72
X-71.467 Y20.174
X-71.318 Y19.954
X-70.983 Y19.522
X-70.661 Y19.171
G2 X-70.466 Y18.913 I-1.29 J-1.182
G1 X-70.43 Y18.855
G2 X-70.248 Y18.462 I-1.486 J-0.924
G1 X-70.09 Y17.964
G2 X-70.015 Y17.263 I-1.667 J-0.531
G1 X-70.023 Y17.18
X-70.037 Y17.072
X-70.058 Y16.965
X-70.211 Y16.286
X-70.293 Y15.716
X-70.358 Y15.145
X-70.377 Y14.587
X-70.37 Y13.663
X-70.359 Y13.434
X-70.293 Y12.909
X-70.179 Y12.369
X-70.112 Y12.127
X-70.011 Y11.816
X-69.822 Y11.351
X-69.709 Y11.129
X-69.513 Y10.791
X-69.207 Y10.355
X-68.995 Y10.096
X-68.953 Y10.048
G2 X-68.763 Y9.797 I-1.297 J-1.174
G1 X-68.713 Y9.717
G2 X-68.528 Y9.309 I-1.487 J-0.923
G1 X-68.281 Y8.508
X-68.077 Y7.907
X-67.842 Y7.311
X-67.582 Y6.713
X-67.433 Y6.41
X-67.311 Y6.184
X-66.966 Y5.621
X-66.929 Y5.569
X-66.336 Y4.823
X-66.08 Y4.556
X-65.823 Y4.307
X-65.495 Y4.036
X-64.994 Y3.667
X-64.725 Y3.492
X-63.142 Y2.61
X-63.103 Y2.59
G2 X-62.514 Y2.088 I-0.813 J-1.55
G1 X-62.456 Y2.01
G2 X-62.181 Y1.463 I-1.401 J-1.048
G1 X-61.911 Y0.559
X-61.71 Y0.025
X-61.444 Y-0.527
X-61.309 Y-0.758
X-61.137 Y-1.028
X-60.943 Y-1.311
G2 X-60.743 Y-1.702 I-1.445 J-0.987
G1 X-60.623 Y-2.032
X-60.517 Y-2.296
X-60.413 Y-2.522
X-60.11 Y-3.058
X-59.948 Y-3.295
X-59.749 Y-3.557
X-59.691 Y-3.626
X-59.104 Y-4.233
X-58.893 Y-4.425
X-58.683 Y-4.6
X-58.653 Y-4.622
X-58.076 Y-5.005
X-57.919 Y-5.094
X-57.586 Y-5.258
X-57.301 Y-5.382
G2 X-56.769 Y-5.745 I-0.701 J-1.603
G1 X-56.455 Y-6.057
X-56.201 Y-6.285
X-55.856 Y-6.552
X-55.666 Y-6.681
X-55.473 Y-6.796
X-54.91 Y-7.089
X-54.669 Y-7.192
X-54.404 Y-7.294
X-54.233 Y-7.35
G2 X-53.38 Y-7.963 I-0.547 J-1.662
G1 X-53.273 Y-8.106
X-53.268 Y-8.113
X-52.947 Y-8.546
X-52.838 Y-8.678
X-52.779 Y-8.752
X-52.725 Y-8.829
X-52.67 Y-8.913
G2 X-52.481 Y-9.292 I-1.46 J-0.964
G1 X-52.345 Y-9.675
X-52.245 Y-9.924
X-52.101 Y-10.227
X-51.83 Y-10.716
X-51.682 Y-10.941
X-51.434 Y-11.264
X-51.275 Y-11.45
X-51.083 Y-11.655
X-50.738 Y-11.983
X-50.558 Y-12.137
X-50.33 Y-12.311
X-50.081 Y-12.477
X-49.528 Y-12.783
X-49.323 Y-12.88
X-48.874 Y-13.062
X-48.832 Y-13.077
X-48.732 Y-13.116
X-48.633 Y-13.16
X-48.55 Y-13.202
G2 X-48.152 Y-13.473 I-0.776 J-1.569
G1 X-47.85 Y-13.745
X-47.672 Y-13.891
X-47.363 Y-14.118
X-46.831 Y-14.43
X-46.279 Y-14.7
X-46.028 Y-14.802
X-45.795 Y-14.887
X-45.265 Y-15.03
X-44.992 Y-15.083
G2 X-44.677 Y-15.176 I-0.334 J-1.718
G1 X-44.594 Y-15.209
G2 X-44.285 Y-15.37 I-0.649 J-1.625
G1 X-44.067 Y-15.513
X-43.685 Y-15.739
X-43.54 Y-15.815
X-43.267 Y-15.946
X-43.027 Y-16.05
X-42.435 Y-16.254
X-41.971 Y-16.374
X-41.449 Y-16.456
X-41.215 Y-16.476
X-40.991 Y-16.486
X-40.457 Y-16.464
X-40.22 Y-16.439
X-39.991 Y-16.404
X-39.291 Y-16.241
X-38.907 Y-16.122
X-38.673 Y-16.03
X-38.425 Y-15.919
X-38.076 Y-15.736
X-37.927 Y-15.649
X-37.678 Y-15.481
X-37.385 Y-15.26
X-36.772 Y-14.69
X-36.542 Y-14.452
G2 X-33.795 Y-14.748 I1.259 J-1.216
G1 X-33.74 Y-14.836
G2 X-33.544 Y-15.285 I-1.489 J-0.92
G1 X-33.503 Y-15.431
X-33.304 Y-16.039
X-32.844 Y-17.338
X-32.703 Y-17.723
X-31.939 Y-19.479
X-30.699 Y-21.702
X-30.337 Y-22.303
X-29.935 Y-22.9
X-29.608 Y-23.344
X-28.311 Y-24.955
X-27.71 Y-25.669
X-27.611 Y-25.798
X-27.328 Y-26.204
X-26.862 Y-26.826
X-26.297 Y-27.542
X-25.854 Y-28.085
X-25.043 Y-28.992
X-24.524 Y-29.45
X-23.909 Y-29.961
X-23.258 Y-30.454
X-22.739 Y-30.803
X-22.393 Y-31
X-22.242 Y-31.077
X-21.648 Y-31.344
X-21.056 Y-31.579
X-20.478 Y-31.777
X-20.23 Y-31.846
X-19.991 Y-31.902
X-19.456 Y-31.989
X-19.245 Y-32.005
X-18.653 Y-32.017
X-18.429 Y-32.015
G2 X-17.639 Y-32.196 I0.015 J-1.75
G1 X-17.556 Y-32.237
G2 X-16.581 Y-33.853 I-0.774 J-1.569
G1 X-16.605 Y-34.747
X-16.61 Y-34.848
X-16.622 Y-34.948
X-16.634 Y-35.031
G2 X-16.772 Y-35.506 I-1.732 J0.248
G1 X-16.954 Y-35.907
X-17.217 Y-36.516
X-17.442 Y-37.119
X-18.102 Y-39.028
X-18.633 Y-41.053
X-18.752 Y-41.543
X-18.863 Y-42.138
X-18.96 Y-42.748
X-19.034 Y-43.354
X-19.059 Y-43.627
X-19.074 Y-43.908
X-19.142 Y-45.967
X-19.042 Y-47.628
X-18.85 Y-48.857
X-18.743 Y-49.457
X-18.603 Y-50.058
X-18.447 Y-50.669
X-18.068 Y-51.928
X-17.858 Y-52.534
X-17.623 Y-53.154
X-17.38 Y-53.754
X-17.112 Y-54.318
X-16.144 Y-56.041
X-14.876 Y-58.229
X-14.818 Y-58.337
X-14.768 Y-58.449
X-13.376 Y-61.879
X-13.357 Y-61.927
X-12.904 Y-63.145
X-12.885 Y-63.199
X-12.67 Y-63.839
X-12.037 Y-65.558
X-11.271 Y-67.359
X-11.151 Y-67.599
X-10.818 Y-68.214
X-10.187 Y-69.224
X-9.556 Y-70.203
X-9.24 Y-70.634
X-9.043 Y-70.862
X-8.426 Y-71.49
X-7.811 Y-72.097
X-7.505 Y-72.361
X-7.297 Y-72.521
X-7.02 Y-72.715
X-6.766 Y-72.881
X-6.204 Y-73.186
X-5.943 Y-73.311
X-5.691 Y-73.422
X-5.154 Y-73.608
X-4.586 Y-73.758
X-3.358 Y-74.032
X-0.781 Y-74.38
X-0.166 Y-74.452
X1.754 Y-74.596
X2.359 Y-74.611
X4.333 Y-74.62
X5.412 Y-74.615
X6.816 Y-74.481
X8.114 Y-74.332
X8.708 Y-74.251
X9.298 Y-74.132
X9.907 Y-73.993
X10.511 Y-73.829
X11.137 Y-73.636
X11.896 Y-73.389
X12.383 Y-73.216
X13.661 Y-72.71
X14.286 Y-72.439
X14.96 Y-72.131
X15.534 Y-71.859
X16.155 Y-71.518
G2 X16.462 Y-71.385 I0.843 J-1.534
G1 X18.45 Y-70.746
X18.963 Y-70.532
X19.57 Y-70.255
X21.045 Y-69.504
X22.724 Y-68.448
X24.561 Y-67.018
X25.262 Y-66.426
X25.942 Y-65.803
X26.589 Y-65.177
X27.197 Y-64.543
X27.793 Y-63.908
X28.298 Y-63.33
X28.888 Y-62.511
X28.937 Y-62.437
X29.004 Y-62.344
X29.076 Y-62.254
X29.488 Y-61.779
X29.561 Y-61.7
X29.639 Y-61.626
X31.591 Y-59.87
X31.653 Y-59.799
X31.986 Y-59.385
X32.211 Y-59.061
X32.342 Y-58.862
X32.79 Y-58.067
X33.001 Y-57.663
X33.283 Y-57.069
X33.362 Y-56.876
X33.474 Y-56.566
X33.859 Y-55.286
X34.055 Y-54.624
X34.083 Y-54.537
X34.219 Y-54.155
G2 X34.673 Y-53.462 I1.649 J-0.585
G1 X34.722 Y-53.416
G2 X35.152 Y-53.121 I1.195 J-1.278
G1 X35.609 Y-52.898
X35.85 Y-52.77
X36.066 Y-52.645
X36.467 Y-52.374
X37.045 Y-51.929
X37.128 Y-51.855
X37.718 Y-51.266
X37.94 Y-51.014
X38.132 Y-50.77
X38.351 Y-50.447
X38.442 Y-50.293
X38.75 Y-49.684
X38.86 Y-49.443
X38.947 Y-49.221
X39.134 Y-48.641
X39.294 Y-48.07
X39.405 Y-47.528
X39.435 Y-47.293
X39.457 Y-47.051
X39.491 Y-45.778
X39.492 Y-45.754
X39.544 Y-44.456
X39.547 Y-43.889
X39.509 Y-43.361
X39.319 Y-42.1
G2 X39.397 Y-41.264 I1.731 J0.26
G1 X39.426 Y-41.181
G2 X39.759 Y-40.607 I1.653 J-0.576
G1 X39.941 Y-40.399
X40.273 Y-39.967
X40.361 Y-39.861
X40.528 Y-39.676
G2 X41.124 Y-39.245 I1.3 J-1.172
G1 X41.291 Y-39.172
X41.351 Y-39.147
X41.638 Y-39.034
X42.908 Y-38.446
X43.233 Y-38.287
X43.457 Y-38.169
X44.038 Y-37.808
X44.107 Y-37.761
X44.932 Y-37.138
X45.078 Y-37.021
G3 X45.091 Y-36.565 I-0.188 J0.234
G1 X30.238 Y-23.095
G3 X29.783 Y-23.157 I-0.202 J-0.222
G2 X28.848 Y-24.464 I-11.931 J7.549
X11.888 Y-27.65 I-10.345 J8.33
G3 X10.39 Y-26.944 I-5.096 J-8.872
G2 X8.92 Y-26.304 I5.478 J14.582
X7.544 Y-25.483 I4.728 J9.488
G3 X3.67 Y-24.103 I-4.415 J-6.268
G2 X-7.734 Y-18.264 I1.155 J16.312
X-9.896 Y-5.636 I9.808 J8.179
X4.816 Y3.812 I13.647 J-5.072
X9.041 Y2.729 I-0.869 J-12.168
X12.773 Y0.471 I-8.055 J-17.528
G3 X15.734 Y-0.699 I3.509 J4.546
G2 X23.16 Y-2.523 I-2.521 J-26.297
X29.201 Y-7.21 I-5.322 J-13.096
X29.783 Y-23.157 I-11.35 J-8.398
X24.755 Y-24.944 I-3.652 J2.311
G3 X19.448 Y-24.388 I-3.898 J-11.611
G2 X14.325 Y-23.313 I-0.951 J8.213
G3 X12.184 Y-22.304 I-6.751 J-11.55
G2 X10.47 Y-21.449 I2.985 J8.133
X9.014 Y-20.204 I3.876 J6.004
G3 X5.963 Y-19.069 I-2.601 J-2.322
G2 X3.091 Y-19.094 I-1.541 J11.839
X0.37 Y-18.175 I0.753 J6.716
X-2.533 Y-16.35 I41.629 J69.455
X-4.834 Y-13.808 I3.768 J5.723
X-3.206 Y-4.095 I7.218 J3.783
X6.307 Y-1.546 I7.123 J-7.555
X8.807 Y-2.692 I-1.612 J-6.818
X10.923 Y-4.449 I-12.338 J-17.015
G3 X14.235 Y-5.638 I3.01 J3.177
G2 X15.922 Y-5.722 I0.491 J-7.11
X17.546 Y-6.187 I-1.288 J-7.565
G3 X18.957 Y-6.61 I2.851 J6.951
G2 X22.048 Y-7.606 I-2.622 J-13.42
X24.65 Y-9.551 I-3.244 J-7.054
X25.337 Y-20.82 I-6.955 J-6.08
X19.448 Y-24.388 I-6.84 J4.645
X15.52 Y-21.688 I-0.417 J3.6
G3 X12.917 Y-17.696 I-7.189 J-1.843
G1 X12.906 Y-17.687
X12.573 Y-17.421
G2 X12.304 Y-17.153 I1.092 J1.367
G1 X12.211 Y-17.039
G2 X11.962 Y-16.623 I1.361 J1.1
G1 X11.68 Y-15.959
G2 X11.544 Y-15.169 I1.611 J0.684
G1 X11.584 Y-14.505
X11.593 Y-14.408
X11.607 Y-14.311
X11.558 Y-14.161
G2 X11.482 Y-13.819 I1.663 J0.546
G1 X11.443 Y-13.487
G2 X11.442 Y-13.085 I1.738 J0.205
G1 X11.48 Y-12.753
G2 X11.58 Y-12.337 I1.739 J-0.197
G1 X11.704 Y-12.005
G2 X11.87 Y-11.674 I1.639 J-0.613
G1 X12 Y-11.47
G2 X12.2 Y-11.215 I1.473 J-0.945
G1 X12.391 Y-11.012
G2 X12.647 Y-10.789 I1.274 J-1.2
G1 X12.864 Y-10.633
G2 X13.135 Y-10.474 I1.018 J-1.423
G1 X13.352 Y-10.372
G2 X13.633 Y-10.268 I0.746 J-1.583
G1 X13.865 Y-10.203
G2 X14.156 Y-10.149 I0.466 J-1.687
G1 X14.489 Y-10.115
G2 X14.873 Y-10.119 I0.175 J-1.741
G1 X15.207 Y-10.159
G2 X15.525 Y-10.228 I-0.209 J-1.738
G1 X15.708 Y-10.286
G2 X15.973 Y-10.394 I-0.527 J-1.669
G1 X16.215 Y-10.516
G2 X16.509 Y-10.705 I-0.792 J-1.561
G1 X16.75 Y-10.896
X17.015 Y-10.898
X17.119 Y-10.903
X17.619 Y-10.937
X17.761 Y-10.953
X17.927 Y-10.978
X18 Y-10.991
X18.666 Y-11.121
X18.76 Y-11.142
X18.853 Y-11.168
X19.186 Y-11.273
X19.267 Y-11.3
X19.347 Y-11.332
X19.514 Y-11.402
X19.596 Y-11.44
X19.676 Y-11.481
X19.985 Y-11.652
X20.064 Y-11.698
X20.14 Y-11.748
X20.282 Y-11.847
X20.385 Y-11.925
X20.576 Y-12.08
X20.696 Y-12.186
X20.887 Y-12.374
X20.982 Y-12.473
X21.122 Y-12.634
X21.211 Y-12.745
X21.392 Y-12.989
X21.455 Y-13.08
X21.512 Y-13.175
X21.651 Y-13.424
X21.69 Y-13.498
X21.773 Y-13.664
X21.824 Y-13.776
X21.893 Y-13.942
X21.948 Y-14.095
X22.037 Y-14.384
X22.077 Y-14.538
X22.13 Y-14.789
X22.155 Y-14.937
X22.19 Y-15.229
X22.201 Y-15.362
X22.209 Y-15.528
Y-15.69
X22.193 Y-16.022
X22.185 Y-16.122
X22.172 Y-16.222
X22.094 Y-16.698
X22.07 Y-16.819
X22.025 Y-17.007
X21.981 Y-17.16
X21.926 Y-17.326
X21.877 Y-17.455
X21.735 Y-17.787
X21.664 Y-17.934
X21.575 Y-18.1
X21.501 Y-18.224
X21.425 Y-18.339
X21.339 Y-18.46
X21.249 Y-18.575
X21.173 Y-18.665
X20.967 Y-18.896
X20.908 Y-18.959
X20.846 Y-19.019
X20.722 Y-19.131
X20.654 Y-19.191
X20.582 Y-19.247
X20.459 Y-19.338
X20.367 Y-19.402
X20.271 Y-19.459
X20.061 Y-19.577
G2 X19.824 Y-19.687 I-0.853 J1.528
G1 X19.614 Y-19.766
X19.512 Y-19.801
X19.408 Y-19.829
X19.074 Y-19.91
X18.954 Y-19.934
X18.831 Y-19.95
X18.665 Y-19.966
X18.573 Y-19.973
X18.481 Y-19.974
X18.314 Y-19.973
X18.228 Y-19.97
X18.143 Y-19.963
X17.976 Y-19.945
X17.882 Y-19.932
X17.789 Y-19.914
X17.622 Y-19.877
X17.529 Y-19.854
X17.438 Y-19.826
X17.271 Y-19.77
X17.151 Y-19.725
X16.985 Y-19.654
X16.89 Y-19.611
X16.799 Y-19.562
X16.605 Y-19.452
X16.507 Y-19.392
X16.414 Y-19.326
X16.177 Y-19.147
X16.092 Y-19.078
X16.012 Y-19.004
X15.775 Y-18.774
X15.714 Y-18.711
X15.657 Y-18.646
X15.55 Y-18.519
X15.487 Y-18.438
X15.358 Y-18.265
X15.336 Y-18.25
X15.106 Y-18.265
X15.011 Y-18.268
X14.916 Y-18.266
X14.583 Y-18.25
X14.493 Y-18.244
X14.404 Y-18.233
X14.07 Y-18.183
G2 X13.685 Y-18.078 I0.261 J1.73
G1 X13.352 Y-17.946
G2 X12.917 Y-17.696 I0.646 J1.626
G1 X12.876 Y-17.668
X12.83 Y-17.648
X4.322 Y-14.677
X4.287 Y-14.667
X4.251 Y-14.662
X4.158 Y-14.65
X4.065 Y-14.634
X3.815 Y-14.583
X3.705 Y-14.556
X3.597 Y-14.523
X3.264 Y-14.408
X3.176 Y-14.376
X3.091 Y-14.338
X2.924 Y-14.26
X2.844 Y-14.221
X2.767 Y-14.177
X2.525 Y-14.032
X2.418 Y-13.962
X2.276 Y-13.863
X2.151 Y-13.765
X1.938 Y-13.585
X1.868 Y-13.522
X1.8 Y-13.455
X1.746 Y-13.397
X1.676 Y-13.384
X1.59 Y-13.366
X1.506 Y-13.343
X1.339 Y-13.294
X1.199 Y-13.246
X1.032 Y-13.181
X0.93 Y-13.137
X0.83 Y-13.087
X0.631 Y-12.979
G2 X0.408 Y-12.835 I0.837 J1.537
G1 X0.209 Y-12.683
G2 X0.003 Y-12.5 I1.059 J1.393
G1 X-0.15 Y-12.339
G2 X-0.311 Y-12.145 I1.265 J1.209
G1 X-0.425 Y-11.985
X-0.491 Y-11.885
X-0.55 Y-11.781
X-0.64 Y-11.61
X-0.69 Y-11.506
X-0.733 Y-11.399
X-0.796 Y-11.227
G2 X-0.877 Y-10.921 I1.644 J0.601
G1 X-0.934 Y-10.589
G2 X-0.959 Y-10.328 I1.725 J0.295
G1 X-0.965 Y-9.996
G2 X-0.948 Y-9.718 I1.75 J0.034
G1 X-0.925 Y-9.551
X-0.909 Y-9.457
X-0.888 Y-9.364
X-0.846 Y-9.198
X-0.82 Y-9.109
X-0.79 Y-9.02
X-0.729 Y-8.854
X-0.692 Y-8.763
X-0.65 Y-8.674
X-0.562 Y-8.499
X-0.508 Y-8.402
X-0.449 Y-8.309
X-0.338 Y-8.145
X-0.255 Y-8.031
X-0.058 Y-7.785
X0.003 Y-7.714
X0.067 Y-7.646
X0.311 Y-7.4
X0.359 Y-7.354
X0.473 Y-7.247
X0.569 Y-7.164
X0.902 Y-6.896
X0.975 Y-6.84
X1.051 Y-6.788
X1.385 Y-6.573
X1.5 Y-6.505
X1.763 Y-6.362
X1.905 Y-6.293
X2.039 Y-6.235
X2.184 Y-6.181
X2.452 Y-6.092
X2.574 Y-6.057
X2.907 Y-5.973
X3.055 Y-5.943
X3.222 Y-5.916
X3.386 Y-5.898
X3.719 Y-5.876
X3.848 Y-5.872
X4.014 Y-5.874
X4.124 Y-5.878
X4.291 Y-5.89
X4.416 Y-5.903
X4.583 Y-5.927
X4.736 Y-5.956
X5.236 Y-6.075
X5.327 Y-6.099
X5.416 Y-6.128
X5.583 Y-6.187
X5.664 Y-6.218
X5.744 Y-6.253
X6.027 Y-6.386
X6.146 Y-6.447
X6.337 Y-6.556
X6.421 Y-6.607
X6.613 Y-6.73
X6.735 Y-6.817
X7.004 Y-7.024
X7.087 Y-7.092
X7.219 Y-7.207
X7.338 Y-7.291
X7.447 Y-7.374
X7.751 Y-7.625
X7.868 Y-7.731
X8.031 Y-7.893
X8.139 Y-8.01
X8.338 Y-8.247
G2 X8.495 Y-8.465 I-1.339 J-1.126
G1 X8.763 Y-8.906
X8.818 Y-9.003
X8.866 Y-9.103
X8.932 Y-9.25
X8.975 Y-9.356
X9.011 Y-9.464
X9.109 Y-9.796
X9.132 Y-9.88
X9.15 Y-9.965
X9.182 Y-10.131
X9.206 Y-10.296
X9.221 Y-10.462
X9.228 Y-10.561
X9.24 Y-10.893
G2 X9.231 Y-11.15 I-1.749 J-0.065
G1 X9.213 Y-11.316
X9.2 Y-11.41
X9.182 Y-11.503
X9.145 Y-11.669
X9.122 Y-11.762
X9.093 Y-11.853
X9.037 Y-12.019
X9.002 Y-12.113
X8.961 Y-12.205
X8.804 Y-12.537
X8.756 Y-12.631
X8.703 Y-12.721
X8.598 Y-12.887
X8.538 Y-12.978
X8.471 Y-13.064
X8.353 Y-13.209
X8.269 Y-13.303
X8.103 Y-13.479
X8.04 Y-13.541
X7.975 Y-13.601
X7.808 Y-13.744
X7.716 Y-13.818
X7.62 Y-13.886
X7.453 Y-13.994
X7.319 Y-14.073
X7.146 Y-14.165
X7.032 Y-14.22
X6.867 Y-14.293
X6.714 Y-14.352
X6.549 Y-14.407
X6.467 Y-14.432
X6.384 Y-14.453
X6.054 Y-14.528
X5.892 Y-14.557
X5.059 Y-14.665
X4.912 Y-14.678
X4.745 Y-14.685
X4.644 Y-14.687
X4.543 Y-14.683
X4.293 Y-14.665
X4.251 Y-14.662
X4.185 Y-14.659 Z12.008 F1500
X4.118 Y-14.664 Z12.015
X4.056 Y-14.675 Z12.037
X3.995 Y-14.693 Z12.059
X3.942 Y-14.715 Z12.095
X3.892 Y-14.741 Z12.131
X3.814 Y-14.795 Z12.226
X3.762 Y-14.844 Z12.34
X3.732 Y-14.877 Z12.466
X3.723 Y-14.889 Z12.6
G0 Z19.5
X63.141 Y15.679
G1 Z12.6 F2000
X63.134 Y15.68 Z12.506
X63.112 Y15.684 Z12.415
X63.077 Y15.691 Z12.328
X63.028 Y15.699 Z12.247
X62.968 Y15.71 Z12.176
X62.898 Y15.723 Z12.115
X62.819 Y15.737 Z12.065
X62.733 Y15.753 Z12.029
X62.643 Y15.769 Z12.007
X62.551 Y15.785 Z12
G2 X62.315 Y15.874 I0.124 J0.687
G1 X60.85 Y16.755
G3 X59.804 Y16.281 I-0.36 J-0.598
G1 X59.794 Y16.228
G3 X60.131 Y13.625 I4.229 J-0.777
G2 X61.674 Y8.915 I-18.441 J-8.65
X61.057 Y3.997 I-7.745 J-1.527
X59.055 Y0.346 I-32.694 J15.553
X56.328 Y-2.801 I-11.435 J7.155
X51.494 Y-5.415 I-8.666 J10.252
X46.009 Y-5.768 I-3.515 J11.801
G3 X43.95 Y-5.715 I-1.227 J-7.568
G2 X34.234 Y-3.134 I-1.516 J13.871
X29.019 Y5.461 I7.634 J10.511
X28.896 Y8.716 I14.609 J2.179
X29.657 Y11.884 I10.036 J-0.733
G3 X30.693 Y17.187 I-12.23 J5.143
G2 X34.106 Y25.363 I11.178 J0.135
X42.423 Y28.418 I7.617 J-7.889
X43.334 Y28.262 I-0.279 J-4.366
X44.219 Y27.996 I-7.568 J-26.776
G3 X46.902 Y27.802 I1.745 J5.471
G2 X50.18 Y28.049 I3.028 J-18.275
X53.361 Y27.22 I-0.093 J-6.875
X57.006 Y24.706 I-9.815 J-18.127
X59.468 Y21.026 I-5.425 J-6.293
X59.804 Y16.281 I-9.154 J-3.033
X57.467 Y14.025 I-2.734 J0.493
G3 X55.806 Y11.233 I0.298 J-2.067
G1 X55.827 Y11.173
X55.875 Y11.026
X55.902 Y10.938
X55.924 Y10.848
X55.959 Y10.684
X56.028 Y10.442
X56.049 Y10.362
X56.088 Y10.196
X56.089 Y10.19
X56.094 Y10.183
X56.142 Y10.107
X56.185 Y10.03
X56.316 Y9.781
X56.378 Y9.651
X56.448 Y9.485
X56.481 Y9.403
X56.509 Y9.319
X56.561 Y9.153
X56.587 Y9.062
X56.607 Y8.969
X56.64 Y8.803
X56.662 Y8.658
X56.68 Y8.492
X56.688 Y8.404
X56.69 Y8.315
X56.693 Y7.983
X56.69 Y7.872
X56.663 Y7.374
X56.653 Y7.264
X56.633 Y7.098
X56.62 Y7.008
X56.602 Y6.919
X56.565 Y6.753
X56.542 Y6.661
X56.513 Y6.571
X56.456 Y6.405
X56.421 Y6.312
X56.381 Y6.221
X56.302 Y6.055
X56.228 Y5.916
X56.13 Y5.75
X56.081 Y5.672
X56.058 Y5.51
X56.037 Y5.388
X56.007 Y5.267
X55.943 Y5.047
X55.916 Y4.961
X55.884 Y4.876
X55.795 Y4.656
G2 X55.679 Y4.421 I-1.622 J0.657
G1 X55.516 Y4.146
X55.463 Y4.039
X55.423 Y3.963
X55.379 Y3.889
X55.217 Y3.629
X55.169 Y3.556
X55.118 Y3.486
X54.77 Y3.035
X54.675 Y2.922
X54.5 Y2.731
X54.418 Y2.647
X54.331 Y2.569
X54.04 Y2.326
X53.982 Y2.245
X53.883 Y2.089
X53.827 Y2.006
X53.766 Y1.926
X53.687 Y1.827
X53.624 Y1.755
X53.558 Y1.685
X53.285 Y1.414
X53.182 Y1.32
X52.985 Y1.154
X52.925 Y1.105
X52.728 Y0.953
X52.603 Y0.865
X52.063 Y0.519
X51.948 Y0.451
X51.822 Y0.383
X51.738 Y0.341
X51.652 Y0.303
X51.628 Y0.283
G2 X51.419 Y0.13 I-1.135 J1.332
G1 X50.96 Y-0.157
X50.853 Y-0.218
X50.741 Y-0.272
X50.398 Y-0.424
X50.094 Y-0.573
X49.974 Y-0.626
X49.807 Y-0.692
X49.717 Y-0.725
X49.626 Y-0.753
X49.126 Y-0.891
X49.03 Y-0.915
X48.934 Y-0.933
X48.601 Y-0.986
X48.482 Y-1.001
X48.363 Y-1.007
X47.863 Y-1.018
X47.763 Y-1.017
X47.663 Y-1.01
X47.247 Y-0.971
X47.168 Y-0.962
X46.834 Y-0.916
X46.725 Y-0.897
X46.616 Y-0.871
X46.2 Y-0.757
X46.091 Y-0.724
X45.178 Y-0.41
X44.422 Y-0.641
X44.321 Y-0.669
X44.218 Y-0.69
X43.634 Y-0.794
X43.517 Y-0.811
X43.184 Y-0.848
X43.074 Y-0.856
X42.964 Y-0.858
X42.798 Y-0.855
X42.713 Y-0.851
X42.628 Y-0.844
X42.461 Y-0.825
X42.334 Y-0.805
X41.916 Y-0.726
X41.832 Y-0.718
X41.748 Y-0.708
X41.665 Y-0.694
X41.498 Y-0.662
X41.338 Y-0.624
X41.271 Y-0.604
X41.128 Y-0.595
X40.986 Y-0.579
X40.736 Y-0.542
X40.647 Y-0.527
X40.558 Y-0.506
X40.177 Y-0.408
X40.07 Y-0.377
X39.943 Y-0.335
X39.821 Y-0.29
X38.995 Y0.049
X38.851 Y0.116
X38.392 Y0.356
X38.325 Y0.393
X38.118 Y0.513
X38.031 Y0.566
X37.531 Y0.896
X37.452 Y0.952
X37.375 Y1.012
X36.542 Y1.705
X36.453 Y1.784
X36.369 Y1.87
X36.122 Y2.14
X36.034 Y2.244
X35.905 Y2.41
X35.838 Y2.503
X35.777 Y2.599
X35.679 Y2.765
X35.612 Y2.891
X35.419 Y3.289
X35.274 Y3.592
X35.224 Y3.705
X35.158 Y3.796
X35.033 Y3.981
X34.981 Y4.043
X34.9 Y4.149
X34.792 Y4.301
X34.741 Y4.378
X34.694 Y4.457
X34.601 Y4.623
X34.552 Y4.717
X34.508 Y4.815
X34.44 Y4.981
X34.4 Y5.087
X34.368 Y5.196
X34.26 Y5.601
X34.231 Y5.678
X34.199 Y5.768
X34.172 Y5.859
X34.128 Y6.025
X34.105 Y6.121
X34.088 Y6.217
X34.063 Y6.383
X34.048 Y6.53
X34.026 Y6.862
X34.023 Y6.972
X34.011 Y7.005
X33.943 Y7.196
X33.908 Y7.307
X33.881 Y7.42
X33.841 Y7.612
X33.823 Y7.714
X33.811 Y7.818
X33.796 Y7.984
X33.791 Y8.079
X33.79 Y8.174
X33.794 Y8.34
X33.798 Y8.433
X33.808 Y8.525
X33.829 Y8.691
X33.843 Y8.782
X33.862 Y8.871
X33.901 Y9.037
X33.93 Y9.144
X34.133 Y9.808
G2 X34.229 Y10.054 I1.674 J-0.51
G1 X34.308 Y10.22
X34.356 Y10.313
X34.409 Y10.402
X34.726 Y10.9
X34.773 Y10.971
X34.824 Y11.039
X34.908 Y11.147
X34.918 Y11.187
X34.952 Y11.315
X35.005 Y11.481
X35.034 Y11.567
X35.068 Y11.651
X35.211 Y11.983
X35.258 Y12.084
X35.312 Y12.181
X35.489 Y12.48
X35.545 Y12.569
X35.668 Y12.752
X35.734 Y12.842
X35.805 Y12.929
X36.057 Y13.214
X36.066 Y13.23
X36.119 Y13.313
X36.177 Y13.392
X36.273 Y13.517
X36.324 Y13.581
X36.403 Y13.674
X36.451 Y13.745
X36.512 Y13.83
X36.578 Y13.911
X36.852 Y14.23
X36.921 Y14.305
X36.994 Y14.376
X36.863 Y14.486
X36.745 Y14.595
X36.632 Y14.709
X36.57 Y14.775
X36.512 Y14.844
X36.397 Y14.988
X36.329 Y15.078
X36.228 Y15.222
X36.175 Y15.301
X36.127 Y15.384
X36.024 Y15.572
G2 X35.915 Y15.811 I1.534 J0.842
G1 X35.785 Y16.165
G2 X35.716 Y16.406 I1.643 J0.604
G1 X35.68 Y16.572
X35.661 Y16.679
X35.649 Y16.787
X35.62 Y17.119
G2 X35.628 Y17.488 I1.744 J0.148
G1 X35.713 Y18.152
X35.718 Y18.193
X35.769 Y18.525
X35.787 Y18.624
X35.81 Y18.722
X35.855 Y18.888
X35.885 Y18.986
X35.921 Y19.083
X35.988 Y19.249
X36.022 Y19.328
X36.06 Y19.405
X36.11 Y19.501
G2 X36.258 Y19.737 I1.551 J-0.81
G1 X36.469 Y20.021
X36.546 Y20.117
X36.629 Y20.207
X36.73 Y20.308
X36.76 Y20.369
G2 X36.926 Y20.64 I1.568 J-0.777
G1 X37.174 Y20.971
G2 X37.464 Y21.275 I1.402 J-1.048
G1 X37.674 Y21.448
G2 X37.924 Y21.619 I1.111 J-1.352
G1 X38.134 Y21.737
X38.232 Y21.789
X38.333 Y21.834
X38.526 Y21.913
X38.606 Y21.992
X38.697 Y22.076
X38.793 Y22.153
X38.956 Y22.274
X39.047 Y22.338
X39.142 Y22.395
X39.305 Y22.487
X39.396 Y22.535
X39.491 Y22.578
X39.6 Y22.624
X39.861 Y22.845
G2 X40.266 Y23.103 I1.133 J-1.333
G1 X40.599 Y23.256
G2 X41.019 Y23.387 I0.728 J-1.591
G1 X41.353 Y23.447
G2 X41.772 Y23.47 I0.308 J-1.723
G1 X42.106 Y23.449
G2 X42.526 Y23.37 I-0.112 J-1.746
G1 X42.859 Y23.264
G2 X43.212 Y23.106 I-0.532 J-1.667
G1 X43.443 Y22.971
G2 X43.732 Y22.759 I-0.885 J-1.51
G1 X43.963 Y22.55
G2 X44.185 Y22.309 I-1.173 J-1.299
G1 X44.389 Y22.04
G2 X44.552 Y21.779 I-1.395 J-1.057
G1 X44.574 Y21.755
X44.603 Y21.723
X44.685 Y21.667
X44.876 Y21.529
X44.952 Y21.471
X45.025 Y21.408
X45.121 Y21.322
X45.218 Y21.227
X45.283 Y21.158
X45.293 Y21.179
X45.345 Y21.278
X45.403 Y21.375
X45.526 Y21.563
G2 X45.684 Y21.772 I1.468 J-0.953
G1 X45.851 Y21.959
G2 X46.035 Y22.139 I1.309 J-1.161
G1 X46.202 Y22.279
X46.292 Y22.349
X46.386 Y22.414
X46.553 Y22.52
X46.643 Y22.574
X46.736 Y22.622
X46.903 Y22.702
X46.994 Y22.742
X47.087 Y22.777
X47.253 Y22.835
X47.344 Y22.864
X47.436 Y22.888
X47.603 Y22.926
X47.694 Y22.944
X47.786 Y22.958
X47.953 Y22.977
X48.045 Y22.986
X48.137 Y22.989
X48.304 Y22.992
X48.408 Y22.99
X48.513 Y22.982
X48.79 Y22.952
X48.808 Y22.951
X48.891 Y22.969
X48.974 Y22.983
X49.191 Y23.015
G2 X49.458 Y23.033 I0.251 J-1.732
G1 X49.675 Y23.031
G2 X49.928 Y23.01 I-0.015 J-1.75
G1 X50.119 Y22.981
G2 X50.386 Y22.917 I-0.269 J-1.729
G1 X50.624 Y22.841
G2 X50.921 Y22.714 I-0.536 J-1.666
G1 X51.159 Y22.585
G2 X51.475 Y22.366 I-0.833 J-1.539
G1 X51.739 Y22.137
X51.856 Y22.024
X51.951 Y21.988
G2 X52.284 Y21.818 I-0.625 J-1.634
G1 X52.618 Y21.599
G2 X52.852 Y21.416 I-0.959 J-1.464
G1 X53.08 Y21.204
X53.155 Y21.128
X53.24 Y21.08
X53.322 Y21.027
X53.529 Y20.883
X53.615 Y20.819
X53.698 Y20.751
X53.905 Y20.566
G2 X54.12 Y20.336 I-1.164 J-1.306
G1 X54.268 Y20.147
G2 X54.422 Y19.912 I-1.38 J-1.077
G1 X54.526 Y19.723
G2 X54.654 Y19.431 I-1.534 J-0.842
G1 X54.748 Y19.146
X54.778 Y19.044
X54.802 Y18.941
X54.936 Y18.277
X54.954 Y18.175
X54.965 Y18.072
X54.992 Y17.74
G2 X54.99 Y17.438 I-1.744 J-0.141
G1 X54.975 Y17.272
X54.963 Y17.175
X54.946 Y17.078
X54.912 Y16.912
X54.891 Y16.824
X54.866 Y16.737
X54.777 Y16.457
X54.724 Y16.313
X54.607 Y16.033
G2 X54.494 Y15.808 I-1.615 J0.674
G1 X54.432 Y15.704
X54.342 Y15.569
X54.099 Y15.237
X54.045 Y15.167
X53.91 Y15.001
X53.831 Y14.91
X53.746 Y14.825
X53.568 Y14.659
X53.451 Y14.559
X53.283 Y14.428
X53.47 Y14.267
X53.536 Y14.207
X53.599 Y14.143
X53.829 Y13.9
X53.89 Y13.831
X53.947 Y13.76
X54.206 Y13.42
X54.266 Y13.336
X54.503 Y12.983
X54.554 Y12.937
X54.86 Y12.648
X54.927 Y12.582
X54.989 Y12.512
X55.204 Y12.261
X55.263 Y12.188
X55.317 Y12.113
X55.488 Y11.864
X55.534 Y11.794
X55.576 Y11.721
X55.622 Y11.638
X55.688 Y11.507
X55.762 Y11.341
X55.806 Y11.233
X55.833 Y11.172 Z12.008 F1500
X55.866 Y11.114 Z12.015
X55.903 Y11.063 Z12.037
X55.946 Y11.016 Z12.059
X55.988 Y10.978 Z12.095
X56.034 Y10.944 Z12.131
X56.116 Y10.897 Z12.226
X56.183 Y10.871 Z12.34
X56.225 Y10.859 Z12.466
X56.24 Y10.855 Z12.6
G0 Z19.5
X-11.919 Y42.812
G1 Z12.6 F1500
X-11.912 Y42.814 Z12.506
X-11.891 Y42.821 Z12.415
X-11.857 Y42.832 Z12.328
X-11.81 Y42.846 Z12.247
X-11.751 Y42.865 Z12.176
X-11.683 Y42.886 Z12.115
X-11.607 Y42.91 Z12.065
X-11.524 Y42.936 Z12.029
X-11.436 Y42.964 Z12.007
X-11.347 Y42.992 Z12
X-3.802 Y45.358 F2000
G3 X-3.61 Y45.745 I-0.09 J0.286
G1 X-3.665 Y45.901
X-3.712 Y46.055
X-3.754 Y46.221
X-3.776 Y46.315
X-3.792 Y46.41
X-3.815 Y46.576
X-3.827 Y46.683
X-3.832 Y46.791
X-3.838 Y47.123
X-3.837 Y47.214
X-3.831 Y47.304
X-3.817 Y47.47
X-3.805 Y47.572
X-3.871 Y47.695
X-3.922 Y47.795
X-3.965 Y47.898
X-4.023 Y48.048
X-4.03 Y48.056
X-4.088 Y48.134
X-4.143 Y48.216
X-4.247 Y48.382
X-4.299 Y48.472
X-4.346 Y48.564
X-4.425 Y48.73
X-4.469 Y48.832
X-4.506 Y48.936
X-4.614 Y49.268
X-4.64 Y49.354
X-4.661 Y49.441
X-4.71 Y49.673
G2 X-4.747 Y49.954 I1.711 J0.367
G1 X-4.768 Y50.387
X-4.771 Y50.461
X-4.772 Y50.701
X-4.77 Y50.79
X-4.764 Y50.879
X-4.741 Y51.119
G2 X-4.699 Y51.368 I1.742 J-0.166
G1 X-4.573 Y51.884
X-4.557 Y51.946
X-4.508 Y52.118
X-4.445 Y52.455
X-4.441 Y52.477
X-4.464 Y52.542
X-4.504 Y52.667
X-4.549 Y52.833
X-4.584 Y52.988
X-4.722 Y53.761
X-4.735 Y53.847
X-4.744 Y53.933
X-4.774 Y54.322
X-4.779 Y54.424
X-4.782 Y54.558
X-4.781 Y54.646
X-4.776 Y54.734
X-4.743 Y55.135
X-4.732 Y55.239
X-4.714 Y55.342
X-4.704 Y55.393
X-4.78 Y55.453
X-4.854 Y55.517
X-5.022 Y55.673
X-5.13 Y55.782
X-5.272 Y55.938
X-5.328 Y56.003
X-5.514 Y56.229
X-5.562 Y56.291
X-5.732 Y56.517
X-5.785 Y56.591
X-6.051 Y56.987
X-6.159 Y57.073
X-6.24 Y57.141
X-6.316 Y57.214
X-6.912 Y57.819
X-6.972 Y57.883
X-7.173 Y58.108
G2 X-7.337 Y58.324 I1.306 J1.164
G1 X-7.444 Y58.49
G2 X-7.59 Y58.768 I1.471 J0.948
G1 X-7.728 Y59.1
X-7.758 Y59.18
X-7.785 Y59.261
X-7.836 Y59.427
X-7.862 Y59.522
X-7.882 Y59.619
X-7.913 Y59.785
X-7.928 Y59.882
X-7.938 Y59.981
X-7.95 Y60.147
X-7.954 Y60.243
X-7.952 Y60.34
X-7.946 Y60.506
X-7.939 Y60.601
X-7.928 Y60.694
X-7.903 Y60.861
X-7.888 Y60.944
X-7.869 Y61.028
X-7.828 Y61.194
X-7.801 Y61.289
X-7.768 Y61.383
X-7.706 Y61.549
X-7.666 Y61.647
X-7.62 Y61.742
X-7.533 Y61.908
X-7.469 Y62.021
X-7.328 Y62.248
X-7.279 Y62.323
X-7.225 Y62.396
X-7.05 Y62.623
X-6.976 Y62.712
X-6.896 Y62.796
X-6.781 Y62.91
X-6.675 Y63.007
X-6.56 Y63.104
X-6.491 Y63.158
X-6.42 Y63.209
X-5.984 Y63.506
X-5.9 Y63.56
X-5.735 Y63.659
X-5.649 Y63.708
X-5.439 Y64.035
X-5.381 Y64.121
X-5.317 Y64.203
X-5.017 Y64.567
X-4.962 Y64.631
X-4.904 Y64.692
X-4.604 Y64.992
X-4.542 Y65.051
X-4.477 Y65.108
X-3.978 Y65.517
X-3.878 Y65.593
X-3.747 Y65.686
X-3.648 Y65.751
X-3.245 Y65.998
X-3.207 Y66.02
X-2.873 Y66.212
X-2.765 Y66.27
X-2.653 Y66.319
X-1.69 Y66.707
X-1.059 Y66.995
X-0.943 Y67.043
X-0.277 Y67.291
X-0.18 Y67.324
X0.464 Y67.522
X1.433 Y67.848
X2.057 Y68.065
X2.142 Y68.092
X3.178 Y68.393
X3.312 Y68.427
X3.645 Y68.496
X3.732 Y68.511
X3.819 Y68.522
X4.152 Y68.557
X4.238 Y68.564
X4.324 Y68.566
X4.657 Y68.568
X4.743 Y68.567
X4.829 Y68.561
X5.093 Y68.536
X5.408 Y68.532
X5.459 Y68.538
X5.591 Y68.548
X6.258 Y68.577
X6.4
X7.066 Y68.552
X7.154 Y68.546
X7.82 Y68.487
X7.871 Y68.482
X8.538 Y68.403
X8.646 Y68.387
X9.146 Y68.296
X9.279 Y68.266
X9.445 Y68.222
X9.576 Y68.182
X9.915 Y68.064
X10.062 Y68.005
X10.39 Y67.856
X10.472 Y67.816
X10.553 Y67.771
X10.72 Y67.673
X10.801 Y67.622
X10.88 Y67.566
X11.213 Y67.317
X11.273 Y67.271
X11.391 Y67.219
X11.521 Y67.157
X11.823 Y66.996
X11.92 Y66.94
X12.013 Y66.878
X12.649 Y66.425
X13.478 Y65.888
X13.561 Y65.831
X14.033 Y65.485
X14.122 Y65.415
X14.789 Y64.856
X14.863 Y64.791
X14.933 Y64.721
X15.302 Y64.333
X15.529 Y64.12
X15.562 Y64.088
X15.983 Y63.672
G2 X16.185 Y63.433 I-1.23 J-1.245
G1 X16.394 Y63.135
X16.612 Y62.868
X16.688 Y62.767
X17.098 Y62.181
G2 X17.248 Y61.923 I-1.433 J-1.004
G1 X17.285 Y61.844
X17.334 Y61.73
X17.374 Y61.613
X17.476 Y61.281
G2 X17.543 Y60.959 I-1.673 J-0.514
G1 X17.58 Y60.627
G2 X17.575 Y60.202 I-1.739 J-0.193
G1 X17.531 Y59.874
G2 X17.418 Y59.449 I-1.734 J0.233
G1 X17.282 Y59.113
G2 X17.101 Y58.778 I-1.622 J0.658
G1 X16.873 Y58.446
G2 X16.602 Y58.138 I-1.441 J0.993
G1 X16.386 Y57.943
G2 X16.151 Y57.765 I-1.171 J1.301
G1 X15.934 Y57.628
G2 X15.687 Y57.498 I-0.936 J1.479
G1 X15.257 Y57.313
X15.035 Y57.034
G2 X14.728 Y56.733 I-1.37 J1.089
G1 X14.465 Y56.532
G2 X14.241 Y56.387 I-1.063 J1.39
G1 X14.006 Y56.258
X13.892 Y56.19
X13.789 Y56.134
X13.662 Y56.069
X13.664 Y56.03
X13.672 Y55.864
X13.674 Y55.775
X13.671 Y55.685
X13.652 Y55.353
X13.644 Y55.26
X13.631 Y55.168
X13.603 Y55.002
X13.585 Y54.907
X13.562 Y54.814
X13.515 Y54.648
X13.484 Y54.55
X13.448 Y54.453
X13.392 Y54.319
Y54.311
X13.394 Y54.145
X13.389 Y53.995
X13.379 Y53.852
X13.532 Y53.508
X13.559 Y53.442
X13.625 Y53.276
X13.659 Y53.184
X13.687 Y53.091
X13.823 Y52.593
X13.848 Y52.487
X13.866 Y52.38
X13.914 Y52.048
X13.925 Y51.95
X13.931 Y51.85
X13.935 Y51.684
Y51.588
X13.93 Y51.491
X13.916 Y51.325
X13.897 Y51.171
X13.839 Y50.839
X13.821 Y50.749
X13.799 Y50.66
X13.752 Y50.494
X13.72 Y50.394
X13.682 Y50.295
X13.613 Y50.129
X13.567 Y50.028
X13.514 Y49.931
X13.419 Y49.765
X13.355 Y49.663
X13.29 Y49.5
X13.248 Y49.404
X13.2 Y49.31
X13.172 Y49.258
X13.173 Y49.245
X13.176 Y49.134
X13.174 Y48.968
X13.171 Y48.874
X13.163 Y48.78
X13.144 Y48.614
G2 X13.084 Y48.318 I-1.739 J0.198
G1 X12.986 Y47.986
G2 X12.844 Y47.643 I-1.679 J0.495
G1 X12.722 Y47.419
G2 X12.528 Y47.134 I-1.536 J0.838
G1 X12.503 Y47.104
X12.485 Y47.03
X12.395 Y46.698
G2 X12.3 Y46.431 I-1.69 J0.455
G1 X12.225 Y46.265
X12.177 Y46.167
X12.123 Y46.072
X12.082 Y46.006
X12.067 Y45.893
G2 X12.005 Y45.611 I-1.735 J0.231
G1 X11.913 Y45.311
G2 X11.768 Y44.971 I-1.673 J0.513
G1 X11.583 Y44.639
X11.519 Y44.534
X11.511 Y44.491
G2 X11.426 Y44.199 I-1.717 J0.337
G1 X11.298 Y43.866
G2 X11.006 Y43.371 I-1.633 J0.629
G1 X10.673 Y42.974
G2 X10.223 Y42.592 I-1.341 J1.124
G1 X9.889 Y42.395
G2 X9.534 Y42.235 I-0.891 J1.506
G1 X9.316 Y42.165
G2 X9.049 Y42.102 I-0.535 J1.666
G1 X8.825 Y42.068
X8.716 Y42.054
X8.607 Y42.048
X8.383 Y42.041
G2 X8.081 Y42.059 I-0.051 J1.749
G1 X7.797 Y42.1
X7.666 Y42.124
X7.411 Y42.181
X7.338 Y42.157
X7.188 Y41.992
G2 X6.857 Y41.707 I-1.296 J1.176
G1 X6.631 Y41.558
G2 X6.04 Y41.309 I-0.965 J1.46
G1 X5.533 Y41.198
X5.5 Y41.175
X5.418 Y41.121
X5.332 Y41.071
X5.134 Y40.964
X5.006 Y40.901
X4.688 Y40.762
X4.587 Y40.721
X4.483 Y40.687
X4.166 Y40.592
X4.119 Y40.579
X3.452 Y40.401
X3.339 Y40.374
X3.225 Y40.356
X2.892 Y40.312
G2 X2.605 Y40.299 I-0.225 J1.735
G1 X2.294 Y40.31
X1.852 Y40.17
X1.765 Y40.145
X1.677 Y40.125
X1.514 Y40.092
X1.358 Y40.067
X1.195 Y40.049
X1.088 Y40.04
X0.981 Y40.038
X0.647 Y40.042
X0.56 Y40.045
X0.474 Y40.052
X0.141 Y40.089
X0.033 Y40.104
X-0.074 Y40.127
X-0.119 Y40.137
X-0.231 Y40.168
X-0.341 Y40.206
X-0.651 Y40.326
G2 X-1.043 Y40.538 I0.629 J1.633
G1 X-1.354 Y40.761
G2 X-1.713 Y41.106 I1.021 J1.421
G1 X-1.964 Y41.428
G2 X-2.204 Y41.842 I1.38 J1.076
G1 X-2.339 Y42.174
G2 X-2.451 Y42.586 I1.62 J0.661
G1 X-2.499 Y42.918
G2 X-2.513 Y43.29 I1.732 J0.25
G1 X-2.489 Y43.622
X-2.472 Y43.776
X-2.463 Y43.832
X-2.519 Y43.904
G2 X-2.664 Y44.122 I1.38 J1.076
G1 X-2.765 Y44.301
G2 X-2.883 Y44.555 I1.525 J0.859
G1 X-2.911 Y44.634
X-2.973 Y44.699
X-3.03 Y44.767
X-3.156 Y44.923
X-3.222 Y45.011
X-3.282 Y45.102
X-3.378 Y45.259
X-3.429 Y45.346
X-3.474 Y45.436
X-3.547 Y45.592
X-3.61 Y45.745
G3 X-4.031 Y45.91 I-0.283 J-0.101
G1 X-16.193 Y39.547
G3 X-16.333 Y39.171 I0.139 J-0.266
G2 X-15.432 Y36.16 I-16.969 J-6.719
G1 X-14.637 Y32.328
G2 X-20.81 Y16.878 I-14.757 J-3.063
X-24.584 Y15.076 I-7.436 J10.723
X-28.672 Y14.192 I-8.201 J28.048
G3 X-31.565 Y13.16 I1.079 J-7.59
G2 X-41.934 Y11.657 I-6.959 J11.491
X-50.269 Y18.007 I3.461 J13.188
G3 X-50.953 Y18.895 I-3.72 J-2.156
G2 X-53.891 Y22.417 I17.663 J17.716
X-55.721 Y26.623 I9.858 J6.792
X-53.712 Y39.848 I18.125 J4.011
X-49.64 Y45.003 I19.306 J-11.062
X-44.159 Y48.625 I13.269 J-14.125
X-39.436 Y50.199 I10.914 J-24.871
X-34.462 Y50.43 I3.108 J-13.279
X-24.314 Y47.557 I-5.216 J-37.785
X-16.771 Y40.186 I-6.041 J-13.727
X-16.333 Y39.171 I-16.531 J-7.735
X-17.538 Y34.331 I-3.985 J-1.578
G3 X-19.549 Y29.767 I3.722 J-4.366
G2 X-20.518 Y25.075 I-10.144 J-0.351
X-26.066 Y20.06 I-8.809 J4.169
X-27.799 Y19.548 I-5.604 J15.783
X-29.579 Y19.237 I-3.475 J14.625
G3 X-34.058 Y17.638 I1.177 J-10.369
G2 X-40.556 Y16.581 I-4.46 J6.917
X-45.819 Y20.538 I2.122 J8.3
G3 X-47.369 Y22.55 I-8.819 J-5.187
G2 X-49.382 Y24.913 I14.751 J14.61
X-50.661 Y27.743 I6.112 J4.465
X-50.203 Y35.563 I14.02 J3.103
X-45.222 Y41.608 I10.658 J-3.707
G3 X-44.11 Y42.396 I-3.857 J6.626
G2 X-40.856 Y44.094 I5.355 J-6.292
G3 X-39.695 Y44.502 I-1.955 J7.413
G2 X-36.781 Y45.187 I3.262 J-7.336
X-33.795 Y44.961 I0.546 J-12.621
G3 X-31.448 Y44.645 I3.794 J19.278
G2 X-29.127 Y44.177 I-0.698 J-9.444
X-24.206 Y41.498 I-5.159 J-15.34
X-20.973 Y36.921 I-6.242 J-7.839
X-20.493 Y34.732 I-9.144 J-3.149
G3 X-20.035 Y32.539 I10.474 J1.045
G2 X-19.549 Y29.767 I-9.658 J-3.122
X-27.042 Y23.559 I-6.142 J-0.212
G3 X-36.615 Y21.818 I-2.736 J-12.146
G1 X-36.7 Y21.763
G2 X-36.953 Y21.624 I-0.961 J1.462
G1 X-37.287 Y21.477
G2 X-37.565 Y21.381 I-0.707 J1.601
G1 X-37.898 Y21.297
G2 X-38.29 Y21.244 I-0.429 J1.697
G1 X-38.624 Y21.237
G2 X-39.024 Y21.275 I-0.037 J1.75
G1 X-39.357 Y21.345
X-39.504 Y21.383
X-39.741 Y21.455
G2 X-39.994 Y21.554 I0.51 J1.674
G1 X-40.23 Y21.669
G2 X-40.496 Y21.828 I0.763 J1.575
G1 X-40.689 Y21.969
G2 X-40.885 Y22.135 I1.029 J1.416
G1 X-41.019 Y22.266
X-41.078 Y22.326
X-41.134 Y22.39
X-41.244 Y22.521
X-41.335 Y22.639
X-41.519 Y22.901
X-41.567 Y22.972
X-41.61 Y23.045
X-41.69 Y23.185
X-41.763 Y23.328
X-41.826 Y23.469
X-41.862 Y23.555
X-41.894 Y23.643
X-42.02 Y24.027
X-42.055 Y24.151
X-42.138 Y24.483
X-42.16 Y24.585
X-42.176 Y24.688
X-42.211 Y24.971
X-42.331 Y25.024
X-42.456 Y25.072
X-42.539 Y25.106
X-42.62 Y25.145
X-42.787 Y25.23
X-42.853 Y25.266
X-43.187 Y25.454
X-43.321 Y25.538
X-43.48 Y25.648
X-43.565 Y25.71
X-43.646 Y25.778
X-43.805 Y25.919
X-43.917 Y26.027
X-44.265 Y26.396
X-44.327 Y26.464
X-44.578 Y26.76
X-44.618 Y26.809
X-45.034 Y27.336
X-45.116 Y27.449
X-45.207 Y27.586
X-45.261 Y27.671
X-45.309 Y27.759
X-45.394 Y27.925
X-45.438 Y28.018
X-45.477 Y28.114
X-45.539 Y28.28
X-45.569 Y28.371
X-45.595 Y28.463
X-45.679 Y28.795
X-45.69 Y28.843
X-45.837 Y29.507
X-45.851 Y29.579
X-45.881 Y29.745
X-45.895 Y29.837
X-45.904 Y29.929
X-45.915 Y30.095
X-45.919 Y30.196
X-45.918 Y30.296
X-45.903 Y30.628
X-45.894 Y30.742
X-45.878 Y30.854
X-45.848 Y31.021
X-45.831 Y31.106
X-45.809 Y31.19
X-45.763 Y31.356
X-45.713 Y31.506
X-45.65 Y31.672
X-45.611 Y31.765
X-45.567 Y31.856
X-45.48 Y32.022
X-45.468 Y32.046
X-45.475 Y32.167
X-45.474 Y32.288
X-45.459 Y32.62
X-45.45 Y32.738
X-45.399 Y33.187
G2 X-45.346 Y33.46 I1.739 J-0.197
G1 X-45.286 Y33.675
X-45.251 Y33.787
X-45.208 Y33.895
X-45.137 Y34.061
X-45.102 Y34.137
X-44.9 Y34.552
X-44.845 Y34.657
X-44.798 Y34.74
X-44.75 Y34.818
X-44.698 Y34.894
X-44.577 Y35.062
G2 X-44.404 Y35.266 I1.419 J-1.024
G1 X-44.346 Y35.325
X-44.315 Y35.427
X-44.278 Y35.526
X-44.143 Y35.858
G2 X-43.947 Y36.214 I1.621 J-0.66
G1 X-43.751 Y36.489
X-43.676 Y36.587
X-43.593 Y36.68
X-43.368 Y36.916
G2 X-43.092 Y37.151 I1.266 J-1.208
G1 X-42.867 Y37.305
G2 X-42.585 Y37.463 I0.99 J-1.443
G1 X-42.368 Y37.559
G2 X-42.027 Y37.669 I0.708 J-1.6
G1 X-41.693 Y37.741
X-41.664 Y37.787
X-41.56 Y37.953
X-41.499 Y38.044
X-41.432 Y38.132
X-41.296 Y38.298
X-41.186 Y38.42
X-41.046 Y38.562
X-40.963 Y38.64
X-40.876 Y38.713
X-40.736 Y38.822
X-40.647 Y38.887
X-40.555 Y38.946
X-40.388 Y39.045
X-40.294 Y39.097
X-40.197 Y39.143
X-40.03 Y39.217
X-39.938 Y39.254
X-39.843 Y39.286
X-39.677 Y39.338
X-39.578 Y39.365
X-39.479 Y39.386
X-39.312 Y39.417
X-39.22 Y39.432
X-38.554 Y39.519
X-38.49 Y39.526
X-38.413 Y39.592
X-38.331 Y39.653
X-38.17 Y39.768
X-38.073 Y39.833
X-37.971 Y39.89
X-37.81 Y39.975
G2 X-37.542 Y40.089 I0.816 J-1.548
G1 X-37.264 Y40.181
G2 X-36.972 Y40.25 I0.548 J-1.662
G1 X-36.778 Y40.279
X-36.658 Y40.292
X-36.538 Y40.297
X-36.344 Y40.299
G2 X-36.088 Y40.283 I0.016 J-1.75
G1 X-35.867 Y40.252
G2 X-35.609 Y40.197 I-0.239 J-1.734
G1 X-35.386 Y40.131
X-35.302 Y40.103
X-35.218 Y40.071
X-34.774 Y39.888
X-34.685 Y39.892
X-34.351 Y39.896
G2 X-33.944 Y39.854 I0.023 J-1.75
G1 X-33.611 Y39.779
X-33.459 Y39.737
X-33.292 Y39.684
X-33.169 Y39.639
X-33.002 Y39.571
X-32.976 Y39.56
G2 X-32.585 Y39.605 I0.391 J-1.706
G1 X-32.274
G2 X-31.963 Y39.577 I0 J-1.75
G1 X-31.351 Y39.466
G2 X-31.104 Y39.403 I-0.311 J-1.722
G1 X-30.771 Y39.291
G2 X-30.329 Y39.069 I-0.558 J-1.659
G1 X-29.996 Y38.837
X-29.874 Y38.744
X-29.851 Y38.737
X-29.684 Y38.69
X-29.618 Y38.67
X-28.953 Y38.452
X-28.871 Y38.423
X-28.706 Y38.36
X-28.613 Y38.321
X-28.522 Y38.277
X-28.357 Y38.191
X-28.274 Y38.145
X-28.194 Y38.094
X-27.69 Y37.758
G2 X-27.435 Y37.55 I-0.972 J-1.455
G1 X-27.252 Y37.371
X-27.139 Y37.248
X-27.026 Y37.114
X-26.989 Y37.075
X-26.928 Y37.008
X-26.87 Y36.938
X-26.644 Y36.648
X-26.533 Y36.522
X-26.431 Y36.394
X-26.31 Y36.228
X-26.258 Y36.154
X-26.211 Y36.076
X-26.148 Y35.968
X-26.077 Y35.832
X-26.012 Y35.693
X-25.975 Y35.608
X-25.943 Y35.521
X-25.847 Y35.243
X-25.813 Y35.134
X-25.73 Y34.829
X-25.708 Y34.737
X-25.69 Y34.645
X-25.664 Y34.479
X-25.651 Y34.381
X-25.643 Y34.283
X-25.636 Y34.117
X-25.634 Y34.071
X-25.611 Y34.027
G2 X-25.458 Y33.628 I-1.545 J-0.821
G1 X-25.375 Y33.296
G2 X-25.328 Y32.993 I-1.698 J-0.422
G1 X-25.317 Y32.827
X-25.313 Y32.671
X-25.316 Y32.505
X-25.327 Y32.348
X-25.354 Y32.101
X-25.289 Y31.963
X-25.244 Y31.859
X-25.112 Y31.527
X-25.07 Y31.41
X-25.037 Y31.291
X-24.997 Y31.125
X-24.971 Y30.995
X-24.787 Y30.539
G2 X-24.697 Y30.241 I-1.623 J-0.654
G1 X-24.635 Y29.944
G2 X-24.602 Y29.691 I-1.713 J-0.356
G1 X-24.58 Y29.323
X-24.577 Y29.187
X-24.579 Y29.085
X-24.587 Y28.954
X-24.64 Y28.392
G2 X-24.693 Y28.099 I-1.742 J0.165
G1 X-24.738 Y27.933
X-24.767 Y27.838
X-24.801 Y27.744
X-24.867 Y27.578
X-24.907 Y27.485
X-24.953 Y27.394
X-25.132 Y27.062
X-25.211 Y26.93
X-25.534 Y26.439
X-25.585 Y26.366
X-25.639 Y26.296
X-25.78 Y26.123
X-25.89 Y26.001
X-26.153 Y25.734
X-26.26 Y25.634
X-26.391 Y25.521
X-26.461 Y25.465
X-26.534 Y25.411
X-26.665 Y25.32
X-26.738 Y25.272
X-26.814 Y25.228
X-27.163 Y25.034
X-27.245 Y24.991
X-27.404 Y24.914
X-27.493 Y24.873
X-27.584 Y24.838
X-27.743 Y24.782
X-27.829 Y24.754
X-27.916 Y24.73
X-28.25 Y24.649
X-28.364 Y24.626
X-28.635 Y24.579
X-28.937 Y24.441
X-29.036 Y24.4
X-29.385 Y24.266
G2 X-29.698 Y24.179 I-0.626 J1.634
G1 X-30.015 Y24.121
X-30.155 Y24.101
X-30.488 Y24.068
X-30.568 Y24.062
X-30.735 Y24.053
X-30.895 Y24.052
X-31.062 Y24.058
X-31.166 Y24.065
X-31.269 Y24.079
X-31.936 Y24.184
X-31.975 Y24.191
X-32.142 Y24.221
X-32.268 Y24.249
X-32.435 Y24.293
X-32.517 Y24.316
X-32.599 Y24.344
X-32.932 Y24.466
X-33.039 Y24.51
X-33.143 Y24.56
X-33.84 Y24.278
X-33.899 Y24.255
X-34.148 Y24.165
X-34.238 Y24.135
X-34.329 Y24.11
X-34.579 Y24.049
X-34.645 Y24.034
X-34.89 Y23.984
X-34.935 Y23.879
X-35.009 Y23.729
X-35.191 Y23.397
X-35.253 Y23.293
X-35.522 Y22.874
X-35.588 Y22.78
X-35.659 Y22.69
X-35.799 Y22.524
X-35.876 Y22.44
X-35.957 Y22.361
X-36.292 Y22.056
G2 X-36.508 Y21.888 I-1.178 J1.295
G1 X-36.615 Y21.818
X-36.668 Y21.779 Z12.008 F1500
X-36.717 Y21.733 Z12.015
X-36.759 Y21.685 Z12.037
X-36.795 Y21.633 Z12.059
X-36.823 Y21.584 Z12.095
X-36.846 Y21.532 Z12.131
X-36.872 Y21.441 Z12.226
X-36.883 Y21.37 Z12.34
X-36.885 Y21.326 Z12.466
Y21.311 Z12.6
G0 Z19.5
X-8.464 Y12.604
Z14.1
G1 X-8.448 Y12.593 Z13.948 F2000
X-8.4 Y12.561 Z13.806
X-8.322 Y12.513 Z13.683
X-8.218 Y12.454 Z13.587
X-8.093 Y12.391 Z13.525
X-7.955 Y12.329 Z13.5
G3 X-5.772 Y17.594 Z13.187 I1.092 J2.633
X-7.955 Y12.329 Z12.875 I-1.092 J-2.633
X-5.772 Y17.594 Z12.562 I1.092 J2.633
X-7.955 Y12.329 Z12.249 I-1.092 J-2.633
X-5.772 Y17.594 Z11.937 I1.092 J2.633
X-7.955 Y12.329 Z11.624 I-1.092 J-2.633
X-5.772 Y17.594 Z11.311 I1.092 J2.633
X-7.955 Y12.329 Z10.999 I-1.092 J-2.633
X-5.772 Y17.594 Z10.686 I1.092 J2.633
X-7.955 Y12.329 Z10.373 I-1.092 J-2.633
X-5.772 Y17.594 Z10.061 I1.092 J2.633
X-7.955 Y12.329 Z9.748 I-1.092 J-2.633
X-5.772 Y17.594 Z9.435 I1.092 J2.633
X-7.955 Y12.329 Z9.123 I-1.092 J-2.633
X-4.742 Y13.059 Z9 I1.092 J2.633
G1 X-4.63 Y13.183
G2 X-3.283 Y14.579 I24.566 J-22.336
G3 X-4.622 Y17.096 I-1.039 J1.062
G2 X-6.306 Y16.816 I-4.477 J21.738
X-8.013 Y16.75 I-1.227 J9.672
G3 X-9.137 Y14.468 I-0.068 J-1.384
G2 X-8.241 Y13.259 I-8.61 J-7.317
X-7.546 Y11.924 I-6.953 J-4.467
G3 X-5.877 Y11.697 I0.9 J0.369
G2 X-4.742 Y13.059 I19.429 J-15.045
G1 X-4.698 Y13.109 Z9.008 F1500
X-4.661 Y13.165 Z9.015
X-4.631 Y13.221 Z9.037
X-4.608 Y13.279 Z9.059
X-4.592 Y13.334 Z9.095
X-4.581 Y13.39 Z9.131
X-4.575 Y13.485 Z9.226
X-4.581 Y13.556 Z9.34
X-4.589 Y13.6 Z9.466
X-4.592 Y13.614 Z9.6
G0 Z16.5
X11.626 Y8.443
Z14.1
G1 X11.645 Y8.446 Z13.948 F2000
X11.702 Y8.455 Z13.806
X11.792 Y8.471 Z13.683
X11.909 Y8.496 Z13.587
X12.044 Y8.532 Z13.525
X12.188 Y8.579 Z13.5
G3 X10.298 Y13.956 Z13.187 I-0.945 J2.689
X12.188 Y8.579 Z12.875 I0.945 J-2.689
X10.298 Y13.956 Z12.562 I-0.945 J2.689
X12.188 Y8.579 Z12.249 I0.945 J-2.689
X10.298 Y13.956 Z11.937 I-0.945 J2.689
X12.188 Y8.579 Z11.624 I0.945 J-2.689
X10.298 Y13.956 Z11.311 I-0.945 J2.689
X12.188 Y8.579 Z10.999 I0.945 J-2.689
X10.298 Y13.956 Z10.686 I-0.945 J2.689
X12.188 Y8.579 Z10.373 I0.945 J-2.689
X10.298 Y13.956 Z10.061 I-0.945 J2.689
X12.188 Y8.579 Z9.748 I0.945 J-2.689
X10.298 Y13.956 Z9.435 I-0.945 J2.689
X12.188 Y8.579 Z9.123 I0.945 J-2.689
X14.093 Y11.268 Z9 I-0.945 J2.689
X13.421 Y11.268 I-0.336 J0
X14.093 Y11.268 I0.336 J0
G2 X15.839 Y13.829 I2.751 J0
G3 X17.854 Y16.185 I-1.203 J3.068
G2 X17.994 Y16.768 I16.558 J-3.662
G3 X16.782 Y18.409 I-1.271 J0.329
G2 X16.239 Y18.438 I1.565 J34.481
X15.697 Y18.48 I0.945 J15.447
G3 X13.452 Y17.352 I-0.227 J-2.347
G2 X13.152 Y16.878 I-11.162 J6.743
X12.816 Y16.428 I-4.289 J2.85
G3 X12.477 Y15.887 I1.81 J-1.511
G2 X11.438 Y14.209 I-6.91 J3.117
X9.928 Y12.937 I-4.133 J3.375
G3 X8.925 Y10.538 I1.042 J-1.845
G2 X9.173 Y9.153 I-7.815 J-2.116
X9.229 Y7.747 I-13.79 J-1.25
G3 X10.641 Y6.852 I0.983 J-0.011
G2 X12.834 Y7.518 I3.199 J-6.584
X15.123 Y7.415 I0.865 J-6.235
G3 X17.054 Y8.677 I0.361 J1.556
X17.455 Y12.731 I-23.232 J4.344
G2 X17.854 Y16.185 I16.957 J-0.208
G1 X17.862 Y16.251 Z9.008 F1500
X17.863 Y16.318 Z9.015
X17.858 Y16.381 Z9.037
X17.845 Y16.443 Z9.059
X17.829 Y16.498 Z9.095
X17.807 Y16.55 Z9.131
X17.76 Y16.633 Z9.226
X17.716 Y16.689 Z9.34
X17.686 Y16.721 Z9.466
X17.675 Y16.732 Z9.6
G0 Z16.5
X30.919 Y0.144
Z14.1
G1 X30.938 Y0.142 Z13.948 F2000
X30.995 Y0.136 Z13.806
X31.087 Y0.131 Z13.683
X31.206 Y0.13 Z13.587
X31.346 Y0.139 Z13.525
X31.496 Y0.159 Z13.5
G3 X30.819 Y3.936 Z13.29 I-0.338 J1.888
X31.496 Y0.159 Z13.079 I0.338 J-1.888
X30.819 Y3.936 Z12.869 I-0.338 J1.888
X31.496 Y0.159 Z12.658 I0.338 J-1.888
X30.819 Y3.936 Z12.448 I-0.338 J1.888
X31.496 Y0.159 Z12.237 I0.338 J-1.888
X30.819 Y3.936 Z12.027 I-0.338 J1.888
X31.496 Y0.159 Z11.817 I0.338 J-1.888
X30.819 Y3.936 Z11.606 I-0.338 J1.888
X31.496 Y0.159 Z11.396 I0.338 J-1.888
X30.819 Y3.936 Z11.185 I-0.338 J1.888
X31.496 Y0.159 Z10.975 I0.338 J-1.888
X30.819 Y3.936 Z10.764 I-0.338 J1.888
X31.496 Y0.159 Z10.554 I0.338 J-1.888
X30.819 Y3.936 Z10.344 I-0.338 J1.888
X31.496 Y0.159 Z10.133 I0.338 J-1.888
X30.819 Y3.936 Z9.923 I-0.338 J1.888
X31.496 Y0.159 Z9.712 I0.338 J-1.888
X30.819 Y3.936 Z9.502 I-0.338 J1.888
X31.496 Y0.159 Z9.291 I0.338 J-1.888
X30.819 Y3.936 Z9.081 I-0.338 J1.888
X29.272 Y2.401 Z9 I0.338 J-1.888
G1 X29.265 Y2.365
X29.071 Y1.069
X29.066 Y1.034
X28.953 Y0.37
X28.946 Y0.334
X28.818 Y-0.33
X28.806 Y-0.389
X28.761 Y-0.587
X28.798 Y-0.567
X28.903 Y-0.511
X29.059 Y-0.436
X29.252 Y-0.33
X29.338 Y-0.286
X29.427 Y-0.246
X29.661 Y-0.15
X29.778 Y-0.106
X29.898 Y-0.071
X30.231 Y0.014
X30.361 Y0.041
X30.528 Y0.071
X30.638 Y0.086
X30.805 Y0.104
X30.899 Y0.112
X31.232 Y0.131
X31.327 Y0.133
X31.422 Y0.131
X31.756 Y0.113
X31.844 Y0.106
X31.933 Y0.094
X31.963 Y0.09
X31.992
X32.102 Y0.087
X32.268 Y0.076
X32.367 Y0.068
X32.465 Y0.053
X32.631 Y0.024
X32.66 Y0.019
X32.915 Y0.03
X33.023 Y0.032
G2 X33.276 Y0.265 I1.306 J-1.165
G1 X33.609 Y0.516
G2 X33.985 Y0.731 I1.053 J-1.398
G1 X34.318 Y0.871
G2 X34.676 Y0.978 I0.677 J-1.614
G1 X34.744 Y0.991
X34.659 Y1.078
X34.356 Y1.412
X34.153 Y1.593
X34.083 Y1.66
X34.016 Y1.73
X33.862 Y1.902
X33.766 Y2.018
X33.703 Y2.101
X33.62 Y2.221
X33.559 Y2.269
X33.392 Y2.404
X33.324 Y2.462
X33.259 Y2.524
X33.092 Y2.69
X33.021 Y2.765
X32.955 Y2.844
X32.846 Y2.983
X32.79 Y3.058
X32.738 Y3.135
X32.633 Y3.301
X32.575 Y3.402
X32.523 Y3.507
X32.409 Y3.756
X32.362 Y3.869
X32.323 Y3.986
X32.249 Y4.235
G2 X32.193 Y4.493 I1.678 J0.497
G1 X32.148 Y4.825
X32.135 Y4.946
X32.131 Y5.067
X32.096 Y5.114
X31.835 Y5.345
G2 X31.54 Y5.684 I1.161 J1.31
G1 X31.129 Y6.299
X30.921 Y6.58
X30.854 Y6.678
X30.793 Y6.78
X30.602 Y7.129
X30.562 Y7.207
X30.526 Y7.286
X30.245 Y7.951
X30.212 Y8.036
X30.183 Y8.122
X30.008 Y8.696
X29.974 Y8.775
X29.941 Y8.857
X29.912 Y8.941
X29.879 Y9.046
X29.881 Y8.639
X29.88 Y8.582
X29.861 Y7.918
X29.859 Y7.875
X29.716 Y5.219
X29.709 Y5.127
X29.638 Y4.463
X29.624 Y4.365
X29.515 Y3.701
X29.508 Y3.662
X29.272 Y2.401
X29.263 Y2.335 Z9.008 F1500
X29.262 Y2.268 Z9.015
X29.268 Y2.205 Z9.037
X29.28 Y2.143 Z9.059
X29.297 Y2.088 Z9.095
X29.318 Y2.036 Z9.131
X29.365 Y1.953 Z9.226
X29.409 Y1.897 Z9.34
X29.439 Y1.864 Z9.466
X29.45 Y1.854 Z9.6
G0 Z16.5
X35.151 Y-23.156
Z14.1
G1 X35.142 Y-23.174 Z13.948 F2000
X35.115 Y-23.224 Z13.806
X35.074 Y-23.306 Z13.683
X35.025 Y-23.415 Z13.587
X34.974 Y-23.546 Z13.525
X34.925 Y-23.689 Z13.5
G3 X40.372 Y-25.369 Z13.187 I2.723 J-0.84
X34.925 Y-23.689 Z12.875 I-2.723 J0.84
X40.372 Y-25.369 Z12.562 I2.723 J-0.84
X34.925 Y-23.689 Z12.249 I-2.723 J0.84
X40.372 Y-25.369 Z11.937 I2.723 J-0.84
X34.925 Y-23.689 Z11.624 I-2.723 J0.84
X40.372 Y-25.369 Z11.311 I2.723 J-0.84
X34.925 Y-23.689 Z10.999 I-2.723 J0.84
X40.372 Y-25.369 Z10.686 I2.723 J-0.84
X34.925 Y-23.689 Z10.373 I-2.723 J0.84
X40.372 Y-25.369 Z10.061 I2.723 J-0.84
X34.925 Y-23.689 Z9.748 I-2.723 J0.84
X40.372 Y-25.369 Z9.435 I2.723 J-0.84
X34.925 Y-23.689 Z9.123 I-2.723 J0.84
X35.953 Y-26.82 Z9 I2.723 J-0.84
G2 X38.065 Y-28.736 I-8.529 J-11.522
G3 X39.352 Y-28.141 I0.552 J0.495
G2 X39.28 Y-25.672 I11.667 J1.579
G3 X38.807 Y-24.544 I-1.337 J0.103
G2 X38.274 Y-24.066 I7.52 J8.923
G3 X36.872 Y-23.576 I-1.241 J-1.301
G2 X35.731 Y-23.633 I-1.282 J14.229
G3 X35.468 Y-23.67 I0.006 J-0.999
G1 X35.324 Y-23.709
G3 X34.684 Y-25.491 I0.295 J-1.112
G2 X35.076 Y-26.074 I-9.484 J-6.799
G3 X35.46 Y-26.47 I1.135 J0.714
G2 X35.953 Y-26.82 I-8.035 J-11.872
X36.53 Y-30.412 I-1.548 J-2.091
G3 X38.532 Y-33.449 I1.596 J-1.127
X38.882 Y-33.34 I-0.408 J1.917
X41.019 Y-32.109 I-3.782 J9.035
X42.657 Y-30.264 I-3.836 J5.056
X42.927 Y-29.517 I-1.869 J1.097
X42.956 Y-28.722 I-3.158 J0.515
G2 X42.85 Y-26.868 I30.669 J2.683
X43.005 Y-25.017 I8.45 J0.227
G3 X41.885 Y-22.347 I-2.552 J0.5
G2 X40.33 Y-21.006 I4.441 J6.726
G3 X37.29 Y-19.89 I-2.573 J-2.311
G2 X36.489 Y-19.984 I-2.873 J21.089
X35.683 Y-20.024 I-0.828 J8.471
G3 X34.523 Y-20.187 I0.011 J-4.3
G2 X33.056 Y-20.474 I-2.478 J8.76
X31.563 Y-20.548 I-1.344 J12.022
G3 X29.467 Y-21.721 I-0.03 J-2.406
X29.178 Y-22.245 I7.648 J-4.566
G2 X28.891 Y-22.77 I-9.458 J4.817
G3 X29.441 Y-25.283 I1.643 J-0.957
G2 X30.909 Y-26.565 I-5.304 J-7.551
X32.095 Y-28.112 I-7.73 J-7.155
G3 X33.364 Y-29.41 I3.64 J2.289
G2 X36.47 Y-32.582 I-5.824 J-8.811
G3 X38.532 Y-33.449 I1.655 J1.049
G1 X38.592 Y-33.419 Z9.008 F1500
X38.647 Y-33.382 Z9.015
X38.696 Y-33.341 Z9.037
X38.74 Y-33.296 Z9.059
X38.775 Y-33.251 Z9.095
X38.806 Y-33.204 Z9.131
X38.848 Y-33.118 Z9.226
X38.869 Y-33.05 Z9.34
X38.879 Y-33.007 Z9.466
X38.881 Y-32.992 Z9.6
G0 Z16.5
X36.804 Y-27.074
G1 Z9.6 F1500
Y-27.082 Z9.506
X36.801 Y-27.103 Z9.415
X36.797 Y-27.139 Z9.328
X36.792 Y-27.188 Z9.247
X36.785 Y-27.249 Z9.176
X36.777 Y-27.32 Z9.115
X36.768 Y-27.4 Z9.065
X36.759 Y-27.486 Z9.029
X36.749 Y-27.577 Z9.007
X36.739 Y-27.671 Z9
X34.774 Y-45.506 F2000
G2 X34.438 Y-45.771 I-0.298 J0.033
G3 X33.748 Y-46.048 I-0.096 J-0.758
X32.679 Y-47.429 I31.282 J-25.318
G2 X31.445 Y-48.664 I-4.763 J3.524
X27.694 Y-51.026 I-17.351 J23.4
G3 X27.359 Y-51.274 I0.622 J-1.188
G2 X23.382 Y-54.952 I-40.101 J39.374
G3 X22.756 Y-56.127 I1.16 J-1.373
G2 X22.363 Y-58.685 I-30.705 J3.4
X21.542 Y-61.138 I-9.866 J1.939
G3 X21.159 Y-61.964 I23.276 J-11.305
X20.798 Y-62.801 I42.483 J-18.816
X21.864 Y-63.584 I0.628 J-0.263
X24.24 Y-60.919 I-8.118 J9.628
G2 X26.573 Y-58.215 I11.823 J-7.844
G3 X29.565 Y-53.425 I-6.84 J7.602
G2 X33.197 Y-49.099 I6.66 J-1.904
G3 X34.508 Y-48.091 I-1.793 J3.689
X35.105 Y-46.549 I-1.86 J1.607
X34.438 Y-45.771 I-0.764 J0.02
G1 X34.372 Y-45.765 Z9.008 F1500
X34.305 Y-45.766 Z9.015
X34.242 Y-45.771 Z9.037
X34.179 Y-45.782 Z9.059
X34.124 Y-45.796 Z9.095
X34.07 Y-45.815 Z9.131
X33.984 Y-45.854 Z9.226
X33.922 Y-45.89 Z9.34
X33.886 Y-45.916 Z9.466
X33.874 Y-45.925 Z9.6
G0 Z16.5
X37.765 Y-25.012
G1 Z9.6 F1500
X37.771 Y-25.009 Z9.506
X37.791 Y-24.999 Z9.415
X37.823 Y-24.982 Z9.328
X37.866 Y-24.959 Z9.247
X37.92 Y-24.93 Z9.176
X37.984 Y-24.897 Z9.115
X38.055 Y-24.859 Z9.065
X38.131 Y-24.819 Z9.029
X38.212 Y-24.776 Z9.007
X38.295 Y-24.732 Z9
X54.758 Y-16.036 F2000
G2 X55.165 Y-16.165 I0.14 J-0.265
G3 X56.393 Y-16.236 I0.634 J0.322
X56.86 Y-15.237 I-3.128 J2.072
X57.117 Y-14.164 I-9.658 J2.882
X57.185 Y-13.679 I-5.952 J1.086
X57.207 Y-13.189 I-4.372 J0.437
X55.795 Y-12.68 I-0.801 J-0.01
G2 X55.61 Y-12.895 I-18.829 J16.017
X55.418 Y-13.104 I-4.158 J3.62
G3 X55.14 Y-13.865 I0.718 J-0.694
G2 X55.163 Y-14.809 I-11.063 J-0.742
X55.094 Y-15.752 I-8.591 J0.157
G3 X55.165 Y-16.165 I0.705 J-0.091
G1 X55.198 Y-16.223 Z9.008 F1500
X55.237 Y-16.278 Z9.015
X55.278 Y-16.326 Z9.037
X55.323 Y-16.371 Z9.059
X55.366 Y-16.407 Z9.095
X55.413 Y-16.44 Z9.131
X55.496 Y-16.486 Z9.226
X55.562 Y-16.513 Z9.34
X55.604 Y-16.527 Z9.466
X55.619 Y-16.531 Z9.6
G0 Z16.5
X-14.23 Y-47.935
Z14.1
G1 X-14.216 Y-47.948 Z13.948 F2000
X-14.172 Y-47.986 Z13.806
X-14.101 Y-48.044 Z13.683
X-14.006 Y-48.116 Z13.587
X-13.891 Y-48.195 Z13.525
X-13.762 Y-48.274 Z13.5
G3 X-10.908 Y-43.34 Z13.187 I1.427 J2.467
X-13.762 Y-48.274 Z12.875 I-1.427 J-2.467
X-10.908 Y-43.34 Z12.562 I1.427 J2.467
X-13.762 Y-48.274 Z12.249 I-1.427 J-2.467
X-10.908 Y-43.34 Z11.937 I1.427 J2.467
X-13.762 Y-48.274 Z11.624 I-1.427 J-2.467
X-10.908 Y-43.34 Z11.311 I1.427 J2.467
X-13.762 Y-48.274 Z10.999 I-1.427 J-2.467
X-10.908 Y-43.34 Z10.686 I1.427 J2.467
X-13.762 Y-48.274 Z10.373 I-1.427 J-2.467
X-10.908 Y-43.34 Z10.061 I1.427 J2.467
X-13.762 Y-48.274 Z9.748 I-1.427 J-2.467
X-10.908 Y-43.34 Z9.435 I1.427 J2.467
X-13.762 Y-48.274 Z9.123 I-1.427 J-2.467
X-10.481 Y-47.971 Z9 I1.427 J2.467
G1 X-10.431 Y-47.929
G3 X-10.387 Y-45.299 I-1.132 J1.334
G2 X-11.212 Y-44.483 I9.256 J10.192
X-11.956 Y-43.592 I7.923 J7.369
G3 X-13.457 Y-44.016 I-0.669 J-0.5
X-13.501 Y-46.324 I16.01 J-1.46
X-13.176 Y-48.609 I13.012 J0.687
X-11.54 Y-49.007 I0.919 J0.215
G2 X-11.007 Y-48.446 I5.636 J-4.821
X-10.481 Y-47.971 I9.677 J-10.206
G1 X-10.433 Y-47.925 Z9.008 F1500
X-10.39 Y-47.874 Z9.015
X-10.355 Y-47.821 Z9.037
X-10.326 Y-47.764 Z9.059
X-10.305 Y-47.712 Z9.095
X-10.289 Y-47.657 Z9.131
X-10.275 Y-47.563 Z9.226
X-10.273 Y-47.492 Z9.34
X-10.277 Y-47.448 Z9.466
X-10.279 Y-47.433 Z9.6
G0 Z19.5
X-2.346 Y-69.784
G1 Z14.1 F300
X-2.358 Y-69.799 Z13.948 F2000
X-2.393 Y-69.844 Z13.806
X-2.448 Y-69.918 Z13.683
X-2.515 Y-70.017 Z13.587
X-2.588 Y-70.136 Z13.525
X-2.661 Y-70.269 Z13.5
G3 X2.41 Y-72.872 Z13.187 I2.535 J-1.302
X-2.661 Y-70.269 Z12.875 I-2.535 J1.302
X2.41 Y-72.872 Z12.562 I2.535 J-1.302
X-2.661 Y-70.269 Z12.249 I-2.535 J1.302
X2.41 Y-72.872 Z11.937 I2.535 J-1.302
X-2.661 Y-70.269 Z11.624 I-2.535 J1.302
X2.41 Y-72.872 Z11.311 I2.535 J-1.302
X-2.661 Y-70.269 Z10.999 I-2.535 J1.302
X2.41 Y-72.872 Z10.686 I2.535 J-1.302
X-2.661 Y-70.268 Z10.373 I-2.535 J1.302
X2.41 Y-72.872 Z10.061 I2.535 J-1.302
X-2.661 Y-70.268 Z9.748 I-2.535 J1.302
X2.41 Y-72.872 Z9.435 I2.535 J-1.302
X-2.661 Y-70.268 Z9.123 I-2.535 J1.302
X-2.194 Y-73.531 Z9 I2.535 J-1.302
X1.025 Y-70.48 I1.61 J1.525
G1 X0.993 Y-70.445
G3 X-0.471 Y-70.447 I-0.731 J-0.68
G1 X-0.603 Y-70.59
X-0.714 Y-70.705
G3 X-0.19 Y-72.213 I0.626 J-0.628
X0.485 Y-72.276 I1.651 J14.107
G2 X1.161 Y-72.324 I-7.542 J-109.569
G3 X1.657 Y-71.051 I0.053 J0.713
G2 X1.314 Y-70.761 I4.241 J5.377
X1.025 Y-70.48 I3.428 J3.803
G1 X0.977 Y-70.434 Z9.008 F1500
X0.923 Y-70.394 Z9.015
X0.869 Y-70.362 Z9.037
X0.811 Y-70.335 Z9.059
X0.757 Y-70.317 Z9.095
X0.702 Y-70.304 Z9.131
X0.608 Y-70.294 Z9.226
X0.536 Y-70.296 Z9.34
X0.492 Y-70.302 Z9.466
X0.477 Y-70.304 Z9.6
G0 Z19.5
X-26.735 Y-8.18
Z14.1
G1 X-26.75 Y-8.192 Z13.948 F2000
X-26.795 Y-8.229 Z13.806
X-26.864 Y-8.289 Z13.683
X-26.951 Y-8.371 Z13.587
X-27.048 Y-8.471 Z13.525
X-27.148 Y-8.584 Z13.5
G3 X-22.77 Y-12.234 Z13.187 I2.189 J-1.825
X-27.148 Y-8.584 Z12.875 I-2.189 J1.825
X-22.77 Y-12.234 Z12.562 I2.189 J-1.825
X-27.148 Y-8.584 Z12.249 I-2.189 J1.825
X-22.77 Y-12.234 Z11.937 I2.189 J-1.825
X-27.148 Y-8.584 Z11.624 I-2.189 J1.825
X-22.77 Y-12.234 Z11.311 I2.189 J-1.825
X-27.148 Y-8.584 Z10.999 I-2.189 J1.825
X-22.77 Y-12.234 Z10.686 I2.189 J-1.825
X-27.148 Y-8.584 Z10.373 I-2.189 J1.825
X-22.77 Y-12.234 Z10.061 I2.189 J-1.825
X-27.148 Y-8.584 Z9.748 I-2.189 J1.825
