(afr2_face)
(T1  D=6 CR=0 - ZMIN=14.536 - flat end mill)
G90 G94
G17
G21
G28 G91 Z0
G90

(Face1)
T1
S18000 M3
G54
G0 X86.4 Y-81.53
Z36
Z26
G1 Z21.136 F1500
G18 G3 X85.8 Z20.536 I-0.6 K0
G1 X82.5
X-82.5 F2000
G17 G2 X-82.5 Y-77.6 I0 J1.965
G1 X82.5
G3 X82.5 Y-73.669 I0 J1.965
G1 X-82.5
G2 X-82.5 Y-69.739 I0 J1.965
G1 X82.5
G3 X82.5 Y-65.809 I0 J1.965
G1 X-82.5
G2 X-82.5 Y-61.879 I0 J1.965
G1 X82.5
G3 X82.5 Y-57.948 I0 J1.965
G1 X-82.5
G2 X-82.5 Y-54.018 I0 J1.965
G1 X82.5
G3 X82.5 Y-50.088 I0 J1.965
G1 X-82.5
G2 X-82.5 Y-46.158 I0 J1.965
G1 X82.5
G3 X82.5 Y-42.227 I0 J1.965
G1 X-82.5
G2 X-82.5 Y-38.297 I0 J1.965
G1 X82.5
G3 X82.5 Y-34.367 I0 J1.965
G1 X-82.5
G2 X-82.5 Y-30.437 I0 J1.965
G1 X82.5
G3 X82.5 Y-26.506 I0 J1.965
G1 X-82.5
G2 X-82.5 Y-22.576 I0 J1.965
G1 X82.5
G3 X82.5 Y-18.646 I0 J1.965
G1 X-82.5
G2 X-82.5 Y-14.716 I0 J1.965
G1 X82.5
G3 X82.5 Y-10.785 I0 J1.965
G1 X-82.5
G2 X-82.5 Y-6.855 I0 J1.965
G1 X82.5
G3 X82.5 Y-2.925 I0 J1.965
G1 X-82.5
G2 X-82.5 Y1.005 I0 J1.965
G1 X82.5
G3 X82.5 Y4.935 I0 J1.965
G1 X-82.5
G2 X-82.5 Y8.866 I0 J1.965
G1 X82.5
G3 X82.5 Y12.796 I0 J1.965
G1 X-82.5
G2 X-82.5 Y16.726 I0 J1.965
G1 X82.5
G3 X82.5 Y20.656 I0 J1.965
G1 X-82.5
G2 X-82.5 Y24.587 I0 J1.965
G1 X82.5
G3 X82.5 Y28.517 I0 J1.965
G1 X-82.5
G2 X-82.5 Y32.447 I0 J1.965
G1 X82.5
G3 X82.5 Y36.377 I0 J1.965
G1 X-82.5
G2 X-82.5 Y40.308 I0 J1.965
G1 X82.5
G3 X82.5 Y44.238 I0 J1.965
G1 X-82.5
G2 X-82.5 Y48.168 I0 J1.965
G1 X82.5
G3 X82.5 Y52.098 I0 J1.965
G1 X-82.5
G2 X-82.5 Y56.029 I0 J1.965
G1 X82.5
G3 X82.5 Y59.959 I0 J1.965
G1 X-82.5
G2 X-82.5 Y63.889 I0 J1.965
G1 X82.5
G3 X82.5 Y67.819 I0 J1.965
G1 X-82.5
G2 X-82.5 Y71.75 I0 J1.965
G1 X82.5
G3 X82.5 Y75.68 I0 J1.965
G1 X-82.5
G2 X-82.5 Y79.61 I0 J1.965
G1 X82.5
G18 G2 X83.1 Z21.136 I0 K0.6 F1500
G0 Z26
X86.4 Y-81.53
G1 Z18.136 F1500
G3 X85.8 Z17.536 I-0.6 K0
G1 X82.5
X-82.5 F2000
G17 G2 X-82.5 Y-77.6 I0 J1.965
G1 X82.5
G3 X82.5 Y-73.669 I0 J1.965
G1 X-82.5
G2 X-82.5 Y-69.739 I0 J1.965
G1 X82.5
G3 X82.5 Y-65.809 I0 J1.965
G1 X-82.5
G2 X-82.5 Y-61.879 I0 J1.965
G1 X82.5
G3 X82.5 Y-57.948 I0 J1.965
G1 X-82.5
G2 X-82.5 Y-54.018 I0 J1.965
G1 X82.5
G3 X82.5 Y-50.088 I0 J1.965
G1 X-82.5
G2 X-82.5 Y-46.158 I0 J1.965
G1 X82.5
G3 X82.5 Y-42.227 I0 J1.965
G1 X-82.5
G2 X-82.5 Y-38.297 I0 J1.965
G1 X82.5
G3 X82.5 Y-34.367 I0 J1.965
G1 X-82.5
G2 X-82.5 Y-30.437 I0 J1.965
G1 X82.5
G3 X82.5 Y-26.506 I0 J1.965
G1 X-82.5
G2 X-82.5 Y-22.576 I0 J1.965
G1 X82.5
G3 X82.5 Y-18.646 I0 J1.965
G1 X-82.5
G2 X-82.5 Y-14.716 I0 J1.965
G1 X82.5
G3 X82.5 Y-10.785 I0 J1.965
G1 X-82.5
G2 X-82.5 Y-6.855 I0 J1.965
G1 X82.5
G3 X82.5 Y-2.925 I0 J1.965
G1 X-82.5
G2 X-82.5 Y1.005 I0 J1.965
G1 X82.5
G3 X82.5 Y4.935 I0 J1.965
G1 X-82.5
G2 X-82.5 Y8.866 I0 J1.965
G1 X82.5
G3 X82.5 Y12.796 I0 J1.965
G1 X-82.5
G2 X-82.5 Y16.726 I0 J1.965
G1 X82.5
G3 X82.5 Y20.656 I0 J1.965
G1 X-82.5
G2 X-82.5 Y24.587 I0 J1.965
G1 X82.5
G3 X82.5 Y28.517 I0 J1.965
G1 X-82.5
G2 X-82.5 Y32.447 I0 J1.965
G1 X82.5
G3 X82.5 Y36.377 I0 J1.965
G1 X-82.5
G2 X-82.5 Y40.308 I0 J1.965
G1 X82.5
G3 X82.5 Y44.238 I0 J1.965
G1 X-82.5
G2 X-82.5 Y48.168 I0 J1.965
G1 X82.5
G3 X82.5 Y52.098 I0 J1.965
G1 X-82.5
G2 X-82.5 Y56.029 I0 J1.965
G1 X82.5
G3 X82.5 Y59.959 I0 J1.965
G1 X-82.5
G2 X-82.5 Y63.889 I0 J1.965
G1 X82.5
G3 X82.5 Y67.819 I0 J1.965
G1 X-82.5
G2 X-82.5 Y71.75 I0 J1.965
G1 X82.5
G3 X82.5 Y75.68 I0 J1.965
G1 X-82.5
G2 X-82.5 Y79.61 I0 J1.965
G1 X82.5
G18 G2 X83.1 Z18.136 I0 K0.6 F1500
G0 Z26
X86.4 Y-81.53
G1 Z15.136 F1500
G3 X85.8 Z14.536 I-0.6 K0
G1 X82.5
X-82.5 F2000
G17 G2 X-82.5 Y-77.6 I0 J1.965
G1 X82.5
G3 X82.5 Y-73.669 I0 J1.965
G1 X-82.5
G2 X-82.5 Y-69.739 I0 J1.965
G1 X82.5
G3 X82.5 Y-65.809 I0 J1.965
G1 X-82.5
G2 X-82.5 Y-61.879 I0 J1.965
G1 X82.5
G3 X82.5 Y-57.948 I0 J1.965
G1 X-82.5
G2 X-82.5 Y-54.018 I0 J1.965
G1 X82.5
G3 X82.5 Y-50.088 I0 J1.965
G1 X-82.5
G2 X-82.5 Y-46.158 I0 J1.965
G1 X82.5
G3 X82.5 Y-42.227 I0 J1.965
G1 X-82.5
G2 X-82.5 Y-38.297 I0 J1.965
G1 X82.5
G3 X82.5 Y-34.367 I0 J1.965
G1 X-82.5
G2 X-82.5 Y-30.437 I0 J1.965
G1 X82.5
G3 X82.5 Y-26.506 I0 J1.965
G1 X-82.5
G2 X-82.5 Y-22.576 I0 J1.965
G1 X82.5
G3 X82.5 Y-18.646 I0 J1.965
G1 X-82.5
G2 X-82.5 Y-14.716 I0 J1.965
G1 X82.5
G3 X82.5 Y-10.785 I0 J1.965
G1 X-82.5
G2 X-82.5 Y-6.855 I0 J1.965
G1 X82.5
G3 X82.5 Y-2.925 I0 J1.965
G1 X-82.5
G2 X-82.5 Y1.005 I0 J1.965
G1 X82.5
G3 X82.5 Y4.935 I0 J1.965
G1 X-82.5
G2 X-82.5 Y8.866 I0 J1.965
G1 X82.5
G3 X82.5 Y12.796 I0 J1.965
G1 X-82.5
G2 X-82.5 Y16.726 I0 J1.965
G1 X82.5
G3 X82.5 Y20.656 I0 J1.965
G1 X-82.5
G2 X-82.5 Y24.587 I0 J1.965
G1 X82.5
G3 X82.5 Y28.517 I0 J1.965
G1 X-82.5
G2 X-82.5 Y32.447 I0 J1.965
G1 X82.5
G3 X82.5 Y36.377 I0 J1.965
G1 X-82.5
G2 X-82.5 Y40.308 I0 J1.965
G1 X82.5
G3 X82.5 Y44.238 I0 J1.965
G1 X-82.5
G2 X-82.5 Y48.168 I0 J1.965
G1 X82.5
G3 X82.5 Y52.098 I0 J1.965
G1 X-82.5
G2 X-82.5 Y56.029 I0 J1.965
G1 X82.5
G3 X82.5 Y59.959 I0 J1.965
G1 X-82.5
G2 X-82.5 Y63.889 I0 J1.965
G1 X82.5
G3 X82.5 Y67.819 I0 J1.965
G1 X-82.5
G2 X-82.5 Y71.75 I0 J1.965
G1 X82.5
G3 X82.5 Y75.68 I0 J1.965
G1 X-82.5
G2 X-82.5 Y79.61 I0 J1.965
G1 X82.5
G18 G2 X83.1 Z15.136 I0 K0.6 F1500
G0 Z36
G17
G28 G91 Z0
G90
G28 G91 X0 Y0
G90
M5
M30
