(afr2_adap2)
(T2  D=2.5 CR=0 - ZMIN=0 - flat end mill)
G90 G94
G17
G21
G28 G91 Z0
G90

(Adaptive2 2)
T2
S18000 M3
G54
M8
G0 X14.173 Y-18.293
Z36
Z26
Z14.57
G1 Z14.32 F1500
X14.174 Y-18.287 Z14.264
X14.179 Y-18.269 Z14.212
X14.186 Y-18.241 Z14.164
X14.196 Y-18.202 Z14.125
X14.208 Y-18.156 Z14.095
X14.221 Y-18.105 Z14.076
X14.235 Y-18.051 Z14.07
G3 X14.458 Y-16.496 I-7.063 J1.809
G1 Y-16.461 F2000
X14.468 Y-16.427
X14.775 Y-15.948
X15.132 Y-15.505
X15.186 Y-15.374
X15.236 Y-15.232
X15.278 Y-15.088
X15.313 Y-14.942
X15.341 Y-14.795
X15.362 Y-14.647
X15.378 Y-14.498
X15.389 Y-14.348
X15.396 Y-14.198
X15.399 Y-14.045
X15.398 Y-13.832
G3 X15.136 Y-13.594 I-0.25 J-0.011 F1500
X14.898 Y-13.855 I0.011 J-0.25
G1 X14.899 Y-13.871 F2000
X14.983 Y-14.65
X15.04 Y-15.173 F1500
X15.051 Y-15.223
X15.072 Y-15.271
X15.102 Y-15.313
X15.141 Y-15.348
X15.186 Y-15.374
X15.221 Y-15.388 F2000
X15.336 Y-15.485
X15.462 Y-15.567
X15.602 Y-15.62
X15.749 Y-15.648
X15.899 Y-15.652
X16.048 Y-15.635
X16.194 Y-15.598
X16.334 Y-15.544
X16.467 Y-15.474
X16.591 Y-15.391
X16.707 Y-15.296
X16.814 Y-15.19
X16.863 Y-15.133
X16.907 Y-15.076
X16.936 Y-15.054
X17.069 Y-15.005
X17.351 Y-14.966
X17.492 Y-14.984
X17.627 Y-15.03
X17.754 Y-15.093
X17.876 Y-15.166
X17.973 Y-15.269
X18.043 Y-15.393
X18.087 Y-15.528
X18.104 Y-15.67
X18.097 Y-15.811
G3 X18.597 Y-15.821 I0.25 J-0.005 F1500
G1 X18.598 Y-15.765 Z14.076
X18.599 Y-15.713 Z14.095
Y-15.665 Z14.125
X18.6 Y-15.626 Z14.164
X18.601 Y-15.596 Z14.212
Y-15.577 Z14.264
Y-15.571 Z14.32
G0 Z26
X36.519 Y2.509
Z14.57
G1 Z14.32 F1500
X36.52 Y2.515 Z14.264
X36.525 Y2.533 Z14.212
X36.532 Y2.562 Z14.164
X36.542 Y2.6 Z14.125
X36.554 Y2.646 Z14.095
X36.567 Y2.697 Z14.076
X36.581 Y2.751 Z14.07
G3 X36.804 Y4.306 I-7.063 J1.809
G1 Y4.413 F2000
X36.814 Y4.447
X37.121 Y4.925
X37.315 Y5.148
X37.524 Y5.531
X37.681 Y6.077
X37.723 Y6.644
X37.696 Y7.212
X37.631 Y7.777
X37.7 Y8.342
X37.911 Y8.87
X38.173 Y9.375
X38.419 Y9.887
X38.675 Y10.395
X38.993 Y10.866
X39.33 Y11.324
X39.67 Y11.78
X39.99 Y12.25
X40.265 Y12.748
X40.461 Y13.281
X40.595 Y13.834
X40.622 Y14.402
X40.577 Y14.969
X40.439 Y15.521
X40.209 Y16.041
X39.926 Y16.534
X39.757 Y16.763
X39.637 Y17.02
X39.607 Y17.159
X39.584 Y17.3
X39.626 Y17.581
X39.733 Y17.844
X39.869 Y18.093
X40.247 Y18.519
X40.7 Y18.862
X41.172 Y19.179
X41.352 Y19.294
X41.386 Y19.304
X41.422
X41.694 Y19.222
X42.151 Y18.884
X42.606 Y18.543
X43.071 Y18.216
X43.561 Y17.926
X44.091 Y17.722
X44.64 Y17.575
X45.207 Y17.531
X45.775 Y17.568
X46.332 Y17.682
X46.858 Y17.898
X47.355 Y18.174
X47.797 Y18.532
X47.995 Y18.736
X48.098 Y18.834
X48.343 Y18.977
X48.615 Y19.061
X48.893 Y19.121
X49.458 Y19.057
X49.969 Y18.808
X50.445 Y18.496
X50.675 Y18.329
X50.774 Y18.227
X50.858 Y18.112
X50.889 Y18.048
X50.905 Y17.979
X50.875 Y17.696
X50.633 Y17.182
X50.345 Y16.692
X50.061 Y16.199
X49.858 Y15.668
X49.708 Y15.12
X49.653 Y14.554
X49.681 Y13.986
X49.787 Y13.427
X50.001 Y12.9
X50.274 Y12.401
X50.603 Y11.938
X50.961 Y11.496
X51.312 Y11.049
X51.665 Y10.603
X52.041 Y10.176
X52.294 Y9.667
X52.501 Y9.137
X52.722 Y8.613
X52.781 Y8.335
X52.819 Y7.768
X52.662 Y7.222
X52.508 Y6.674
X52.298 Y6.146
X51.979 Y5.675
X51.616 Y5.238
X51.263 Y4.792
X50.881 Y4.37
X50.464 Y3.984
X49.998 Y3.658
X49.519 Y3.352
X49.012 Y3.093
X48.481 Y2.891
X47.916 Y2.828
X47.35 Y2.881
X46.796 Y3.013
X46.24 Y3.129
X45.679 Y3.224
X45.111 Y3.231
X44.545 Y3.175
X43.983 Y3.088
X43.423 Y2.99
X42.854 Y2.98
X42.288 Y3.029
X41.724 Y3.1
X41.179 Y3.263
X40.645 Y3.459
X40.13 Y3.699
X39.667 Y4.029
X39.556 Y4.118
X39.505 Y4.167
X39.487 Y4.198
X39.455 Y4.337
X39.499 Y4.904
X39.596 Y5.464
X39.663 Y6.029
X39.686 Y6.597
X39.672 Y7.165
X39.713 Y7.732
X39.905 Y8.268
X40.132 Y8.789
X40.396 Y9.293
X40.703 Y9.771
X41.029 Y10.237
X41.353 Y10.704
X41.657 Y11.185
X41.929 Y11.684
X42.161 Y12.203
X42.344 Y12.742
X42.477 Y13.294
X42.555 Y13.858
X42.573 Y14.426
X42.538 Y14.994
X42.449 Y15.555
X42.411 Y15.692
X42.369 Y15.828
X42.196 Y16.37
X42.082 Y16.63
X42.021 Y16.759
X41.958 Y16.886
G0 Z26
X51.937 Y18.044
Z14.57
G1 Z14.32 F1500
X51.931 Z14.264
X51.913 Z14.212
X51.883 Y18.045 Z14.164
X51.843 Z14.125
X51.796 Y18.046 Z14.095
X51.743 Y18.047 Z14.076
X51.687 Y18.049 Z14.07
G3 X50.905 Y17.979 I-0.071 J-3.645
G1 X50.663 Y17.922 F2000
X50.095 Y17.953
X49.946 Y17.971
X49.796 Y17.972
X49.647 Y17.957
X49.5 Y17.927
X49.356 Y17.884
X49.217 Y17.829
X49.082 Y17.762
X48.954 Y17.684
X48.832 Y17.597
X48.716 Y17.502
X48.607 Y17.399
X48.504 Y17.29
X48.406 Y17.176
X48.315 Y17.057
X48.23 Y16.933
X48.151 Y16.806
X48.077 Y16.675
X48.008 Y16.542
X47.943 Y16.407
X47.884 Y16.269
X47.831 Y16.129
X47.783 Y15.987
X47.739 Y15.843
X47.7 Y15.698
X47.665 Y15.553
X47.634 Y15.406
X47.609 Y15.258
X47.588 Y15.11
X47.571 Y14.96
X47.558 Y14.806
X47.549 Y14.656
X47.543 Y14.506
X47.542 Y14.356
X47.546 Y14.206
X47.553 Y14.055
X47.565 Y13.887
X47.579 Y13.738
X47.598 Y13.589
X47.621 Y13.441
X47.65 Y13.294
X47.683 Y13.147
X47.719 Y13.002
X47.759 Y12.857
X47.802 Y12.713
X47.85 Y12.571
X47.901 Y12.43
X47.961 Y12.278
X48.027 Y12.12
X48.088 Y11.983
X48.153 Y11.848
X48.221 Y11.715
X48.302 Y11.566
X48.394 Y11.403
X48.471 Y11.275
X48.563 Y11.129
X48.677 Y10.956
X48.846 Y10.711
X49.139 Y10.308
X49.483 Y9.855
X49.692 Y9.59
X50.052 Y9.15
X50.323 Y8.65
X50.439 Y8.39
X50.494 Y8.112
X50.473 Y7.828
X50.418 Y7.549
X50.213 Y7.019
X49.874 Y6.562
X49.512 Y6.123
X49.103 Y5.729
X48.642 Y5.396
X48.392 Y5.26
X48.128 Y5.156
X47.561 Y5.11
X47.001 Y5.206
X46.654 Y5.267
X46.506 Y5.29
X46.334 Y5.312
X46.126 Y5.335
X45.917 Y5.353
X45.767 Y5.362
X45.615 Y5.368
X45.438 Y5.371
X45.225 Y5.37
X45.049 Y5.366
X44.855 Y5.356
X44.614 Y5.339
X44.345 Y5.314
X44.014 Y5.275
X43.45 Y5.197
X42.882 Y5.188
X42.315 Y5.235
X42.178 Y5.273
X42.042 Y5.314
X41.907 Y5.358
X41.84 Y5.382
X41.811 Y5.403
X41.79 Y5.432
X41.777 Y5.465
X41.729 Y6.031
X41.751 Y6.18
X41.817 Y6.745
X41.911 Y7.305
X42.119 Y7.834
X42.391 Y8.334
X42.701 Y8.81
X43.021 Y9.28
X43.175 Y9.519
X43.356 Y9.809
X43.499 Y10.051
X43.606 Y10.243
X43.739 Y10.492
X43.836 Y10.684
X43.912 Y10.842
X43.999 Y11.035
X44.098 Y11.268
X44.156 Y11.415
X44.216 Y11.573
X44.282 Y11.765
X44.356 Y11.991
X44.399 Y12.135
X44.441 Y12.287
X44.486 Y12.468
X44.537 Y12.69
X44.57 Y12.848
X44.597 Y12.996
X44.623 Y13.159
X44.649 Y13.353
X44.672 Y13.557
X44.686 Y13.707
X44.697 Y13.867
X44.706 Y14.056
X44.711 Y14.279
Y14.429
X44.708 Y14.582
X44.7 Y14.761
X44.686 Y14.978
X44.664 Y15.215
X44.646 Y15.364
X44.625 Y15.512
X44.6 Y15.66
X44.568 Y15.828
X44.525 Y16.029
X44.492 Y16.167
G3 X44.01 Y16.034 I-0.241 J-0.066 F1500
G1 X44.024 Y15.981 Z14.076
X44.038 Y15.93 Z14.095
X44.051 Y15.884 Z14.125
X44.061 Y15.846 Z14.164
X44.069 Y15.817 Z14.212
X44.074 Y15.799 Z14.264
X44.076 Y15.793 Z14.32
G0 Z26
X48.752 Y15.706
Z14.57
G1 Z14.32 F1500
X48.747 Y15.71 Z14.264
X48.732 Y15.721 Z14.212
X48.708 Y15.739 Z14.164
X48.677 Y15.764 Z14.125
X48.64 Y15.793 Z14.095
X48.598 Y15.825 Z14.076
X48.554 Y15.859 Z14.07
G3 X47.884 Y16.269 I-2.228 J-2.885
G1 X47.845 Y16.286 F2000
X47.735 Y16.388
X47.613 Y16.474
X47.475 Y16.534
X47.329 Y16.569
X47.18 Y16.581
X47.03 Y16.572
X46.883 Y16.544
X46.74 Y16.499
X46.602 Y16.438
X46.472 Y16.363
X46.35 Y16.276
X46.236 Y16.179
X46.131 Y16.072
X46.035 Y15.957
X45.947 Y15.835
X45.868 Y15.708
X45.797 Y15.575
X45.735 Y15.439
X45.679 Y15.3
X45.632 Y15.157
X45.591 Y15.013
X45.557 Y14.867
X45.528 Y14.72
X45.506 Y14.571
X45.489 Y14.422
X45.476 Y14.273
X45.469 Y14.123
X45.466 Y13.973
X45.468 Y13.823
X45.473 Y13.673
X45.483 Y13.524
X45.497 Y13.374
X45.515 Y13.225
X45.536 Y13.077
X45.56 Y12.929
X45.588 Y12.78
X45.62 Y12.633
X45.655 Y12.482
X45.696 Y12.325
X45.742 Y12.161
X45.792 Y11.997
X45.846 Y11.834
X45.904 Y11.671
X45.966 Y11.508
X46.034 Y11.34
X46.107 Y11.17
X46.187 Y10.996
X46.271 Y10.823
X46.361 Y10.647
X46.46 Y10.463
X46.572 Y10.266
X46.695 Y10.062
X46.853 Y9.811
X47.03 Y9.543
X47.271 Y9.195
X47.536 Y8.83
X47.88 Y8.378
X47.963 Y8.262
X48.002 Y8.203
X48.013 Y8.17
X48.014 Y8.134
X47.938 Y7.86
X47.779 Y7.625
X47.751 Y7.602
X47.622 Y7.544
X47.062 Y7.445
X46.495 Y7.492
X46.17 Y7.513
X45.865 Y7.527
X45.592 Y7.533
X45.317 Y7.532
X45.04 Y7.526
X44.896 Y7.52
X44.509 Y7.497
X44.159 Y7.468
X43.876 Y7.438
X43.735 Y7.426
G3 X43.794 Y6.93 I0.029 J-0.248 F1500
G1 X43.849 Y6.937 Z14.076
X43.901 Y6.943 Z14.095
X43.948 Y6.948 Z14.125
X43.988 Y6.953 Z14.164
X44.017 Y6.956 Z14.212
X44.036 Y6.959 Z14.264
X44.042 Z14.32
G0 Z26
X47.112 Y11.414
Z14.57
G1 Z14.32 F1500
X47.106 Y11.413 Z14.264
X47.088 Y11.41 Z14.212
X47.058 Y11.406 Z14.164
X47.019 Y11.399 Z14.125
X46.973 Y11.392 Z14.095
X46.92 Y11.384 Z14.076
X46.865 Y11.375 Z14.07
G3 X46.107 Y11.17 I0.569 J-3.601
G1 X46.064 Y11.151 F2000
X45.914 Y11.147
X45.766 Y11.123
X45.625 Y11.07
X45.496 Y10.994
X45.379 Y10.9
X45.276 Y10.791
X45.188 Y10.67
X45.113 Y10.54
X45.054 Y10.402
X45.008 Y10.259
X44.975 Y10.113
X44.955 Y9.964
X44.947 Y9.814
X44.95 Y9.664
X44.963 Y9.515
X44.985 Y9.367
G3 X45.476 Y9.458 I0.246 J0.046 F1500
G1 X45.466 Y9.512 Z14.076
X45.457 Y9.564 Z14.095
X45.448 Y9.611 Z14.125
X45.441 Y9.65 Z14.164
X45.435 Y9.679 Z14.212
X45.432 Y9.697 Z14.264
X45.431 Y9.703 Z14.32
G0 Z26
X-5.246 Y56.541
Z14.57
G1 Z14.32 F1500
X-5.244 Y56.547 Z14.264
X-5.24 Y56.565 Z14.212
X-5.232 Y56.594 Z14.164
X-5.223 Y56.632 Z14.125
X-5.211 Y56.678 Z14.095
X-5.198 Y56.729 Z14.076
X-5.184 Y56.783 Z14.07
G3 X-4.96 Y58.338 I-7.063 J1.809
G1 Y58.373 F2000
X-4.8 Y58.919
X-4.497 Y59.4
X-4.393 Y59.665
X-4.106 Y60.155
X-3.679 Y60.531
X-3.248 Y60.903
X-2.861 Y61.319
X-2.49 Y61.75
X-2.091 Y62.155
X-1.658 Y62.523
X-1.17 Y62.815
X-0.657 Y63.061
X-0.137 Y63.291
X0.386 Y63.513
X0.919 Y63.712
X1.457 Y63.896
X1.997 Y64.073
X2.539 Y64.248
X3.622 Y64.595
X4.173 Y64.733
X4.74 Y64.778
X5.308 Y64.794
X5.877 Y64.802
X6.446 Y64.805
X7.013 Y64.774
X7.58 Y64.729
X8.14 Y64.631
X8.681 Y64.456
X9.18 Y64.183
X9.667 Y63.89
X10.15 Y63.59
X10.631 Y63.287
X11.112 Y62.983
X11.568 Y62.644
X12.004 Y62.278
X12.419 Y61.889
X12.825 Y61.491
X13.223 Y61.085
X13.352 Y60.915
X13.394 Y60.858
X13.407 Y60.825
X13.409 Y60.79
X13.401 Y60.755
X13.264 Y60.506
X12.837 Y60.131
X12.422 Y59.741
X11.972 Y59.394
X11.511 Y59.062
X11.099 Y58.67
X10.735 Y58.233
X10.436 Y57.749
X10.224 Y57.222
X10.068 Y56.675
X9.949 Y56.119
X9.847 Y55.559
X9.752 Y54.999
X9.696 Y54.433
X9.704 Y53.864
X9.764 Y53.299
X9.879 Y52.742
X10.036 Y52.196
X10.032 Y51.627
X9.854 Y51.087
X9.703 Y50.539
X9.579 Y49.984
X9.446 Y49.431
X9.222 Y48.909
X9.009 Y48.381
X8.806 Y47.85
X8.616 Y47.314
X8.424 Y46.779
X8.194 Y46.259
X8.171 Y46.232
X8.053 Y46.153
X7.508 Y45.991
X6.954 Y45.861
X6.402 Y45.723
X5.878 Y45.503
X5.379 Y45.231
X4.878 Y44.962
X4.354 Y44.741
X3.837 Y44.503
X3.31 Y44.29
X2.761 Y44.142
X2.201 Y44.046
X1.782 Y43.968
X1.642 Y43.941
X1.501 Y43.92
X1.395 Y43.907
X1.361 Y43.914
X1.329 Y43.93
X1.303 Y43.954
X1.23 Y44.076
X1.12 Y44.634
X0.938 Y45.173
X0.705 Y45.691
X0.441 Y46.195
X0.162 Y46.691
X0.018 Y47.241
X-0.091 Y47.799
X-0.203 Y48.356
X-0.22 Y48.497
X-0.244 Y48.645
X-0.274 Y48.792
X-0.31 Y48.938
X-0.351 Y49.083
X-0.402 Y49.251
X-0.468 Y49.452
X-0.558 Y49.706
X-0.76 Y50.237
X-0.792 Y50.805
X-0.711 Y51.368
X-0.686 Y51.508
X-0.663 Y51.656
X-0.644 Y51.805
X-0.63 Y51.954
X-0.622 Y52.104
X-0.62 Y52.254
X-0.622 Y52.404
X-0.628 Y52.554
X-0.638 Y52.722
X-0.655 Y52.923
X-0.682 Y53.175
X-0.755 Y53.739
X-0.8 Y54.305
X-0.801 Y54.806
X-0.804 Y54.956
X-0.812 Y55.105
X-0.824 Y55.256
X-0.841 Y55.43
X-0.867 Y55.641
X-0.895 Y55.831
X-0.919 Y55.979
X-0.949 Y56.126
X-0.985 Y56.271
X-1.027 Y56.415
X-1.076 Y56.557
X-1.13 Y56.697
X-1.188 Y56.835
X-1.251 Y56.972
X-1.317 Y57.106
X-1.387 Y57.239
X-1.46 Y57.37
X-1.537 Y57.499
X-1.62 Y57.624
X-1.706 Y57.746
X-1.796 Y57.866
X-2.149 Y58.313
X-2.302 Y58.509
X-2.315 Y58.542
X-2.318 Y58.577
X-2.311 Y58.612
X-2.18 Y58.864
X-1.788 Y59.276
X-1.452 Y59.636
X-1.074 Y60.061
X-0.677 Y60.468
X-0.224 Y60.812
X0.28 Y61.075
X0.797 Y61.312
X1.323 Y61.527
X1.857 Y61.723
X2.395 Y61.906
X2.935 Y62.084
X3.476 Y62.259
X4.018 Y62.431
X4.574 Y62.551
X5.141 Y62.596
X5.709 Y62.614
X6.278 Y62.617
X6.846 Y62.591
X7.411 Y62.53
X7.947 Y62.338
X8.446 Y62.066
X8.933 Y61.773
X9.416 Y61.473
X9.89 Y61.159
X10.003 Y61.072
X10.115 Y60.985
X10.335 Y60.805
X10.47 Y60.689
X10.496 Y60.665
X10.515 Y60.635
X10.525 Y60.601
Y60.566
X10.514 Y60.532
X10.495 Y60.502
X10.062 Y60.133
X9.926 Y60.069
X9.795 Y59.996
X9.669 Y59.916
X9.547 Y59.828
X9.43 Y59.734
X9.318 Y59.634
X9.21 Y59.53
X9.106 Y59.422
X9.008 Y59.309
X8.915 Y59.191
X8.827 Y59.069
X8.743 Y58.945
X8.663 Y58.818
X8.587 Y58.689
X8.516 Y58.557
X8.449 Y58.423
X8.385 Y58.287
X8.323 Y58.144
X8.266 Y58.005
X8.212 Y57.865
X8.159 Y57.714
X8.1 Y57.536
X8.04 Y57.34
X7.982 Y57.134
X7.914 Y56.869
X7.84 Y56.555
X7.752 Y56.139
X7.709 Y55.915
X7.662 Y55.627
X7.624 Y55.362
X7.605 Y55.207
X7.587 Y55.024
X7.57 Y54.8
X7.558 Y54.594
X7.553 Y54.443
X7.552 Y54.268
X7.554 Y54.056
X7.561 Y53.845
X7.57 Y53.695
X7.583 Y53.529
X7.603 Y53.331
X7.63 Y53.111
X7.653 Y52.956
X7.683 Y52.778
X7.79 Y52.22
X7.72 Y51.656
X7.595 Y51.101
X7.469 Y50.546
X7.296 Y50.005
X7.094 Y49.473
X6.89 Y48.942
X6.658 Y48.308
X6.637 Y48.28
X6.186 Y47.934
X5.904 Y47.837
X5.693 Y47.759
X5.538 Y47.698
X5.354 Y47.621
X5.126 Y47.519
X4.787 Y47.359
X4.278 Y47.105
X3.762 Y46.866
X3.245 Y46.63
X3.114 Y46.576
X2.981 Y46.526
X2.847 Y46.478
X2.745 Y46.446
X2.711 Y46.435
X2.676
X2.642 Y46.445
X2.612 Y46.464
X2.588 Y46.491
X2.349 Y47.007
X2.196 Y47.555
X2.075 Y48.11
X1.968 Y48.669
X1.916 Y48.92
X1.86 Y49.163
X1.797 Y49.406
X1.726 Y49.664
X1.642 Y49.939
X1.466 Y50.48
X1.476 Y51.048
X1.504 Y51.373
X1.52 Y51.611
X1.529 Y51.834
X1.534 Y52.054
X1.533 Y52.281
X1.527 Y52.521
X1.516 Y52.764
X1.495 Y53.084
X1.443 Y53.65
X1.398 Y54.217
X1.385 Y54.661
X1.369 Y54.978
X1.347 Y55.275
X1.322 Y55.532
X1.297 Y55.747
X1.27 Y55.94
X1.243 Y56.104
X1.214 Y56.258
X1.182 Y56.412
X1.148 Y56.558
X1.111 Y56.703
X1.07 Y56.849
X1.026 Y56.995
X0.979 Y57.139
X0.926 Y57.289
X0.868 Y57.441
X0.807 Y57.594
X0.747 Y57.734
X0.683 Y57.874
X0.616 Y58.013
X0.548 Y58.146
X0.477 Y58.279
X0.459 Y58.31
X0.451 Y58.345
X0.453 Y58.38
X0.465 Y58.414
X0.631 Y58.644
X1.078 Y58.995
X1.583 Y59.257
X2.107 Y59.479
X2.639 Y59.678
X3.177 Y59.864
X3.716 Y60.043
X4.257 Y60.218
X4.81 Y60.352
X5.376 Y60.407
X5.944 Y60.427
X6.513 Y60.415
X6.651 Y60.384
X6.788 Y60.344
X7.056 Y60.25
X7.315 Y60.134
X7.347 Y60.117
X7.373 Y60.093
X7.391 Y60.062
X7.399 Y60.028
X7.398 Y59.992
X7.386 Y59.959
X7.059 Y59.494
X6.945 Y59.397
X6.836 Y59.293
X6.735 Y59.183
X6.639 Y59.067
X6.549 Y58.947
X6.466 Y58.822
X6.387 Y58.695
X6.314 Y58.564
X6.245 Y58.43
X6.181 Y58.295
X6.121 Y58.158
X6.064 Y58.019
X6.011 Y57.877
X5.958 Y57.727
X5.899 Y57.549
X5.839 Y57.351
X5.779 Y57.138
X5.722 Y56.915
X5.666 Y56.672
X5.611 Y56.412
X5.565 Y56.167
X5.525 Y55.924
X5.49 Y55.675
X5.46 Y55.424
X5.437 Y55.186
X5.419 Y54.952
X5.407 Y54.711
X5.399 Y54.466
X5.397 Y54.236
X5.4 Y54.007
X5.408 Y53.775
X5.422 Y53.534
X5.441 Y53.303
X5.464 Y53.073
X5.535 Y52.509
X5.515 Y51.941
X5.413 Y51.381
X5.258 Y50.834
X5.068 Y50.298
X5.006 Y50.132
X4.921 Y50.018
X4.48 Y49.659
X4.228 Y49.528
X3.722 Y49.268
X3.69 Y49.252
X3.655 Y49.246
X3.62 Y49.251
X3.587 Y49.264
X3.56 Y49.287
X3.54 Y49.316
X3.529 Y49.35
X3.513 Y49.919
X3.543 Y50.108
X3.59 Y50.462
X3.627 Y50.795
X3.655 Y51.107
X3.675 Y51.406
X3.688 Y51.697
X3.695 Y51.987
Y52.277
X3.688 Y52.592
X3.67 Y53.01
X3.632 Y53.578
X3.591 Y54.145
X3.564 Y54.713
X3.536 Y55.15
X3.507 Y55.481
X3.475 Y55.774
X3.441 Y56.03
X3.405 Y56.268
X3.365 Y56.494
X3.321 Y56.712
X3.274 Y56.924
X3.223 Y57.131
X3.196 Y57.234
X3.139 Y57.437
X3.107 Y57.538
Y57.574
X3.116 Y57.608
X3.135 Y57.638
X3.161 Y57.662
X3.674 Y57.908
X3.822 Y57.928
X3.975 Y57.954
X4.331 Y58.02
X4.47 Y58.049
X4.609 Y58.077
G3 X4.795 Y58.378 I-0.058 J0.243 F1500
X4.494 Y58.564 I-0.243 J-0.058
G1 X4.44 Y58.551 Z14.076
X4.388 Y58.539 Z14.095
X4.342 Y58.528 Z14.125
X4.304 Y58.519 Z14.164
X4.275 Y58.512 Z14.212
X4.257 Y58.507 Z14.264
X4.251 Y58.506 Z14.32
G0 Z26
X-43.2 Y25.681
Z14.57
G1 Z14.32 F1500
X-43.198 Y25.687 Z14.264
X-43.194 Y25.705 Z14.212
X-43.186 Y25.734 Z14.164
X-43.177 Y25.772 Z14.125
X-43.165 Y25.818 Z14.095
X-43.152 Y25.869 Z14.076
X-43.138 Y25.923 Z14.07
G3 X-42.914 Y27.478 I-7.063 J1.809
G1 Y27.584 F2000
X-42.904 Y27.619
X-42.597 Y28.097
X-42.495 Y28.207
X-42.404 Y28.326
X-42.326 Y28.454
X-42.259 Y28.589
X-42.205 Y28.728
X-42.161 Y28.872
X-42.127 Y29.018
X-42.103 Y29.166
X-42.082 Y29.315
X-42.019 Y29.88
X-41.803 Y30.759
X-41.727 Y31.1
X-41.697 Y31.247
X-41.67 Y31.404
X-41.642 Y31.59
X-41.569 Y32.154
X-41.387 Y32.692
X-41.036 Y33.31
X-40.899 Y33.559
X-40.862 Y33.62
X-40.46 Y34.022
X-40.309 Y34.102
X-40.131 Y34.202
X-39.908 Y34.333
X-39.781 Y34.412
X-39.655 Y34.494
X-39.532 Y34.58
X-39.412 Y34.67
X-39.296 Y34.764
X-39.182 Y34.862
X-39.07 Y34.962
X-38.944 Y35.081
X-38.742 Y35.281
X-38.254 Y35.573
X-37.713 Y35.725
X-37.569 Y35.768
X-37.427 Y35.816
X-37.287 Y35.868
X-37.135 Y35.928
X-36.957 Y36.003
X-36.848 Y36.052
X-36.719 Y36.112
X-36.44 Y36.167
X-35.872 Y36.129
X-35.591 Y36.085
X-35.393 Y36.057
X-34.828 Y35.99
X-34.27 Y35.886
X-33.945 Y35.818
X-33.798 Y35.79
X-33.65 Y35.766
X-33.501 Y35.747
X-33.352 Y35.731
X-33.182 Y35.717
X-32.614 Y35.683
X-32.074 Y35.505
X-31.937 Y35.433
X-31.78 Y35.355
X-31.588 Y35.265
X-31.342 Y35.156
X-30.993 Y35.011
X-30.463 Y34.804
X-30.018 Y34.451
X-29.821 Y34.245
X-29.573 Y33.734
X-29.421 Y33.186
X-29.275 Y32.636
X-29.268 Y32.494
X-29.256 Y32.345
X-29.239 Y32.171
X-29.214 Y31.962
X-29.176 Y31.698
X-29.141 Y31.484
X-29.112 Y31.335
X-29.076 Y31.163
X-29.027 Y30.956
X-28.96 Y30.693
X-28.856 Y30.326
X-28.69 Y29.782
X-28.624 Y29.506
X-28.611 Y29.364
X-28.628 Y29.223
X-28.726 Y28.956
X-28.812 Y28.843
X-29.029 Y28.659
X-29.539 Y28.408
X-30.074 Y28.216
X-30.345 Y28.13
X-30.624 Y28.077
X-31.193 Y28.099
X-31.748 Y28.218
X-32.159 Y28.299
X-32.307 Y28.325
X-32.455 Y28.346
X-32.605 Y28.362
X-32.754 Y28.371
X-32.904 Y28.375
X-33.054 Y28.373
X-33.204 Y28.367
X-33.355 Y28.358
X-33.531 Y28.343
X-33.68 Y28.326
X-33.829 Y28.306
X-33.977 Y28.282
X-34.131 Y28.252
X-34.311 Y28.214
X-34.529 Y28.162
X-34.812 Y28.089
X-35.222 Y27.973
X-35.54 Y27.875
X-35.696 Y27.823
X-35.837 Y27.773
X-35.977 Y27.717
X-36.114 Y27.657
X-36.249 Y27.592
X-36.383 Y27.524
X-36.534 Y27.443
X-36.713 Y27.342
X-36.842 Y27.265
X-36.968 Y27.183
X-37.09 Y27.097
X-37.209 Y27.005
X-37.323 Y26.907
X-37.432 Y26.805
X-37.538 Y26.699
X-37.64 Y26.589
X-37.739 Y26.476
X-37.838 Y26.358
X-37.95 Y26.218
X-38.047 Y26.091
X-38.093 Y26.029
X-38.34 Y25.681
X-38.434 Y25.575
X-38.532 Y25.471
X-38.563 Y25.454
X-38.597 Y25.445
X-38.633 Y25.447
X-38.666 Y25.459
X-38.695 Y25.48
X-38.717 Y25.507
X-38.928 Y26.035
X-38.939 Y26.185
X-38.959 Y26.334
X-38.988 Y26.481
X-39.026 Y26.626
X-39.073 Y26.768
X-39.129 Y26.908
X-39.195 Y27.042
X-39.27 Y27.173
X-39.352 Y27.298
X-39.441 Y27.419
X-39.535 Y27.535
X-39.635 Y27.647
X-39.739 Y27.755
X-39.847 Y27.859
X-39.958 Y27.96
X-40.039 Y28.029
X-40.059 Y28.059
X-40.07 Y28.093
X-40.085 Y28.661
X-39.942 Y29.211
X-39.804 Y29.763
X-39.704 Y30.18
X-39.641 Y30.475
X-39.581 Y30.788
X-39.486 Y31.348
X-39.301 Y31.886
X-38.946 Y32.33
X-38.639 Y32.545
X-38.432 Y32.696
X-38.25 Y32.836
X-38.072 Y32.979
X-37.636 Y33.344
X-37.125 Y33.593
X-36.595 Y33.799
X-36.038 Y33.913
X-35.472 Y33.864
X-34.909 Y33.779
X-34.527 Y33.709
X-34.247 Y33.664
X-33.985 Y33.628
X-33.42 Y33.564
X-32.87 Y33.423
X-32.343 Y33.209
X-32.079 Y33.102
X-31.951 Y33.04
X-31.745 Y32.845
X-31.487 Y32.337
X-31.334 Y31.41
X-31.273 Y31.085
X-31.206 Y30.766
X-31.164 Y30.592
X-31.083 Y30.256
X-31.055 Y30.153
X-31.056 Y30.117
X-31.066 Y30.083
X-31.086 Y30.054
X-31.114 Y30.031
X-31.146 Y30.017
X-31.181 Y30.013
X-31.743 Y30.104
X-31.878 Y30.169
X-32.017 Y30.226
X-32.159 Y30.275
X-32.302 Y30.317
X-32.448 Y30.353
X-32.595 Y30.382
X-32.743 Y30.406
X-32.892 Y30.424
X-33.042 Y30.437
X-33.192 Y30.445
X-33.341 Y30.449
X-33.491 Y30.448
X-33.641 Y30.444
X-33.791 Y30.435
X-33.941 Y30.423
X-34.101 Y30.407
X-34.264 Y30.386
X-34.452 Y30.358
X-34.644 Y30.326
X-34.874 Y30.281
X-35.125 Y30.226
X-35.407 Y30.159
X-35.667 Y30.09
X-35.885 Y30.028
X-36.074 Y29.969
X-36.252 Y29.909
X-36.425 Y29.847
X-36.597 Y29.781
X-36.772 Y29.709
X-36.952 Y29.63
X-37.136 Y29.545
X-37.299 Y29.465
X-37.376 Y29.425
X-37.525 Y29.346
X-37.659 Y29.271
X-37.792 Y29.193
X-37.919 Y29.114
X-38.038 Y29.036
G3 X-37.819 Y28.593 I0.144 J-0.204 F1500
G1 X-37.746 Y28.616
X-33.266 Y30.041 F2000
X-32.763 Y30.201 F1500
X-32.716 Y30.222
X-32.674 Y30.252
X-32.639 Y30.289
X-32.612 Y30.334
X-32.595 Y30.382
X-32.587 Y30.424 F2000
X-32.51 Y30.552
X-32.451 Y30.69
X-32.421 Y30.837
X-32.416 Y30.987
X-32.435 Y31.136
X-32.475 Y31.281
X-32.532 Y31.419
X-32.606 Y31.55
X-32.694 Y31.671
X-32.793 Y31.783
X-32.903 Y31.885
X-33.022 Y31.977
X-33.148 Y32.059
X-33.28 Y32.13
X-33.417 Y32.192
X-33.557 Y32.244
X-33.701 Y32.288
X-33.847 Y32.323
X-33.994 Y32.35
X-34.143 Y32.37
X-34.292 Y32.384
X-34.442 Y32.391
X-34.592 Y32.393
X-34.742 Y32.389
X-34.892 Y32.381
X-35.041 Y32.369
X-35.19 Y32.353
X-35.346 Y32.333
X-35.507 Y32.308
X-35.681 Y32.277
X-35.866 Y32.24
X-36.055 Y32.198
X-36.247 Y32.151
X-36.444 Y32.098
X-36.646 Y32.039
X-36.852 Y31.974
X-37.061 Y31.902
X-37.275 Y31.824
X-37.487 Y31.741
X-37.693 Y31.655
X-37.901 Y31.563
X-38.03 Y31.502
X-38.158 Y31.44
G0 Z26
X1.76 Y-13.494
Z14.57
G1 Z14.32 F1500
X1.762 Y-13.488 Z14.264
X1.766 Y-13.47 Z14.212
X1.774 Y-13.441 Z14.164
X1.783 Y-13.403 Z14.125
X1.795 Y-13.357 Z14.095
X1.808 Y-13.306 Z14.076
X1.822 Y-13.252 Z14.07
G3 X2.046 Y-11.697 I-7.063 J1.809
G1 Y-11.661 F2000
X2.056 Y-11.627
X2.363 Y-11.149
X2.452 Y-11.028
X2.778 Y-10.562
X3.169 Y-10.149
X3.418 Y-10.013
X3.692 Y-9.935
X3.976 Y-9.942
X4.248 Y-10.024
X4.751 Y-10.29
X4.859 Y-10.382
X4.959 Y-10.483
X5.002 Y-10.54
X5.02 Y-10.57
X5.035 Y-10.602
X5.041 Y-10.637
X5.037 Y-10.673
X4.981 Y-10.803
G3 X5.264 Y-11.139 I0.233 J-0.09 F1500
G1 X5.307 Y-11.116 Z14.075
X5.348 Y-11.095 Z14.09
X5.387 Y-11.075 Z14.113
X5.41 Y-11.043 Z14.146
X5.428 Y-11.017 Z14.187
X5.441 Y-10.998 Z14.234
X5.446 Y-10.988 Z14.276
X5.447 Y-10.984 Z14.32
G0 Z26
X-43.2 Y25.681
Z14.078
G1 Z13.828 F1500
X-43.198 Y25.687 Z13.773
X-43.194 Y25.705 Z13.72
X-43.186 Y25.734 Z13.672
X-43.177 Y25.772 Z13.633
X-43.165 Y25.818 Z13.603
X-43.152 Y25.869 Z13.585
X-43.138 Y25.923 Z13.578
G3 X-42.914 Y27.478 I-7.063 J1.809
G1 Y27.584 F2000
X-42.904 Y27.619
X-42.597 Y28.097
X-42.495 Y28.207
X-42.404 Y28.326
X-42.326 Y28.454
X-42.259 Y28.589
X-42.205 Y28.728
X-42.161 Y28.872
X-42.127 Y29.018
X-42.103 Y29.166
X-42.082 Y29.315
X-42.019 Y29.88
X-41.803 Y30.759
X-41.727 Y31.1
X-41.697 Y31.247
X-41.67 Y31.404
X-41.642 Y31.59
X-41.569 Y32.154
X-41.387 Y32.692
X-41.036 Y33.31
X-40.899 Y33.559
X-40.862 Y33.62
X-40.46 Y34.022
X-40.309 Y34.102
X-40.131 Y34.202
X-39.908 Y34.333
X-39.781 Y34.412
X-39.655 Y34.494
X-39.532 Y34.58
X-39.412 Y34.67
X-39.296 Y34.764
X-39.182 Y34.862
X-39.07 Y34.962
X-38.944 Y35.081
X-38.742 Y35.281
X-38.254 Y35.573
X-37.713 Y35.725
X-37.569 Y35.768
X-37.427 Y35.816
X-37.287 Y35.868
X-37.135 Y35.928
X-36.957 Y36.003
X-36.848 Y36.052
X-36.719 Y36.112
X-36.44 Y36.167
X-35.872 Y36.129
X-35.591 Y36.085
X-35.393 Y36.057
X-34.828 Y35.99
X-34.27 Y35.886
X-33.945 Y35.818
X-33.798 Y35.79
X-33.65 Y35.766
X-33.501 Y35.747
X-33.352 Y35.731
X-33.182 Y35.717
X-32.614 Y35.683
X-32.074 Y35.505
X-31.937 Y35.433
X-31.78 Y35.355
X-31.588 Y35.265
X-31.342 Y35.156
X-30.993 Y35.011
X-30.463 Y34.804
X-30.018 Y34.451
X-29.821 Y34.245
X-29.573 Y33.734
X-29.421 Y33.186
X-29.275 Y32.636
X-29.268 Y32.494
X-29.256 Y32.345
X-29.239 Y32.171
X-29.214 Y31.962
X-29.176 Y31.698
X-29.141 Y31.484
X-29.112 Y31.335
X-29.076 Y31.163
X-29.027 Y30.956
X-28.96 Y30.693
X-28.856 Y30.326
X-28.69 Y29.782
X-28.624 Y29.506
X-28.611 Y29.364
X-28.628 Y29.223
X-28.726 Y28.956
X-28.812 Y28.843
X-29.029 Y28.659
X-29.539 Y28.408
X-30.074 Y28.216
X-30.345 Y28.13
X-30.624 Y28.077
X-31.193 Y28.099
X-31.748 Y28.218
X-32.159 Y28.299
X-32.307 Y28.325
X-32.455 Y28.346
X-32.605 Y28.362
X-32.754 Y28.371
X-32.904 Y28.375
X-33.054 Y28.373
X-33.204 Y28.367
X-33.355 Y28.358
X-33.531 Y28.343
X-33.68 Y28.326
X-33.829 Y28.306
X-33.977 Y28.282
X-34.131 Y28.252
X-34.311 Y28.214
X-34.529 Y28.162
X-34.812 Y28.089
X-35.222 Y27.973
X-35.54 Y27.875
X-35.696 Y27.823
X-35.837 Y27.773
X-35.977 Y27.717
X-36.114 Y27.657
X-36.249 Y27.592
X-36.383 Y27.524
X-36.534 Y27.443
X-36.713 Y27.342
X-36.842 Y27.265
X-36.968 Y27.183
X-37.09 Y27.097
X-37.209 Y27.005
X-37.323 Y26.907
X-37.432 Y26.805
X-37.538 Y26.699
X-37.64 Y26.589
X-37.739 Y26.476
X-37.838 Y26.358
X-37.95 Y26.218
X-38.123 Y25.992
X-38.381 Y25.652
X-38.467 Y25.54
X-38.515 Y25.487
X-38.546 Y25.469
X-38.58 Y25.459
X-38.615 Y25.46
X-38.649 Y25.471
X-38.679 Y25.491
X-38.701 Y25.518
X-38.926 Y26.04
X-38.937 Y26.19
X-38.958 Y26.339
X-38.988 Y26.486
X-39.026 Y26.631
X-39.074 Y26.773
X-39.13 Y26.912
X-39.196 Y27.047
X-39.271 Y27.177
X-39.353 Y27.302
X-39.443 Y27.422
X-39.538 Y27.539
X-39.638 Y27.65
X-39.742 Y27.758
X-39.85 Y27.862
X-39.961 Y27.963
X-40.015 Y28.009
X-40.035 Y28.039
X-40.045 Y28.073
X-40.055 Y28.641
X-39.934 Y29.197
X-39.803 Y29.75
X-39.697 Y30.202
X-39.634 Y30.503
X-39.572 Y30.834
X-39.479 Y31.395
X-39.379 Y31.661
X-39.264 Y31.921
X-38.898 Y32.357
X-38.584 Y32.58
X-38.378 Y32.733
X-38.191 Y32.879
X-38.011 Y33.027
X-37.578 Y33.396
X-37.056 Y33.621
X-36.526 Y33.827
X-35.962 Y33.898
X-35.395 Y33.853
X-34.833 Y33.764
X-34.494 Y33.703
X-34.216 Y33.66
X-33.952 Y33.624
X-33.387 Y33.561
X-32.839 Y33.409
X-32.312 Y33.196
X-32.049 Y33.089
X-31.985 Y33.057
X-31.87 Y32.975
X-31.701 Y32.746
X-31.469 Y32.226
X-31.378 Y31.665
X-31.315 Y31.301
X-31.252 Y30.979
X-31.182 Y30.658
X-31.076 Y30.226
X-31.057 Y30.158
X-31.058 Y30.122
X-31.069 Y30.088
X-31.089 Y30.059
X-31.116 Y30.036
X-31.148 Y30.022
X-31.184 Y30.017
X-31.745 Y30.109
X-31.881 Y30.173
X-32.02 Y30.229
X-32.161 Y30.278
X-32.305 Y30.32
X-32.451 Y30.355
X-32.598 Y30.384
X-32.747 Y30.407
X-32.896 Y30.425
X-33.045 Y30.438
X-33.195 Y30.446
X-33.345 Y30.449
X-33.495
X-33.645 Y30.444
X-33.794 Y30.435
X-33.944 Y30.423
X-34.105 Y30.406
X-34.268 Y30.386
X-34.457 Y30.358
X-34.65 Y30.325
X-34.882 Y30.279
X-35.133 Y30.225
X-35.415 Y30.157
X-35.675 Y30.088
X-35.892 Y30.026
X-36.081 Y29.967
X-36.258 Y29.907
X-36.431 Y29.845
X-36.603 Y29.778
X-36.778 Y29.706
X-36.959 Y29.627
X-37.142 Y29.542
X-37.304 Y29.461
X-37.457 Y29.382
X-37.603 Y29.302
X-37.734 Y29.227
X-37.862 Y29.149
X-37.988 Y29.069
X-38.107 Y28.99
G3 X-37.883 Y28.549 I0.146 J-0.203 F1500
G1 X-37.809 Y28.573
X-33.268 Y30.04 F2000
X-32.765 Y30.203 F1500
X-32.718 Y30.224
X-32.676 Y30.253
X-32.642 Y30.291
X-32.615 Y30.335
X-32.598 Y30.384
X-32.59 Y30.425 F2000
X-32.514 Y30.554
X-32.454 Y30.692
X-32.425 Y30.839
X-32.42 Y30.989
X-32.44 Y31.138
X-32.479 Y31.283
X-32.537 Y31.421
X-32.611 Y31.552
X-32.699 Y31.673
X-32.799 Y31.785
X-32.909 Y31.887
X-33.028 Y31.978
X-33.154 Y32.06
X-33.286 Y32.131
X-33.423 Y32.193
X-33.563 Y32.245
X-33.707 Y32.288
X-33.853 Y32.323
X-34 Y32.35
X-34.149 Y32.37
X-34.298 Y32.383
X-34.448 Y32.39
X-34.598 Y32.392
X-34.748 Y32.389
X-34.898 Y32.38
X-35.047 Y32.368
X-35.197 Y32.352
X-35.353 Y32.331
X-35.514 Y32.307
X-35.688 Y32.276
X-35.873 Y32.239
X-36.062 Y32.197
X-36.253 Y32.15
X-36.451 Y32.096
X-36.653 Y32.037
X-36.858 Y31.972
X-37.068 Y31.9
X-37.282 Y31.821
X-37.486 Y31.741
X-37.698 Y31.653
X-37.905 Y31.561
X-38.034 Y31.5
X-38.161 Y31.438
G0 Z26
X-5.246 Y56.541
Z14.078
G1 Z13.828 F1500
X-5.244 Y56.547 Z13.773
X-5.24 Y56.565 Z13.72
X-5.232 Y56.594 Z13.672
X-5.223 Y56.632 Z13.633
X-5.211 Y56.678 Z13.603
X-5.198 Y56.729 Z13.585
X-5.184 Y56.783 Z13.578
G3 X-4.96 Y58.338 I-7.063 J1.809
G1 Y58.373 F2000
X-4.8 Y58.919
X-4.497 Y59.4
X-4.393 Y59.665
X-4.106 Y60.155
X-3.679 Y60.531
X-3.248 Y60.903
X-2.861 Y61.319
X-2.49 Y61.75
X-2.091 Y62.155
X-1.658 Y62.523
X-1.17 Y62.815
X-0.657 Y63.061
X-0.137 Y63.291
X0.386 Y63.513
X0.919 Y63.712
X1.457 Y63.896
X1.997 Y64.073
X2.539 Y64.248
X3.622 Y64.595
X4.173 Y64.733
X4.74 Y64.778
X5.308 Y64.794
X5.877 Y64.802
X6.446 Y64.805
X7.013 Y64.774
X7.58 Y64.729
X8.14 Y64.631
X8.681 Y64.456
X9.18 Y64.183
X9.667 Y63.89
X10.15 Y63.59
X10.631 Y63.287
X11.112 Y62.983
X11.568 Y62.644
X12.004 Y62.278
X12.419 Y61.889
X12.825 Y61.491
X13.223 Y61.085
X13.352 Y60.915
X13.394 Y60.858
X13.407 Y60.825
X13.409 Y60.79
X13.401 Y60.755
X13.264 Y60.506
X12.837 Y60.131
X12.422 Y59.741
X11.972 Y59.394
X11.511 Y59.062
X11.099 Y58.67
X10.735 Y58.233
X10.436 Y57.749
X10.224 Y57.222
X10.068 Y56.675
X9.949 Y56.119
X9.847 Y55.559
X9.752 Y54.999
X9.696 Y54.433
X9.704 Y53.864
X9.764 Y53.299
X9.879 Y52.742
X10.036 Y52.196
X10.032 Y51.627
X9.854 Y51.087
X9.703 Y50.539
X9.579 Y49.984
X9.446 Y49.431
X9.222 Y48.909
X9.009 Y48.381
X8.806 Y47.85
X8.616 Y47.314
X8.424 Y46.779
X8.194 Y46.259
X8.171 Y46.232
X8.053 Y46.153
X7.508 Y45.991
X6.954 Y45.861
X6.402 Y45.723
X5.878 Y45.503
X5.379 Y45.231
X4.878 Y44.962
X4.354 Y44.741
X3.837 Y44.503
X3.31 Y44.29
X2.761 Y44.142
X2.201 Y44.046
X1.782 Y43.968
X1.642 Y43.941
X1.501 Y43.92
X1.395 Y43.907
X1.361 Y43.914
X1.329 Y43.93
X1.303 Y43.954
X1.23 Y44.076
X1.12 Y44.634
X0.938 Y45.173
X0.705 Y45.691
X0.441 Y46.195
X0.162 Y46.691
X0.018 Y47.241
X-0.091 Y47.799
X-0.203 Y48.356
X-0.22 Y48.497
X-0.244 Y48.645
X-0.274 Y48.792
X-0.31 Y48.938
X-0.351 Y49.083
X-0.402 Y49.251
X-0.468 Y49.452
X-0.558 Y49.706
X-0.76 Y50.237
X-0.792 Y50.805
X-0.711 Y51.368
X-0.686 Y51.508
X-0.663 Y51.656
X-0.644 Y51.805
X-0.63 Y51.954
X-0.622 Y52.104
X-0.62 Y52.254
X-0.622 Y52.404
X-0.628 Y52.554
X-0.638 Y52.722
X-0.655 Y52.923
X-0.682 Y53.175
X-0.755 Y53.739
X-0.8 Y54.305
X-0.801 Y54.806
X-0.804 Y54.956
X-0.812 Y55.105
X-0.824 Y55.256
X-0.841 Y55.43
X-0.867 Y55.641
X-0.895 Y55.831
X-0.919 Y55.979
X-0.949 Y56.126
X-0.985 Y56.271
X-1.027 Y56.415
X-1.076 Y56.557
X-1.13 Y56.697
X-1.188 Y56.835
X-1.251 Y56.972
X-1.317 Y57.106
X-1.387 Y57.239
X-1.46 Y57.37
X-1.537 Y57.499
X-1.62 Y57.624
X-1.706 Y57.746
X-1.796 Y57.866
X-2.149 Y58.313
X-2.302 Y58.509
X-2.315 Y58.542
X-2.318 Y58.577
X-2.311 Y58.612
X-2.18 Y58.864
X-1.788 Y59.276
X-1.452 Y59.636
X-1.074 Y60.061
X-0.677 Y60.468
X-0.224 Y60.812
X0.28 Y61.075
X0.797 Y61.312
X1.323 Y61.527
X1.857 Y61.723
X2.395 Y61.906
X2.935 Y62.084
X3.476 Y62.259
X4.018 Y62.431
X4.574 Y62.551
X5.141 Y62.596
X5.709 Y62.614
X6.278 Y62.617
X6.846 Y62.591
X7.411 Y62.53
X7.947 Y62.338
X8.446 Y62.066
X8.933 Y61.773
X9.416 Y61.473
X9.89 Y61.159
X10.003 Y61.072
X10.115 Y60.985
X10.335 Y60.805
X10.47 Y60.689
X10.496 Y60.665
X10.515 Y60.635
X10.525 Y60.601
Y60.566
X10.514 Y60.532
X10.495 Y60.502
X10.062 Y60.133
X9.926 Y60.069
X9.795 Y59.996
X9.669 Y59.916
X9.547 Y59.828
X9.43 Y59.734
X9.318 Y59.634
X9.21 Y59.53
X9.106 Y59.422
X9.008 Y59.309
X8.915 Y59.191
X8.827 Y59.069
X8.743 Y58.945
X8.663 Y58.818
X8.587 Y58.689
X8.516 Y58.557
X8.449 Y58.423
X8.385 Y58.287
X8.323 Y58.144
X8.266 Y58.005
X8.212 Y57.865
X8.159 Y57.714
X8.1 Y57.536
X8.04 Y57.34
X7.982 Y57.134
X7.914 Y56.869
X7.84 Y56.555
X7.752 Y56.139
X7.709 Y55.915
X7.662 Y55.627
X7.624 Y55.362
X7.605 Y55.207
X7.587 Y55.024
X7.57 Y54.8
X7.558 Y54.594
X7.553 Y54.443
X7.552 Y54.268
X7.554 Y54.056
X7.561 Y53.845
X7.57 Y53.695
X7.583 Y53.529
X7.603 Y53.331
X7.63 Y53.111
X7.653 Y52.956
X7.683 Y52.778
X7.79 Y52.22
X7.72 Y51.656
X7.595 Y51.101
X7.469 Y50.546
X7.296 Y50.005
X7.094 Y49.473
X6.89 Y48.942
X6.658 Y48.308
X6.637 Y48.28
X6.186 Y47.934
X5.904 Y47.837
X5.693 Y47.759
X5.538 Y47.698
X5.354 Y47.621
X5.126 Y47.519
X4.787 Y47.359
X4.278 Y47.105
X3.762 Y46.866
X3.245 Y46.63
X3.114 Y46.576
X2.981 Y46.526
X2.847 Y46.478
X2.745 Y46.446
X2.711 Y46.435
X2.676
X2.642 Y46.445
X2.612 Y46.464
X2.588 Y46.491
X2.349 Y47.007
X2.196 Y47.555
X2.075 Y48.11
X1.968 Y48.669
X1.916 Y48.92
X1.86 Y49.163
X1.797 Y49.406
X1.726 Y49.664
X1.642 Y49.939
X1.466 Y50.48
X1.476 Y51.048
X1.504 Y51.373
X1.52 Y51.611
X1.529 Y51.834
X1.534 Y52.054
X1.533 Y52.281
X1.527 Y52.521
X1.516 Y52.764
X1.495 Y53.084
X1.443 Y53.65
X1.398 Y54.217
X1.385 Y54.661
X1.369 Y54.978
X1.347 Y55.275
X1.322 Y55.532
X1.297 Y55.747
X1.27 Y55.94
X1.243 Y56.104
X1.214 Y56.258
X1.182 Y56.412
X1.148 Y56.558
X1.111 Y56.703
X1.07 Y56.849
X1.026 Y56.995
X0.979 Y57.139
X0.926 Y57.289
X0.868 Y57.441
X0.807 Y57.594
X0.747 Y57.734
X0.683 Y57.874
X0.616 Y58.013
X0.548 Y58.146
X0.477 Y58.279
X0.459 Y58.31
X0.451 Y58.345
X0.453 Y58.38
X0.465 Y58.414
X0.631 Y58.644
X1.078 Y58.995
X1.583 Y59.257
X2.107 Y59.479
X2.639 Y59.678
X3.177 Y59.864
X3.716 Y60.043
X4.257 Y60.218
X4.81 Y60.352
X5.376 Y60.407
X5.944 Y60.427
X6.513 Y60.415
X6.651 Y60.384
X6.788 Y60.344
X7.056 Y60.25
X7.315 Y60.134
X7.347 Y60.117
X7.373 Y60.093
X7.391 Y60.062
X7.399 Y60.028
X7.398 Y59.992
X7.386 Y59.959
X7.059 Y59.494
X6.945 Y59.397
X6.836 Y59.293
X6.735 Y59.183
X6.639 Y59.067
X6.549 Y58.947
X6.466 Y58.822
X6.387 Y58.695
X6.314 Y58.564
X6.245 Y58.43
X6.181 Y58.295
X6.121 Y58.158
X6.064 Y58.019
X6.011 Y57.877
X5.958 Y57.727
X5.899 Y57.549
X5.839 Y57.351
X5.779 Y57.138
X5.722 Y56.915
X5.666 Y56.672
X5.611 Y56.412
X5.565 Y56.167
X5.525 Y55.924
X5.49 Y55.675
X5.46 Y55.424
X5.437 Y55.186
X5.419 Y54.952
X5.407 Y54.711
X5.399 Y54.466
X5.397 Y54.236
X5.4 Y54.007
X5.408 Y53.775
X5.422 Y53.534
X5.441 Y53.303
X5.464 Y53.073
X5.535 Y52.509
X5.515 Y51.941
X5.413 Y51.381
X5.258 Y50.834
X5.068 Y50.298
X5.006 Y50.132
X4.921 Y50.018
X4.48 Y49.659
X4.228 Y49.528
X3.722 Y49.268
X3.69 Y49.252
X3.655 Y49.246
X3.62 Y49.251
X3.587 Y49.264
X3.56 Y49.287
X3.54 Y49.316
X3.529 Y49.35
X3.513 Y49.919
X3.543 Y50.108
X3.59 Y50.462
X3.627 Y50.795
X3.655 Y51.107
X3.675 Y51.406
X3.688 Y51.696
X3.695 Y51.987
Y52.277
X3.688 Y52.592
X3.67 Y53.01
X3.632 Y53.578
X3.591 Y54.145
X3.564 Y54.713
X3.536 Y55.15
X3.507 Y55.481
X3.475 Y55.774
X3.441 Y56.03
X3.405 Y56.268
X3.365 Y56.494
X3.321 Y56.712
X3.274 Y56.924
X3.223 Y57.131
X3.196 Y57.234
X3.139 Y57.437
X3.107 Y57.538
Y57.574
X3.116 Y57.608
X3.135 Y57.638
X3.161 Y57.662
X3.674 Y57.908
X3.822 Y57.928
X3.975 Y57.954
X4.331 Y58.02
X4.47 Y58.049
X4.609 Y58.077
G3 X4.795 Y58.378 I-0.058 J0.243 F1500
X4.494 Y58.564 I-0.243 J-0.058
G1 X4.44 Y58.551 Z13.585
X4.388 Y58.539 Z13.603
X4.342 Y58.528 Z13.633
X4.304 Y58.519 Z13.672
X4.275 Y58.512 Z13.72
X4.257 Y58.507 Z13.773
X4.251 Y58.506 Z13.828
G0 Z26
X14.172 Y-18.295
Z14.078
G1 Z13.828 F1500
X14.174 Y-18.289 Z13.773
X14.179 Y-18.271 Z13.72
X14.186 Y-18.242 Z13.672
X14.196 Y-18.204 Z13.633
X14.207 Y-18.158 Z13.603
X14.221 Y-18.107 Z13.585
X14.234 Y-18.053 Z13.578
G3 X14.458 Y-16.498 I-7.063 J1.809
G1 Y-16.463 F2000
X14.468 Y-16.428
X14.775 Y-15.95
X15.132 Y-15.507
X15.186 Y-15.375
X15.236 Y-15.234
X15.278 Y-15.09
X15.313 Y-14.944
X15.341 Y-14.797
X15.362 Y-14.648
X15.378 Y-14.499
X15.389 Y-14.35
X15.396 Y-14.2
X15.399 Y-14.048
X15.397 Y-13.834
G3 X14.898 Y-13.857 I-0.25 J-0.011 F1500
G1 X14.899 Y-13.873 F2000
X14.983 Y-14.652
X15.04 Y-15.174 F1500
X15.051 Y-15.225
X15.072 Y-15.272
X15.102 Y-15.315
X15.141 Y-15.349
X15.186 Y-15.375
X15.221 Y-15.39 F2000
X15.336 Y-15.487
X15.462 Y-15.569
X15.602 Y-15.622
X15.749 Y-15.65
X15.899 Y-15.654
X16.048 Y-15.637
X16.194 Y-15.6
X16.334 Y-15.546
X16.466 Y-15.476
X16.591 Y-15.393
X16.707 Y-15.298
X16.814 Y-15.192
X16.863 Y-15.135
X16.907 Y-15.077
X16.936 Y-15.056
X17.069 Y-15.007
X17.351 Y-14.966
X17.492 Y-14.985
X17.626 Y-15.03
X17.754 Y-15.093
X17.876 Y-15.166
X17.973 Y-15.269
X18.043 Y-15.393
X18.087 Y-15.528
X18.104 Y-15.669
X18.097 Y-15.811
G3 X18.597 Y-15.821 I0.25 J-0.005 F1500
G1 X18.598 Y-15.765 Z13.585
X18.599 Y-15.712 Z13.603
Y-15.665 Z13.633
X18.6 Y-15.625 Z13.672
X18.601 Y-15.596 Z13.72
Y-15.577 Z13.773
Y-15.571 Z13.828
G0 Z26
X36.519 Y2.509
Z14.078
G1 Z13.828 F1500
X36.52 Y2.515 Z13.773
X36.525 Y2.533 Z13.72
X36.532 Y2.562 Z13.672
X36.542 Y2.6 Z13.633
X36.554 Y2.646 Z13.603
X36.567 Y2.697 Z13.585
X36.581 Y2.751 Z13.578
G3 X36.804 Y4.306 I-7.063 J1.809
G1 Y4.413 F2000
X36.814 Y4.447
X37.121 Y4.925
X37.315 Y5.148
X37.524 Y5.531
X37.681 Y6.077
X37.723 Y6.644
X37.696 Y7.212
X37.631 Y7.777
X37.7 Y8.342
X37.911 Y8.87
X38.173 Y9.375
X38.419 Y9.887
X38.675 Y10.395
X38.993 Y10.866
X39.33 Y11.324
X39.67 Y11.78
X39.99 Y12.25
X40.265 Y12.748
X40.461 Y13.281
X40.595 Y13.834
X40.622 Y14.402
X40.577 Y14.969
X40.439 Y15.521
X40.209 Y16.041
X39.926 Y16.534
X39.757 Y16.763
X39.637 Y17.02
X39.607 Y17.159
X39.584 Y17.3
X39.626 Y17.581
X39.733 Y17.844
X39.869 Y18.093
X40.247 Y18.519
X40.7 Y18.862
X41.172 Y19.179
X41.352 Y19.294
X41.386 Y19.304
X41.422
X41.694 Y19.222
X42.151 Y18.884
X42.606 Y18.543
X43.071 Y18.216
X43.561 Y17.926
X44.091 Y17.722
X44.64 Y17.575
X45.207 Y17.531
X45.775 Y17.568
X46.332 Y17.682
X46.858 Y17.898
X47.355 Y18.174
X47.797 Y18.532
X47.995 Y18.736
X48.098 Y18.834
X48.343 Y18.977
X48.615 Y19.061
X48.893 Y19.121
X49.458 Y19.057
X49.969 Y18.808
X50.445 Y18.496
X50.675 Y18.329
X50.774 Y18.227
X50.858 Y18.112
X50.889 Y18.048
X50.905 Y17.979
X50.875 Y17.696
X50.633 Y17.182
X50.345 Y16.692
X50.061 Y16.199
X49.858 Y15.668
X49.708 Y15.12
X49.653 Y14.554
X49.681 Y13.986
X49.787 Y13.427
X50.001 Y12.9
X50.274 Y12.401
X50.603 Y11.938
X50.961 Y11.496
X51.312 Y11.049
X51.665 Y10.603
X52.041 Y10.176
X52.294 Y9.667
X52.501 Y9.137
X52.722 Y8.613
X52.781 Y8.335
X52.819 Y7.768
X52.662 Y7.222
X52.508 Y6.674
X52.298 Y6.146
X51.979 Y5.675
X51.616 Y5.238
X51.263 Y4.792
X50.881 Y4.37
X50.464 Y3.984
X49.998 Y3.658
X49.519 Y3.352
X49.012 Y3.093
X48.481 Y2.891
X47.916 Y2.828
X47.35 Y2.881
X46.796 Y3.013
X46.24 Y3.129
X45.679 Y3.224
X45.111 Y3.231
X44.545 Y3.175
X43.983 Y3.088
X43.423 Y2.99
X42.854 Y2.98
X42.288 Y3.029
X41.724 Y3.1
X41.179 Y3.263
X40.645 Y3.459
X40.13 Y3.699
X39.667 Y4.029
X39.556 Y4.118
X39.505 Y4.167
X39.487 Y4.198
X39.455 Y4.337
X39.499 Y4.904
X39.596 Y5.464
X39.663 Y6.029
X39.686 Y6.597
X39.672 Y7.165
X39.713 Y7.732
X39.905 Y8.268
X40.132 Y8.789
X40.396 Y9.293
X40.703 Y9.771
X41.029 Y10.237
X41.353 Y10.704
X41.657 Y11.185
X41.929 Y11.684
X42.161 Y12.203
X42.344 Y12.742
X42.477 Y13.294
X42.555 Y13.858
X42.573 Y14.426
X42.538 Y14.994
X42.449 Y15.555
X42.411 Y15.692
X42.369 Y15.828
X42.196 Y16.37
X42.082 Y16.63
X42.021 Y16.759
X41.958 Y16.886
G0 Z26
X51.937 Y18.044
Z14.078
G1 Z13.828 F1500
X51.931 Z13.773
X51.913 Z13.72
X51.883 Y18.045 Z13.672
X51.843 Z13.633
X51.796 Y18.046 Z13.603
X51.743 Y18.047 Z13.585
X51.687 Y18.049 Z13.578
G3 X50.905 Y17.979 I-0.071 J-3.645
G1 X50.663 Y17.922 F2000
X50.095 Y17.953
X49.946 Y17.971
X49.796 Y17.972
X49.647 Y17.957
X49.5 Y17.927
X49.356 Y17.884
X49.217 Y17.829
X49.082 Y17.762
X48.954 Y17.684
X48.832 Y17.597
X48.716 Y17.502
X48.607 Y17.399
X48.504 Y17.29
X48.406 Y17.176
X48.315 Y17.057
X48.23 Y16.933
X48.151 Y16.806
X48.077 Y16.675
X48.008 Y16.542
X47.943 Y16.407
X47.884 Y16.269
X47.831 Y16.129
X47.783 Y15.987
X47.739 Y15.843
X47.7 Y15.698
X47.665 Y15.553
X47.634 Y15.406
X47.609 Y15.258
X47.588 Y15.11
X47.571 Y14.96
X47.558 Y14.806
X47.549 Y14.656
X47.543 Y14.506
X47.542 Y14.356
X47.546 Y14.206
X47.553 Y14.055
X47.565 Y13.887
X47.579 Y13.738
X47.598 Y13.589
X47.621 Y13.441
X47.65 Y13.294
X47.683 Y13.147
X47.719 Y13.002
X47.759 Y12.857
X47.802 Y12.713
X47.85 Y12.571
X47.901 Y12.43
X47.961 Y12.278
X48.027 Y12.12
X48.088 Y11.983
X48.153 Y11.848
X48.221 Y11.715
X48.302 Y11.566
X48.394 Y11.403
X48.471 Y11.275
X48.563 Y11.129
X48.677 Y10.956
X48.846 Y10.711
X49.139 Y10.308
X49.483 Y9.855
X49.692 Y9.59
X50.052 Y9.15
X50.323 Y8.65
X50.439 Y8.39
X50.494 Y8.112
X50.473 Y7.828
X50.418 Y7.549
X50.213 Y7.019
X49.874 Y6.562
X49.512 Y6.123
X49.103 Y5.729
X48.642 Y5.396
X48.392 Y5.26
X48.128 Y5.156
X47.561 Y5.11
X47.001 Y5.206
X46.654 Y5.267
X46.506 Y5.29
X46.365 Y5.308
X46.319 Y5.31
X46.272 Y5.303
X46.228 Y5.288
X46.157 Y5.255
X45.979 Y5.212
X45.85 Y5.182
X45.774 Y5.166
X45.463 Y5.132
X45.333 Y5.124
X45.204 Y5.132
X44.636 Y5.138
X44.069 Y5.091
X43.504 Y5.028
X42.935 Y5.02
X42.369 Y5.069
X42.093 Y5.137
X41.957 Y5.179
X41.923 Y5.19
X41.894 Y5.21
X41.871 Y5.238
X41.761 Y5.5
X41.714 Y6.066
X41.692 Y6.635
X41.739 Y7.201
X41.769 Y7.297
X41.781 Y7.353
X41.779 Y7.41
X41.764 Y7.466
G3 X41.306 Y7.264 I-0.229 J-0.101 F1500
G1 X41.328 Y7.213 Z13.585
X41.35 Y7.165 Z13.603
X41.369 Y7.122 Z13.633
X41.385 Y7.085 Z13.672
X41.397 Y7.058 Z13.72
X41.404 Y7.041 Z13.773
X41.406 Y7.035 Z13.828
G0 Z26
X46.15 Y4.725
Z14.078
G1 Z13.828 F1500
X46.145 Y4.729 Z13.773
X46.129 Y4.739 Z13.72
X46.105 Y4.756 Z13.672
X46.072 Y4.778 Z13.633
X46.033 Y4.805 Z13.603
X45.989 Y4.834 Z13.585
X45.943 Y4.866 Z13.578
G3 X45.204 Y5.132 I-0.889 J-1.309
G1 X45.075 Y5.14 F2000
X44.946 Y5.15
X44.688 Y5.189
X44.559 Y5.219
X44.3 Y5.305
X44.171 Y5.349
X43.784 Y5.518
X43.713 Y5.554
X43.654 Y5.585
X43.396 Y5.733
X43.267 Y5.82
X43.009 Y6.001
X42.918 Y6.07
X42.596 Y6.329
X42.492 Y6.415
X42.146 Y6.767
X42.123 Y6.792
X42.105 Y6.818
X41.93 Y7.104
X41.856 Y7.233
X41.753 Y7.491
X41.734 Y7.556
X41.717 Y7.627
X41.691 Y7.749
X41.62 Y7.878
X41.546 Y8.04
X41.467 Y8.411
X41.48 Y8.766
X41.484 Y8.783
X41.606 Y9.138
X41.611 Y9.149
X41.717 Y9.336
X41.75 Y9.382
X41.785 Y9.428
X41.846 Y9.5
X41.889 Y9.557
X42.105 Y9.825
X42.235 Y9.945
X42.569 Y10.332
X42.621 Y10.404
X42.926 Y10.785
X42.944 Y10.804
X43.009 Y10.845
X43.395 Y11.109
X43.517 Y11.196
X43.632 Y11.293
X43.739 Y11.397
X43.84 Y11.509
X43.933 Y11.627
X44.019 Y11.749
X44.1 Y11.876
X44.174 Y12.006
X44.242 Y12.14
X44.303 Y12.277
X44.36 Y12.416
X44.411 Y12.557
X44.457 Y12.699
X44.5 Y12.843
X44.537 Y12.988
X44.57 Y13.135
X44.598 Y13.282
X44.624 Y13.436
X44.645 Y13.584
X44.663 Y13.733
X44.676 Y13.882
X44.687 Y14.044
X44.696 Y14.234
X44.699 Y14.384
Y14.534
X44.695 Y14.691
X44.686 Y14.877
X44.673 Y15.059
X44.66 Y15.209
X44.643 Y15.358
X44.622 Y15.507
X44.598 Y15.655
X44.567 Y15.818
X44.526 Y16.011
X44.494 Y16.15
G3 X44.011 Y16.15 I-0.241 J-0.065 F1500
G1 X43.977 Y16.022
X42.696 Y11.318 F2000
X42.644 Y11.128 F1500
G3 X43.009 Y10.845 I0.241 J-0.066
G1 X43.267 Y11.003 F2000
X43.396 Y11.078
X43.525 Y11.144
X43.654 Y11.195
X43.703 Y11.211
X43.719 Y11.215
X44.074 Y11.254
X44.09
X44.429 Y11.202
X44.587 Y11.178
X44.736 Y11.159
X44.886
X45.035 Y11.177
X45.181 Y11.211
X45.322 Y11.261
X45.458 Y11.324
X45.588 Y11.399
X45.711 Y11.485
X45.826 Y11.581
X45.934 Y11.685
X46.035 Y11.796
X46.128 Y11.914
X46.213 Y12.037
X46.292 Y12.165
X46.363 Y12.297
X46.429 Y12.432
X46.488 Y12.57
X46.541 Y12.71
X46.588 Y12.852
X46.63 Y12.996
X46.668 Y13.142
X46.701 Y13.288
X46.729 Y13.435
X46.754 Y13.583
X46.775 Y13.732
X46.792 Y13.881
X46.806 Y14.032
X46.816 Y14.187
X46.824 Y14.349
X46.828 Y14.525
X46.829 Y14.701
X46.825 Y14.875
X46.818 Y15.05
X46.806 Y15.228
X46.791 Y15.412
X46.775 Y15.553
X46.758 Y15.694
G3 X46.285 Y15.762 I-0.247 J-0.039 F1500
G1 X46.22 Y15.626
X44.426 Y11.868 F2000
X44.274 Y11.55 F1500
G3 X44.429 Y11.202 I0.226 J-0.108
G1 X44.559 Y11.169 F2000
X44.817 Y11.087
X44.946 Y11.033
X45.059 Y10.978
X45.075 Y10.968
X45.204 Y10.881
X45.241 Y10.862
X45.277 Y10.849
X45.305 Y10.843
X45.333 Y10.841
X45.369 Y10.843
X45.404 Y10.849
X45.433 Y10.859
X45.463 Y10.873
X45.893 Y11.107
X45.979 Y11.143
X46.108 Y11.179
X46.254 Y11.212
X46.27 Y11.215
X46.625 Y11.209
X46.754 Y11.196
X47.045 Y11.159
X47.077 Y11.147
X47.4 Y11.015
X47.412 Y11.007
X47.658 Y10.815
X47.766 Y10.72
X47.787 Y10.697
X47.981 Y10.462
X48.046 Y10.378
X48.175 Y10.163
X48.218 Y10.074
X48.232 Y10.052
X48.251 Y10.029
X48.277 Y10.004
X48.304 Y9.984
X48.365 Y9.945
X48.433 Y9.899
X48.631 Y9.731
X48.647 Y9.715
X48.78 Y9.545
X48.958 Y9.17
X48.964 Y9.154
X48.994 Y9.041
X49.016 Y8.912
X49.029 Y8.783
X49.036 Y8.653
X49.057 Y8.524
X49.077 Y8.379
X49.057 Y8.008
X49.055 Y7.991
X49.025 Y7.878
X48.979 Y7.749
X48.95 Y7.675
X48.926 Y7.62
X48.821 Y7.439
X48.74 Y7.233
X48.692 Y7.134
X48.604 Y6.974
X48.523 Y6.845
X48.433 Y6.737
X48.299 Y6.587
X48.175 Y6.456
X48.046 Y6.359
X47.82 Y6.199
X47.391 Y5.941
X47.003 Y5.683
X46.883 Y5.608
X46.754 Y5.532
X46.625 Y5.469
X46.496 Y5.41
X46.228 Y5.288
G3 X46.117 Y4.952 I0.112 J-0.223 F1500
X46.453 Y4.841 I0.223 J0.112
G1 X46.503 Y4.866 Z13.585
X46.55 Y4.889 Z13.603
X46.592 Y4.911 Z13.633
X46.628 Y4.929 Z13.672
X46.654 Y4.942 Z13.72
X46.671 Y4.95 Z13.773
X46.676 Y4.953 Z13.828
G0 Z26
X1.76 Y-13.494
Z14.078
G1 Z13.828 F1500
X1.762 Y-13.488 Z13.773
X1.766 Y-13.47 Z13.72
X1.774 Y-13.441 Z13.672
X1.783 Y-13.403 Z13.633
X1.795 Y-13.357 Z13.603
X1.808 Y-13.306 Z13.585
X1.822 Y-13.252 Z13.578
G3 X2.046 Y-11.697 I-7.063 J1.809
G1 Y-11.661 F2000
X2.056 Y-11.627
X2.363 Y-11.149
X2.452 Y-11.028
X2.778 Y-10.562
X3.169 Y-10.149
X3.418 Y-10.013
X3.692 Y-9.935
X3.976 Y-9.942
X4.248 Y-10.024
X4.751 Y-10.29
X4.859 Y-10.382
X4.959 Y-10.483
X5.002 Y-10.54
X5.02 Y-10.57
X5.035 Y-10.602
X5.041 Y-10.637
X5.037 Y-10.673
X4.981 Y-10.803
G3 X5.264 Y-11.139 I0.233 J-0.09 F1500
G1 X5.307 Y-11.116 Z13.583
X5.348 Y-11.095 Z13.598
X5.387 Y-11.075 Z13.621
X5.41 Y-11.043 Z13.655
X5.428 Y-11.017 Z13.696
X5.441 Y-10.998 Z13.742
X5.446 Y-10.988 Z13.784
X5.447 Y-10.984 Z13.828
G0 Z26
X14.173 Y-18.293
Z13.58
G1 Z13.33 F1500
X14.174 Y-18.287 Z13.275
X14.179 Y-18.269 Z13.222
X14.186 Y-18.241 Z13.174
X14.196 Y-18.202 Z13.135
X14.208 Y-18.156 Z13.105
X14.221 Y-18.105 Z13.086
X14.235 Y-18.051 Z13.08
G3 X14.458 Y-16.496 I-7.063 J1.809
G1 Y-16.461 F2000
X14.468 Y-16.427
X14.775 Y-15.948
X15.132 Y-15.505
X15.186 Y-15.374
X15.236 Y-15.232
X15.278 Y-15.088
X15.313 Y-14.942
X15.341 Y-14.795
X15.362 Y-14.647
X15.378 Y-14.498
X15.389 Y-14.348
X15.396 Y-14.198
X15.399 Y-14.045
X15.398 Y-13.832
G3 X15.136 Y-13.594 I-0.25 J-0.011 F1500
X14.898 Y-13.855 I0.011 J-0.25
G1 X14.899 Y-13.871 F2000
X14.983 Y-14.65
X15.04 Y-15.173 F1500
X15.051 Y-15.223
X15.072 Y-15.271
X15.102 Y-15.313
X15.141 Y-15.348
X15.186 Y-15.374
X15.221 Y-15.388 F2000
X15.336 Y-15.485
X15.462 Y-15.567
X15.602 Y-15.62
X15.749 Y-15.648
X15.899 Y-15.652
X16.048 Y-15.635
X16.194 Y-15.598
X16.334 Y-15.544
X16.467 Y-15.474
X16.591 Y-15.391
X16.707 Y-15.296
X16.814 Y-15.19
X16.863 Y-15.133
X16.907 Y-15.076
X16.936 Y-15.054
X17.069 Y-15.005
X17.351 Y-14.966
X17.492 Y-14.984
X17.627 Y-15.03
X17.754 Y-15.093
X17.876 Y-15.166
X17.973 Y-15.269
X18.043 Y-15.393
X18.087 Y-15.528
X18.104 Y-15.67
X18.097 Y-15.811
G3 X18.597 Y-15.821 I0.25 J-0.005 F1500
G1 X18.598 Y-15.765 Z13.086
X18.599 Y-15.713 Z13.105
Y-15.665 Z13.135
X18.6 Y-15.626 Z13.174
X18.601 Y-15.596 Z13.222
Y-15.577 Z13.275
Y-15.571 Z13.33
G0 Z26
X36.519 Y2.509
Z13.58
G1 Z13.33 F1500
X36.52 Y2.515 Z13.275
X36.525 Y2.533 Z13.222
X36.532 Y2.562 Z13.174
X36.542 Y2.6 Z13.135
X36.554 Y2.646 Z13.105
X36.567 Y2.697 Z13.086
X36.581 Y2.751 Z13.08
G3 X36.804 Y4.306 I-7.063 J1.809
G1 Y4.413 F2000
X36.814 Y4.447
X37.121 Y4.925
X37.315 Y5.148
X37.524 Y5.531
X37.681 Y6.077
X37.723 Y6.644
X37.696 Y7.212
X37.631 Y7.777
X37.7 Y8.342
X37.911 Y8.87
X38.173 Y9.375
X38.419 Y9.887
X38.675 Y10.395
X38.993 Y10.866
X39.33 Y11.324
X39.67 Y11.78
X39.99 Y12.25
X40.265 Y12.748
X40.461 Y13.281
X40.595 Y13.834
X40.622 Y14.402
X40.577 Y14.969
X40.439 Y15.521
X40.209 Y16.041
X39.926 Y16.534
X39.757 Y16.763
X39.637 Y17.02
X39.607 Y17.159
X39.584 Y17.299
X39.626 Y17.581
X39.733 Y17.844
X39.869 Y18.093
X40.247 Y18.519
X40.7 Y18.862
X41.172 Y19.179
X41.352 Y19.294
X41.386 Y19.304
X41.422
X41.694 Y19.222
X42.151 Y18.884
X42.606 Y18.543
X43.071 Y18.216
X43.56 Y17.926
X44.091 Y17.722
X44.64 Y17.575
X45.207 Y17.531
X45.775 Y17.568
X46.332 Y17.682
X46.858 Y17.898
X47.355 Y18.174
X47.797 Y18.532
X47.995 Y18.736
X48.098 Y18.834
X48.343 Y18.977
X48.615 Y19.061
X48.893 Y19.121
X49.458 Y19.057
X49.969 Y18.808
X50.445 Y18.496
X50.675 Y18.329
X50.774 Y18.227
X50.858 Y18.112
X50.889 Y18.048
X50.905 Y17.979
X50.875 Y17.696
X50.633 Y17.182
X50.345 Y16.692
X50.061 Y16.199
X49.858 Y15.668
X49.708 Y15.12
X49.653 Y14.554
X49.681 Y13.986
X49.787 Y13.427
X50.001 Y12.9
X50.274 Y12.401
X50.603 Y11.938
X50.961 Y11.496
X51.312 Y11.049
X51.665 Y10.603
X52.041 Y10.176
X52.294 Y9.667
X52.501 Y9.137
X52.722 Y8.613
X52.781 Y8.335
X52.819 Y7.768
X52.662 Y7.222
X52.508 Y6.674
X52.298 Y6.146
X51.979 Y5.675
X51.616 Y5.238
X51.263 Y4.792
X50.881 Y4.37
X50.464 Y3.984
X49.998 Y3.658
X49.519 Y3.352
X49.012 Y3.093
X48.481 Y2.891
X47.916 Y2.828
X47.35 Y2.881
X46.796 Y3.013
X46.24 Y3.129
X45.679 Y3.224
X45.111 Y3.231
X44.545 Y3.175
X43.983 Y3.088
X43.423 Y2.99
X42.854 Y2.98
X42.288 Y3.029
X41.724 Y3.1
X41.179 Y3.263
X40.645 Y3.459
X40.13 Y3.699
X39.667 Y4.029
X39.556 Y4.118
X39.505 Y4.167
X39.487 Y4.198
X39.455 Y4.337
X39.499 Y4.904
X39.596 Y5.464
X39.663 Y6.029
X39.666 Y6.1
X39.659 Y6.17
X39.633 Y6.236
X39.589 Y6.291
X39.55 Y6.329
X39.498 Y6.382
X39.488 Y6.395
X39.263 Y6.764
X39.223 Y6.845
X39.165 Y6.974
X39.118 Y7.104
X39.082 Y7.233
X39.015 Y7.556
X39.014 Y7.927
X39.017 Y7.943
X39.058 Y8.137
X39.061 Y8.169
X39.06 Y8.201
X39.056 Y8.234
X39.048 Y8.266
X39.005 Y8.401
X38.933 Y8.653
X38.876 Y8.757
X38.796 Y8.912
X38.747 Y9.051
X38.722 Y9.17
X38.704 Y9.267
X38.703 Y9.299
X38.705 Y9.654
X38.737 Y9.816
X38.747 Y9.85
X38.798 Y9.993
X39.134 Y10.494
X39.322 Y10.72
X39.392 Y10.803
X39.521 Y10.919
X39.893 Y11.187
X39.909 Y11.195
X40.296 Y11.353
X40.426 Y11.393
X40.684 Y11.472
X40.7 Y11.474
X40.85 Y11.495
X41.183 Y11.62
X41.533 Y11.847
X41.895 Y12.215
X42.197 Y12.697
X42.398 Y13.229
X42.516 Y13.785
X42.557 Y14.352
X42.539 Y14.921
X42.459 Y15.484
X42.423 Y15.621
X42.384 Y15.758
X42.218 Y16.302
X42.108 Y16.564
X42.049 Y16.693
X41.987 Y16.821
G3 X41.521 Y16.757 I-0.221 J-0.116 F1500
G1 X41.485 Y16.587
X40.527 Y12.11 F2000
X40.456 Y11.777 F1500
G3 X40.7 Y11.474 I0.244 J-0.052
G1 X41.071 Y11.486 F2000
X41.33 Y11.454
X41.362 Y11.456
X41.394 Y11.461
X41.427 Y11.472
X41.459 Y11.487
X41.472 Y11.495
X41.588 Y11.578
X41.666 Y11.624
X42.024 Y11.788
X42.105 Y11.808
X42.234 Y11.836
X42.363 Y11.855
X42.393 Y11.866
X42.422 Y11.882
X42.44 Y11.894
X42.457 Y11.909
X42.492 Y11.947
X42.545 Y12.011
X42.621 Y12.093
X42.963 Y12.445
X43.009 Y12.477
X43.267 Y12.607
X43.483 Y12.717
X43.615 Y12.788
X43.74 Y12.872
X43.855 Y12.967
X43.962 Y13.072
X44.061 Y13.185
X44.15 Y13.306
X44.229 Y13.434
X44.299 Y13.566
X44.361 Y13.703
X44.415 Y13.843
X44.462 Y13.985
X44.501 Y14.13
X44.533 Y14.277
X44.558 Y14.424
X44.576 Y14.573
X44.589 Y14.723
X44.597 Y14.873
X44.6 Y15.023
X44.598 Y15.172
X44.59 Y15.322
X44.578 Y15.472
X44.56 Y15.621
X44.539 Y15.769
X44.512 Y15.928
X44.471 Y16.137
G3 X43.99 Y16.157 I-0.243 J-0.057 F1500
G1 X43.948 Y16.027
X43.003 Y13.123 F2000
X42.935 Y12.916 F1500
G3 X43.267 Y12.607 I0.238 J-0.077
G1 X43.379 Y12.657 F2000
X43.71 Y12.78
X43.724 Y12.783
X44.042 Y12.81
X44.171
X44.471 Y12.79
X44.485 Y12.786
X44.63 Y12.748
X44.878 Y12.751
X45.158 Y12.816
X45.457 Y12.96
X45.763 Y13.2
X46.059 Y13.558
X46.317 Y14.065
X46.462 Y14.615
X46.489 Y14.898
X46.495 Y15.04
X46.497 Y15.182
X46.496 Y15.324
X46.494 Y15.36
X46.503 Y15.394
X46.522 Y15.425
X46.73 Y15.618
X47.242 Y15.866
X47.368 Y15.93
X47.874 Y16.191
X48.357 Y16.49
X48.701 Y16.743
G3 X48.392 Y17.136 I-0.155 J0.196 F1500
G1 X48.371 Y17.117 F2000
X44.593 Y13.396
X44.393 Y13.2 F1500
G3 X44.485 Y12.786 I0.175 J-0.178
G1 X44.846 Y12.672 F2000
X44.86 Y12.665
X45.101 Y12.528
X45.204 Y12.467
X45.237 Y12.446
X45.269 Y12.429
X45.301 Y12.418
X45.333 Y12.412
X45.366 Y12.409
X45.398 Y12.411
X45.43 Y12.417
X45.463 Y12.425
X45.592 Y12.491
X45.882 Y12.634
X45.899 Y12.639
X46.254 Y12.71
X46.27 Y12.711
X46.496 Y12.705
X46.715 Y12.711
X47.002 Y12.782
X47.324 Y12.941
X47.409 Y13.009
X47.736 Y13.302
X48.068 Y13.763
X48.172 Y13.861
X48.28 Y13.953
G3 X47.963 Y14.339 I-0.169 J0.185 F1500
G1 X47.942 Y14.323
X46.502 Y13.26 F2000
X46.362 Y13.156 F1500
G3 X46.496 Y12.705 I0.149 J-0.201
G1 X46.625 Y12.702 F2000
X46.754 Y12.688
X47.029 Y12.652
X47.045 Y12.647
X47.4 Y12.499
X47.529 Y12.431
X47.804 Y12.259
X47.82 Y12.246
X47.933 Y12.141
X48.046 Y12.033
X48.067 Y12.011
X48.175 Y11.889
X48.194 Y11.866
X48.211 Y11.85
X48.242 Y11.827
X48.273 Y11.809
X48.304 Y11.795
X48.692 Y11.68
X48.825 Y11.624
X48.95 Y11.565
X48.982 Y11.557
X49.014 Y11.553
X49.047 Y11.552
X49.079 Y11.555
X49.208 Y11.585
X49.337 Y11.598
X49.596 Y11.601
X49.725 Y11.596
X49.854 Y11.584
X49.983 Y11.564
X50.112 Y11.529
X50.435 Y11.413
X50.758 Y11.225
X50.887 Y11.141
X50.935 Y11.107
X51.016 Y11.04
X51.215 Y10.849
X51.275 Y10.789
X51.649 Y10.462
X51.662 Y10.448
X51.752 Y10.332
X51.839 Y10.203
X51.92 Y10.029
X51.948 Y9.945
X52.027 Y9.687
X52.05 Y9.556
X52.084 Y9.251
Y9.235
X52.05 Y8.912
X52.024 Y8.783
X51.92 Y8.482
X51.879 Y8.395
X51.824 Y8.266
X51.817 Y8.234
X51.815 Y8.201
X51.817 Y8.169
X51.822 Y8.137
X51.856 Y7.943
X51.845 Y7.62
X51.834 Y7.491
X51.815 Y7.362
X51.78 Y7.233
X51.729 Y7.104
X51.61 Y6.845
X51.533 Y6.729
X51.453 Y6.619
X51.275 Y6.448
X51.159 Y6.329
X51.016 Y6.165
X50.887 Y6.008
X50.83 Y5.941
X50.758 Y5.866
X50.435 Y5.554
X50.371 Y5.494
X49.983 Y5.207
X49.919 Y5.166
X49.596 Y4.991
X49.579 Y4.984
X49.208 Y4.872
X48.853 Y4.846
X48.837
X48.268
X47.703 Y4.904
X47.111 Y5.005
X47.027
X46.948 Y4.977
X46.883 Y4.923
G3 X47.05 Y4.511 I0.189 J-0.163 F1500
G1 X47.287 Y4.489
X48.71 Y4.359 F2000
X48.751 Y4.355 F1500
G3 X48.837 Y4.846 I0.023 J0.249
G1 X48.559 Y4.908 F2000
X48.433 Y4.941
X48.175 Y5.039
X48.046 Y5.092
X47.934 Y5.154
X47.761 Y5.295
X47.658 Y5.392
X47.63 Y5.425
X47.605 Y5.449
X47.58 Y5.467
X47.554 Y5.482
X47.529 Y5.492
X47.497 Y5.502
X47.465 Y5.506
X47.432 Y5.507
X47.4 Y5.503
X47.368 Y5.495
X47.335 Y5.482
X47.303 Y5.463
X47.271 Y5.437
X47.259 Y5.425
X47.142 Y5.256
X47.078 Y5.166
X47.012 Y5.076
X46.98 Y5.037
X46.883 Y4.923
X46.75 Y4.779
X46.625 Y4.656
X46.496 Y4.554
X46.124 Y4.322
X46.108 Y4.317
X45.769 Y4.21
X45.753 Y4.206
X45.463 Y4.175
X45.333 Y4.168
X45.075 Y4.184
X44.946 Y4.195
X44.688 Y4.234
X44.559 Y4.256
X44.429 Y4.293
X44.3 Y4.336
X44.218 Y4.373
X44.204 Y4.382
X43.808 Y4.628
X43.272 Y4.818
X42.718 Y4.944
X42.165 Y5.078
X42.031 Y5.123
X41.925 Y5.161
X41.885 Y5.199
X41.801 Y5.258
X41.703 Y5.288
X41.6 Y5.286
G3 X41.567 Y4.806 I0.051 J-0.245 F1500
G1 X41.696 Y4.76
X43.899 Y3.971 F2000
X43.97 Y3.946 F1500
G3 X44.204 Y4.382 I0.084 J0.235
G1 X43.819 Y4.65 F2000
X43.784 Y4.68
X43.689 Y4.779
X43.654 Y4.817
X43.575 Y4.908
X43.484 Y5.037
X43.395 Y5.166
X43.308 Y5.295
X43.226 Y5.425
X43.12 Y5.554
X43.092 Y5.583
X43.064 Y5.605
X43.037 Y5.621
X43.009 Y5.633
X42.88 Y5.662
X42.75 Y5.698
X42.718 Y5.704
X42.686 Y5.706
X42.654
X42.621 Y5.7
X42.595 Y5.693
X42.57 Y5.683
X42.55 Y5.673
X42.531 Y5.66
X42.492 Y5.628
X42.392 Y5.554
X42.266 Y5.474
X42.25 Y5.466
X41.975 Y5.369
X41.846 Y5.328
X41.507 Y5.27
X41.491 Y5.269
X41.128 Y5.297
X40.752 Y5.414
X40.731 Y5.425
X40.494 Y5.554
X40.426 Y5.593
X40.296 Y5.692
X39.963 Y5.941
X39.909 Y5.986
X39.589 Y6.291
G3 X39.256 Y5.918 I-0.166 J-0.187 F1500
G1 X39.298 Y5.881 Z13.086
X39.337 Y5.846 Z13.105
X39.373 Y5.814 Z13.135
X39.402 Y5.788 Z13.174
X39.425 Y5.768 Z13.222
X39.438 Y5.756 Z13.275
X39.443 Y5.751 Z13.33
G0 Z26
X-5.246 Y56.541
Z13.58
G1 Z13.33 F1500
X-5.244 Y56.547 Z13.275
X-5.24 Y56.565 Z13.222
X-5.232 Y56.594 Z13.174
X-5.223 Y56.632 Z13.135
X-5.211 Y56.678 Z13.105
X-5.198 Y56.729 Z13.086
X-5.184 Y56.783 Z13.08
G3 X-4.96 Y58.338 I-7.063 J1.809
G1 Y58.373 F2000
X-4.8 Y58.919
X-4.497 Y59.4
X-4.393 Y59.665
X-4.106 Y60.155
X-3.679 Y60.531
X-3.248 Y60.903
X-2.861 Y61.319
X-2.49 Y61.75
X-2.091 Y62.155
X-1.658 Y62.523
X-1.17 Y62.815
X-0.657 Y63.061
X-0.137 Y63.291
X0.386 Y63.513
X0.919 Y63.712
X1.457 Y63.896
X1.997 Y64.073
X2.539 Y64.248
X3.622 Y64.595
X4.173 Y64.733
X4.74 Y64.778
X5.308 Y64.794
X5.877 Y64.802
X6.446 Y64.805
X7.013 Y64.774
X7.58 Y64.729
X8.14 Y64.631
X8.681 Y64.456
X9.18 Y64.183
X9.667 Y63.89
X10.15 Y63.59
X10.631 Y63.287
X11.112 Y62.983
X11.568 Y62.644
X12.004 Y62.278
X12.419 Y61.889
X12.825 Y61.491
X13.223 Y61.085
X13.352 Y60.915
X13.394 Y60.858
X13.407 Y60.825
X13.409 Y60.79
X13.401 Y60.755
X13.264 Y60.506
X12.837 Y60.131
X12.422 Y59.741
X11.972 Y59.394
X11.511 Y59.062
X11.099 Y58.67
X10.735 Y58.233
X10.436 Y57.749
X10.224 Y57.222
X10.068 Y56.675
X9.949 Y56.119
X9.847 Y55.559
X9.752 Y54.999
X9.696 Y54.433
X9.704 Y53.864
X9.764 Y53.299
X9.879 Y52.742
X10.036 Y52.196
X10.032 Y51.627
X9.854 Y51.087
X9.703 Y50.539
X9.579 Y49.984
X9.446 Y49.431
X9.222 Y48.909
X9.009 Y48.381
X8.806 Y47.85
X8.616 Y47.314
X8.424 Y46.779
X8.194 Y46.259
X8.171 Y46.232
X8.053 Y46.153
X7.508 Y45.991
X6.954 Y45.861
X6.402 Y45.723
X5.878 Y45.503
X5.379 Y45.231
X4.878 Y44.962
X4.354 Y44.741
X3.837 Y44.503
X3.31 Y44.29
X2.761 Y44.142
X2.201 Y44.046
X1.782 Y43.968
X1.642 Y43.941
X1.501 Y43.92
X1.395 Y43.907
X1.361 Y43.914
X1.329 Y43.93
X1.303 Y43.954
X1.23 Y44.076
X1.12 Y44.634
X0.938 Y45.173
X0.705 Y45.691
X0.441 Y46.195
X0.162 Y46.691
X0.018 Y47.241
X-0.091 Y47.799
X-0.203 Y48.356
X-0.22 Y48.497
X-0.244 Y48.645
X-0.274 Y48.792
X-0.31 Y48.938
X-0.351 Y49.083
X-0.402 Y49.251
X-0.468 Y49.452
X-0.558 Y49.706
X-0.76 Y50.237
X-0.792 Y50.805
X-0.711 Y51.368
X-0.686 Y51.508
X-0.663 Y51.656
X-0.644 Y51.805
X-0.63 Y51.954
X-0.622 Y52.104
X-0.62 Y52.254
X-0.622 Y52.404
X-0.628 Y52.554
X-0.638 Y52.722
X-0.655 Y52.923
X-0.682 Y53.175
X-0.755 Y53.739
X-0.8 Y54.305
X-0.801 Y54.806
X-0.804 Y54.956
X-0.812 Y55.105
X-0.824 Y55.256
X-0.841 Y55.43
X-0.867 Y55.641
X-0.895 Y55.831
X-0.919 Y55.979
X-0.949 Y56.126
X-0.985 Y56.271
X-1.027 Y56.415
X-1.076 Y56.557
X-1.13 Y56.697
X-1.188 Y56.835
X-1.251 Y56.972
X-1.317 Y57.106
X-1.387 Y57.239
X-1.46 Y57.37
X-1.537 Y57.499
X-1.62 Y57.624
X-1.706 Y57.746
X-1.796 Y57.866
X-2.149 Y58.313
X-2.302 Y58.509
X-2.315 Y58.542
X-2.318 Y58.577
X-2.311 Y58.612
X-2.18 Y58.864
X-1.788 Y59.276
X-1.452 Y59.636
X-1.074 Y60.061
X-0.677 Y60.468
X-0.224 Y60.812
X0.28 Y61.075
X0.797 Y61.312
X1.323 Y61.527
X1.857 Y61.723
X2.395 Y61.906
X2.935 Y62.084
X3.476 Y62.259
X4.018 Y62.431
X4.574 Y62.551
X5.141 Y62.596
X5.709 Y62.614
X6.278 Y62.617
X6.846 Y62.591
X7.411 Y62.53
X7.947 Y62.338
X8.446 Y62.066
X8.933 Y61.773
X9.416 Y61.473
X9.89 Y61.159
X10.003 Y61.072
X10.115 Y60.985
X10.335 Y60.805
X10.47 Y60.689
X10.496 Y60.665
X10.515 Y60.635
X10.525 Y60.601
Y60.566
X10.514 Y60.532
X10.495 Y60.502
X10.062 Y60.133
X9.926 Y60.069
X9.795 Y59.996
X9.669 Y59.916
X9.547 Y59.828
X9.43 Y59.734
X9.318 Y59.634
X9.21 Y59.53
X9.106 Y59.422
X9.008 Y59.309
X8.915 Y59.191
X8.827 Y59.069
X8.743 Y58.945
X8.663 Y58.818
X8.587 Y58.689
X8.516 Y58.557
X8.449 Y58.423
X8.385 Y58.287
X8.323 Y58.144
X8.266 Y58.005
X8.212 Y57.865
X8.159 Y57.714
X8.1 Y57.536
X8.04 Y57.34
X7.982 Y57.134
X7.914 Y56.869
X7.84 Y56.555
X7.752 Y56.139
X7.709 Y55.915
X7.662 Y55.627
X7.624 Y55.362
X7.605 Y55.207
X7.587 Y55.024
X7.57 Y54.8
X7.558 Y54.594
X7.553 Y54.443
X7.552 Y54.268
X7.554 Y54.056
X7.561 Y53.845
X7.57 Y53.695
X7.583 Y53.529
X7.603 Y53.331
X7.63 Y53.111
X7.653 Y52.956
X7.683 Y52.778
X7.79 Y52.22
X7.72 Y51.656
X7.595 Y51.101
X7.469 Y50.546
X7.296 Y50.005
X7.094 Y49.473
X6.89 Y48.942
X6.658 Y48.308
X6.637 Y48.28
X6.186 Y47.934
X5.904 Y47.837
X5.693 Y47.759
X5.538 Y47.698
X5.354 Y47.621
X5.126 Y47.519
X4.787 Y47.359
X4.278 Y47.105
X3.762 Y46.866
X3.245 Y46.63
X3.114 Y46.576
X2.981 Y46.526
X2.847 Y46.478
X2.745 Y46.446
X2.711 Y46.435
X2.676
X2.642 Y46.445
X2.612 Y46.464
X2.588 Y46.491
X2.349 Y47.007
X2.196 Y47.555
X2.075 Y48.11
X1.968 Y48.669
X1.916 Y48.92
X1.86 Y49.163
X1.797 Y49.406
X1.726 Y49.664
X1.642 Y49.939
X1.466 Y50.48
X1.476 Y51.048
X1.504 Y51.373
X1.52 Y51.611
X1.529 Y51.834
X1.534 Y52.054
X1.533 Y52.281
X1.527 Y52.521
X1.516 Y52.764
X1.495 Y53.084
X1.443 Y53.65
X1.398 Y54.217
X1.385 Y54.661
X1.369 Y54.978
X1.347 Y55.275
X1.322 Y55.532
X1.297 Y55.747
X1.27 Y55.94
X1.243 Y56.104
X1.214 Y56.258
X1.182 Y56.412
X1.148 Y56.558
X1.111 Y56.703
X1.07 Y56.849
X1.026 Y56.995
X0.979 Y57.139
X0.926 Y57.289
X0.868 Y57.441
X0.807 Y57.594
X0.747 Y57.734
X0.683 Y57.874
X0.616 Y58.013
X0.548 Y58.146
X0.477 Y58.279
X0.459 Y58.31
X0.451 Y58.345
X0.453 Y58.38
X0.465 Y58.414
X0.631 Y58.644
X1.078 Y58.995
X1.583 Y59.257
X2.107 Y59.479
X2.639 Y59.678
X3.177 Y59.864
X3.716 Y60.043
X4.257 Y60.218
X4.81 Y60.352
X5.376 Y60.407
X5.944 Y60.427
X6.513 Y60.415
X6.651 Y60.384
X6.788 Y60.344
X7.056 Y60.25
X7.315 Y60.134
X7.347 Y60.117
X7.373 Y60.093
X7.391 Y60.062
X7.399 Y60.028
X7.398 Y59.992
X7.386 Y59.959
X7.059 Y59.494
X6.945 Y59.397
X6.836 Y59.293
X6.735 Y59.183
X6.639 Y59.067
X6.549 Y58.947
X6.466 Y58.822
X6.387 Y58.695
X6.314 Y58.564
X6.245 Y58.43
X6.181 Y58.295
X6.121 Y58.158
X6.064 Y58.019
X6.011 Y57.877
X5.958 Y57.727
X5.899 Y57.549
X5.839 Y57.351
X5.779 Y57.138
X5.722 Y56.915
X5.666 Y56.672
X5.611 Y56.412
X5.565 Y56.167
X5.525 Y55.924
X5.49 Y55.675
X5.46 Y55.424
X5.437 Y55.186
X5.419 Y54.952
X5.407 Y54.711
X5.399 Y54.466
X5.397 Y54.236
X5.4 Y54.007
X5.408 Y53.775
X5.422 Y53.534
X5.441 Y53.303
X5.464 Y53.073
X5.535 Y52.509
X5.515 Y51.941
X5.413 Y51.381
X5.258 Y50.834
X5.068 Y50.298
X5.006 Y50.132
X4.921 Y50.018
X4.48 Y49.659
X4.228 Y49.528
X3.722 Y49.268
X3.69 Y49.252
X3.655 Y49.246
X3.62 Y49.251
X3.587 Y49.264
X3.56 Y49.287
X3.54 Y49.316
X3.529 Y49.35
X3.513 Y49.919
X3.543 Y50.108
X3.59 Y50.462
X3.627 Y50.795
X3.655 Y51.107
X3.675 Y51.406
X3.688 Y51.696
X3.695 Y51.987
Y52.277
X3.688 Y52.592
X3.67 Y53.01
X3.632 Y53.578
X3.591 Y54.145
X3.564 Y54.713
X3.536 Y55.15
X3.507 Y55.481
X3.475 Y55.774
X3.441 Y56.03
X3.405 Y56.268
X3.365 Y56.494
X3.321 Y56.712
X3.274 Y56.924
X3.223 Y57.131
X3.196 Y57.234
X3.139 Y57.437
X3.107 Y57.538
Y57.574
X3.116 Y57.608
X3.135 Y57.638
X3.161 Y57.662
X3.674 Y57.908
X3.822 Y57.928
X3.975 Y57.954
X4.331 Y58.02
X4.47 Y58.049
X4.609 Y58.077
G3 X4.795 Y58.378 I-0.058 J0.243 F1500
X4.494 Y58.564 I-0.243 J-0.058
G1 X4.44 Y58.551 Z13.086
X4.388 Y58.539 Z13.105
X4.342 Y58.528 Z13.135
X4.304 Y58.519 Z13.174
X4.275 Y58.512 Z13.222
X4.257 Y58.507 Z13.275
X4.251 Y58.506 Z13.33
G0 Z26
X-43.2 Y25.681
Z13.58
G1 Z13.33 F1500
X-43.198 Y25.687 Z13.275
X-43.194 Y25.705 Z13.222
X-43.186 Y25.734 Z13.174
X-43.177 Y25.772 Z13.135
X-43.165 Y25.818 Z13.105
X-43.152 Y25.869 Z13.086
X-43.138 Y25.923 Z13.08
G3 X-42.914 Y27.478 I-7.063 J1.809
G1 Y27.584 F2000
X-42.904 Y27.619
X-42.597 Y28.097
X-42.495 Y28.207
X-42.404 Y28.326
X-42.326 Y28.454
X-42.259 Y28.589
X-42.205 Y28.728
X-42.161 Y28.872
X-42.127 Y29.018
X-42.103 Y29.166
X-42.082 Y29.315
X-42.019 Y29.88
X-41.803 Y30.759
X-41.727 Y31.1
X-41.697 Y31.247
X-41.67 Y31.404
X-41.642 Y31.59
X-41.569 Y32.154
X-41.387 Y32.692
X-41.036 Y33.31
X-40.899 Y33.559
X-40.862 Y33.62
X-40.46 Y34.022
X-40.309 Y34.102
X-40.131 Y34.202
X-39.908 Y34.333
X-39.781 Y34.412
X-39.655 Y34.494
X-39.532 Y34.58
X-39.412 Y34.67
X-39.296 Y34.764
X-39.182 Y34.862
X-39.07 Y34.962
X-38.944 Y35.081
X-38.742 Y35.281
X-38.254 Y35.573
X-37.713 Y35.725
X-37.569 Y35.768
X-37.427 Y35.816
X-37.287 Y35.868
X-37.135 Y35.928
X-36.957 Y36.003
X-36.848 Y36.052
X-36.719 Y36.112
X-36.44 Y36.167
X-35.872 Y36.129
X-35.591 Y36.085
X-35.393 Y36.057
X-34.828 Y35.99
X-34.27 Y35.886
X-33.945 Y35.818
X-33.798 Y35.79
X-33.65 Y35.766
X-33.501 Y35.747
X-33.352 Y35.731
X-33.182 Y35.717
X-32.614 Y35.683
X-32.074 Y35.505
X-31.937 Y35.433
X-31.78 Y35.355
X-31.588 Y35.265
X-31.342 Y35.156
X-30.993 Y35.011
X-30.463 Y34.804
X-30.018 Y34.451
X-29.821 Y34.245
X-29.573 Y33.734
X-29.421 Y33.186
X-29.275 Y32.636
X-29.268 Y32.494
X-29.256 Y32.345
X-29.239 Y32.171
X-29.214 Y31.962
X-29.176 Y31.698
X-29.141 Y31.484
X-29.112 Y31.335
X-29.076 Y31.163
X-29.027 Y30.956
X-28.96 Y30.693
X-28.856 Y30.326
X-28.69 Y29.782
X-28.624 Y29.506
X-28.611 Y29.364
X-28.628 Y29.223
X-28.726 Y28.956
X-28.812 Y28.843
X-29.029 Y28.659
X-29.539 Y28.408
X-30.074 Y28.216
X-30.345 Y28.13
X-30.624 Y28.077
X-31.193 Y28.099
X-31.748 Y28.218
X-32.159 Y28.299
X-32.307 Y28.325
X-32.455 Y28.346
X-32.605 Y28.362
X-32.754 Y28.371
X-32.904 Y28.375
X-33.054 Y28.373
X-33.204 Y28.367
X-33.355 Y28.358
X-33.531 Y28.343
X-33.68 Y28.326
X-33.829 Y28.306
X-33.977 Y28.282
X-34.131 Y28.252
X-34.311 Y28.214
X-34.529 Y28.162
X-34.812 Y28.089
X-35.222 Y27.973
X-35.54 Y27.875
X-35.696 Y27.823
X-35.837 Y27.773
X-35.977 Y27.717
X-36.114 Y27.657
X-36.249 Y27.592
X-36.383 Y27.524
X-36.534 Y27.443
X-36.713 Y27.342
X-36.842 Y27.265
X-36.968 Y27.183
X-37.09 Y27.097
X-37.209 Y27.005
X-37.323 Y26.907
X-37.432 Y26.805
X-37.538 Y26.699
X-37.64 Y26.589
X-37.739 Y26.476
X-37.838 Y26.358
X-37.95 Y26.218
X-38.047 Y26.091
X-38.093 Y26.029
X-38.34 Y25.681
X-38.434 Y25.575
X-38.532 Y25.471
X-38.563 Y25.454
X-38.597 Y25.445
X-38.633 Y25.447
X-38.666 Y25.459
X-38.695 Y25.48
X-38.717 Y25.507
X-38.928 Y26.035
X-38.939 Y26.185
X-38.959 Y26.334
X-38.988 Y26.481
X-39.026 Y26.626
X-39.073 Y26.768
X-39.129 Y26.908
X-39.195 Y27.042
X-39.27 Y27.173
X-39.352 Y27.298
X-39.441 Y27.419
X-39.535 Y27.535
X-39.635 Y27.647
X-39.739 Y27.755
X-39.847 Y27.859
X-39.958 Y27.96
X-40.039 Y28.029
X-40.059 Y28.059
X-40.07 Y28.093
X-40.085 Y28.661
X-39.942 Y29.211
X-39.804 Y29.763
X-39.704 Y30.18
X-39.641 Y30.475
X-39.581 Y30.788
X-39.486 Y31.348
X-39.301 Y31.886
X-38.946 Y32.33
X-38.639 Y32.545
X-38.432 Y32.696
X-38.25 Y32.836
X-38.072 Y32.979
X-37.636 Y33.344
X-37.125 Y33.593
X-36.595 Y33.799
X-36.038 Y33.913
X-35.472 Y33.864
X-34.909 Y33.779
X-34.527 Y33.709
X-34.247 Y33.664
X-33.985 Y33.628
X-33.42 Y33.564
X-32.87 Y33.423
X-32.343 Y33.209
X-32.079 Y33.102
X-31.951 Y33.04
X-31.745 Y32.845
X-31.487 Y32.337
X-31.334 Y31.41
X-31.273 Y31.085
X-31.206 Y30.766
X-31.164 Y30.592
X-31.083 Y30.256
X-31.055 Y30.153
X-31.056 Y30.117
X-31.066 Y30.083
X-31.086 Y30.054
X-31.114 Y30.031
X-31.146 Y30.017
X-31.181 Y30.013
X-31.743 Y30.104
X-31.878 Y30.169
X-32.017 Y30.226
X-32.159 Y30.275
X-32.302 Y30.317
X-32.448 Y30.353
X-32.595 Y30.382
X-32.743 Y30.406
X-32.892 Y30.424
X-33.042 Y30.437
X-33.192 Y30.445
X-33.341 Y30.449
X-33.491 Y30.448
X-33.641 Y30.444
X-33.791 Y30.435
X-33.941 Y30.423
X-34.101 Y30.407
X-34.264 Y30.386
X-34.452 Y30.358
X-34.644 Y30.326
X-34.874 Y30.281
X-35.125 Y30.226
X-35.407 Y30.159
X-35.667 Y30.09
X-35.885 Y30.028
X-36.074 Y29.969
X-36.252 Y29.909
X-36.425 Y29.847
X-36.597 Y29.781
X-36.772 Y29.709
X-36.952 Y29.63
X-37.136 Y29.545
X-37.299 Y29.465
X-37.376 Y29.425
X-37.525 Y29.346
X-37.659 Y29.271
X-37.792 Y29.193
X-37.919 Y29.114
X-38.038 Y29.036
G3 X-37.819 Y28.593 I0.144 J-0.204 F1500
G1 X-37.746 Y28.616
X-33.266 Y30.041 F2000
X-32.763 Y30.201 F1500
X-32.716 Y30.222
X-32.674 Y30.252
X-32.639 Y30.289
X-32.612 Y30.334
X-32.595 Y30.382
X-32.587 Y30.424 F2000
X-32.51 Y30.552
X-32.451 Y30.69
X-32.421 Y30.837
X-32.416 Y30.987
X-32.435 Y31.136
X-32.475 Y31.281
X-32.532 Y31.419
X-32.606 Y31.55
X-32.694 Y31.671
X-32.793 Y31.783
X-32.903 Y31.885
X-33.022 Y31.977
X-33.148 Y32.059
X-33.28 Y32.13
X-33.417 Y32.192
X-33.557 Y32.244
X-33.701 Y32.288
X-33.847 Y32.323
X-33.994 Y32.35
X-34.143 Y32.37
X-34.292 Y32.384
X-34.442 Y32.391
X-34.592 Y32.393
X-34.742 Y32.389
X-34.892 Y32.381
X-35.041 Y32.369
X-35.19 Y32.353
X-35.346 Y32.333
X-35.507 Y32.308
X-35.681 Y32.277
X-35.866 Y32.24
X-36.055 Y32.198
X-36.247 Y32.151
X-36.444 Y32.098
X-36.646 Y32.039
X-36.852 Y31.974
X-37.061 Y31.902
X-37.275 Y31.824
X-37.487 Y31.741
X-37.693 Y31.655
X-37.901 Y31.563
X-38.03 Y31.502
X-38.158 Y31.44
G0 Z26
X1.76 Y-13.494
Z13.58
G1 Z13.33 F1500
X1.762 Y-13.488 Z13.275
X1.766 Y-13.47 Z13.222
X1.774 Y-13.441 Z13.174
X1.783 Y-13.403 Z13.135
X1.795 Y-13.357 Z13.105
X1.808 Y-13.306 Z13.086
X1.822 Y-13.252 Z13.08
G3 X2.046 Y-11.697 I-7.063 J1.809
G1 Y-11.661 F2000
X2.056 Y-11.627
X2.363 Y-11.149
X2.452 Y-11.028
X2.778 Y-10.562
X3.169 Y-10.149
X3.418 Y-10.013
X3.692 Y-9.935
X3.976 Y-9.942
X4.248 Y-10.024
X4.751 Y-10.29
X4.859 Y-10.382
X4.959 Y-10.483
X5.002 Y-10.54
X5.02 Y-10.57
X5.035 Y-10.602
X5.041 Y-10.637
X5.037 Y-10.673
X4.981 Y-10.803
G3 X5.264 Y-11.139 I0.233 J-0.09 F1500
G1 X5.307 Y-11.116 Z13.085
X5.348 Y-11.095 Z13.1
X5.387 Y-11.075 Z13.123
X5.41 Y-11.043 Z13.156
X5.428 Y-11.017 Z13.197
X5.441 Y-10.998 Z13.244
X5.446 Y-10.988 Z13.286
X5.447 Y-10.984 Z13.33
G0 Z26
X14.173 Y-18.293
Z13.088
G1 Z12.838 F1500
X14.174 Y-18.287 Z12.782
X14.179 Y-18.269 Z12.729
X14.186 Y-18.241 Z12.682
X14.196 Y-18.202 Z12.642
X14.208 Y-18.156 Z12.612
X14.221 Y-18.105 Z12.594
X14.235 Y-18.051 Z12.588
G3 X14.458 Y-16.496 I-7.063 J1.809
G1 Y-16.461 F2000
X14.468 Y-16.427
X14.775 Y-15.948
X15.132 Y-15.505
X15.186 Y-15.374
X15.236 Y-15.232
X15.278 Y-15.088
X15.313 Y-14.942
X15.341 Y-14.795
X15.362 Y-14.647
X15.378 Y-14.498
X15.389 Y-14.348
X15.396 Y-14.198
X15.399 Y-14.045
X15.398 Y-13.832
G3 X15.136 Y-13.594 I-0.25 J-0.011 F1500
X14.898 Y-13.855 I0.011 J-0.25
G1 X14.899 Y-13.871 F2000
X14.983 Y-14.65
X15.04 Y-15.173 F1500
X15.051 Y-15.223
X15.072 Y-15.271
X15.102 Y-15.313
X15.141 Y-15.348
X15.186 Y-15.374
X15.221 Y-15.388 F2000
X15.336 Y-15.485
X15.462 Y-15.567
X15.602 Y-15.62
X15.749 Y-15.648
X15.899 Y-15.652
X16.048 Y-15.635
X16.194 Y-15.598
X16.334 Y-15.544
X16.467 Y-15.474
X16.591 Y-15.391
X16.707 Y-15.296
X16.814 Y-15.19
X16.863 Y-15.133
X16.907 Y-15.076
X16.936 Y-15.054
X17.069 Y-15.005
X17.351 Y-14.966
X17.492 Y-14.984
X17.627 Y-15.03
X17.754 Y-15.093
X17.876 Y-15.166
X17.973 Y-15.269
X18.043 Y-15.393
X18.087 Y-15.528
X18.104 Y-15.67
X18.097 Y-15.811
G3 X18.597 Y-15.821 I0.25 J-0.005 F1500
G1 X18.598 Y-15.765 Z12.594
X18.599 Y-15.713 Z12.612
Y-15.665 Z12.642
X18.6 Y-15.626 Z12.682
X18.601 Y-15.596 Z12.729
Y-15.577 Z12.782
Y-15.571 Z12.838
G0 Z26
X36.519 Y2.509
Z13.088
G1 Z12.838 F1500
X36.52 Y2.515 Z12.782
X36.525 Y2.533 Z12.729
X36.532 Y2.562 Z12.682
X36.542 Y2.6 Z12.642
X36.554 Y2.646 Z12.612
X36.567 Y2.697 Z12.594
X36.581 Y2.751 Z12.588
G3 X36.804 Y4.306 I-7.063 J1.809
G1 Y4.413 F2000
X36.814 Y4.447
X37.121 Y4.925
X37.315 Y5.148
X37.524 Y5.531
X37.681 Y6.077
X37.723 Y6.644
X37.708 Y6.957
X37.702 Y7
X37.689 Y7.041
X37.669 Y7.08
X37.591 Y7.202
X37.584 Y7.216
X37.455 Y7.587
X37.449 Y7.62
X37.409 Y7.878
X37.394 Y8.008
X37.395 Y8.266
X37.397 Y8.395
X37.429 Y8.783
X37.441 Y8.845
X37.456 Y8.912
X37.525 Y9.154
X37.532 Y9.17
X37.595 Y9.299
X37.679 Y9.428
X37.713 Y9.476
X37.777 Y9.557
X37.842 Y9.633
X37.861 Y9.66
X37.875 Y9.687
X37.887 Y9.719
X37.894 Y9.751
X37.899 Y9.816
X37.915 Y9.945
X37.94 Y10.074
X37.974 Y10.203
X38.022 Y10.332
X38.081 Y10.462
X38.101 Y10.496
X38.159 Y10.591
X38.259 Y10.72
X38.359 Y10.824
X38.488 Y10.952
X38.617 Y11.048
X38.707 Y11.107
X39.17 Y11.438
X39.406 Y11.659
X39.428 Y11.683
X39.447 Y11.709
X39.462 Y11.738
G3 X39.077 Y12.03 I-0.231 J0.095 F1500
G1 X38.975 Y11.95
X38.451 Y11.539 F2000
X38.425 Y11.519 F1500
G3 X38.707 Y11.107 I0.154 J-0.197
G1 X38.747 Y11.133 F2000
X38.876 Y11.209
X39.005 Y11.275
X39.134 Y11.336
X39.201 Y11.366
X39.263 Y11.397
X39.293 Y11.42
X39.323 Y11.446
X39.344 Y11.47
X39.36 Y11.495
X39.371 Y11.515
X39.379 Y11.536
X39.392 Y11.576
X39.411 Y11.624
X39.469 Y11.753
X39.545 Y11.882
X39.609 Y12.011
X39.662 Y12.141
X39.78 Y12.341
X39.909 Y12.558
X39.973 Y12.657
X40.038 Y12.737
X40.179 Y12.914
X40.429 Y13.425
X40.571 Y13.976
X40.595 Y14.544
X40.543 Y15.11
X40.381 Y15.655
X40.138 Y16.169
X39.839 Y16.653
X39.679 Y16.888
X39.598 Y17.16
X39.581 Y17.301
X39.625 Y17.582
X39.732 Y17.846
X39.87 Y18.094
X40.248 Y18.519
X40.701 Y18.863
X41.173 Y19.18
X41.353 Y19.294
X41.387 Y19.304
X41.422
X41.559 Y19.264
X42.035 Y18.953
X42.492 Y18.615
X42.959 Y18.29
X43.439 Y17.986
X43.963 Y17.765
X44.508 Y17.602
X45.072 Y17.532
X45.64 Y17.554
X46.202 Y17.645
X46.736 Y17.841
X47.241 Y18.101
X47.697 Y18.441
X48.102 Y18.84
X48.35 Y18.98
X48.622 Y19.063
X48.9 Y19.122
X49.464 Y19.053
X49.975 Y18.804
X50.451 Y18.492
X50.681 Y18.325
X50.779 Y18.222
X50.862 Y18.107
X50.89 Y18.041
X50.905 Y17.972
X50.871 Y17.69
X50.629 Y17.175
X50.34 Y16.685
X50.057 Y16.192
X49.855 Y15.66
X49.706 Y15.112
X49.653 Y14.546
X49.681 Y13.978
X49.789 Y13.419
X49.828 Y13.324
X49.859 Y13.27
X49.902 Y13.224
X49.955 Y13.191
X49.983 Y13.179
X49.992 Y13.174
X50.241 Y12.999
X50.356 Y12.916
X50.371 Y12.902
X50.503 Y12.786
X50.629 Y12.667
X50.759 Y12.528
X50.887 Y12.379
X51.113 Y12.122
X51.126 Y12.104
X51.175 Y12.011
X51.324 Y11.753
X51.38 Y11.624
X51.404 Y11.564
X51.425 Y11.495
X51.443 Y11.43
X51.456 Y11.398
X51.474 Y11.366
X51.501 Y11.333
X51.533 Y11.3
X51.623 Y11.237
X51.662 Y11.21
X51.791 Y11.103
X51.92 Y10.995
X51.948 Y10.978
X52.05 Y10.938
X52.179 Y10.875
X52.345 Y10.773
X52.358 Y10.764
X52.437 Y10.694
X52.544 Y10.591
X52.713 Y10.396
X52.885 Y10.058
X52.891 Y10.042
X52.954 Y9.684
X52.965 Y9.557
X52.981 Y9.299
X52.977 Y9.17
X52.966 Y9.041
X52.971 Y9.009
X52.98 Y8.976
X52.994 Y8.944
X53.091 Y8.783
X53.129 Y8.718
X53.241 Y8.347
X53.251 Y8.008
X53.249 Y7.878
X53.238 Y7.62
X53.222 Y7.491
X53.171 Y7.233
X53.138 Y7.104
X53.027 Y6.765
X52.931 Y6.587
X52.836 Y6.458
X52.824 Y6.443
X52.719 Y6.329
X52.591 Y6.199
X52.211 Y5.776
X51.844 Y5.416
X51.819 Y5.388
X51.798 Y5.355
X51.783 Y5.32
G3 X52.202 Y5.073 I0.239 J-0.074 F1500
G1 X52.283 Y5.157
X52.933 Y5.835 F2000
X52.942 Y5.844 F1500
G3 X52.591 Y6.199 I-0.18 J0.173
G1 X52.534 Y6.142 F2000
X52.43 Y6.07
X52.308 Y5.996
X52.191 Y5.941
X52.179 Y5.934
X52.027 Y5.812
X51.92 Y5.707
X51.899 Y5.683
X51.878 Y5.651
X51.862 Y5.618
X51.849 Y5.586
X51.841 Y5.554
X51.819 Y5.425
X51.69 Y5.053
X51.662 Y5.005
X51.599 Y4.908
X51.404 Y4.66
X51.275 Y4.507
X51.171 Y4.391
X51.045 Y4.262
X50.887 Y4.122
X50.758 Y4.013
X50.58 Y3.875
X50.5 Y3.816
X50.402 Y3.746
X49.983 Y3.47
X49.854 Y3.404
X49.596 Y3.283
X49.208 Y3.097
X49.079 Y3.026
X48.95 Y2.965
X48.821 Y2.908
X48.692 Y2.854
X48.433 Y2.763
X48.304 Y2.721
X47.917 Y2.638
X47.787 Y2.606
X47.497 Y2.524
X47.481 Y2.521
X47.142 Y2.494
X47.012 Y2.489
X46.754 Y2.485
X46.625 Y2.493
X46.302 Y2.541
X46.189 Y2.583
X46.108 Y2.623
X45.979 Y2.696
X45.542 Y2.914
X44.99 Y3.051
X44.546 Y3.067
X44.488 Y3.062
X44.433 Y3.044
X44.384 Y3.012
G3 X44.468 Y2.565 I0.144 J-0.205 F1500
G1 X44.675 Y2.514
X45.715 Y2.258 F2000
X45.79 Y2.24 F1500
G3 X45.979 Y2.696 I0.06 J0.243
G1 X45.95 Y2.712 F2000
X45.721 Y2.864
X45.536 Y2.987
X45.425 Y3.1
X45.333 Y3.2
X45.204 Y3.375
X45.175 Y3.408
X45.14 Y3.442
X45.107 Y3.463
X45.075 Y3.478
X45.043 Y3.487
X45.019 Y3.492
X44.995 Y3.493
X44.97
X44.946 Y3.49
X44.931 Y3.487
X44.903 Y3.479
X44.874 Y3.466
X44.845 Y3.449
X44.817 Y3.427
X44.59 Y3.189
X44.559 Y3.157
X44.384 Y3.012
X44.369 Y3.002
X44.01 Y2.815
X43.993 Y2.808
X43.622 Y2.702
X43.267 Y2.688
X43.138 Y2.693
X42.88 Y2.708
X42.829 Y2.712
X42.492 Y2.786
X42.363 Y2.812
X42.105 Y2.86
X41.975 Y2.886
X41.588 Y2.995
X41.459 Y3.043
X41.201 Y3.152
X40.777 Y3.336
X40.759 Y3.346
X40.551 Y3.487
X40.363 Y3.616
X40.296 Y3.653
X39.909 Y3.847
X39.858 Y3.875
X39.521 Y4.089
X39.468 Y4.133
X39.322 Y4.262
X39.134 Y4.45
X39.06 Y4.52
X38.876 Y4.685
X38.747 Y4.842
X38.693 Y4.908
X38.538 Y5.085
X38.528 Y5.102
X38.333 Y5.473
X38.312 Y5.554
X38.275 Y5.812
X38.278 Y5.941
X38.29 Y6.07
X38.302 Y6.135
X38.306 Y6.167
Y6.199
X38.302 Y6.232
X38.293 Y6.264
X38.28 Y6.296
X38.26 Y6.329
X38.23 Y6.366
X38.151 Y6.458
X38.034 Y6.587
X37.923 Y6.716
X37.842 Y6.811
X37.819 Y6.845
X37.669 Y7.08
G3 X37.257 Y6.796 I-0.206 J-0.142 F1500
G1 X37.289 Y6.75 Z12.594
X37.319 Y6.706 Z12.612
X37.346 Y6.667 Z12.642
X37.369 Y6.635 Z12.682
X37.386 Y6.61 Z12.729
X37.396 Y6.595 Z12.782
X37.4 Y6.59 Z12.838
G0 Z26
X39.136 Y12.241
Z13.088
G1 Z12.838 F1500
X39.142 Y12.243 Z12.782
X39.16 Y12.249 Z12.729
X39.188 Y12.258 Z12.682
X39.226 Y12.27 Z12.642
X39.271 Y12.284 Z12.612
X39.321 Y12.301 Z12.594
X39.374 Y12.318 Z12.588
G3 X40.038 Y12.737 I-0.486 J1.506
G1 X40.195 Y12.916 F2000
X40.296 Y13.008
X40.34 Y13.045
X40.426 Y13.11
X40.555 Y13.201
X40.684 Y13.27
X40.747 Y13.303
X40.813 Y13.328
X41.129 Y13.432
X41.364 Y13.51
X41.605 Y13.653
X41.853 Y13.887
X42.078 Y14.217
X42.24 Y14.623
X42.333 Y15.184
X42.303 Y15.752
X42.27 Y15.89
X42.123 Y16.44
X42.014 Y16.702
X41.954 Y16.831
G3 X41.487 Y16.77 I-0.223 J-0.113 F1500
G1 X41.452 Y16.604
X40.907 Y14.025 F2000
X40.845 Y13.731 F1500
X40.839 Y13.68
Y13.679
G3 X41.129 Y13.432 I0.25 J0
G1 X41.201 Y13.446 F2000
X41.33 Y13.468
X41.459 Y13.477
X41.588 Y13.479
X41.717 Y13.477
X41.749 Y13.478
X41.782 Y13.484
X41.814 Y13.494
X41.846 Y13.509
X41.879 Y13.531
X41.912 Y13.561
X41.975 Y13.629
X42.042 Y13.69
X42.105 Y13.743
X42.24 Y13.82
X42.363 Y13.882
X42.492 Y13.943
X42.847 Y14.056
X43.084 Y14.13
X43.332 Y14.272
X43.589 Y14.505
X43.821 Y14.833
X43.908 Y15.04
X43.945 Y15.161
X43.978 Y15.299
X44.03 Y15.579
X44.033 Y15.614
X44.046 Y15.647
X44.067 Y15.675
X44.096 Y15.696
X44.129 Y15.708
X44.697 Y15.744
X45.257 Y15.648
X45.826 Y15.643
X46.39 Y15.711
X46.943 Y15.844
X47.21 Y15.942
X47.342 Y15.996
X47.472 Y16.052
X47.988 Y16.292
X48.475 Y16.585
X48.588 Y16.671
X48.706 Y16.75
G3 X48.684 Y17.415 I-0.234 J0.325 F1500
X48.304 Y17.439 I-0.212 J-0.34 F2000
G1 X42.666 Y14.82
G3 X42.46 Y14.597 I0.169 J-0.363
X42.847 Y14.056 I0.375 J-0.141 F1500
G1 X43.209 Y14.08 F2000
X43.226
X43.59 Y14.03
X43.606 Y14.027
X43.838 Y13.949
X44.385 Y13.793
X44.948 Y13.714
X45.515 Y13.68
X45.815 Y13.691
X45.849 Y13.694
X45.882 Y13.702
X45.915 Y13.715
G3 X45.831 Y14.184 I-0.116 J0.221 F1500
G1 X45.679 Y14.204
X44.016 Y14.423 F2000
X43.959 Y14.43 F1500
G3 X43.838 Y13.949 I-0.033 J-0.248
G1 X43.913 Y13.923 F2000
X44.042 Y13.881
X44.171 Y13.847
X44.255 Y13.82
X44.429 Y13.759
X44.559 Y13.703
X44.817 Y13.583
X44.856 Y13.561
X44.946 Y13.507
X45.062 Y13.432
X45.075 Y13.422
X45.107 Y13.4
X45.14 Y13.384
X45.172 Y13.374
X45.204 Y13.367
X45.237 Y13.363
X45.269 Y13.364
X45.301 Y13.369
X45.333 Y13.379
X45.356 Y13.388
X45.378 Y13.401
X45.463 Y13.46
X45.592 Y13.539
X45.863 Y13.69
X45.979 Y13.746
X46.496 Y13.955
X46.625 Y14.004
X46.754 Y14.052
X47.109 Y14.163
X47.125 Y14.167
X47.271 Y14.18
X47.513 Y14.201
X47.529
X47.787 Y14.168
X47.852 Y14.153
X47.868 Y14.148
X48.235 Y13.961
X48.255 Y13.949
X48.4 Y13.82
X48.433 Y13.787
X48.516 Y13.69
X48.623 Y13.561
X48.64 Y13.545
X48.657 Y13.531
X48.692 Y13.51
X48.724 Y13.493
X48.756 Y13.482
X48.821 Y13.472
X48.95 Y13.456
X49.208 Y13.421
X49.596 Y13.344
X49.654 Y13.327
X49.725 Y13.297
X49.955 Y13.191
G3 X50.282 Y13.326 I0.096 J0.231 F1500
X50.148 Y13.653 I-0.231 J0.096
G1 X50.097 Y13.674 Z12.594
X50.048 Y13.695 Z12.612
X50.004 Y13.713 Z12.642
X49.968 Y13.728 Z12.682
X49.94 Y13.74 Z12.729
X49.923 Y13.747 Z12.782
X49.917 Y13.749 Z12.838
G0 Z26
X-5.246 Y56.541
Z13.088
G1 Z12.838 F1500
X-5.244 Y56.547 Z12.782
X-5.24 Y56.565 Z12.729
X-5.232 Y56.594 Z12.682
X-5.223 Y56.632 Z12.642
X-5.211 Y56.678 Z12.612
X-5.198 Y56.729 Z12.594
X-5.184 Y56.783 Z12.588
G3 X-4.96 Y58.338 I-7.063 J1.809
G1 Y58.373 F2000
X-4.8 Y58.919
X-4.497 Y59.4
X-4.393 Y59.665
X-4.106 Y60.155
X-3.679 Y60.531
X-3.248 Y60.903
X-2.861 Y61.319
X-2.49 Y61.75
X-2.091 Y62.155
X-1.658 Y62.523
X-1.17 Y62.815
X-0.657 Y63.061
X-0.137 Y63.291
X0.386 Y63.513
X0.919 Y63.712
X1.457 Y63.896
X1.997 Y64.073
X2.539 Y64.248
X3.622 Y64.595
X4.173 Y64.733
X4.74 Y64.778
X5.308 Y64.794
X5.877 Y64.802
X6.446 Y64.805
X7.013 Y64.774
X7.58 Y64.729
X8.14 Y64.631
X8.681 Y64.456
X9.18 Y64.183
X9.667 Y63.89
X10.15 Y63.59
X10.631 Y63.287
X11.112 Y62.983
X11.568 Y62.644
X12.004 Y62.278
X12.419 Y61.889
X12.825 Y61.491
X13.223 Y61.085
X13.352 Y60.915
X13.394 Y60.858
X13.407 Y60.825
X13.409 Y60.79
X13.401 Y60.755
X13.264 Y60.506
X12.837 Y60.131
X12.422 Y59.741
X11.972 Y59.394
X11.511 Y59.062
X11.099 Y58.67
X10.735 Y58.233
X10.436 Y57.749
X10.224 Y57.222
X10.068 Y56.675
X9.949 Y56.119
X9.847 Y55.559
X9.752 Y54.999
X9.696 Y54.433
X9.704 Y53.864
X9.764 Y53.299
X9.879 Y52.742
X10.036 Y52.196
X10.032 Y51.627
X9.854 Y51.087
X9.703 Y50.539
X9.579 Y49.984
X9.446 Y49.431
X9.222 Y48.909
X9.009 Y48.381
X8.806 Y47.85
X8.616 Y47.314
X8.424 Y46.779
X8.194 Y46.259
X8.171 Y46.232
X8.053 Y46.153
X7.508 Y45.991
X6.954 Y45.861
X6.402 Y45.723
X5.878 Y45.503
X5.379 Y45.231
X4.878 Y44.962
X4.354 Y44.741
X3.837 Y44.503
X3.31 Y44.29
X2.761 Y44.142
X2.201 Y44.046
X1.782 Y43.968
X1.642 Y43.941
X1.501 Y43.92
X1.395 Y43.907
X1.361 Y43.914
X1.329 Y43.93
X1.303 Y43.954
X1.23 Y44.076
X1.12 Y44.634
X0.938 Y45.173
X0.705 Y45.691
X0.441 Y46.195
X0.162 Y46.691
X0.018 Y47.241
X-0.091 Y47.799
X-0.203 Y48.356
X-0.22 Y48.497
X-0.244 Y48.645
X-0.274 Y48.792
X-0.31 Y48.938
X-0.351 Y49.083
X-0.402 Y49.251
X-0.468 Y49.452
X-0.558 Y49.706
X-0.76 Y50.237
X-0.792 Y50.805
X-0.711 Y51.368
X-0.686 Y51.508
X-0.663 Y51.656
X-0.644 Y51.805
X-0.63 Y51.954
X-0.622 Y52.104
X-0.62 Y52.254
X-0.622 Y52.404
X-0.628 Y52.554
X-0.638 Y52.722
X-0.655 Y52.923
X-0.682 Y53.175
X-0.755 Y53.739
X-0.8 Y54.305
X-0.801 Y54.806
X-0.804 Y54.956
X-0.812 Y55.105
X-0.824 Y55.256
X-0.841 Y55.43
X-0.867 Y55.641
X-0.895 Y55.831
X-0.919 Y55.979
X-0.949 Y56.126
X-0.985 Y56.271
X-1.027 Y56.415
X-1.076 Y56.557
X-1.13 Y56.697
X-1.188 Y56.835
X-1.251 Y56.972
X-1.317 Y57.106
X-1.387 Y57.239
X-1.46 Y57.37
X-1.537 Y57.499
X-1.62 Y57.624
X-1.706 Y57.746
X-1.796 Y57.866
X-2.149 Y58.313
X-2.302 Y58.509
X-2.315 Y58.542
X-2.318 Y58.577
X-2.311 Y58.612
X-2.18 Y58.864
X-1.788 Y59.276
X-1.452 Y59.636
X-1.074 Y60.061
X-0.677 Y60.468
X-0.224 Y60.812
X0.28 Y61.075
X0.797 Y61.312
X1.323 Y61.527
X1.857 Y61.723
X2.395 Y61.906
X2.935 Y62.084
X3.476 Y62.259
X4.018 Y62.431
X4.574 Y62.551
X5.141 Y62.596
X5.709 Y62.614
X6.278 Y62.617
X6.846 Y62.591
X7.411 Y62.53
X7.947 Y62.338
X8.446 Y62.066
X8.933 Y61.773
X9.416 Y61.473
X9.89 Y61.159
X10.003 Y61.072
X10.115 Y60.985
X10.335 Y60.805
X10.47 Y60.689
X10.496 Y60.665
X10.515 Y60.635
X10.525 Y60.601
Y60.566
X10.514 Y60.532
X10.495 Y60.502
X10.062 Y60.133
X9.926 Y60.069
X9.795 Y59.996
X9.669 Y59.916
X9.547 Y59.828
X9.43 Y59.734
X9.318 Y59.634
X9.21 Y59.53
X9.106 Y59.422
X9.008 Y59.309
X8.915 Y59.191
X8.827 Y59.069
X8.743 Y58.945
X8.663 Y58.818
X8.587 Y58.689
X8.516 Y58.557
X8.449 Y58.423
X8.385 Y58.287
X8.323 Y58.144
X8.266 Y58.005
X8.212 Y57.865
X8.159 Y57.714
X8.1 Y57.536
X8.04 Y57.34
X7.982 Y57.134
X7.914 Y56.869
X7.84 Y56.555
X7.752 Y56.139
X7.709 Y55.915
X7.662 Y55.627
X7.624 Y55.362
X7.605 Y55.207
X7.587 Y55.024
X7.57 Y54.8
X7.558 Y54.594
X7.553 Y54.443
X7.552 Y54.268
X7.554 Y54.056
X7.561 Y53.845
X7.57 Y53.695
X7.583 Y53.529
X7.603 Y53.331
X7.63 Y53.111
X7.653 Y52.956
X7.683 Y52.778
X7.79 Y52.22
X7.72 Y51.656
X7.595 Y51.101
X7.469 Y50.546
X7.296 Y50.005
X7.094 Y49.473
X6.89 Y48.942
X6.658 Y48.308
X6.637 Y48.28
X6.186 Y47.934
X5.904 Y47.837
X5.693 Y47.759
X5.538 Y47.698
X5.354 Y47.621
X5.126 Y47.519
X4.787 Y47.359
X4.278 Y47.105
X3.762 Y46.866
X3.245 Y46.63
X3.114 Y46.576
X2.981 Y46.526
X2.847 Y46.478
X2.745 Y46.446
X2.711 Y46.435
X2.676
X2.642 Y46.445
X2.612 Y46.464
X2.588 Y46.491
X2.349 Y47.007
X2.196 Y47.555
X2.075 Y48.11
X1.968 Y48.669
X1.916 Y48.92
X1.86 Y49.163
X1.797 Y49.406
X1.726 Y49.664
X1.642 Y49.939
X1.466 Y50.48
X1.476 Y51.048
X1.504 Y51.373
X1.52 Y51.611
X1.525 Y51.732
X1.511 Y51.825
X1.465 Y51.906
X1.392 Y51.964
X1.251 Y52.039
X1.238 Y52.05
X0.924 Y52.404
X0.913 Y52.42
X0.866 Y52.502
X0.846 Y52.534
X0.817 Y52.566
X0.796 Y52.584
X0.775 Y52.598
X0.371 Y52.855
X0.355 Y52.872
X0.079 Y53.244
X0.069 Y53.26
X0.033 Y53.341
X0 Y53.426
X-0.058 Y53.599
X-0.061 Y53.616
X-0.09 Y53.955
X-0.091 Y53.971
X-0.013 Y54.341
X0.001 Y54.374
X0.064 Y54.503
X0.196 Y54.762
X0.401 Y55.149
X0.494 Y55.278
X0.577 Y55.403
X0.731 Y55.818
X0.786 Y56.22
X0.788 Y56.266
X0.781 Y56.312
X0.766 Y56.356
G3 X0.303 Y56.318 I-0.224 J-0.11 F1500
G1 X0.249 Y56.138
X0.087 Y55.598 F2000
X0.059 Y55.506 F1500
G3 X0.494 Y55.278 I0.239 J-0.072
G1 X0.686 Y55.537 F2000
X0.775 Y55.624
X0.82 Y55.666
X0.904 Y55.73
X0.921 Y55.745
X0.938 Y55.763
X0.961 Y55.795
X0.978 Y55.827
X0.989 Y55.86
X0.996 Y55.892
X0.998 Y55.924
X0.996 Y55.956
X0.99 Y55.989
X0.981 Y56.021
X0.967 Y56.053
X0.955 Y56.074
X0.94 Y56.095
X0.867 Y56.183
X0.818 Y56.247
X0.808 Y56.263
X0.646 Y56.625
X0.64 Y56.643
X0.595 Y56.957
X0.486 Y57.516
X0.469 Y57.665
X0.444 Y57.812
X0.41 Y57.959
X0.39 Y58.031
X0.379 Y58.065
X0.378 Y58.1
X0.416 Y58.237
X0.565 Y58.479
X0.75 Y58.695
X1.192 Y59.053
X1.701 Y59.307
X2.226 Y59.525
X2.76 Y59.721
X3.298 Y59.905
X3.838 Y60.083
X4.379 Y60.257
X4.937 Y60.368
X5.504 Y60.414
X6.072 Y60.428
X6.64 Y60.405
X6.776 Y60.362
X7.31 Y60.166
X7.341 Y60.149
X7.366 Y60.124
X7.383 Y60.093
X7.39 Y60.058
X7.387 Y60.022
X7.375 Y59.989
X7.033 Y59.535
X6.921 Y59.434
X6.816 Y59.327
X6.718 Y59.215
X6.625 Y59.097
X6.538 Y58.975
X6.456 Y58.849
X6.38 Y58.72
X6.308 Y58.588
X6.241 Y58.454
X6.178 Y58.318
X6.119 Y58.18
X6.063 Y58.04
X6.008 Y57.89
X5.953 Y57.733
X5.893 Y57.545
X5.831 Y57.336
X5.77 Y57.114
X5.71 Y56.875
X5.703 Y56.844
X5.706 Y56.723
X5.765 Y56.617
X5.868 Y56.552
X6.07 Y56.484
X6.199 Y56.437
X6.329 Y56.384
X6.458 Y56.329
X6.491 Y56.312
X6.587 Y56.253
X6.716 Y56.163
X6.771 Y56.108
X6.885 Y55.992
X6.896 Y55.978
X7.093 Y55.622
X7.097 Y55.611
X7.166 Y55.262
X7.168 Y55.246
X7.159 Y54.891
X7.157 Y54.875
X7.066 Y54.52
X7.062 Y54.503
X6.893 Y54.19
X6.874 Y54.163
X6.86 Y54.148
X6.675 Y53.987
X6.398 Y53.72
X6.183 Y53.397
X5.978 Y52.867
X5.931 Y52.688
X5.924 Y52.639
X5.925 Y52.591
X5.937 Y52.543
G3 X6.387 Y52.509 I0.233 J0.089 F1500
G1 X6.497 Y52.701
X7.004 Y53.588 F2000
X7.05 Y53.669 F1500
G3 X6.675 Y53.987 I-0.217 J0.124
G1 X6.527 Y53.858 F2000
X6.458 Y53.822
X6.329 Y53.766
X6.183 Y53.717
X5.812 Y53.671
X5.683 Y53.667
X5.612 Y53.673
X5.521 Y53.68
X5.489 Y53.678
X5.457 Y53.672
X5.425 Y53.662
X5.402 Y53.651
X5.379 Y53.637
X5.333 Y53.599
X5.312 Y53.577
X5.295 Y53.555
X5.283 Y53.534
X5.273 Y53.513
X5.265 Y53.491
X5.259 Y53.47
X5.255 Y53.438
X5.254 Y53.406
X5.257 Y53.373
X5.265 Y53.341
X5.278 Y53.31
X5.295 Y53.279
X5.322 Y53.245
X5.341 Y53.227
X5.36 Y53.212
X5.425 Y53.168
X5.531 Y53.083
X5.642 Y52.986
X5.658 Y52.97
X5.671 Y52.954
X5.923 Y52.582
X5.973 Y52.437
X6.01 Y52.308
X6.024 Y52.243
X6.026 Y52.227
X6.036 Y51.856
X5.997 Y51.662
X5.941 Y51.508
X5.885 Y51.404
X5.812 Y51.285
X5.515 Y50.801
X5.285 Y50.28
X5.232 Y50.149
X5.051 Y49.929
X4.609 Y49.572
X4.485 Y49.501
X4.362 Y49.431
X4.113 Y49.293
X3.925 Y49.193
X3.893 Y49.177
X3.858 Y49.17
X3.823 Y49.173
X3.79 Y49.187
X3.762 Y49.208
X3.741 Y49.237
X3.553 Y49.774
X3.504 Y50.341
X3.505 Y50.909
X3.506 Y51.059
X3.502 Y51.106
X3.489 Y51.152
X3.467 Y51.194
G3 X3.053 Y50.914 I-0.207 J-0.14 F1500
G1 X3.084 Y50.868 Z12.594
X3.114 Y50.824 Z12.612
X3.141 Y50.784 Z12.642
X3.163 Y50.752 Z12.682
X3.18 Y50.727 Z12.729
X3.19 Y50.712 Z12.782
X3.193 Y50.707 Z12.838
G0 Z13.088
X6.675 Y51.846
G1 Z12.838 F1500
X6.67 Y51.843 Z12.782
X6.653 Y51.836 Z12.729
X6.625 Y51.825 Z12.682
X6.588 Y51.81 Z12.642
X6.544 Y51.793 Z12.612
X6.495 Y51.773 Z12.594
X6.444 Y51.752 Z12.588
G3 X5.812 Y51.285 I0.595 J-1.467
G1 X5.706 Y51.145 F2000
X5.683 Y51.119
X5.567 Y51.016
X5.425 Y50.908
X5.295 Y50.833
X5.231 Y50.801
X5.166 Y50.774
X4.892 Y50.681
X4.843 Y50.674
X4.708 Y50.654
G3 X4.511 Y50.5 I0.035 J-0.248 F1500
G1 X4.484 Y50.45
X4.446 Y50.407
X4.4 Y50.374
X4.091 Y50.204
X4.07 Y50.193 F2000
G2 X3.7 Y50.406 I-0.121 J0.219
G1 Y50.415
G3 X3.487 Y51.162 I-1.582 J-0.045 F1500
G1 X3.417 Y51.275 F2000
X3.354 Y51.404
X3.335 Y51.436
X3.312 Y51.468
X3.292 Y51.49
X3.272 Y51.507
X3.251 Y51.522
X3.229 Y51.534
X3.197 Y51.547
X3.164 Y51.556
X3.132 Y51.559
X3.1
X2.971 Y51.551
X2.841 Y51.548
X2.712 Y51.568
X2.454 Y51.616
X2.066 Y51.713
X1.937 Y51.749
X1.614 Y51.849
X1.598 Y51.855
X1.392 Y51.964
G3 X1.174 Y51.514 I-0.109 J-0.225 F1500
G1 X1.224 Y51.49 Z12.594
X1.271 Y51.467 Z12.612
X1.314 Y51.446 Z12.642
X1.349 Y51.429 Z12.682
X1.376 Y51.416 Z12.729
X1.393 Y51.408 Z12.782
X1.398 Y51.405 Z12.838
G0 Z26
X0.387 Y55.949
Z13.088
G1 Z12.838 F1500
X0.39 Y55.955 Z12.782
X0.397 Y55.972 Z12.729
X0.408 Y56 Z12.682
X0.423 Y56.036 Z12.642
X0.441 Y56.08 Z12.612
X0.462 Y56.129 Z12.594
X0.483 Y56.18 Z12.588
G3 X0.595 Y56.957 I-1.462 J0.607
G1 X0.59 Y56.99 F2000
X0.591 Y57.006
X0.635 Y57.345
X0.646 Y57.394
X0.75 Y57.732
X0.775 Y57.796
X0.869 Y57.991
X0.935 Y58.12
X1.011 Y58.249
X1.201 Y58.556
X1.213 Y58.572
X1.23 Y58.591
X1.25 Y58.61
X1.64 Y58.895
X1.679 Y58.918
X1.937 Y59.052
X2.066 Y59.117
X2.583 Y59.357
X2.894 Y59.541
X3.245 Y59.633
X3.261 Y59.635
X3.616 Y59.622
X3.632 Y59.62
X4.004 Y59.539
X4.133 Y59.503
X4.391 Y59.429
X4.442 Y59.411
X4.52 Y59.374
X4.65 Y59.294
X4.779 Y59.206
X4.793 Y59.193
X4.965 Y59.008
X4.979 Y58.992
X5.112 Y58.766
X5.166 Y58.662
X5.171 Y58.649
X5.174 Y58.636
X5.245 Y58.281
Y58.265
X5.219 Y57.991
X5.205 Y57.862
X5.152 Y57.474
X5.136 Y57.345
X5.107 Y57.216
X5.074 Y57.087
X5.056 Y57.022
X5.052 Y56.99
X5.053 Y56.957
X5.057 Y56.925
X5.066 Y56.893
X5.081 Y56.861
X5.101 Y56.828
X5.128 Y56.795
X5.147 Y56.776
X5.166 Y56.761
X5.198 Y56.741
X5.231 Y56.728
X5.351 Y56.699
X5.683 Y56.61
X5.812 Y56.57
X5.868 Y56.552
G3 X6.009 Y57.031 I0.071 J0.24 F1500
G1 X5.956 Y57.047 Z12.594
X5.905 Y57.062 Z12.612
X5.86 Y57.075 Z12.642
X5.822 Y57.086 Z12.682
X5.793 Y57.095 Z12.729
X5.776 Y57.1 Z12.782
X5.77 Y57.102 Z12.838
G0 Z26
X-43.2 Y25.681
Z13.088
G1 Z12.838 F1500
X-43.198 Y25.687 Z12.782
X-43.194 Y25.705 Z12.729
X-43.186 Y25.734 Z12.682
X-43.177 Y25.772 Z12.642
X-43.165 Y25.818 Z12.612
X-43.152 Y25.869 Z12.594
X-43.138 Y25.923 Z12.588
G3 X-42.914 Y27.478 I-7.063 J1.809
G1 Y27.584 F2000
X-42.904 Y27.619
X-42.597 Y28.097
X-42.409 Y28.398
X-42.26 Y28.821
X-42.19 Y29.385
X-42.171 Y29.954
X-42.034 Y30.506
X-41.913 Y31.061
X-41.811 Y31.621
X-41.743 Y32.185
X-41.543 Y32.717
X-41.277 Y33.22
X-41.142 Y33.47
X-41.072 Y33.594
X-40.709 Y34.031
X-40.219 Y34.32
X-39.742 Y34.629
X-39.294 Y34.979
X-38.886 Y35.376
X-38.396 Y35.665
X-37.858 Y35.848
X-37.319 Y36.029
X-36.799 Y36.259
X-36.234 Y36.321
X-35.668 Y36.264
X-35.103 Y36.195
X-34.541 Y36.114
X-33.983 Y36.001
X-33.423 Y35.906
X-32.855 Y35.871
X-32.296 Y35.767
X-32.265 Y35.753
X-32.245 Y35.747
X-32.226 Y35.742
X-32.16 Y35.73
X-32.03 Y35.703
X-31.901 Y35.673
X-31.817 Y35.647
X-31.794 Y35.641
X-31.772 Y35.638
X-31.643 Y35.639
X-31.514 Y35.631
X-31.239 Y35.608
X-31.223 Y35.604
X-30.868 Y35.491
X-30.852 Y35.485
X-30.481 Y35.276
X-30.457 Y35.259
X-30.093 Y34.988
X-29.964 Y34.886
X-29.947 Y34.872
X-29.704 Y34.614
X-29.59 Y34.484
X-29.364 Y34.097
X-29.299 Y33.968
X-29.238 Y33.839
X-29.181 Y33.71
X-29.138 Y33.58
X-29.06 Y33.312
X-28.865 Y32.676
X-28.836 Y32.547
X-28.822 Y32.466
X-28.821 Y32.45
X-28.833 Y32.16
X-28.843 Y32.03
X-28.883 Y31.498
X-28.801 Y30.935
X-28.668 Y30.382
X-28.508 Y29.837
X-28.462 Y29.556
X-28.466 Y29.272
X-28.557 Y29.002
X-28.705 Y28.759
X-29.148 Y28.404
X-30.204 Y27.982
X-30.763 Y27.875
X-31.325 Y27.959
X-31.884 Y28.066
X-32.442 Y28.172
X-33.01 Y28.208
X-33.577 Y28.169
X-34.139 Y28.079
X-34.691 Y27.942
X-35.034 Y27.841
X-35.058 Y27.833
X-35.081 Y27.823
X-35.102 Y27.81
X-35.164 Y27.768
X-35.259 Y27.713
X-35.518 Y27.569
X-35.647 Y27.506
X-35.936 Y27.381
X-36.034 Y27.345
X-36.569 Y27.151
X-36.711 Y27.103
X-36.85 Y27.046
X-36.984 Y26.979
X-37.114 Y26.904
X-37.238 Y26.821
X-37.359 Y26.731
X-37.474 Y26.635
X-37.585 Y26.535
X-37.693 Y26.43
X-37.796 Y26.321
X-37.896 Y26.21
X-37.994 Y26.095
X-38.088 Y25.978
X-38.173 Y25.865
X-38.352 Y25.644
X-38.449 Y25.54
X-38.499 Y25.489
X-38.529 Y25.47
X-38.563 Y25.461
X-38.599
X-38.633 Y25.471
X-38.662 Y25.491
X-38.685 Y25.518
X-38.917 Y26.037
X-38.929 Y26.186
X-38.951 Y26.335
X-38.981 Y26.482
X-39.019 Y26.627
X-39.067 Y26.769
X-39.124 Y26.908
X-39.19 Y27.043
X-39.265 Y27.172
X-39.347 Y27.298
X-39.436 Y27.418
X-39.531 Y27.534
X-39.631 Y27.646
X-39.67 Y27.687
X-39.702 Y27.714
X-39.737 Y27.736
X-39.775 Y27.751
X-40.038 Y27.85
X-40.148 Y27.898
X-40.167 Y27.908
X-40.296 Y27.99
X-40.426 Y28.087
X-40.518 Y28.156
X-40.813 Y28.35
X-40.901 Y28.414
X-40.942 Y28.456
X-41.201 Y28.733
X-41.26 Y28.802
X-41.33 Y28.902
X-41.459 Y29.122
X-41.468 Y29.139
X-41.588 Y29.544
X-41.689 Y29.932
X-41.69 Y29.964
Y30.222
X-41.679 Y30.351
X-41.66 Y30.481
X-41.65 Y30.61
X-41.643 Y30.739
X-41.629 Y31.143
X-41.625 Y31.159
X-41.521 Y31.514
X-41.459 Y31.65
X-41.386 Y31.772
X-41.33 Y31.855
X-41.293 Y31.901
X-41.171 Y32.03
X-41.044 Y32.16
X-40.915 Y32.289
X-40.555 Y32.574
X-40.426 Y32.66
X-40.399 Y32.676
X-40.296 Y32.729
X-40.132 Y32.812
X-39.78 Y32.9
X-39.651 Y32.914
X-39.364 Y32.935
X-39.314 Y32.94
X-39.288 Y32.946
X-39.263 Y32.955
X-39.231 Y32.971
X-39.199 Y32.994
X-39.162 Y33.027
X-39.147 Y33.044
X-39.132 Y33.064
X-39.088 Y33.128
X-39.064 Y33.161
X-39.05 Y33.177
X-38.779 Y33.431
X-38.617 Y33.526
X-38.488 Y33.586
X-38.424 Y33.614
X-38.391 Y33.623
X-37.845 Y33.781
X-37.3 Y33.942
X-36.763 Y34.129
X-36.425 Y34.184
X-36.337 Y34.217
X-36.266 Y34.279
X-36.225 Y34.364
G3 X-36.535 Y34.663 I-0.243 J0.059 F1500
G1 X-36.79 Y34.592
X-38.489 Y34.114 F2000
X-38.508 Y34.109 F1500
G3 X-38.391 Y33.623 I0.068 J-0.241
G1 X-38.036 Y33.706 F2000
X-37.713 Y33.71
X-37.637
X-37.326 Y33.677
X-37.197 Y33.653
X-36.809 Y33.543
X-36.68 Y33.499
X-36.648 Y33.491
X-36.615 Y33.488
X-36.583 Y33.489
X-36.551 Y33.494
X-36.519 Y33.503
X-36.486 Y33.517
X-36.454 Y33.538
X-36.422 Y33.567
X-36.41 Y33.58
X-36.388 Y33.613
X-36.37 Y33.645
X-36.357 Y33.677
X-36.348 Y33.71
X-36.311 Y33.968
X-36.292 Y34.097
X-36.263 Y34.226
X-36.191 Y34.484
X-36.163 Y34.568
X-36.144 Y34.614
X-36.069 Y34.743
X-35.971 Y34.894
X-35.962 Y34.905
X-35.776 Y35.085
X-35.72 Y35.13
X-35.518 Y35.278
X-35.389 Y35.354
X-35.377 Y35.36
X-35.001 Y35.495
X-34.926 Y35.518
X-34.614 Y35.606
X-34.46 Y35.647
X-34.355 Y35.673
X-34.226 Y35.69
X-34.097 Y35.702
X-33.839 Y35.718
X-33.71 Y35.728
X-33.322 Y35.763
X-32.935 Y35.802
X-32.805 Y35.803
X-32.547 Y35.796
X-32.418 Y35.778
X-32.226 Y35.742
X-32.16 Y35.73 F1500
X-32.03 Y35.703
X-31.901 Y35.673
X-31.817 Y35.647
X-31.794 Y35.641
X-31.772 Y35.638
X-31.643 Y35.639
X-31.514 Y35.631
X-31.453 Y35.626
X-31.239 Y35.608 F2000
X-31.223 Y35.604
X-30.868 Y35.491
X-30.852 Y35.485
X-30.481 Y35.276
X-30.457 Y35.259
X-30.093 Y34.988
X-29.964 Y34.886
X-29.947 Y34.872
X-29.704 Y34.614
X-29.59 Y34.484
X-29.577 Y34.461
X-29.364 Y34.097
X-29.318 Y34.007
X-29.299 Y33.968
X-29.238 Y33.839
X-29.181 Y33.71
X-29.138 Y33.58
X-29.06 Y33.312
X-29.024 Y33.193
X-28.905 Y32.805
X-28.865 Y32.676 F1500
X-28.836 Y32.547
X-28.822 Y32.466
X-28.821 Y32.45
X-28.833 Y32.16
X-28.843 Y32.03
X-28.875 Y31.901 F2000
X-28.925 Y31.729
X-28.931 Y31.715
X-29.155 Y31.346
X-29.171 Y31.326
X-29.356 Y31.126
X-29.447 Y31.039
X-29.577 Y30.931
X-29.64 Y30.868
X-29.964 Y30.572
X-30.06 Y30.481
X-30.093 Y30.443
X-30.17 Y30.351
X-30.222 Y30.282
X-30.274 Y30.222
X-30.399 Y30.093
X-30.481 Y30.007
X-30.525 Y29.964
X-30.674 Y29.835
X-30.739 Y29.79
X-30.874 Y29.706
X-30.997 Y29.635
X-31.271 Y29.485
X-31.287 Y29.477
X-31.643 Y29.367
X-31.772 Y29.342
X-32.047 Y29.299
X-32.063 Y29.298
X-32.418 Y29.325
X-32.483 Y29.329
X-32.573 Y29.318
X-32.805 Y29.288
X-32.935 Y29.283
X-33.064 Y29.29
X-33.322 Y29.309
X-33.451 Y29.32
X-33.484 Y29.321
X-33.517 Y29.318
X-33.549 Y29.311
X-33.58 Y29.299
X-33.61 Y29.283
X-33.639 Y29.262
X-33.659 Y29.244
X-33.674 Y29.226
X-33.698 Y29.189
X-33.71 Y29.169
X-33.968 Y28.77
X-34.226 Y28.495
X-34.355 Y28.359
X-34.484 Y28.255
X-34.774 Y28.027
X-34.872 Y27.963
X-35.102 Y27.81
G3 X-34.825 Y27.393 I0.138 J-0.208 F1500
X-35.102 Y27.81 I-0.138 J0.208 F2000
X-35.171 Y27.742 I0.138 J-0.208
G1 X-35.53 Y27.211
G3 X-35.115 Y26.931 I0.207 J-0.14
X-35.073 Y27.071 I-0.207 J0.14
X-35.25 Y27.31 I-0.25 J0
G1 X-35.258 Y27.312
G3 X-36.034 Y27.345 I-0.453 J-1.516 F1500
G1 X-36.373 Y27.262 F2000
X-36.389 Y27.259
X-36.68 Y27.244
X-36.809 Y27.239
X-37.181 Y27.237
X-37.197 Y27.239
X-37.584 Y27.308
X-37.972 Y27.386
X-38.101 Y27.422
X-38.398 Y27.51
X-38.488 Y27.531
X-38.617 Y27.551
X-38.747 Y27.569
X-38.876 Y27.584
X-39.263 Y27.624
X-39.355 Y27.639
X-39.651 Y27.713
X-39.775 Y27.751
G3 X-40.083 Y27.576 I-0.066 J-0.241 F1500
X-39.908 Y27.269 I0.241 J-0.066
G1 X-39.854 Y27.255 Z12.594
X-39.803 Y27.241 Z12.612
X-39.757 Y27.228 Z12.642
X-39.719 Y27.218 Z12.682
X-39.69 Y27.21 Z12.729
X-39.673 Y27.205 Z12.782
X-39.667 Y27.203 Z12.838
G0 Z26
X1.76 Y-13.494
Z13.088
G1 Z12.838 F1500
X1.762 Y-13.488 Z12.782
X1.766 Y-13.47 Z12.729
X1.774 Y-13.441 Z12.682
X1.783 Y-13.403 Z12.642
X1.795 Y-13.357 Z12.612
X1.808 Y-13.306 Z12.594
X1.822 Y-13.252 Z12.588
G3 X2.046 Y-11.697 I-7.063 J1.809
G1 Y-11.661 F2000
X2.056 Y-11.627
X2.363 Y-11.149
X2.452 Y-11.028
X2.778 Y-10.562
X3.169 Y-10.149
X3.418 Y-10.013
X3.692 Y-9.935
X3.976 Y-9.942
X4.248 Y-10.024
X4.751 Y-10.29
X4.859 Y-10.382
X4.959 Y-10.483
X5.002 Y-10.54
X5.02 Y-10.57
X5.035 Y-10.602
X5.041 Y-10.637
X5.037 Y-10.673
X4.981 Y-10.803
G3 X5.264 Y-11.139 I0.233 J-0.09 F1500
G1 X5.307 Y-11.116 Z12.593
X5.348 Y-11.095 Z12.607
X5.387 Y-11.075 Z12.63
X5.41 Y-11.043 Z12.664
X5.428 Y-11.017 Z12.705
X5.441 Y-10.998 Z12.751
X5.446 Y-10.988 Z12.794
X5.447 Y-10.984 Z12.838
G0 Z26
X-5.246 Y56.541
Z12.591
G1 Z12.341 F1500
X-5.244 Y56.547 Z12.286
X-5.24 Y56.565 Z12.233
X-5.232 Y56.594 Z12.185
X-5.223 Y56.632 Z12.146
X-5.211 Y56.678 Z12.116
X-5.198 Y56.729 Z12.098
X-5.184 Y56.783 Z12.091
G3 X-4.96 Y58.338 I-7.063 J1.809
G1 Y58.374 F2000
X-4.8 Y58.919
X-4.497 Y59.401
X-4.393 Y59.665
X-4.105 Y60.156
X-3.678 Y60.531
X-3.249 Y60.903
X-2.864 Y61.322
X-2.48 Y61.741
X-2.078 Y62.143
X-1.65 Y62.518
X-1.153 Y62.795
X-0.842 Y62.946
X-0.785 Y62.984
X-0.74 Y63.036
X-0.711 Y63.099
X-0.638 Y63.342
X-0.453 Y63.625
X-0.44 Y63.641
X-0.387 Y63.697
X-0.112 Y63.932
X0 Y64.021
X0.054 Y64.061
X0.129 Y64.113
X0.258 Y64.19
X0.387 Y64.255
X0.646 Y64.356
X0.775 Y64.403
X1.162 Y64.521
X1.55 Y64.627
X1.679 Y64.67
X2.034 Y64.797
X2.066 Y64.814
X2.196 Y64.898
X2.304 Y64.965
X2.454 Y65.042
X2.583 Y65.106
X2.712 Y65.164
X2.841 Y65.205
X2.9 Y65.223
X3.229 Y65.318
X3.366 Y65.353
X3.616 Y65.392
X3.746 Y65.41
X4.133 Y65.454
X4.52 Y65.486
X4.908 Y65.512
X5.295 Y65.535
X5.425 Y65.541
X5.812 Y65.546
X6.199 Y65.542
X6.329 Y65.537
X6.587 Y65.524
X6.716 Y65.513
X6.981 Y65.482
X7.104 Y65.466
X7.491 Y65.406
X7.878 Y65.337
X8.266 Y65.271
X8.395 Y65.247
X8.653 Y65.196
X8.783 Y65.167
X9.041 Y65.079
X9.17 Y65.034
X9.32 Y64.965
X9.428 Y64.899
X9.521 Y64.836
X9.557 Y64.805
X9.819 Y64.578
X9.88 Y64.513
X9.926 Y64.448
X10.04 Y64.258
X10.357 Y63.786
X10.746 Y63.371
X11.179 Y63.003
X11.614 Y62.637
X12.039 Y62.259
X12.449 Y61.865
X12.853 Y61.465
X13.247 Y61.055
X13.375 Y60.885
X13.397 Y60.856
X13.409 Y60.823
X13.411 Y60.787
X13.403 Y60.753
X13.335 Y60.628
X12.922 Y60.237
X12.515 Y59.84
X12.076 Y59.479
X11.618 Y59.142
X11.19 Y58.767
X10.817 Y58.338
X10.495 Y57.869
X10.267 Y57.348
X10.099 Y56.805
X9.975 Y56.25
X9.87 Y55.691
X9.774 Y55.131
X9.751 Y54.939
X9.749 Y54.899
X9.754 Y54.859
X9.766 Y54.82
X9.788 Y54.762
X9.864 Y54.503
X9.888 Y54.374
X9.945 Y53.968
X9.976 Y53.583
X9.977 Y53.567
X9.971 Y53.535
X9.933 Y53.281
X9.972 Y52.713
X10.09 Y52.157
X10.029 Y51.592
X9.846 Y51.053
X9.696 Y50.505
X9.573 Y49.95
X9.432 Y49.399
X9.208 Y48.876
X8.995 Y48.349
X8.789 Y47.819
X8.602 Y47.282
X8.408 Y46.748
X8.194 Y46.26
X8.171 Y46.232
X8.052 Y46.154
X7.507 Y45.991
X6.954 Y45.861
X6.402 Y45.723
X5.878 Y45.503
X5.378 Y45.231
X4.878 Y44.962
X4.354 Y44.741
X3.837 Y44.503
X3.31 Y44.29
X2.761 Y44.142
X2.201 Y44.046
X1.781 Y43.967
X1.642 Y43.941
X1.501 Y43.919
X1.395 Y43.907
X1.36 Y43.913
X1.329 Y43.929
X1.303 Y43.953
X1.23 Y44.076
X1.12 Y44.634
X0.938 Y45.172
X0.727 Y45.641
X0.702 Y45.684
X0.67 Y45.721
X0.631 Y45.751
X0.377 Y45.909
X0.366 Y45.917
X0.311 Y45.968
X0.302 Y45.979
X0.051 Y46.351
X0.042 Y46.367
X0.003 Y46.496
X-0.06 Y46.754
X-0.176 Y47.142
X-0.179 Y47.158
X-0.189 Y47.271
X-0.195 Y47.4
X-0.201 Y47.432
X-0.209 Y47.465
X-0.241 Y47.529
X-0.287 Y47.623
X-0.387 Y47.981
X-0.396 Y48.013
X-0.411 Y48.239
X-0.417 Y48.272
X-0.428 Y48.304
X-0.442 Y48.331
X-0.46 Y48.359
X-0.488 Y48.389
X-0.517 Y48.413
X-0.547 Y48.433
X-0.646 Y48.472
X-0.775 Y48.534
X-0.904 Y48.608
X-0.915 Y48.616
X-1.254 Y48.973
X-1.269 Y48.996
X-1.292 Y49.042
X-1.399 Y49.305
X-1.404 Y49.321
X-1.453 Y49.676
X-1.454 Y49.692
X-1.418 Y50.061
X-1.416 Y50.071
X-1.375 Y50.209
X-1.37 Y50.241
Y50.274
X-1.374 Y50.306
X-1.382 Y50.338
X-1.393 Y50.371
X-1.405 Y50.395
X-1.421 Y50.419
X-1.475 Y50.5
X-1.561 Y50.645
X-1.579 Y50.693
X-1.69 Y51.016
X-1.693 Y51.049
X-1.721 Y51.388
X-1.72 Y51.404
X-1.701 Y51.533
X-1.679 Y51.642
X-1.673 Y51.662
X-1.63 Y51.791
X-1.55 Y51.987
X-1.54 Y52.018
X-1.535 Y52.05
X-1.534 Y52.081
X-1.535 Y52.113
X-1.54 Y52.144
X-1.551 Y52.179
X-1.604 Y52.308
X-1.637 Y52.437
X-1.679 Y52.627
X-1.692 Y52.695
X-1.7 Y52.824
X-1.698 Y52.954
X-1.684 Y53.083
X-1.584 Y53.47
X-1.539 Y53.599
X-1.446 Y53.858
X-1.421 Y53.926
X-1.344 Y54.116
X-1.315 Y54.181
X-1.305 Y54.213
X-1.301 Y54.245
X-1.3 Y54.277
X-1.304 Y54.31
X-1.31 Y54.342
X-1.321 Y54.374
X-1.403 Y54.52
X-1.529 Y54.891
X-1.533 Y54.907
X-1.574 Y55.278
X-1.564 Y55.408
X-1.55 Y55.506
X-1.53 Y55.601
X-1.455 Y56.08
X-1.486 Y56.597
X-1.643 Y57.144
X-1.906 Y57.648
X-2.24 Y58.107
X-2.347 Y58.25
X-2.372 Y58.316
X-2.377 Y58.415
X-2.355 Y58.518
X-2.35 Y58.579
X-2.36 Y58.64
X-2.384 Y58.697
G3 X-2.836 Y58.495 I-0.211 J-0.134 F1500
G1 X-2.816 Y58.425
X-2.048 Y55.717 F2000
X-2.013 Y55.593 F1500
G3 X-1.53 Y55.601 I0.241 J0.068
G1 X-1.523 Y55.634 F2000
X-1.404 Y55.924
X-1.348 Y56.053
X-1.292 Y56.159
X-1.162 Y56.354
X-1.104 Y56.441
X-1.083 Y56.473
X-1.069 Y56.505
X-1.059 Y56.538
X-1.054 Y56.57
X-1.053 Y56.602
X-1.057 Y56.635
X-1.065 Y56.667
X-1.078 Y56.699
X-1.153 Y56.828
X-1.162 Y56.845
X-1.216 Y56.957
X-1.271 Y57.087
X-1.37 Y57.458
X-1.371 Y57.474
X-1.376 Y57.603
X-1.375 Y57.732
X-1.38 Y57.763
X-1.389 Y57.793
X-1.402 Y57.823
X-1.421 Y57.853
X-1.427 Y57.862
X-1.458 Y57.895
X-1.488 Y57.921
X-1.519 Y57.94
X-1.55 Y57.954
X-1.659 Y57.991
X-1.679 Y57.998
X-1.808 Y58.06
X-1.827 Y58.073
X-2.037 Y58.249
X-2.173 Y58.363
X-2.189 Y58.378
X-2.196 Y58.387
X-2.273 Y58.507
X-2.454 Y58.817
X-2.515 Y59.024
X-2.552 Y59.153
X-2.583 Y59.288
X-2.668 Y59.605
X-2.67 Y59.621
X-2.679 Y59.976
X-2.676 Y59.993
X-2.583 Y60.372
X-2.559 Y60.445
X-2.453 Y60.703
X-2.398 Y60.832
X-2.282 Y61.09
X-2.22 Y61.22
