(afr_rough2)
(T2  D=2.5 CR=0 - ZMIN=0 - flat end mill)
G90 G94
G17
G21
G28 G91 Z0
G90

(Adaptive2 2)
T2
S18000 M3
G54
M8
G0 X-33.571 Y28.794
Z31
Z21
Z16.01
G1 Z15.76 F1500
X-33.57 Y28.8 Z15.704
X-33.565 Y28.818 Z15.651
X-33.558 Y28.847 Z15.604
X-33.548 Y28.885 Z15.564
X-33.536 Y28.931 Z15.535
X-33.523 Y28.983 Z15.516
X-33.509 Y29.036 Z15.51
G3 X-33.286 Y30.591 I-7.063 J1.809
G1 Y30.733 F2000
X-33.276 Y30.768
X-33.122 Y31.007
X-32.841 Y31.328
G0 Z21
X39.321 Y3.927
Z16.01
G1 Z15.76 F1500
X39.323 Y3.933 Z15.704
X39.327 Y3.951 Z15.651
X39.335 Y3.98 Z15.604
X39.345 Y4.018 Z15.564
X39.356 Y4.064 Z15.535
X39.369 Y4.115 Z15.516
X39.383 Y4.169 Z15.51
G3 X39.607 Y5.724 I-7.063 J1.809
G1 Y5.866 F2000
X39.617 Y5.9
X40.088 Y6.633
X40.217 Y6.982
X40.294 Y7.545
X40.334 Y8.112
X40.358 Y8.68
X40.413 Y8.959
X40.54 Y9.214
X40.738 Y9.417
X41.221 Y9.717
X41.755 Y9.914
X42.149 Y10.064
X42.167 Y10.072
X42.185 Y10.081
X42.202 Y10.092
X42.273 Y10.141
X42.308 Y10.175
X42.33 Y10.199
X42.347 Y10.222
X42.374 Y10.27
X42.456 Y10.399
X42.567 Y10.569
X42.628 Y10.658
X42.721 Y10.787
X42.818 Y10.916
X42.825 Y10.923
X42.955 Y11.045
X43.123 Y11.175
X43.213 Y11.236
X43.471 Y11.382
X43.536 Y11.412
X43.552 Y11.417
X43.923 Y11.494
X44.295 Y11.48
X44.682 Y11.389
X44.698 Y11.384
X44.763 Y11.355
X45.06 Y11.218
X45.073 Y11.211
X45.15 Y11.156
X45.183 Y11.136
X45.215 Y11.122
X45.247 Y11.112
X45.28 Y11.106
X45.312 Y11.104
X45.344 Y11.106
X45.377 Y11.113
X45.409 Y11.124
X45.43 Y11.134
X45.451 Y11.146
X45.538 Y11.203
X45.667 Y11.27
X45.735 Y11.304
X45.926 Y11.377
X46.08 Y11.433
X46.184 Y11.458
X46.491 Y11.513
X46.507 Y11.514
X46.862 Y11.491
X46.878 Y11.489
X47.234 Y11.394
X47.25 Y11.388
X47.605 Y11.16
X47.619 Y11.149
X47.734 Y11.03
X47.974 Y10.738
X47.993 Y10.716
X48.066 Y10.593
X48.089 Y10.561
X48.105 Y10.543
X48.122 Y10.529
X48.154 Y10.506
X48.186 Y10.49
X48.251 Y10.471
X48.38 Y10.426
X48.509 Y10.368
X49.021 Y10.12
X49.541 Y9.889
X49.768 Y9.719
X49.872 Y9.622
X49.967 Y9.515
X50.09 Y9.259
X50.194 Y8.7
X50.192 Y8.416
X50.187 Y8.274
X50.123 Y7.997
X49.871 Y7.487
X49.505 Y7.052
X49.049 Y6.712
X48.796 Y6.582
X48.257 Y6.403
X48.229 Y6.398
X48.203 Y6.388
X48.18 Y6.374
G3 X48.148 Y6.021 I0.16 J-0.192 F1500
X48.501 Y5.99 I0.192 J0.16
G1 X48.543 Y6.026 Z15.516
X48.584 Y6.06 Z15.535
X48.62 Y6.09 Z15.564
X48.65 Y6.115 Z15.604
X48.673 Y6.135 Z15.651
X48.687 Y6.146 Z15.704
X48.692 Y6.15 Z15.76
G0 Z21
X48.056 Y11.067
Z16.01
G1 Z15.76 F1500
X48.059 Y11.062 Z15.704
X48.066 Y11.045 Z15.651
X48.077 Y11.017 Z15.604
X48.093 Y10.981 Z15.564
X48.111 Y10.937 Z15.535
X48.132 Y10.888 Z15.516
X48.153 Y10.837 Z15.51
G3 X48.509 Y10.368 I1.094 J0.46
G1 X48.816 Y10.141 F2000
X48.897 Y10.047
X49.092 Y9.783
X49.099 Y9.768
X49.242 Y9.398
X49.245 Y9.382
X49.247 Y9.366
X49.263 Y9.108
X49.264 Y8.978
X49.251 Y8.849
X49.234 Y8.72
X49.214 Y8.591
X49.179 Y8.397
X49.177 Y8.332
X49.176 Y8.203
X49.165 Y8.074
X49.155 Y7.991
X49.114 Y7.816
X48.961 Y7.444
X48.953 Y7.428
X48.869 Y7.299
X48.794 Y7.17
X48.726 Y7.041
X48.639 Y6.911
X48.455 Y6.653
X48.38 Y6.567
X48.251 Y6.431
X48.207 Y6.395
X48.04 Y6.266
X47.993 Y6.232
X47.734 Y6.081
X47.605 Y6.004
X47.347 Y5.845
X47.217 Y5.761
X46.959 Y5.573
X46.83 Y5.483
X46.701 Y5.402
X46.626 Y5.361
X46.379 Y5.232
X45.99 Y5.072
X45.974 Y5.066
X45.586 Y4.985
X45.28 Y4.981
X45.15 Y4.983
X45.021 Y4.997
X44.892 Y5.012
X44.763 Y5.034
X44.483 Y5.103
X44.375 Y5.135
X44.117 Y5.242
X43.988 Y5.298
X43.859 Y5.368
X43.6 Y5.517
X43.437 Y5.62
X43.342 Y5.685
X43.213 Y5.781
X42.749 Y6.136
X42.58 Y6.266
X42.416 Y6.395
X42.308 Y6.486
X42.179 Y6.612
X42.143 Y6.653
X42.04 Y6.782
X41.938 Y6.911
X41.878 Y7.002
X41.871 Y7.015
X41.694 Y7.428
X41.662 Y7.512
X41.642 Y7.557
X41.533 Y7.716
X41.48 Y7.816
X41.433 Y7.945
X41.345 Y8.219
X41.331 Y8.575
X41.332 Y8.591
X41.404 Y8.906
X41.424 Y8.978
X41.533 Y9.246
X41.598 Y9.366
X41.702 Y9.566
G3 X41.252 Y9.783 I-0.225 J0.108 F1500
G1 X41.228 Y9.732 Z15.516
X41.205 Y9.685 Z15.535
X41.184 Y9.642 Z15.564
X41.167 Y9.606 Z15.604
X41.154 Y9.58 Z15.651
X41.146 Y9.563 Z15.704
X41.143 Y9.557 Z15.76
G0 Z21
X-37.533 Y27.536
Z16.01
G1 Z15.76 F1500
X-37.531 Y27.542 Z15.704
X-37.527 Y27.56 Z15.651
X-37.519 Y27.589 Z15.604
X-37.51 Y27.627 Z15.564
X-37.498 Y27.673 Z15.535
X-37.485 Y27.725 Z15.516
X-37.471 Y27.778 Z15.51
G3 X-37.359 Y28.556 I-3.532 J0.905
G1 Y28.662 F2000
X-37.279 Y28.935
X-36.947 Y29.397
X-36.848 Y29.499
X-36.601 Y29.64
X-36.468 Y29.69
X-36.334 Y29.736
G3 X-36.274 Y30.17 I-0.089 J0.234 F1500
G1 X-36.319 Y30.187 Z15.515
X-36.363 Y30.204 Z15.529
X-36.403 Y30.219 Z15.553
X-36.422 Z15.567
X-36.453 Y30.215 Z15.598
X-36.478 Y30.211 Z15.634
X-36.497 Y30.208 Z15.674
X-36.508 Y30.204 Z15.716
X-36.511 Y30.203 Z15.76
G0 Z21
X-41.052 Y26.049
Z15.512
G1 Z15.262 F1500
X-41.051 Y26.055 Z15.206
X-41.046 Y26.073 Z15.153
X-41.039 Y26.102 Z15.106
X-41.029 Y26.14 Z15.066
X-41.017 Y26.186 Z15.037
X-41.004 Y26.237 Z15.018
X-40.99 Y26.291 Z15.012
G3 X-40.767 Y27.846 I-7.063 J1.809
G1 Y27.952 F2000
X-40.607 Y28.498
X-40.416 Y28.777
X-40.204 Y29.305
X-40.088 Y29.861
X-40 Y30.423
X-39.868 Y30.675
X-39.493 Y31.103
X-39.004 Y31.392
X-38.516 Y31.684
X-37.989 Y31.897
X-37.446 Y32.068
X-36.907 Y32.248
X-36.398 Y32.501
X-35.909 Y32.791
X-35.453 Y33.131
X-35.035 Y33.516
X-34.814 Y33.695
X-34.561 Y33.825
X-34.013 Y33.976
X-33.448 Y34.039
X-32.879 Y34.048
X-32.312 Y34.002
X-31.752 Y33.905
X-31.504 Y33.767
X-31.277 Y33.596
X-30.917 Y33.155
X-30.799 Y32.897
X-30.783 Y32.827
X-30.793 Y32.691
X-30.851 Y32.505
X-30.861 Y32.454
X-30.86 Y32.403
X-30.849 Y32.352
X-30.809 Y32.232
X-30.807 Y32.216
X-30.799 Y31.974
X-30.798 Y31.844
X-30.811 Y31.779
X-30.882 Y31.538
X-30.887 Y31.521
X-31.131 Y31.145
X-31.148 Y31.128
X-31.198 Y31.092
X-31.521 Y30.872
X-31.538 Y30.862
X-31.715 Y30.797
X-31.877 Y30.753
X-31.893 Y30.75
X-32.264 Y30.732
X-32.296 Y30.735
X-32.863 Y30.778
X-33.425 Y30.719
X-33.965 Y30.54
X-34.474 Y30.287
X-34.96 Y29.991
X-35.015 Y29.951
X-35.055 Y29.915
X-35.086 Y29.871
X-35.107 Y29.821
X-35.111 Y29.81
X-35.118 Y29.794
X-35.332 Y29.417
X-35.478 Y29.261
X-35.72 Y29.021
X-35.849 Y28.921
X-35.861 Y28.914
X-36.222 Y28.744
X-36.237 Y28.739
X-36.624 Y28.668
X-36.753 Y28.656
X-36.883
X-36.963 Y28.662
X-37.012 Y28.675
X-37.335 Y28.768
X-37.351 Y28.774
X-37.614 Y28.882
X-37.749 Y28.928
X-37.884 Y28.971
X-37.986 Y29.002
X-38.016 Y29.021
X-38.039 Y29.048
X-38.057 Y29.087
X-38.061 Y29.128
X-38.073 Y29.192
X-38.099 Y29.252
X-38.136 Y29.305
G3 X-38.49 Y29.314 I-0.182 J-0.172 F1500
X-38.5 Y28.961 I0.172 J-0.182
G1 X-38.459 Y28.927 F2000
X-37.627 Y28.357
X-37.62 Y28.353
G3 X-37.351 Y28.774 I0.134 J0.211 F1500
G1 X-37.737 Y29.002 F2000
X-37.787 Y29.033
X-37.916 Y29.131
X-38.129 Y29.296
X-38.221 Y29.406
X-38.41 Y29.777
X-38.468 Y30.133
X-38.422 Y30.488
X-38.279 Y30.811
X-38.206 Y30.94
X-38.035 Y31.198
X-37.932 Y31.328
X-37.719 Y31.554
X-37.705 Y31.567
X-37.658 Y31.6
X-37.529 Y31.671
X-37.367 Y31.748
X-36.996 Y31.82
X-36.979 Y31.821
X-36.624 Y31.819
X-36.608 Y31.817
X-36.237 Y31.728
X-36.206 Y31.715
X-36.107 Y31.672
X-35.978 Y31.614
X-35.849 Y31.541
X-35.462 Y31.261
X-35.445 Y31.246
X-35.287 Y31.03
G0 Z21
X-31.38 Y30.267
Z15.512
G1 Z15.262 F1500
X-31.385 Y30.271 Z15.206
X-31.399 Y30.282 Z15.153
X-31.423 Y30.3 Z15.106
X-31.454 Y30.325 Z15.066
X-31.491 Y30.354 Z15.037
X-31.533 Y30.386 Z15.018
X-31.577 Y30.421 Z15.012
G3 X-32.296 Y30.735 I-0.973 J-1.248
G1 X-32.619 Y30.776 F2000
X-32.749 Y30.802
X-33.038 Y30.884
X-33.408 Y31.106
X-33.422 Y31.114
X-33.449 Y31.14
X-33.504 Y31.198
X-33.782 Y31.527
X-33.793 Y31.542
X-33.939 Y31.909
X-33.945 Y31.925
X-34.017 Y32.28
X-34.019 Y32.296
X-33.99 Y32.652
X-33.843 Y33.019
X-33.837 Y33.031
X-33.805 Y33.08
X-33.524 Y33.371
X-33.508 Y33.384
X-33.456 Y33.42
X-33.444 Y33.427
X-33.088 Y33.579
X-33.072 Y33.584
X-32.732 Y33.618
X-32.716 Y33.619
X-32.361 Y33.55
X-32.344 Y33.545
X-31.974 Y33.394
X-31.844 Y33.336
X-31.554 Y33.22
X-31.538 Y33.212
X-31.328 Y33.056
G0 Z21
X0.416 Y49.483
Z15.512
G1 Z15.262 F1500
X0.418 Y49.489 Z15.206
X0.422 Y49.507 Z15.153
X0.43 Y49.536 Z15.106
X0.439 Y49.574 Z15.066
X0.451 Y49.62 Z15.037
X0.464 Y49.672 Z15.018
X0.478 Y49.725 Z15.012
G3 X0.702 Y51.28 I-7.063 J1.809
G1 Y51.422 F2000
X0.712 Y51.457
X1.019 Y51.935
X1.126 Y52.04
X1.218 Y52.158
X1.296 Y52.287
X1.359 Y52.423
X1.409 Y52.564
X1.545 Y53.116
X1.7 Y53.664
X1.806 Y54.018
X1.872 Y54.256
X1.954 Y54.579
X2.072 Y55.091
X2.117 Y55.312
X2.145 Y55.459
X2.168 Y55.607
X2.188 Y55.764
X2.208 Y55.948
X2.227 Y56.174
X2.263 Y56.741
X2.317 Y57.02
X2.423 Y57.284
X2.554 Y57.536
X2.649 Y57.642
X3.122 Y57.958
X3.154 Y57.973
X3.295 Y57.994
X3.437 Y57.983
X3.577 Y57.958
X3.611 Y57.95
X3.642 Y57.932
X3.741 Y57.829
X4.018 Y57.333
X4.074 Y57.194
X4.135 Y57.057
X4.2 Y56.922
X4.271 Y56.781
X4.359 Y56.617
X4.471 Y56.419
X4.597 Y56.208
X4.676 Y56.08
X4.759 Y55.956
X4.847 Y55.834
X4.94 Y55.716
X5.037 Y55.602
X5.137 Y55.491
X5.241 Y55.382
X5.342 Y55.282
X5.393 Y55.232
X5.414 Y55.204
X5.434 Y55.175
X5.445 Y55.141
X5.453 Y54.857
X5.374 Y54.574
X5.298 Y54.277
X5.193 Y53.828
X5.13 Y53.523
X5.102 Y53.376
X5.079 Y53.228
X5.056 Y53.062
X5.034 Y52.863
X5.022 Y52.739
X5 Y52.455
X4.998 Y52.42
X4.986 Y52.386
X4.965 Y52.358
X4.937 Y52.336
X4.904 Y52.323
X4.337 Y52.274
X4.188 Y52.292
X4.039 Y52.305
X3.889 Y52.314
X3.73 Y52.319
X3.588 Y52.321
X3.517
X3.447 Y52.334
X3.413 Y52.344
X3.383 Y52.363
X3.359 Y52.389
X3.344 Y52.421
X3.339 Y52.456
X3.343 Y52.492
X3.573 Y53.012
X3.644 Y53.144
X3.709 Y53.279
X3.771 Y53.416
X3.828 Y53.555
X3.881 Y53.696
X3.934 Y53.843
X3.989 Y54.008
X4.041 Y54.176
X4.088 Y54.342
X4.132 Y54.511
X4.173 Y54.685
X4.203 Y54.824
G3 X4 Y55.114 I-0.246 J0.044 F1500
X3.71 Y54.912 I-0.044 J-0.246
G1 X3.701 Y54.857 Z15.018
X3.691 Y54.805 Z15.037
X3.683 Y54.758 Z15.066
X3.676 Y54.719 Z15.106
X3.671 Y54.69 Z15.153
X3.668 Y54.672 Z15.206
X3.667 Y54.665 Z15.262
G0 Z21
X38.102 Y2.864
Z15.512
G1 Z15.262 F1500
X38.103 Y2.87 Z15.206
X38.108 Y2.888 Z15.153
X38.115 Y2.917 Z15.106
X38.125 Y2.955 Z15.066
X38.137 Y3.001 Z15.037
X38.15 Y3.052 Z15.018
X38.164 Y3.106 Z15.012
G3 X38.387 Y4.661 I-7.063 J1.809
G1 Y4.803 F2000
X38.397 Y4.837
X38.705 Y5.316
X38.909 Y5.489
X39.083 Y5.717
X39.225 Y6.023
X39.261 Y6.188
X39.266 Y6.265
X39.247 Y6.34
X39.205 Y6.406
X39.035 Y6.602
X39.006 Y6.653
X38.95 Y6.756
X38.878 Y6.911
X38.82 Y7.029
X38.595 Y7.428
X38.562 Y7.501
X38.538 Y7.557
X38.474 Y7.783
X38.472 Y7.8
X38.451 Y8.171
X38.488 Y8.462
X38.509 Y8.591
X38.546 Y8.72
X38.578 Y8.806
X38.588 Y8.849
X38.591 Y8.882
X38.59 Y8.914
X38.584 Y8.946
X38.574 Y8.978
X38.545 Y9.06
X38.537 Y9.084
X38.532 Y9.108
X38.484 Y9.463
X38.489 Y9.495
X38.542 Y9.83
X38.548 Y9.845
X38.71 Y10.2
X38.719 Y10.214
X38.919 Y10.496
X38.932 Y10.513
X39.079 Y10.661
X39.327 Y10.916
X39.337 Y10.926
X39.466 Y11.023
X39.725 Y11.198
X40.112 Y11.395
X40.516 Y11.541
X40.532 Y11.544
X41.088 Y11.662
X41.525 Y11.778
X41.555 Y11.788
X41.584 Y11.803
X41.611 Y11.821
G3 X41.406 Y12.266 I-0.146 J0.203 F1500
G1 X41.311 Y12.244
X40.47 Y12.042 F2000
X40.443 Y12.036 F1500
G3 X40.532 Y11.544 I0.058 J-0.243
G1 X40.887 Y11.601 F2000
X41.017 Y11.603
X41.146 Y11.596
X41.21 Y11.587
X41.243 Y11.586
X41.275 Y11.589
X41.307 Y11.596
X41.34 Y11.608
X41.372 Y11.625
X41.404 Y11.649
X41.45 Y11.691
X41.533 Y11.761
X41.611 Y11.821
X41.662 Y11.854
X41.836 Y11.946
X42.179 Y12.031
X42.308 Y12.054
X42.337 Y12.064
X42.366 Y12.079
X42.384 Y12.091
X42.402 Y12.105
X42.422 Y12.124
X42.438 Y12.143
X42.48 Y12.208
X42.521 Y12.268
X42.567 Y12.328
X42.703 Y12.466
X42.825 Y12.576
X42.954 Y12.67
X43.046 Y12.725
X43.084 Y12.744
X43.213 Y12.803
X43.536 Y12.938
X43.552 Y12.942
X43.907 Y13.008
X43.923 Y13.009
X44.246 Y12.995
X44.345 Y12.983
X44.682 Y12.916
X45.021 Y12.757
X45.086 Y12.725
X45.15 Y12.683
X45.215 Y12.636
X45.247 Y12.614
X45.28 Y12.599
X45.29 Y12.596
X45.32 Y12.588
X45.349 Y12.582
X45.379 Y12.579
X45.409 Y12.58
X45.441 Y12.586
X45.474 Y12.596
X45.506 Y12.611
X45.667 Y12.713
X45.715 Y12.74
X45.729 Y12.746
X46.087 Y12.867
X46.103 Y12.871
X46.442 Y12.884
X46.572 Y12.88
X46.864 Y12.862
X46.882 Y12.859
X47.217 Y12.766
X47.319 Y12.725
X47.605 Y12.586
X47.637 Y12.57
X47.653 Y12.559
X47.67 Y12.547
X47.993 Y12.303
X48.005 Y12.293
X48.038 Y12.256
X48.077 Y12.208
X48.099 Y12.184
X48.122 Y12.165
X48.154 Y12.143
X48.186 Y12.127
X48.219 Y12.115
X48.251 Y12.109
X48.38 Y12.094
X48.542 Y12.057
X48.558 Y12.051
X48.897 Y11.883
X48.999 Y11.821
X49.091 Y11.753
X49.123 Y11.73
X49.155 Y11.714
X49.2 Y11.699
X49.222 Y11.694
X49.245 Y11.691
X49.284
X49.414 Y11.701
X49.543 Y11.702
X49.882 Y11.677
X50.266 Y11.574
X50.576 Y11.427
X50.705 Y11.357
X50.994 Y11.175
X51.093 Y11.11
X51.222 Y11.015
X51.323 Y10.916
X51.448 Y10.787
X51.481 Y10.755
X51.61 Y10.643
X51.73 Y10.529
X51.868 Y10.383
X51.957 Y10.27
X51.997 Y10.217
X52.01 Y10.198
X52.167 Y9.834
X52.172 Y9.818
X52.237 Y9.495
X52.256 Y9.393
X52.258 Y9.366
Y9.089
X52.256 Y9.071
X52.127 Y8.582
X52.094 Y8.462
X52.048 Y8.332
X52.042 Y8.3
X52.04 Y8.268
X52.043 Y8.236
X52.05 Y8.203
X52.072 Y8.074
X52.097 Y7.816
X52.101 Y7.687
X52.079 Y7.364
X51.973 Y7.041
X51.924 Y6.911
X51.867 Y6.782
X51.795 Y6.653
X51.771 Y6.614
X51.756 Y6.594
X51.467 Y6.266
X51.341 Y6.136
X51.093 Y5.866
X50.983 Y5.749
X50.835 Y5.607
X50.673 Y5.49
X50.466 Y5.361
X50.308 Y5.232
X50.189 Y5.137
X49.93 Y4.962
X49.866 Y4.926
X49.801 Y4.894
X49.383 Y4.715
X49.284 Y4.661
X49.155 Y4.596
X49.026 Y4.546
X48.897 Y4.496
X48.59 Y4.386
X48.574 Y4.383
X48.509 Y4.38
X47.944 Y4.321
X47.378 Y4.26
X46.81 Y4.233
X46.369 Y4.31
X46.319 Y4.314
X46.27 Y4.307
X46.222 Y4.291
G3 X46.341 Y3.818 I0.111 J-0.224 F1500
G1 X46.449 Y3.821
X48.519 Y3.88 F2000
X48.521 F1500
G3 X48.509 Y4.38 I-0.007 J0.25
G1 X48.235 Y4.365 F2000
X48.219 Y4.366
X47.863 Y4.444
X47.82 Y4.457
X47.605 Y4.536
X47.476 Y4.601
X47.313 Y4.715
X47.199 Y4.811
X47.18 Y4.824
X47.142 Y4.844
X47.115 Y4.856
X47.088 Y4.863
X47.056 Y4.868
X47.024 Y4.869
X46.991 Y4.866
X46.959 Y4.858
X46.925 Y4.844
X46.901 Y4.831
X46.877 Y4.815
X46.83 Y4.766
X46.784 Y4.715
X46.701 Y4.629
X46.572 Y4.511
X46.501 Y4.457
X46.362 Y4.356
X46.345 Y4.347
X46.018 Y4.199
X45.926 Y4.164
X45.796 Y4.129
X45.667 Y4.103
X45.538 Y4.089
X45.28 Y4.081
X45.15 Y4.083
X44.763 Y4.114
X44.634 Y4.136
X44.505 Y4.166
X43.944 Y4.264
X43.381 Y4.337
X42.825 Y4.458
X42.283 Y4.629
X42.082 Y4.701
X42.051 Y4.709
X42.019 Y4.714
X41.986 Y4.715
G3 X41.952 Y4.222 I0.02 J-0.249 F1500
G1 X42.025 Y4.205
X44.377 Y3.682 F2000
X44.386 Y3.68 F1500
G3 X44.505 Y4.166 I0.054 J0.244
G1 X44.419 Y4.185 F2000
X44.39 Y4.199
X44.117 Y4.337
X43.988 Y4.411
X43.924 Y4.457
X43.859 Y4.508
X43.651 Y4.715
X43.546 Y4.844
X43.471 Y4.948
X43.367 Y5.103
X43.309 Y5.186
X43.284 Y5.212
X43.258 Y5.232
X43.236 Y5.246
X43.213 Y5.257
X43.18 Y5.267
X43.148 Y5.274
X43.116 Y5.275
X43.084 Y5.273
X43.056 Y5.268
X43.029 Y5.259
X43.002 Y5.247
X42.975 Y5.232
X42.954 Y5.218
X42.825 Y5.113
X42.749 Y5.044
G3 X42.731 Y4.691 I0.168 J-0.185 F1500
X43.084 Y4.674 I0.185 J0.168
X42.749 Y5.044 I-0.168 J0.185 F2000
X42.693 Y4.971 I0.168 J-0.185
G1 X42.417 Y4.42
G3 X42.864 Y4.196 I0.223 J-0.112
X42.758 Y4.529 I-0.223 J0.112
G1 X42.751 Y4.532
G3 X41.995 Y4.715 I-0.739 J-1.4 F1500
G1 X41.777 Y4.705 F2000
X41.762 Y4.708
X41.404 Y4.798
X41.275 Y4.847
X41.004 Y4.952
X40.992 Y4.957
X40.629 Y5.2
X40.58 Y5.232
X40.34 Y5.361
X40.241 Y5.431
X40.168 Y5.49
X39.854 Y5.774
X39.758 Y5.878
X39.463 Y6.136
X39.337 Y6.255
X39.205 Y6.406
G3 X38.78 Y6.297 I-0.183 J-0.171 F1500
G1 X38.773 Y6.235 Z15.02
X38.787 Y6.184 Z15.041
X38.8 Y6.139 Z15.073
X38.811 Y6.102 Z15.115
X38.823 Y6.086 Z15.148
X38.832 Y6.074 Z15.183
X38.838 Y6.067 Z15.222
X38.84 Y6.064 Z15.262
G0 Z21
X52.22 Y1.996
Z15.017
G1 Z14.767 F1500
X52.213 Y1.998 Z14.711
X52.196 Y2.003 Z14.659
X52.167 Y2.01 Z14.611
X52.128 Y2.02 Z14.572
X52.082 Y2.031 Z14.542
X52.031 Y2.045 Z14.523
X51.977 Y2.058 Z14.517
G3 X50.423 Y2.282 I-1.809 J-7.063
G1 X50.387 F2000
X50.353 Y2.292
X49.874 Y2.599
X49.72 Y2.789
X49.579 Y2.901
X49.494 Y2.945
X49.398 Y2.954
X49.306 Y2.926
X49.155 Y2.844
X49.026 Y2.788
X48.996 Y2.778
X48.897 Y2.752
X48.832 Y2.738
X48.8 Y2.726
X48.768 Y2.711
X48.617 Y2.648
X48.509 Y2.61
X48.38 Y2.572
X48.251 Y2.54
X48.122 Y2.51
X47.863 Y2.455
X47.734 Y2.428
X47.67 Y2.425
X47.637 Y2.421
X47.605 Y2.413
X47.547 Y2.39
X47.298 Y2.319
X46.959 Y2.287
X46.83 Y2.288
X46.572 Y2.306
X46.442 Y2.323
X46.121 Y2.383
X46.111 Y2.386
X45.746 Y2.539
X45.423 Y2.778
X45.373 Y2.826
X45.28 Y2.918
X45.164 Y3.036
X45.15 Y3.052
X45.134 Y3.069
X45.118 Y3.083
X45.086 Y3.105
X45.054 Y3.12
X45.021 Y3.13
X44.989 Y3.136
X44.957 Y3.137
X44.924 Y3.134
X44.892 Y3.127
X44.86 Y3.115
X44.828 Y3.098
X44.763 Y3.048
X44.634 Y2.939
X44.592 Y2.907
X44.505 Y2.845
X44.405 Y2.778
X44.246 Y2.683
X44.176 Y2.648
X43.842 Y2.506
X43.826 Y2.502
X43.471 Y2.459
X43.455
X43.084 Y2.49
X42.696 Y2.533
X42.567 Y2.562
X42.255 Y2.648
X42.179 Y2.665
X41.921 Y2.719
X41.792 Y2.75
X41.662 Y2.795
X41.533 Y2.847
X41.4 Y2.907
X41.017 Y3.095
X40.887 Y3.148
X40.758 Y3.199
X40.629 Y3.254
X40.564 Y3.294
X40.193 Y3.553
X40.112 Y3.605
X39.979 Y3.682
X39.725 Y3.807
X39.353 Y4.069
X39.203 Y4.199
X39.057 Y4.328
X38.82 Y4.543
X38.497 Y4.844
X38.459 Y4.884
X38.21 Y5.264
X38.203 Y5.28
X38.14 Y5.49
X38.111 Y5.62
X38.089 Y6.007
X38.09 Y6.023
X38.121 Y6.266
X38.119 Y6.298
X38.113 Y6.33
X38.103 Y6.362
X38.089 Y6.395
X38.071 Y6.425
X38.045 Y6.456
X37.916 Y6.568
X37.823 Y6.653
X37.658 Y6.829
X37.589 Y6.911
X37.508 Y7.014
X37.501 Y7.028
X37.329 Y7.396
X37.324 Y7.412
X37.254 Y7.687
X37.235 Y7.767
X37.233 Y7.783
X37.219 Y8.155
X37.221 Y8.171
X37.25 Y8.332
X37.272 Y8.462
X37.292 Y8.591
X37.341 Y8.962
X37.344 Y8.978
X37.491 Y9.35
X37.592 Y9.495
X37.658 Y9.583
X37.747 Y9.679
X37.769 Y9.706
X37.787 Y9.733
X37.797 Y9.754
X37.808 Y9.786
X37.815 Y9.818
X37.822 Y9.883
X37.891 Y10.254
X37.896 Y10.27
X37.945 Y10.399
X38.013 Y10.529
X38.067 Y10.621
X38.081 Y10.639
X38.208 Y10.787
X38.304 Y10.885
X38.433 Y11.009
X38.487 Y11.045
X38.562 Y11.093
X38.696 Y11.175
X38.82 Y11.247
X38.922 Y11.304
X38.95 Y11.325
X38.976 Y11.352
X38.996 Y11.379
X39.013 Y11.406
X39.026 Y11.433
X39.079 Y11.547
X39.237 Y11.821
X39.314 Y11.95
X39.396 Y12.079
X39.549 Y12.337
X39.725 Y12.61
X39.8 Y12.725
X39.854 Y12.781
X40.191 Y13.112
X40.216 Y13.133
X40.241 Y13.151
X40.371 Y13.235
X40.718 Y13.487
X40.966 Y13.766
X41.169 Y14.131
X41.328 Y14.665
X41.369 Y15.232
X41.348 Y15.516
X41.329 Y15.657
X41.306 Y15.797
X41.226 Y16.36
X41.231 Y16.644
X41.237 Y16.786
G3 X40.743 Y16.842 I-0.25 J0.002 F1500
G1 X40.731 Y16.79
X40.041 Y13.7 F2000
X39.997 Y13.503 F1500
G3 X40.371 Y13.235 I0.244 J-0.054
G1 X40.381 Y13.242 F2000
X40.5 Y13.302
X40.629 Y13.36
X40.758 Y13.413
X40.887 Y13.448
X41.017 Y13.476
X41.146 Y13.5
X41.275 Y13.515
X41.404 Y13.527
X41.533 Y13.537
X41.566 Y13.543
X41.598 Y13.554
X41.63 Y13.57
X41.662 Y13.593
X41.7 Y13.629
X41.792 Y13.726
X41.897 Y13.83
X41.909 Y13.842
X42.05 Y13.935
X42.179 Y14.007
X42.371 Y14.116
X42.5 Y14.192
X42.62 Y14.282
X42.73 Y14.384
X42.83 Y14.496
X42.919 Y14.617
X42.998 Y14.744
X43.067 Y14.877
X43.126 Y15.015
X43.175 Y15.157
X43.185 Y15.191
X43.204 Y15.221
X43.231 Y15.245
X43.263 Y15.26
X43.298 Y15.265
X43.333 Y15.261
X43.853 Y15.03
X43.967 Y14.932
X44.088 Y14.844
X44.217 Y14.767
X44.351 Y14.7
X44.49 Y14.644
X44.633 Y14.598
X44.778 Y14.561
X44.925 Y14.532
X45.074 Y14.51
X45.223 Y14.496
X45.373 Y14.488
X45.523 Y14.485
X45.673 Y14.488
X45.822 Y14.498
X45.972 Y14.514
X46.119 Y14.54
X46.266 Y14.573
X46.41 Y14.614
X46.552 Y14.661
X46.693 Y14.714
X46.831 Y14.772
X46.968 Y14.834
X47.103 Y14.899
X47.236 Y14.968
X47.368 Y15.04
X47.496 Y15.118
X47.621 Y15.2
X47.742 Y15.289
X47.858 Y15.384
X47.97 Y15.484
X48.078 Y15.589
X48.182 Y15.696
X48.283 Y15.807
X48.381 Y15.921
X48.489 Y16.052
X48.591 Y16.183
X48.682 Y16.302
X48.768 Y16.425
X48.847 Y16.543
X48.931 Y16.658
X48.978 Y16.711
X49.039 Y16.748
X49.072 Y16.761
X49.106 Y16.772
X49.248 Y16.779
X49.317 Y16.764
X49.351 Y16.753
X49.384 Y16.739
X49.412 Y16.717
X49.432 Y16.689
X49.444 Y16.655
X49.446 Y16.62
X49.313 Y16.067
X49.24 Y15.936
X49.173 Y15.802
X49.114 Y15.664
X49.062 Y15.523
X49.019 Y15.379
X48.986 Y15.233
X48.96 Y15.085
X48.942 Y14.936
X48.93 Y14.787
X48.924 Y14.637
X48.923 Y14.487
X48.927 Y14.337
X48.935 Y14.187
X48.946 Y14.038
X48.964 Y13.889
X48.987 Y13.74
X48.995 Y13.702
X49.039 Y13.604
X49.121 Y13.533
X49.225 Y13.503
X49.284 Y13.5
X49.43 Y13.484
X49.446 Y13.481
X49.801 Y13.37
X49.93 Y13.311
X50.189 Y13.182
X50.246 Y13.152
X50.303 Y13.112
X50.629 Y12.854
X50.964 Y12.543
X51.046 Y12.466
X51.174 Y12.337
X51.222 Y12.279
X51.372 Y12.079
X51.461 Y11.95
X51.481 Y11.903
X51.617 Y11.562
X51.65 Y11.433
X51.681 Y11.304
X51.704 Y11.259
X51.72 Y11.237
X51.739 Y11.214
X51.868 Y11.1
X51.912 Y11.068
X51.933 Y11.055
X51.955 Y11.045
X51.997 Y11.032
X52.127 Y10.989
X52.256 Y10.928
X52.358 Y10.873
X52.371 Y10.864
X52.698 Y10.589
X52.729 Y10.559
X52.742 Y10.544
X52.95 Y10.222
X53.056 Y9.867
X53.06 Y9.85
X53.086 Y9.495
Y9.366
X53.08 Y9.237
X53.073 Y9.172
X53.072 Y9.14
X53.075 Y9.108
X53.082 Y9.075
X53.094 Y9.043
X53.127 Y8.978
X53.355 Y8.526
X53.423 Y8.156
X53.412 Y7.816
X53.401 Y7.687
X53.364 Y7.38
X53.362 Y7.364
X53.264 Y7.041
X53.221 Y6.911
X53.16 Y6.744
X53.122 Y6.653
X53.097 Y6.605
X53.087 Y6.588
X52.772 Y6.2
X52.755 Y6.182
X52.577 Y6.03
X52.385 Y5.919
X52.291 Y5.878
X52.256 Y5.857
X52.226 Y5.833
X52.197 Y5.803
X52.178 Y5.776
X52.163 Y5.749
X52.133 Y5.62
X52.035 Y5.264
X52.027 Y5.248
X51.868 Y4.964
X51.825 Y4.904
X51.778 Y4.844
X51.672 Y4.715
X51.61 Y4.643
X51.448 Y4.457
X51.337 Y4.328
X51.222 Y4.206
X51.078 Y4.069
X50.964 Y3.974
X50.705 Y3.763
X50.603 Y3.682
X50.576 Y3.662
X50.318 Y3.485
X50.228 Y3.423
X49.93 Y3.252
X49.766 Y3.165
X49.414 Y2.983
X49.306 Y2.926
G3 X49.215 Y2.584 I0.125 J-0.216 F1500
X49.556 Y2.493 I0.216 J0.125
G1 X49.605 Y2.521 Z14.523
X49.65 Y2.547 Z14.542
X49.691 Y2.571 Z14.572
X49.726 Y2.591 Z14.611
X49.751 Y2.606 Z14.659
X49.767 Y2.615 Z14.711
X49.773 Y2.618 Z14.767
G0 Z21
X41.152 Y13.935
Z15.017
G1 Z14.767 F1500
X41.159 Z14.711
X41.177 Y13.932 Z14.659
X41.206 Y13.929 Z14.611
X41.246 Y13.924 Z14.572
X41.293 Y13.918 Z14.542
X41.345 Y13.912 Z14.523
X41.4 Y13.905 Z14.517
G3 X42.179 Y14.007 I0.19 J1.571
G1 X42.2 Y14.017 F2000
X42.308 Y14.059
X42.438 Y14.099
X42.609 Y14.146
X42.696 Y14.162
X42.825 Y14.177
X42.954
X43.084 Y14.173
X43.213 Y14.166
X43.384 Y14.146
X43.471 Y14.128
X43.729 Y14.06
X43.859 Y14.022
X43.988 Y13.973
X44.246 Y13.886
X44.634 Y13.733
X44.763 Y13.663
X44.892 Y13.589
X45.035 Y13.5
X45.093 Y13.462
X45.122 Y13.449
X45.15 Y13.44
X45.183 Y13.434
X45.215 Y13.432
X45.247
X45.28 Y13.436
X45.311 Y13.444
X45.342 Y13.457
X45.373 Y13.476
X45.409 Y13.504
X45.538 Y13.594
X45.667 Y13.672
X45.796 Y13.741
X46.313 Y13.975
X46.572 Y14.103
X46.701 Y14.157
X46.988 Y14.275
X47.088 Y14.309
X47.217 Y14.35
X47.347 Y14.379
X47.476 Y14.386
X47.734 Y14.391
X47.799 Y14.388
X47.863 Y14.379
X48.106 Y14.329
X48.122 Y14.325
X48.468 Y14.146
X48.509 Y14.123
X48.653 Y14.017
X48.855 Y13.807
X48.869 Y13.791
X48.974 Y13.629
X48.997 Y13.601
X49.026 Y13.573
X49.058 Y13.547
X49.091 Y13.528
X49.123 Y13.515
X49.155 Y13.508
X49.225 Y13.503
G3 X49.481 Y13.747 I0.006 J0.25 F1500
X49.237 Y14.003 I-0.25 J0.006
G1 X49.181 Y14.005 Z14.523
X49.129 Y14.006 Z14.542
X49.081 Y14.007 Z14.572
X49.042 Y14.008 Z14.611
X49.012 Y14.009 Z14.659
X48.993 Z14.711
X48.987 Z14.767
G0 Z21
X-42.309 Y25.964
Z15.017
G1 Z14.767 F1500
X-42.307 Y25.97 Z14.711
X-42.303 Y25.988 Z14.659
X-42.295 Y26.017 Z14.611
X-42.285 Y26.055 Z14.572
X-42.274 Y26.101 Z14.542
X-42.261 Y26.152 Z14.523
X-42.247 Y26.206 Z14.517
G3 X-42.023 Y27.761 I-7.063 J1.809
G1 Y27.868 F2000
X-41.863 Y28.413
X-41.647 Y28.736
X-41.583 Y28.898
X-41.568 Y28.964
X-41.57 Y29.033
X-41.591 Y29.098
X-41.607 Y29.131
X-41.662 Y29.271
X-41.726 Y29.39
X-41.859 Y29.745
X-41.863 Y29.761
X-41.896 Y30.116
X-41.828 Y30.488
X-41.804 Y30.552
X-41.792 Y30.583
X-41.774 Y30.632
X-41.762 Y30.682
X-41.755 Y30.811
X-41.757 Y30.94
X-41.744 Y31.069
X-41.708 Y31.328
X-41.683 Y31.457
X-41.662 Y31.579
X-41.622 Y31.715
X-41.568 Y31.844
X-41.533 Y31.919
X-41.497 Y31.974
X-41.404 Y32.107
X-41.392 Y32.122
X-41.154 Y32.361
X-40.977 Y32.49
X-40.887 Y32.563
X-40.743 Y32.688
X-40.354 Y32.905
X-40.338 Y32.911
X-40.306 Y32.921
X-39.773 Y33.121
X-39.38 Y33.261
X-39.337 Y33.282
X-39.298 Y33.31
X-39.266 Y33.345
X-39.241 Y33.389 F1500
X-39.225 Y33.438
X-39.219 Y33.489
Y33.49
G3 X-39.555 Y33.725 I-0.25 J0
G1 X-39.697 Y33.673
X-40.441 Y33.403 F2000
X-40.459 Y33.397 F1500
G3 X-40.306 Y32.921 I0.085 J-0.235
G1 X-39.983 Y33.024 F2000
X-39.854 Y33.045
X-39.725 Y33.059
X-39.595 Y33.062
X-39.563 Y33.066
X-39.531 Y33.075
X-39.499 Y33.088
X-39.466 Y33.107
X-39.432 Y33.136
X-39.327 Y33.265
X-39.228 Y33.395
X-39.208 Y33.412
X-39.03 Y33.565
X-38.659 Y33.74
X-38.643 Y33.747
X-38.627 Y33.751
X-38.076 Y33.895
X-37.546 Y34.1
X-37.004 Y34.271
X-36.55 Y34.451
X-36.493 Y34.482
X-36.447 Y34.527
X-36.413 Y34.582
G3 X-36.725 Y34.913 I-0.232 J0.093 F1500
G1 X-36.93 Y34.844
X-38.708 Y34.247 F2000
X-38.747 Y34.235 F1500
G3 X-38.627 Y33.751 I0.079 J-0.237
G1 X-38.562 Y33.764 F2000
X-37.868 Y33.883
X-37.529 Y33.842
X-37.399 Y33.823
X-37.141 Y33.78
X-37.012 Y33.755
X-36.883 Y33.719
X-36.85 Y33.716
X-36.818 Y33.717
X-36.786 Y33.722
X-36.753 Y33.732
X-36.733 Y33.741
X-36.713 Y33.752
X-36.692 Y33.765
X-36.672 Y33.782
X-36.646 Y33.808
X-36.624 Y33.834
X-36.611 Y33.853
X-36.6 Y33.872
X-36.585 Y33.911
X-36.514 Y34.348
X-36.512 Y34.361
X-36.366 Y34.689
X-36.29 Y34.816
X-36.092 Y35.13
X-36.083 Y35.142
X-36.025 Y35.203
X-35.978 Y35.251
X-35.705 Y35.462
X-35.591 Y35.548
X-35.287 Y35.72
X-35.203 Y35.767
X-35.187 Y35.773
X-34.816 Y35.875
X-34.686 Y35.905
X-34.428 Y35.944
X-34.412
X-34.041 Y35.917
X-33.911 Y35.915
X-33.653
X-33.524 Y35.918
X-33.136 Y35.948
X-32.749 Y35.949
X-32.619 Y35.936
X-32.49 Y35.919
X-32.361 Y35.9
X-32.232 Y35.876
X-32.101 Y35.849
X-31.974 Y35.81
X-31.909 Y35.789
X-31.877 Y35.782
X-31.844 Y35.778
X-31.715 Y35.785
X-31.586 Y35.782
X-31.457 Y35.772
X-31.05 Y35.728
X-30.682 Y35.577
X-30.617 Y35.542
X-30.552 Y35.504
X-30.294 Y35.332
X-30.117 Y35.203
X-30.036 Y35.142
X-29.947 Y35.074
X-29.907 Y35.04
X-29.802 Y34.945
X-29.531 Y34.686
X-29.519 Y34.673
X-29.431 Y34.557
X-29.346 Y34.428
X-29.263 Y34.299
X-29.073 Y33.911
X-29.002 Y33.697
X-28.946 Y33.524
X-28.91 Y33.395
X-28.841 Y33.136
X-28.8 Y33.007
X-28.704 Y32.749
X-28.659 Y32.619
X-28.644 Y32.49
X-28.626 Y32.296
Y32.28
X-28.647 Y32.103
X-28.676 Y31.974
X-28.724 Y31.844
X-28.85 Y31.548
X-28.86 Y31.529
X-29.023 Y31.289
X-29.034 Y31.274
X-29.131 Y31.175
X-29.258 Y31.069
X-29.397 Y30.94
X-29.649 Y30.577
X-29.757 Y30.314
X-29.823 Y30.188
X-29.915 Y30.079
X-30.14 Y29.905
X-30.528 Y29.766
X-30.559 Y29.752
X-30.587 Y29.735
X-30.613 Y29.714
G3 X-30.614 Y29.36 I0.176 J-0.177 F1500
X-30.26 Y29.36 I0.177 J0.177
G1 X-28.949 Y30.673 F2000
X-28.927 Y30.695 F1500
G3 X-29.258 Y31.069 I-0.177 J0.177
G1 X-29.39 Y30.973 F2000
X-29.443 Y30.94
X-29.519 Y30.887
X-29.648 Y30.781
X-29.777 Y30.673
X-29.918 Y30.552
X-30.036 Y30.432
X-30.043 Y30.423
X-30.165 Y30.251
X-30.219 Y30.165
X-30.294 Y30.062
X-30.314 Y30.036
X-30.429 Y29.907
X-30.552 Y29.77
X-30.684 Y29.648
X-30.811 Y29.56
X-30.94 Y29.474
X-31.093 Y29.381
X-31.108 Y29.374
X-31.457 Y29.247
X-31.586 Y29.217
X-31.844 Y29.167
X-31.974 Y29.159
X-32.232 Y29.153
X-32.361 Y29.154
X-32.49 Y29.157
X-32.619 Y29.16
X-32.749 Y29.161
X-33.136 Y29.152
X-33.265 Y29.159
X-33.298 Y29.16
X-33.33 Y29.157
X-33.362 Y29.15
X-33.395 Y29.138
X-33.408 Y29.131
X-33.426 Y29.121
X-33.445 Y29.108
X-33.463 Y29.092
X-33.482 Y29.073
X-33.532 Y29.002
X-33.653 Y28.862
X-33.757 Y28.744
X-34.17 Y28.307
X-34.299 Y28.183
X-34.428 Y28.09
X-34.557 Y28
X-34.816 Y27.831
X-34.945 Y27.748
X-35.004 Y27.71
X-35.332 Y27.513
X-35.436 Y27.452
X-35.591 Y27.368
X-35.675 Y27.323
X-35.72 Y27.3
X-35.849 Y27.238
X-36.204 Y27.107
X-36.221 Y27.104
X-36.495 Y27.076
X-36.624 Y27.064
X-36.883 Y27.052
X-37.012 Y27.047
X-37.399 Y27.096
X-37.658 Y27.117
X-37.819 Y27.131
X-37.851 Y27.141
X-38.174 Y27.252
X-38.304 Y27.293
X-38.433 Y27.333
X-38.562 Y27.368
X-38.691 Y27.396
X-39.079 Y27.441
X-39.168 Y27.452
X-39.466 Y27.495
X-39.595 Y27.525
X-39.854 Y27.61
X-39.983 Y27.662
X-40.112 Y27.727
X-40.241 Y27.796
X-40.316 Y27.84
X-40.758 Y28.146
X-40.865 Y28.227
X-41.146 Y28.468
X-41.162 Y28.486
X-41.275 Y28.616
X-41.526 Y28.965
X-41.559 Y29.031
X-41.591 Y29.098
G3 X-42.034 Y28.865 I-0.221 J-0.116 F1500
G1 X-42.008 Y28.816 Z14.523
X-41.983 Y28.769 Z14.542
X-41.961 Y28.727 Z14.572
X-41.943 Y28.692 Z14.611
X-41.929 Y28.666 Z14.659
X-41.92 Y28.649 Z14.711
X-41.917 Y28.644 Z14.767
G0 Z21
X16.848 Y-17.827
Z15.017
G1 Z14.767 F1500
X16.85 Y-17.821 Z14.711
X16.855 Y-17.803 Z14.659
X16.862 Y-17.774 Z14.611
X16.872 Y-17.736 Z14.572
X16.883 Y-17.69 Z14.542
X16.897 Y-17.638 Z14.523
X16.91 Y-17.585 Z14.517
G3 X17.022 Y-16.807 I-3.532 J0.905
G1 Y-16.665 F2000
X17.182 Y-16.119
X17.325 Y-15.873
X17.364 Y-15.814
X17.419 Y-15.769
X17.539 Y-15.693
G3 X17.604 Y-15.346 I-0.141 J0.206 F1500
X17.257 Y-15.281 I-0.206 J-0.141
G1 X17.211 Y-15.312 Z14.523
X17.167 Y-15.342 Z14.542
X17.128 Y-15.369 Z14.572
X17.095 Y-15.391 Z14.611
X17.071 Y-15.408 Z14.659
X17.055 Y-15.418 Z14.711
X17.05 Y-15.422 Z14.767
G0 Z21
X-2.92 Y55.756
Z15.017
G1 Z14.767 F1500
X-2.919 Y55.762 Z14.711
X-2.914 Y55.78 Z14.659
X-2.907 Y55.809 Z14.611
X-2.897 Y55.847 Z14.572
X-2.885 Y55.893 Z14.542
X-2.872 Y55.944 Z14.523
X-2.858 Y55.998 Z14.517
G3 X-2.635 Y57.553 I-7.063 J1.809
G1 Y57.624 F2000
X-2.475 Y58.17
X-2.273 Y58.48
X-2.074 Y59.013
X-1.868 Y59.543
X-1.647 Y60.067
X-1.319 Y60.531
X-0.952 Y60.966
X-0.216 Y61.832
X0.189 Y62.232
X0.678 Y62.522
X1.196 Y62.757
X1.725 Y62.964
X2.259 Y63.16
X3.328 Y63.548
X3.885 Y63.66
X4.45 Y63.73
X5.016 Y63.783
X5.584 Y63.809
X6.152 Y63.815
X6.72 Y63.778
X7.285 Y63.719
X7.846 Y63.622
X8.121 Y63.55
X8.394 Y63.473
X8.46 Y63.446
X8.492 Y63.431
X8.519 Y63.408
X8.538 Y63.378
X8.548 Y63.344
X8.549 Y63.059
X8.375 Y62.518
X8.236 Y61.967
X8.114 Y61.411
X8.012 Y60.852
X7.937 Y60.288
X7.876 Y59.723
X7.859 Y59.154
X7.908 Y58.588
X7.995 Y58.026
X8.106 Y57.468
X8.123 Y56.9
X8.064 Y56.334
X8.053 Y55.766
X8.107 Y55.2
X8.198 Y54.639
X8.371 Y54.097
X8.594 Y53.574
X8.625 Y53.006
X8.577 Y52.439
X8.509 Y51.875
X8.434 Y51.311
X8.366 Y50.747
X8.146 Y50.222
X7.874 Y49.723
X7.615 Y49.216
X7.384 Y48.697
X7.291 Y48.428
X7.249 Y48.293
X7.21 Y48.233
X6.992 Y48.051
X6.489 Y47.784
X5.954 Y47.592
X5.447 Y47.335
X4.959 Y47.043
X4.494 Y46.717
X4.274 Y46.536
X4.213 Y46.5
X4.149 Y46.47
X4.008 Y46.45
X3.441 Y46.499
X2.921 Y46.73
X2.383 Y46.913
X2.109 Y46.989
X1.976 Y47.039
X1.757 Y47.22
X1.43 Y47.685
X1.194 Y48.202
X0.915 Y48.698
X0.615 Y49.181
X0.327 Y49.672
X0.163 Y50.216
X0.052 Y50.774
X0.02 Y51.341
X0.015 Y51.91
X0.02 Y52.479
X0.027 Y52.578
X0.023 Y52.646
X0 Y52.71
X-0.04 Y52.766
X-0.231 Y52.966
X-0.24 Y52.979
X-0.283 Y53.044
X-0.291 Y53.058
X-0.433 Y53.418
X-0.436 Y53.435
X-0.462 Y53.774
X-0.461 Y53.79
X-0.383 Y54.145
X-0.359 Y54.194
X-0.131 Y54.715
X-0.067 Y54.85
X-0.009 Y54.989
X0.039 Y55.13
X0.079 Y55.275
X0.111 Y55.422
X0.134 Y55.57
X0.15 Y55.719
X0.16 Y55.869
X0.164 Y56.019
X0.163 Y56.169
X0.158 Y56.318
X0.148 Y56.468
X0.134 Y56.617
X0.114 Y56.766
X0.087 Y56.914
X0.052 Y57.06
X0.01 Y57.204
X-0.038 Y57.346
X-0.064 Y57.412
X-0.084 Y57.695
X0.009 Y58.256
X0.197 Y58.793
X0.505 Y59.271
X0.858 Y59.717
X1.222 Y60.154
X1.651 Y60.527
X2.163 Y60.775
X2.69 Y60.988
X3.222 Y61.187
X3.757 Y61.381
X4.313 Y61.497
X4.877 Y61.571
X5.444 Y61.613
X5.587 Y61.615
X5.729
X6.013 Y61.612
X6.19 Y61.603
X6.226 Y61.601
X6.259 Y61.589
X6.288 Y61.569
X6.31 Y61.54
X6.323 Y61.507
X6.326 Y61.472
X6.214 Y60.914
X6.142 Y60.783
X6.077 Y60.648
X6.02 Y60.509
X5.97 Y60.368
X5.926 Y60.224
X5.887 Y60.079
X5.854 Y59.933
X5.828 Y59.785
X5.807 Y59.637
X5.791 Y59.488
X5.78 Y59.338
X5.772 Y59.188
X5.768 Y59.038
X5.769 Y58.888
X5.774 Y58.723
X5.776 Y58.678
X5.779 Y58.656
X5.792 Y58.586
X5.894 Y58.026
X6.031 Y57.474
X6.055 Y56.941
X6.086 Y56.832
X6.16 Y56.748
X6.264 Y56.705
G3 X6.543 Y56.992 I0.032 J0.248 F1500
G1 X6.494 Y57.31
X6.292 Y58.613 F2000
X6.289 Y58.638 F1500
G3 X5.792 Y58.586 I-0.247 J-0.038
G1 X5.803 Y58.457 F2000
X5.81 Y58.198
X5.815 Y58.069
X5.896 Y57.665
X5.898 Y57.649
X5.875 Y57.294
X5.873 Y57.278
X5.842 Y57.165
X5.808 Y57.068
X5.801 Y57.036
X5.798 Y57.003
X5.799 Y56.971
X5.805 Y56.939
X5.816 Y56.906
X5.826 Y56.884
X5.839 Y56.861
X5.856 Y56.838
X5.878 Y56.815
X5.902 Y56.795
X5.927 Y56.777
X5.947 Y56.766
X5.967 Y56.757
X6.007 Y56.744
X6.136 Y56.727
X6.266 Y56.705
X6.395 Y56.681
X6.718 Y56.583
X6.75 Y56.572
X6.782 Y56.556
X7.17 Y56.347
X7.183 Y56.337
X7.328 Y56.217
X7.344 Y56.201
X7.534 Y55.96
X7.546 Y55.939
X7.581 Y55.873
X7.638 Y55.744
X7.758 Y55.453
X7.809 Y55.098
Y55.082
X7.758 Y54.71
X7.654 Y54.323
X7.621 Y54.258
X7.557 Y54.134
X7.516 Y54.064
X7.444 Y53.969
X7.428 Y53.955
X7.251 Y53.782
X6.939 Y53.306
X6.766 Y52.86
X6.75 Y52.791
X6.754 Y52.72
X6.779 Y52.653
G3 X7.209 Y52.649 I0.216 J0.125 F1500
G1 X7.347 Y52.877
X7.757 Y53.56 F2000
X7.801 Y53.633 F1500
G3 X7.428 Y53.955 I-0.214 J0.129
G1 X7.181 Y53.737 F2000
X7.17 Y53.728
X6.911 Y53.59
X6.782 Y53.532
X6.653 Y53.482
X6.588 Y53.461
X6.556 Y53.444
X6.519 Y53.418
X6.502 Y53.404
X6.485 Y53.386
X6.461 Y53.354
X6.444 Y53.322
X6.433 Y53.289
X6.426 Y53.257
X6.424 Y53.225
X6.425 Y53.192
X6.431 Y53.16
X6.442 Y53.128
X6.458 Y53.095
X6.48 Y53.063
X6.524 Y53.017
X6.624 Y52.902
X6.689 Y52.819
X6.735 Y52.734
X6.906 Y52.413
X7.029 Y52.03
X7.054 Y51.674
X7.055 Y51.658
X6.985 Y51.303
X6.978 Y51.287
X6.791 Y50.931
X6.782 Y50.919
X6.719 Y50.845
X6.708 Y50.835
X6.653 Y50.793
X6.274 Y50.479
X5.925 Y50.03
X5.492 Y49.661
X5 Y49.377
X4.507 Y49.094
X4.265 Y48.945
X4.145 Y48.868
X3.869 Y48.802
X3.726 Y48.805
X3.656 Y48.81
X3.521 Y48.856
X3.061 Y49.19
X2.721 Y49.646
X2.408 Y50.12
X2.267 Y50.459
X2.248 Y50.495
X2.225 Y50.528
X2.198 Y50.557
G3 X1.873 Y50.177 I-0.162 J-0.19 F1500
G1 X1.915 Y50.141 Z14.523
X1.955 Y50.106 Z14.542
X1.991 Y50.076 Z14.572
X2.021 Y50.05 Z14.611
X2.044 Y50.031 Z14.659
X2.058 Y50.019 Z14.711
X2.063 Y50.014 Z14.767
G0 Z21
X7.638 Y51.094
Z15.017
G1 Z14.767 F1500
X7.631 Y51.093 Z14.711
X7.613 Y51.091 Z14.659
X7.583 Y51.088 Z14.611
X7.544 Y51.084 Z14.572
X7.497 Y51.079 Z14.542
X7.444 Y51.073 Z14.523
X7.389 Y51.068 Z14.517
G3 X6.653 Y50.793 I0.167 J-1.574
G1 X6.363 Y50.576 F2000
X6.351 Y50.569
X5.971 Y50.436
X5.603 Y50.397
X5.587
X5.49 Y50.408
X5.361 Y50.43
X5.232 Y50.46
X5.167 Y50.48
X5.135 Y50.485
X5.103 Y50.486
X5.071 Y50.483
X5.038 Y50.476
X4.957 Y50.447
X4.844 Y50.415
X4.715 Y50.387
X4.586 Y50.37
X4.312 Y50.336
X4.295 Y50.335
X3.94 Y50.367
X3.811 Y50.388
X3.509 Y50.447
X3.466 Y50.454
X3.423
X3.38 Y50.447
X3.165 Y50.396
G3 X3.28 Y49.91 I0.057 J-0.243 F1500
X3.461 Y50.228 I-0.057 J0.243 F2000
X3.13 Y50.386 I-0.238 J-0.075
G1 X2.272 Y50.045
G3 X2.456 Y49.58 I0.092 J-0.232
X2.603 Y49.884 I-0.092 J0.232
G1 X2.601 Y49.892
G3 X2.198 Y50.557 I-1.513 J-0.464 F1500
G1 X1.909 Y50.822 F2000
X1.873 Y50.871
X1.802 Y50.964
X1.744 Y51.01
X1.455 Y51.222
X1.406 Y51.255
X1.356 Y51.274
X0.969 Y51.406
X0.956 Y51.412
X0.93 Y51.428
X0.626 Y51.677
X0.607 Y51.694
X0.545 Y51.771
X0.534 Y51.787
X0.361 Y52.127
X0.323 Y52.207
X0.228 Y52.441
X0.214 Y52.469
X0.194 Y52.498
X0.065 Y52.654
X-0.04 Y52.766
X-0.079 Y52.8 F1500
X-0.125 Y52.825
X-0.175 Y52.84
X-0.227 Y52.845
X-0.279 Y52.838
X-0.333 Y52.832
X-0.388 Y52.838
X-0.441 Y52.855
X-0.488 Y52.884
X-0.727 Y53.068
X-0.91 Y53.209 F2000
G2 X-0.893 Y53.618 I0.153 J0.198
G1 X-0.886 Y53.622
G3 X-0.359 Y54.194 I-0.864 J1.326 F1500
G1 X-0.23 Y54.452 F2000
X-0.194 Y54.523
X-0.156 Y54.581
X0.1 Y54.969
X0.194 Y55.116
X0.21 Y55.144
X0.222 Y55.172
X0.237 Y55.227
X0.274 Y55.356
X0.323 Y55.485
X0.385 Y55.615
X0.447 Y55.744
X0.452 Y55.763
X0.456 Y55.79
X0.458 Y55.816
X0.456 Y55.843
X0.451 Y55.873
X0.441 Y55.905
X0.428 Y55.938
X0.39 Y56.002
X0.323 Y56.134
X0.27 Y56.26
X0.223 Y56.39
X0.214 Y56.422
X0.186 Y56.777
X0.192 Y56.906
X0.214 Y57.165
X0.227 Y57.294
X0.242 Y57.423
X0.257 Y57.552
X0.284 Y57.682
X0.372 Y57.988
X0.378 Y58.004
X0.607 Y58.387
X0.673 Y58.457
X0.969 Y58.763
X0.996 Y58.788
X1.023 Y58.808
X1.356 Y59.033
X1.478 Y59.103
X1.615 Y59.168
X1.739 Y59.232
X1.779 Y59.262
X1.798 Y59.28
X1.814 Y59.298
X1.873 Y59.387
X1.95 Y59.49
X2.081 Y59.638
X2.098 Y59.653
X2.261 Y59.782
X2.39 Y59.862
X2.648 Y60.01
X2.777 Y60.076
X3.084 Y60.224
X3.1 Y60.229
X3.456 Y60.295
X3.811 Y60.264
X3.827 Y60.259
X4.199 Y60.109
X4.328 Y60.038
X4.457 Y59.977
X4.67 Y59.878
X5.038 Y59.71
X5.103 Y59.663
X5.158 Y59.619
X5.413 Y59.361
X5.509 Y59.253
X5.517 Y59.242
X5.722 Y58.877
X5.729 Y58.86
X5.768 Y58.715
X5.779 Y58.656
G3 X6.268 Y58.763 I0.244 J0.053 F1500
G1 X6.256 Y58.817 Z14.523
X6.244 Y58.869 Z14.542
X6.234 Y58.915 Z14.572
X6.226 Y58.954 Z14.611
X6.22 Y58.983 Z14.659
X6.216 Y59.001 Z14.711
X6.214 Y59.007 Z14.767
G0 Z21
X3.383 Y-12.753
Z15.017
G1 Z14.767 F1500
X3.385 Y-12.747 Z14.711
X3.39 Y-12.729 Z14.659
X3.397 Y-12.7 Z14.611
X3.407 Y-12.662 Z14.572
X3.418 Y-12.616 Z14.542
X3.432 Y-12.565 Z14.523
X3.445 Y-12.511 Z14.517
G3 X3.501 Y-12.122 I-1.766 J0.452
G1 Y-12.051 F2000
X3.661 Y-11.505
X3.839 Y-11.244
X3.945 Y-10.98
X3.985 Y-10.844
X4.061 Y-10.724
G3 X3.837 Y-10.347 I-0.215 J0.127 F1500
G1 X3.791 Y-10.362 Z14.522
X3.747 Y-10.376 Z14.537
X3.706 Y-10.39 Z14.56
X3.677 Y-10.419 Z14.595
X3.654 Y-10.443 Z14.639
X3.638 Y-10.459 Z14.689
X3.633 Y-10.467 Z14.727
X3.631 Y-10.469 Z14.767
G0 Z21
X37.537 Y20.767
Z14.525
G1 Z14.275 F1500
X37.543 Y20.765 Z14.219
X37.561 Y20.761 Z14.166
X37.59 Y20.753 Z14.119
X37.628 Y20.744 Z14.079
X37.674 Y20.732 Z14.049
X37.725 Y20.719 Z14.031
X37.779 Y20.705 Z14.025
G3 X39.334 Y20.481 I1.809 J7.063
G1 X39.441 F2000
X39.475 Y20.471
X39.953 Y20.164
X40.157 Y20.003
X40.44 Y19.866
X40.993 Y19.735
X41.502 Y19.481
X41.939 Y19.117
X42.398 Y18.781
X42.866 Y18.458
X43.373 Y18.201
X43.911 Y18.018
X44.462 Y17.877
X45.028 Y17.826
X45.596 Y17.859
X46.159 Y17.941
X46.698 Y18.122
X47.205 Y18.379
X47.69 Y18.676
X47.918 Y18.845
X48.427 Y19.1
X48.707 Y19.148
X48.99 Y19.176
X49.545 Y19.054
X50.042 Y18.777
X50.228 Y18.641
X50.247 Y18.63
X50.253 Y18.626
X50.318 Y18.603
X50.576 Y18.512
X50.705 Y18.464
X51.03 Y18.296
X51.041 Y18.289
X51.052 Y18.28
X51.365 Y17.938
X51.377 Y17.922
X51.395 Y17.892
X51.454 Y17.763
X51.523 Y17.585
X51.566 Y17.214
X51.526 Y16.859
X51.495 Y16.73
X51.423 Y16.455
X51.415 Y16.44
X51.178 Y16.084
X51.062 Y15.954
X50.964 Y15.861
X50.835 Y15.744
X50.528 Y15.436
X50.318 Y15.107
X50.144 Y14.63
X50.082 Y14.165
X50.089 Y14.068
X50.132 Y13.98
X50.205 Y13.916
G3 X50.548 Y14.029 I0.118 J0.22 F1500
G1 X50.712 Y14.373
X51.176 Y15.35 F2000
X51.222 Y15.446 F1500
G3 X50.835 Y15.744 I-0.226 J0.107
G1 X50.782 Y15.696 F2000
X50.618 Y15.567
X50.315 Y15.309
X50.189 Y15.186
X50.183 Y15.179
X49.801 Y14.876
X49.672 Y14.798
X49.66 Y14.792
X49.543 Y14.741
X49.517 Y14.729
X49.49 Y14.713
X49.464 Y14.691
X49.438 Y14.663
X49.425 Y14.644
X49.414 Y14.625
X49.403 Y14.602
X49.395 Y14.579
X49.389 Y14.556
X49.386 Y14.533
X49.385 Y14.501
X49.388 Y14.469
X49.395 Y14.437
X49.408 Y14.404
X49.414 Y14.392
X49.432 Y14.363
X49.456 Y14.334
X49.513 Y14.275
X49.611 Y14.167
X49.637 Y14.146
X49.672 Y14.125
X49.704 Y14.111
X49.737 Y14.1
X49.801 Y14.082
X49.93 Y14.037
X50.06 Y13.987
X50.189 Y13.925
X50.253 Y13.887
X50.628 Y13.629
X50.667 Y13.596
X50.764 Y13.5
X50.835 Y13.418
X50.873 Y13.371
X50.974 Y13.242
X51.026 Y13.182
X51.104 Y13.112
X51.258 Y12.983
X51.481 Y12.793
X51.569 Y12.725
X51.61 Y12.688
X51.868 Y12.447
X51.917 Y12.392
X51.959 Y12.337
X52.181 Y11.95
X52.345 Y11.691
X52.385 Y11.627
X52.458 Y11.498
X52.48 Y11.465
X52.494 Y11.449
X52.514 Y11.43
X52.772 Y11.212
X52.939 Y11.045
X53.031 Y10.96
X53.16 Y10.848
X53.224 Y10.787
X53.348 Y10.658
X53.418 Y10.577
X53.548 Y10.387
X53.613 Y10.27
X53.66 Y10.141
X53.677 Y10.09
X53.696 Y10.012
X53.717 Y9.883
X53.722 Y9.754
X53.718 Y9.624
X53.706 Y9.495
X53.677 Y9.361
X53.651 Y9.237
X53.652 Y9.205
X53.657 Y9.172
X53.664 Y9.14
X53.677 Y9.108
X53.695 Y9.075
X53.72 Y9.043
X53.778 Y8.978
X53.806 Y8.943
X53.866 Y8.849
X53.935 Y8.72
X54.002 Y8.591
X54.04 Y8.462
X54.122 Y8.139
X54.139 Y7.816
X54.137 Y7.687
X54.126 Y7.557
X54.098 Y7.428
X54.064 Y7.286
X53.993 Y7.008
X53.988 Y6.992
X53.935 Y6.883
X53.884 Y6.782
X53.803 Y6.653
X53.714 Y6.524
X53.617 Y6.395
X53.548 Y6.31
X53.418 Y6.168
X53.4 Y6.136
X53.387 Y6.104
X53.378 Y6.072
X53.366 Y6.007
X53.335 Y5.878
X53.24 Y5.62
X53.147 Y5.361
X53.086 Y5.232
X52.902 Y4.872
X52.885 Y4.844
X52.716 Y4.586
X52.629 Y4.457
X52.385 Y4.154
X52.316 Y4.069
X52.256 Y4.02
X51.99 Y3.811
X51.824 Y3.682
X51.739 Y3.617
X51.652 Y3.553
X51.61 Y3.528
X51.481 Y3.46
X51.4 Y3.423
X51.287 Y3.379
X51.255 Y3.359
X51.222 Y3.334
X51.202 Y3.314
X51.185 Y3.294
X51.111 Y3.165
X51.093 Y3.137
X51.031 Y3.049
X51.02 Y3.036
X50.76 Y2.778
X50.705 Y2.735
X50.576 Y2.648
X50.318 Y2.495
X50.189 Y2.414
X50.155 Y2.39
X50.06 Y2.33
X49.93 Y2.257
X49.801 Y2.185
X49.414 Y2.019
X49.377 Y2.002
X49.284 Y1.951
X49.026 Y1.855
X48.897 Y1.812
X48.639 Y1.732
X48.509 Y1.688
X48.251 Y1.582
X48.122 Y1.531
X47.734 Y1.447
X47.347 Y1.418
X47.088 Y1.435
X46.959 Y1.448
X46.83 Y1.469
X46.756 Y1.486
X46.701 Y1.502
X46.572 Y1.545
X46.313 Y1.621
X46.184 Y1.659
X46.055 Y1.698
X45.796 Y1.778
X45.667 Y1.817
X45.538 Y1.85
X45.454 Y1.873
X45.409 Y1.887
X45.28 Y1.934
X45.15 Y1.973
X45.061 Y2.002
X45.021 Y2.006
X44.997
X44.972 Y2.002
X44.763 Y1.958
X44.634 Y1.921
X44.503 Y1.873
X44.375 Y1.837
X44.311 Y1.82
X44.246 Y1.791
X44.117 Y1.731
X43.988 Y1.68
X43.859 Y1.643
X43.729 Y1.627
X43.471 Y1.596
X43.455
X43.084 Y1.624
X42.696 Y1.663
X42.567 Y1.674
X42.228 Y1.695
X42.212 Y1.698
X41.792 Y1.82
X41.404 Y1.925
X41.275 Y1.969
X41.017 Y2.075
X40.577 Y2.261
X40.371 Y2.379
X40.095 Y2.519
X39.725 Y2.713
X39.595 Y2.789
X39.337 Y2.958
X39.236 Y3.036
X39.075 Y3.165
X38.95 Y3.275
X38.929 Y3.294
X38.81 Y3.423
X38.663 Y3.588
X38.609 Y3.682
X38.536 Y3.811
X38.501 Y3.876
X38.476 Y3.908
X38.461 Y3.924
X38.444 Y3.94
X38.433 Y3.949
X38.401 Y3.969
X38.304 Y4.017
X38.174 Y4.085
X38.045 Y4.173
X38.012 Y4.199
X37.862 Y4.328
X37.787 Y4.396
X37.723 Y4.457
X37.658 Y4.52
X37.597 Y4.586
X37.489 Y4.715
X37.394 Y4.844
X37.318 Y4.974
X37.27 Y5.073
X37.257 Y5.103
X37.21 Y5.232
X37.141 Y5.409
X37.057 Y5.62
X37.012 Y5.75
X36.917 Y6.056
X36.913 Y6.072
X36.9 Y6.395
X36.905 Y6.524
X36.942 Y6.911
X36.955 Y7.041
X36.956 Y7.073
X36.954 Y7.105
X36.947 Y7.138
X36.937 Y7.17
X36.927 Y7.191
X36.915 Y7.213
X36.851 Y7.299
X36.77 Y7.428
X36.705 Y7.557
X36.65 Y7.687
X36.609 Y7.816
X36.584 Y7.945
X36.571 Y8.074
X36.565 Y8.203
X36.567 Y8.462
X36.57 Y8.591
X36.635 Y8.978
X36.768 Y9.366
X36.792 Y9.431
X36.819 Y9.495
X36.968 Y9.754
X37.073 Y9.883
X37.141 Y9.965
X37.177 Y10.012
X37.194 Y10.044
X37.205 Y10.077
X37.211 Y10.109
X37.214 Y10.141
X37.231 Y10.27
X37.244 Y10.335
X37.263 Y10.399
X37.355 Y10.642
X37.63 Y11.045
X37.752 Y11.175
X37.787 Y11.212
X37.885 Y11.304
X37.916 Y11.331
X37.977 Y11.382
X38.018 Y11.433
X38.045 Y11.487
X38.078 Y11.562
X38.129 Y11.691
X38.174 Y11.821
X38.238 Y11.95
X38.591 Y12.466
X38.693 Y12.596
X38.82 Y12.729
X38.885 Y12.786
X38.976 Y12.854
X39.208 Y13.025
X39.337 Y13.119
X39.521 Y13.227
X39.546 Y13.242
X39.571 Y13.257
X39.595 Y13.277
X39.645 Y13.324
X39.664 Y13.347
X39.679 Y13.371
X39.725 Y13.451
X39.758 Y13.5
X39.989 Y13.878
X40.155 Y14.361
X40.21 Y14.846
Y14.9
X40.199 Y14.954
X40.176 Y15.003
G3 X39.729 Y14.946 I-0.21 J-0.136 F1500
G1 X39.657 Y14.733
X39.344 Y13.801 F2000
X39.319 Y13.728 F1500
G3 X39.758 Y13.5 I0.237 J-0.08
G1 X39.801 Y13.563 F2000
X39.856 Y13.629
X39.983 Y13.759
X40.112 Y13.863
X40.145 Y13.887
X40.241 Y13.946
X40.371 Y14.011
X40.5 Y14.064
X40.522 Y14.078
X40.545 Y14.095
X40.57 Y14.12
X40.59 Y14.146
X40.605 Y14.171
X40.616 Y14.197
X40.624 Y14.222
X40.629 Y14.248
X40.632 Y14.275
X40.631 Y14.298
X40.629 Y14.321
X40.619 Y14.363
X40.611 Y14.383
X40.601 Y14.404
X40.582 Y14.435
X40.558 Y14.466
X40.494 Y14.533
X40.393 Y14.663
X40.303 Y14.792
X40.07 Y15.179
X39.85 Y15.567
X39.689 Y15.825
X39.57 Y16.015
X39.563 Y16.029
X39.476 Y16.374
X39.475 Y16.39
X39.442 Y16.958
X39.441 Y17.242
X39.522 Y17.515
X39.562 Y17.607
X39.595 Y17.678
X39.604 Y17.706
G3 X39.117 Y17.818 I-0.244 J0.056 F1500
G1 X39.112 Y17.786 F2000
X38.977 Y16.436
Y16.431
G3 X39.475 Y16.39 I0.249 J-0.02 F1500
G1 X39.492 Y16.746 F2000
X39.494 Y16.762
X39.577 Y17.117
X39.591 Y17.182
X39.592 Y17.246
X39.581 Y17.618
X39.676 Y17.973
X39.682 Y17.989
X39.773 Y18.151
X39.854 Y18.266
X39.908 Y18.331
X40.15 Y18.529
X40.162 Y18.538
X40.516 Y18.701
X40.564 Y18.709
X40.887 Y18.76
X40.92 Y18.756
X41.146 Y18.726
X41.275 Y18.706
X41.533 Y18.633
X41.646 Y18.602
X41.662 Y18.594
X41.98 Y18.409
X42.05 Y18.366
X42.15 Y18.28
X42.417 Y18.021
X42.511 Y17.892
X42.825 Y17.473
X42.879 Y17.376
X43.017 Y17.117
X43.161 Y16.865
X43.43 Y16.568
X43.846 Y16.274
X44.37 Y16.053
X44.929 Y15.946
X45.497 Y15.92
X46.065 Y15.953
X46.623 Y16.058
X46.856 Y16.126
X46.949 Y16.179
X47.009 Y16.268
X47.023 Y16.374
X47.035 Y16.746
X47.038 Y16.762
X47.13 Y17.117
X47.174 Y17.246
X47.269 Y17.505
X47.314 Y17.634
X47.4 Y17.892
X47.452 Y18.021
X47.521 Y18.151
X47.608 Y18.28
X47.715 Y18.409
X47.942 Y18.667
X47.993 Y18.712
X48.13 Y18.797
X48.299 Y18.894
X48.639 Y18.979
X48.768 Y18.999
X49.058 Y19.031
X49.075 Y19.03
X49.414 Y18.987
X49.543 Y18.956
X49.833 Y18.873
X50.06 Y18.754
X50.189 Y18.667
X50.221 Y18.644
X50.247 Y18.63
G0 Z21
X42.891 Y18.139
Z14.525
G1 Z14.275 F1500
X42.89 Y18.133 Z14.219
X42.889 Y18.114 Z14.166
X42.887 Y18.084 Z14.119
X42.884 Y18.045 Z14.079
X42.881 Y17.998 Z14.049
X42.878 Y17.945 Z14.031
X42.874 Y17.889 Z14.025
G3 X43.017 Y17.117 I1.579 J-0.106
G1 X43.229 Y16.697 F2000
X43.275 Y16.471
X43.302 Y16.342
X43.303 Y16.326
X43.287 Y15.954
X43.293 Y15.825
X43.302 Y15.696
X43.33 Y15.472
X43.431 Y15.188
X43.619 Y14.887
X43.898 Y14.602
X44.33 Y14.32
X44.862 Y14.12
X44.905 Y14.113
X44.929 Y14.11
X44.953
X44.976 Y14.111
G3 X45.112 Y14.538 I-0.039 J0.247 F1500
G1 X44.946 Y14.699
X43.863 Y15.752 F2000
X43.726 Y15.885 F1500
G3 X43.302 Y15.696 I-0.174 J-0.179
G1 X43.317 Y15.502 F2000
X43.276 Y15.179
X43.262 Y15.05
X43.252 Y14.921
X43.24 Y14.792
X43.232 Y14.727
X43.233 Y14.695
X43.238 Y14.663
X43.248 Y14.63
X43.262 Y14.598
X43.283 Y14.566
X43.297 Y14.55
X43.313 Y14.533
X43.342 Y14.508
X43.374 Y14.488
X43.406 Y14.473
X43.471 Y14.457
X43.665 Y14.404
X44.246 Y14.243
X44.375 Y14.203
X44.505 Y14.158
X44.535 Y14.146
X44.634 Y14.102
X44.666 Y14.092
X44.698 Y14.085
X44.731 Y14.082
X44.763 Y14.084
X44.892 Y14.101
X45.183 Y14.136
X45.199 Y14.135
X45.538 Y14.084
X45.603 Y14.073
X45.635 Y14.071
X45.667 Y14.073
X45.7 Y14.079
X45.732 Y14.09
X45.849 Y14.146
X45.926 Y14.18
X46.161 Y14.275
X46.431 Y14.404
X46.572 Y14.463
X46.959 Y14.617
X47.088 Y14.658
X47.163 Y14.674
X47.19 Y14.683
X47.217 Y14.695
X47.244 Y14.711
X47.27 Y14.732
X47.299 Y14.762
X47.323 Y14.792
X47.336 Y14.812
X47.347 Y14.833
X47.355 Y14.855
X47.362 Y14.877
X47.366 Y14.899
X47.368 Y14.921
Y14.95
X47.365 Y14.98
X47.358 Y15.009
X47.347 Y15.038
X47.341 Y15.05
X47.257 Y15.179
X47.195 Y15.309
X47.135 Y15.438
X47.088 Y15.56
X47.022 Y15.938
Y15.954
X47.027 Y16.084
X47.04 Y16.213
X47.041 Y16.245
X47.037 Y16.277
X47.025 Y16.358
X47.023 Y16.374
G0 Z21
X-34.855 Y23.979
Z14.525
G1 Z14.275 F1500
X-34.861 Y23.98 Z14.219
X-34.879 Y23.985 Z14.166
X-34.908 Y23.992 Z14.119
X-34.946 Y24.002 Z14.079
X-34.992 Y24.014 Z14.049
X-35.043 Y24.027 Z14.031
X-35.097 Y24.041 Z14.025
G3 X-36.652 Y24.264 I-1.809 J-7.063
G1 X-36.687 F2000
X-37.233 Y24.424
X-37.727 Y24.705
X-37.854 Y24.771
X-38.074 Y24.95
X-38.399 Y25.417
X-38.637 Y25.933
X-38.834 Y26.286
X-38.872 Y26.336
X-38.921 Y26.376
X-38.979 Y26.402
X-39.079 Y26.433
X-39.466 Y26.559
X-39.595 Y26.598
X-39.871 Y26.677
X-39.983 Y26.712
X-40.112 Y26.759
X-40.241 Y26.81
X-40.371 Y26.863
X-40.516 Y26.935
X-40.76 Y27.064
X-41.146 Y27.283
X-41.212 Y27.323
X-41.553 Y27.581
X-41.662 Y27.69
X-41.681 Y27.71
X-41.921 Y27.989
X-42.019 Y28.098
X-42.05 Y28.125
X-42.179 Y28.239
X-42.438 Y28.472
X-42.451 Y28.486
X-42.569 Y28.615
X-42.838 Y28.951
X-42.971 Y29.261
X-43.005 Y29.341
X-43.063 Y29.648
X-43.083 Y29.777
X-43.109 Y30.116
X-43.102 Y30.165
X-43.056 Y30.488
X-43.051 Y30.504
X-42.933 Y30.811
X-42.879 Y30.94
X-42.825 Y31.052
X-42.816 Y31.069
X-42.731 Y31.198
X-42.696 Y31.248
X-42.685 Y31.268
X-42.677 Y31.288
X-42.666 Y31.328
X-42.661 Y31.36
X-42.66 Y31.392
X-42.662 Y31.424
X-42.669 Y31.457
X-42.696 Y31.604
X-42.707 Y31.715
X-42.709 Y31.844
X-42.677 Y32.103
X-42.66 Y32.232
X-42.544 Y32.619
X-42.387 Y33.007
X-42.292 Y33.136
X-42.179 Y33.266
X-42.05 Y33.397
X-42.034 Y33.411
X-42.018 Y33.422
X-41.651 Y33.64
X-41.64 Y33.646
X-41.533 Y33.681
X-41.404 Y33.713
X-41.378 Y33.723
X-41.351 Y33.738
X-41.325 Y33.757
X-41.299 Y33.782
X-41.275 Y33.81
X-41.258 Y33.836
X-41.245 Y33.861
X-41.229 Y33.911
X-41.116 Y34.17
X-41.084 Y34.234
X-41.063 Y34.267
X-41.051 Y34.283
X-40.727 Y34.628
X-40.711 Y34.641
X-40.695 Y34.652
X-40.371 Y34.83
X-40.354 Y34.836
X-40.112 Y34.9
X-39.626 Y35.054
X-39.134 Y35.34
X-38.811 Y35.518
X-38.792 Y35.531
G3 X-39.053 Y35.954 I-0.153 J0.198 F1500
G1 X-39.101 Y35.931
X-40.225 Y35.394 F2000
X-40.275 Y35.369 F1500
G3 X-40.112 Y34.9 I0.108 J-0.226
G1 X-39.999 Y34.93 F2000
X-39.983 Y34.931
X-39.725 Y34.93
X-39.595 Y34.928
X-39.402 Y34.908
X-39.369 Y34.91
X-39.337 Y34.917
X-39.306 Y34.929
X-39.274 Y34.945
X-39.241 Y34.965
X-39.224 Y34.979
X-39.208 Y34.994
X-39.191 Y35.014
X-39.177 Y35.034
X-39.154 Y35.074
X-39.079 Y35.197
X-38.981 Y35.332
X-38.95 Y35.368
X-38.792 Y35.531
X-38.691 Y35.602
X-38.562 Y35.688
X-38.283 Y35.849
X-38.174 Y35.908
X-38.045 Y35.939
X-37.87 Y35.978
X-37.322 Y36.13
X-36.784 Y36.314
X-36.712 Y36.317
X-36.651 Y36.327
X-36.594 Y36.352
X-36.545 Y36.391
G3 X-36.797 Y36.801 I-0.184 J0.17 F1500
G1 X-36.929 Y36.763
X-37.963 Y36.471 F2000
X-37.985 Y36.465 F1500
G3 X-37.87 Y35.978 I0.068 J-0.241
G1 X-37.85 Y35.982 F2000
X-37.496 Y35.966
X-37.48 Y35.964
X-37.27 Y35.907
X-37.206 Y35.891
X-37.173 Y35.886
X-37.141
X-37.109 Y35.889
X-37.076 Y35.897
X-37.044 Y35.909
X-37.012 Y35.926
X-36.981 Y35.948
X-36.819 Y36.107
X-36.569 Y36.366
X-36.495 Y36.441
X-36.44 Y36.495
X-36.366 Y36.556
X-36.237 Y36.654
X-36.107 Y36.766
X-35.978 Y36.862
X-35.849 Y36.938
X-35.64 Y37.035
X-35.268 Y37.131
X-35.252 Y37.133
X-34.945 Y37.134
X-34.816 Y37.123
X-34.557 Y37.078
X-34.428 Y37.045
X-34.105 Y36.935
X-33.911 Y36.824
X-33.782 Y36.744
X-33.653 Y36.649
X-33.524 Y36.542
X-33.465 Y36.495
X-33.43 Y36.47
X-33.395 Y36.452
X-33.265 Y36.41
X-33.233 Y36.402
X-33.201 Y36.399
X-33.136
X-32.749 Y36.38
X-32.608 Y36.366
X-32.361 Y36.339
X-32.232 Y36.327
X-31.974 Y36.307
X-31.844 Y36.299
X-31.457 Y36.311
X-31.328 Y36.313
X-31.069 Y36.314
X-30.94 Y36.309
X-30.682 Y36.284
X-30.552 Y36.267
X-30.423 Y36.242
X-30.4 Y36.237
X-30.294 Y36.202
X-30.165 Y36.156
X-29.907 Y36.053
X-29.777 Y36
X-29.648 Y35.94
X-29.495 Y35.849
X-29.39 Y35.78
X-29.131 Y35.565
X-29.028 Y35.462
X-28.807 Y35.203
X-28.744 Y35.126
X-28.615 Y34.941
X-28.539 Y34.816
X-28.486 Y34.725
X-28.331 Y34.428
X-28.265 Y34.299
X-28.227 Y34.218
X-28.206 Y34.17
X-28.166 Y34.041
X-28.129 Y33.911
X-28.08 Y33.653
X-28.058 Y33.524
X-28.046 Y33.265
X-28.041 Y33.136
X-28.081 Y32.619
X-28.089 Y32.49
Y32.361
X-28.091 Y32.232
X-28.104 Y31.974
X-28.113 Y31.844
X-28.133 Y31.715
X-28.164 Y31.586
X-28.21 Y31.457
X-28.264 Y31.328
X-28.289 Y31.263
X-28.297 Y31.231
X-28.3 Y31.198
X-28.299 Y31.166
X-28.294 Y31.134
X-28.236 Y30.94
X-28.227 Y30.906
X-28.215 Y30.811
X-28.192 Y30.569
Y30.552
X-28.208 Y30.423
X-28.227 Y30.294
X-28.347 Y29.45
X-28.421 Y29.175
X-28.464 Y29.093
X-28.474 Y29.073
X-28.482 Y29.051
X-28.488 Y29.029
G3 X-27.997 Y28.933 I0.246 J-0.045 F1500
G1 X-27.996 Y28.939
X-27.744 Y30.16 F2000
X-27.741 Y30.177 F1500
G3 X-28.227 Y30.294 I-0.245 J0.05
G1 X-28.264 Y30.165 F2000
X-28.369 Y29.907
X-28.437 Y29.745
X-28.447 Y29.713
X-28.452 Y29.68
X-28.453 Y29.648
X-28.444 Y29.577
X-28.436 Y29.519
X-28.43 Y29.39
Y29.293
X-28.512 Y28.922
X-28.518 Y28.905
X-28.615 Y28.692
X-28.657 Y28.615
X-28.691 Y28.559
X-28.987 Y28.25
X-29.002 Y28.236
X-29.015 Y28.227
X-29.131 Y28.16
X-29.358 Y28.047
X-29.648 Y27.961
X-29.777 Y27.925
X-30.165 Y27.845
X-30.423 Y27.8
X-30.552 Y27.783
X-30.94 Y27.746
X-31.069 Y27.744
X-31.328 Y27.756
X-31.457 Y27.768
X-31.586 Y27.787
X-31.738 Y27.83
X-31.75 Y27.833
X-31.761 Y27.84
X-32.008 Y27.965
X-32.341 Y28.051
X-32.446 Y28.056
X-32.544 Y28.019
X-32.619 Y27.947
G3 X-32.493 Y27.577 I0.21 J-0.135 F1500
G1 X-32.177 Y27.463
X-32.027 Y27.41 F2000
X-31.978 Y27.392 F1500
G3 X-31.761 Y27.84 I0.084 J0.235
G1 X-32.103 Y28.035 F2000
X-32.209 Y28.115
X-32.232 Y28.129
X-32.264 Y28.143
X-32.296 Y28.153
X-32.329 Y28.158
X-32.361 Y28.159
X-32.393 Y28.155
X-32.426 Y28.147
X-32.458 Y28.134
X-32.49 Y28.116
X-32.514 Y28.098
X-32.531 Y28.082
X-32.545 Y28.066
X-32.567 Y28.033
X-32.619 Y27.947
X-32.694 Y27.84
X-32.792 Y27.71
X-32.878 Y27.626
X-33.228 Y27.323
X-33.265 Y27.292
X-33.422 Y27.194
X-33.653 Y27.053
X-33.782 Y26.984
X-33.911 Y26.92
X-34.127 Y26.806
X-34.686 Y26.492
X-34.836 Y26.419
X-34.945 Y26.366
X-35.074 Y26.317
X-35.148 Y26.289
X-35.203 Y26.27
X-35.332 Y26.233
X-35.72 Y26.148
X-35.849 Y26.131
X-36.107 Y26.107
X-36.237 Y26.1
X-36.495 Y26.095
X-36.624 Y26.094
X-37.141 Y26.108
X-37.399 Y26.115
X-37.529 Y26.121
X-37.787 Y26.135
X-37.916 Y26.148
X-38.174 Y26.186
X-38.304 Y26.21
X-38.602 Y26.289
X-38.691 Y26.314
X-38.979 Y26.402
G3 X-39.109 Y25.92 I-0.065 J-0.241 F1500
G1 X-39.055 Y25.905 Z14.031
X-39.004 Y25.891 Z14.049
X-38.958 Y25.879 Z14.079
X-38.92 Y25.869 Z14.119
X-38.891 Y25.861 Z14.166
X-38.873 Y25.856 Z14.219
X-38.867 Y25.855 Z14.275
G0 Z21
X-5.195 Y56.335
Z14.525
G1 Z14.275 F1500
X-5.193 Y56.342 Z14.219
X-5.189 Y56.359 Z14.166
X-5.181 Y56.388 Z14.119
X-5.172 Y56.427 Z14.079
X-5.16 Y56.473 Z14.049
X-5.147 Y56.524 Z14.031
X-5.133 Y56.578 Z14.025
G3 X-4.909 Y58.132 I-7.063 J1.809
G1 Y58.275 F2000
X-4.749 Y58.82
X-4.528 Y59.174
X-4.338 Y59.71
X-4.03 Y60.188
X-3.616 Y60.578
X-3.292 Y60.871
X-3.273 Y60.89
X-3.257 Y60.91
X-3.242 Y60.932
X-3.165 Y61.068
X-2.967 Y61.428
X-2.837 Y61.686
X-2.777 Y61.791
X-2.768 Y61.803
X-2.757 Y61.815
X-2.339 Y62.203
X-2.261 Y62.263
X-2.132 Y62.357
X-2.002 Y62.449
X-1.744 Y62.596
X-1.679 Y62.634
X-1.66 Y62.649
X-1.641 Y62.668
X-1.615 Y62.702
X-1.605 Y62.72
X-1.551 Y62.849
X-1.499 Y62.978
X-1.486 Y63.007
X-1.433 Y63.107
X-1.355 Y63.237
X-1.166 Y63.535
X-1.156 Y63.548
X-1.098 Y63.601
X-0.739 Y63.882
X-0.711 Y63.904
X-0.323 Y64.15
X-0.194 Y64.212
X0.065 Y64.333
X0.229 Y64.399
X0.452 Y64.488
X0.581 Y64.53
X0.969 Y64.634
X1.356 Y64.745
X1.486 Y64.79
X1.744 Y64.883
X1.831 Y64.916
X2.414 Y65.174
X2.519 Y65.213
X2.648 Y65.257
X3.036 Y65.361
X3.165 Y65.388
X3.423 Y65.438
X3.553 Y65.459
X3.811 Y65.494
X3.94 Y65.51
X4.328 Y65.55
X4.844 Y65.592
X5.62 Y65.649
X6.007 Y65.663
X6.136 Y65.661
X6.395 Y65.654
X6.524 Y65.648
X6.782 Y65.633
X6.911 Y65.621
X7.041 Y65.604
X7.313 Y65.562
X7.687 Y65.509
X8.074 Y65.443
X8.131 Y65.433
X8.591 Y65.339
X8.978 Y65.253
X9.237 Y65.182
X9.366 Y65.143
X9.786 Y65.002
X9.802 Y64.995
X10.178 Y64.779
X10.382 Y64.601
X10.392 Y64.591
X10.529 Y64.412
X10.537 Y64.399
X10.668 Y64.086
X10.914 Y63.573
X11.238 Y63.105
X11.623 Y62.687
X12.035 Y62.295
X12.44 Y61.896
X12.843 Y61.495
X13.225 Y61.074
X13.356 Y60.905
X13.398 Y60.849
X13.411 Y60.815
X13.414 Y60.78
X13.406 Y60.745
X13.339 Y60.62
X12.934 Y60.221
X12.516 Y59.836
X12.081 Y59.469
X11.631 Y59.122
X11.232 Y58.717
X10.877 Y58.272
X10.559 Y57.801
X10.325 Y57.283
X10.152 Y56.741
X10.019 Y56.188
X9.911 Y55.63
X9.829 Y55.162
X9.826 Y55.11
X9.833 Y55.058
X9.852 Y55.009
X9.872 Y54.969
X10.028 Y54.581
X10.041 Y54.549
X10.06 Y54.516
X10.197 Y54.323
X10.287 Y54.194
X10.372 Y54.064
X10.441 Y53.935
X10.489 Y53.806
X10.525 Y53.677
X10.58 Y53.354
X10.562 Y52.982
X10.559 Y52.966
X10.529 Y52.853
X10.497 Y52.772
X10.441 Y52.643
X10.399 Y52.571
X10.284 Y52.385
X10.27 Y52.356
X10.262 Y52.331
X10.257 Y52.306
X10.253 Y52.256
X10.254 Y52.232
X10.257 Y52.209
X10.262 Y52.185
X10.27 Y52.161
X10.284 Y52.127
X10.307 Y52.062
X10.317 Y52.03
X10.32 Y52.014
X10.366 Y51.658
Y51.642
X10.311 Y51.303
X10.307 Y51.287
X10.141 Y50.933
X10.092 Y50.835
X10.084 Y50.802
X10.08 Y50.77
X10.05 Y50.447
X10.04 Y50.318
X10.02 Y49.983
X10.017 Y49.97
X9.883 Y49.614
X9.716 Y49.384
X9.702 Y49.37
X9.456 Y49.099
X9.173 Y48.606
X8.931 Y48.091
X8.72 Y47.563
X8.714 Y47.545
X8.704 Y47.512
X8.699 Y47.478
Y47.444
G3 X9.168 Y47.351 I0.249 J0.025 F1500
G1 X9.238 Y47.481
X10.044 Y48.984 F2000
X10.087 Y49.063 F1500
G3 X9.702 Y49.37 I-0.22 J0.118
G1 X9.597 Y49.271 F2000
X9.582 Y49.259
X9.366 Y49.12
X9.237 Y49.062
X9.133 Y49.026
X9.043 Y49.003
X9.011 Y48.989
X8.978 Y48.969
X8.958 Y48.953
X8.938 Y48.933
X8.911 Y48.897
X8.891 Y48.865
X8.877 Y48.832
X8.868 Y48.8
X8.863 Y48.768
X8.866 Y48.639
X8.83 Y48.38
X8.81 Y48.251
X8.694 Y47.863
X8.685 Y47.831
X8.68 Y47.799
X8.681 Y47.734
X8.705 Y47.363
X8.704 Y47.347
X8.653 Y46.991
X8.647 Y46.975
X8.471 Y46.612
X8.462 Y46.6
X8.301 Y46.366
X8.27 Y46.301
X8.223 Y46.248
X7.725 Y45.974
X7.171 Y45.843
X6.616 Y45.72
X6.078 Y45.537
X5.568 Y45.286
X5.443 Y45.217
X5.411 Y45.196
X5.383 Y45.171
X5.359 Y45.142
G3 X5.674 Y44.779 I0.21 J-0.136 F1500
G1 X5.801 Y44.838
X8.76 Y46.215 F2000
X8.808 Y46.244
X8.848 Y46.283
G3 X8.814 Y46.634 I-0.193 J0.159 F1500
X8.462 Y46.6 I-0.159 J-0.193
G1 X8.429 Y46.557 F2000
X8.413 Y46.542
X8.092 Y46.268
X8.074 Y46.254
X7.703 Y46.119
X7.687 Y46.116
X7.428 Y46.103
X7.299 Y46.1
X6.911 Y46.139
X6.524 Y46.199
X6.266 Y46.247
X6.136 Y46.269
X6.007 Y46.294
X5.931 Y46.313
X5.904 Y46.318
X5.878 Y46.32
X5.841 Y46.318
X5.804 Y46.313
X5.684 Y46.277
X5.652 Y46.263
X5.62 Y46.241
X5.59 Y46.217
X5.574 Y46.2
X5.561 Y46.184
X5.54 Y46.152
X5.526 Y46.119
X5.517 Y46.087
X5.512 Y46.055
Y46.022
X5.524 Y45.926
X5.529 Y45.796
X5.525 Y45.667
X5.523 Y45.651
X5.431 Y45.28
X5.416 Y45.247
X5.4 Y45.215
X5.365 Y45.15
X5.208 Y44.926
X5.036 Y44.763
X4.974 Y44.711
X4.844 Y44.616
X4.715 Y44.527
X4.675 Y44.505
X4.586 Y44.463
X4.328 Y44.365
X4.199 Y44.323
X4.069 Y44.296
X3.94 Y44.28
X3.811 Y44.272
X3.244 Y44.236
X2.689 Y44.111
X2.131 Y43.999
X1.85 Y43.959
X1.568 Y43.922
X1.533 Y43.919
X1.497 Y43.916
X1.462 Y43.924
X1.431 Y43.941
X1.381 Y43.991
X1.128 Y44.5
X0.958 Y45.043
X0.833 Y45.342
X0.799 Y45.399
X0.752 Y45.445
X0.695 Y45.477
G3 X0.526 Y45.007 I-0.084 J-0.235 F1500
G1 X0.578 Y44.988 Z14.031
X0.628 Y44.97 Z14.049
X0.673 Y44.954 Z14.079
X0.71 Y44.941 Z14.119
X0.738 Y44.931 Z14.166
X0.755 Y44.925 Z14.219
X0.761 Y44.922 Z14.275
G0 Z21
X4.774 Y43.908
Z14.525
G1 Z14.275 F1500
X4.769 Y43.911 Z14.219
X4.753 Y43.921 Z14.166
X4.728 Y43.937 Z14.119
X4.694 Y43.957 Z14.079
X4.654 Y43.982 Z14.049
X4.609 Y44.01 Z14.031
X4.561 Y44.039 Z14.025
G3 X3.811 Y44.272 I-0.829 J-1.348
G1 X3.682 Y44.274 F2000
X3.553 Y44.284
X3.423 Y44.312
X3.117 Y44.4
X3.1 Y44.407
X2.907 Y44.518
X2.777 Y44.618
X2.759 Y44.634
X2.543 Y44.892
X2.535 Y44.903
X2.39 Y45.194
X2.374 Y45.237
X2.362 Y45.28
X2.332 Y45.409
X2.322 Y45.437
X2.307 Y45.466
X2.288 Y45.494
X2.261 Y45.523
X2.242 Y45.538
X2.215 Y45.558
X2.187 Y45.574
X2.159 Y45.585
X2.132 Y45.592
X2.099 Y45.597
X2.067
X2.002 Y45.595
X1.97 Y45.589
X1.938 Y45.579
X1.823 Y45.538
X1.615 Y45.471
X1.544 Y45.45
G3 X1.377 Y45.138 I0.072 J-0.239 F1500
X1.689 Y44.971 I0.239 J0.072
X1.544 Y45.45 I-0.072 J0.239 F2000
X1.463 Y45.408 I0.072 J-0.239
G1 X0.977 Y45.032
G3 X1.284 Y44.637 I0.153 J-0.198
X1.329 Y44.987 I-0.153 J0.198
G1 X1.324 Y44.993
G3 X0.711 Y45.471 I-1.25 J-0.971 F1500
G1 X0.564 Y45.53 F2000
X0.546 Y45.538
X0.177 Y45.796
X0.161 Y45.813
X-0.123 Y46.173
X-0.13 Y46.184
X-0.194 Y46.329
X-0.224 Y46.442
X-0.259 Y46.572
X-0.392 Y46.959
X-0.395 Y46.991
X-0.42 Y47.347
X-0.444 Y47.476
X-0.501 Y47.734
X-0.527 Y47.863
X-0.546 Y47.993
X-0.556 Y48.122
X-0.565 Y48.158
X-0.581 Y48.194
X-0.599 Y48.222
X-0.623 Y48.251
X-0.645 Y48.271
X-0.667 Y48.286
X-0.711 Y48.312
X-0.84 Y48.368
X-0.866 Y48.38
X-0.969 Y48.432
X-1.129 Y48.543
X-1.356 Y48.78
X-1.369 Y48.794
X-1.486 Y48.98
X-1.509 Y49.026
X-1.556 Y49.139
X-1.624 Y49.496
X-1.625 Y49.508
X-1.594 Y49.801
X-1.574 Y49.93
X-1.542 Y50.06
X-1.539 Y50.092
X-1.54 Y50.124
X-1.546 Y50.156
X-1.555 Y50.189
X-1.58 Y50.239
X-1.615 Y50.29
X-1.718 Y50.458
X-1.723 Y50.468
X-1.847 Y50.835
X-1.85 Y50.851
X-1.89 Y51.206
X-1.888 Y51.222
X-1.828 Y51.577
X-1.818 Y51.61
X-1.771 Y51.739
X-1.671 Y51.997
X-1.666 Y52.03
Y52.062
X-1.668 Y52.094
X-1.674 Y52.127
X-1.714 Y52.256
X-1.8 Y52.546
X-1.803 Y52.563
X-1.808 Y52.643
X-1.811 Y52.772
X-1.801 Y52.902
X-1.723 Y53.289
X-1.681 Y53.418
X-1.592 Y53.677
X-1.543 Y53.806
X-1.486 Y53.949
X-1.466 Y54.007
X-1.457 Y54.036
X-1.452 Y54.064
X-1.45 Y54.097
X-1.452 Y54.129
X-1.459 Y54.161
X-1.47 Y54.194
X-1.486 Y54.229
X-1.554 Y54.339
X-1.693 Y54.71
X-1.697 Y54.726
X-1.733 Y55.082
X-1.732 Y55.098
X-1.689 Y55.453
X-1.686 Y55.469
X-1.68 Y55.485
X-1.577 Y55.823
X-1.544 Y56.251
X-1.623 Y56.814
X-1.82 Y57.348
X-2.035 Y57.736
X-2.061 Y57.775
X-2.095 Y57.808
X-2.134 Y57.835
G3 X-2.492 Y57.57 I-0.112 J-0.224 F1500
G1 X-2.454 Y57.337
X-2.181 Y55.671 F2000
X-2.159 Y55.538 F1500
G3 X-1.68 Y55.485 I0.247 J0.041
G1 X-1.587 Y55.744 F2000
X-1.538 Y55.873
X-1.486 Y55.976
X-1.398 Y56.131
X-1.384 Y56.164
X-1.374 Y56.196
X-1.367 Y56.228
X-1.365 Y56.26
X-1.366 Y56.293
X-1.372 Y56.325
X-1.383 Y56.357
X-1.399 Y56.39
X-1.486 Y56.526
X-1.536 Y56.648
X-1.621 Y56.863
X-1.624 Y56.877
X-1.66 Y57.229
X-1.661 Y57.246
X-1.644 Y57.423
X-1.642 Y57.455
X-1.644 Y57.488
X-1.65 Y57.52
X-1.661 Y57.552
X-1.674 Y57.579
X-1.691 Y57.605
X-1.718 Y57.635
X-1.744 Y57.658
X-1.778 Y57.682
X-1.801 Y57.695
X-1.825 Y57.705
X-1.873 Y57.721
X-2.002 Y57.769
X-2.09 Y57.811
X-2.329 Y57.94
X-2.39 Y57.972
X-2.519 Y58.034
X-2.891 Y58.164
X-2.907 Y58.171
X-3.094 Y58.295
X-3.106 Y58.305
X-3.25 Y58.445
X-3.294 Y58.507
X-3.395 Y58.65
X-3.41 Y58.683
X-3.553 Y59.031
X-3.577 Y59.103
X-3.617 Y59.232
X-3.649 Y59.361
X-3.659 Y59.409
X-3.662 Y59.426
Y59.797
X-3.66 Y59.813
X-3.647 Y59.878
X-3.618 Y60.007
X-3.577 Y60.136
X-3.553 Y60.212
X-3.423 Y60.584
X-3.254 Y60.911
X-3.242 Y60.932
G3 X-3.684 Y61.166 I-0.221 J0.117 F1500
G1 X-3.71 Y61.117 Z14.031
X-3.735 Y61.07 Z14.049
X-3.757 Y61.028 Z14.079
X-3.776 Y60.993 Z14.119
X-3.79 Y60.967 Z14.166
X-3.798 Y60.95 Z14.219
X-3.801 Y60.945 Z14.275
G0 Z21
X10.616 Y65.114
Z14.525
G1 Z14.275 F1500
X10.615 Y65.107 Z14.219
X10.612 Y65.089 Z14.166
X10.608 Y65.06 Z14.119
X10.603 Y65.02 Z14.079
X10.596 Y64.974 Z14.049
X10.589 Y64.921 Z14.031
X10.581 Y64.866 Z14.025
G3 X10.668 Y64.086 I1.567 J-0.22
G1 X10.678 Y64.061 F2000
X10.729 Y63.705
X10.73 Y63.689
X10.692 Y63.335
X10.688 Y63.32
X10.543 Y62.957
X10.536 Y62.947
X10.454 Y62.821
X10.374 Y62.544
X10.352 Y62.191
X10.421 Y61.745
X10.524 Y61.48
X10.588 Y61.353
X10.605 Y61.322
X10.613 Y61.288
X10.61 Y61.252
X10.513 Y60.985
X10.16 Y60.539
X9.794 Y60.104
X9.621 Y59.884
X9.589 Y59.831
X9.57 Y59.771
X9.568 Y59.709
G3 X10.056 Y59.666 I0.248 J0.029 F1500
G1 X10.085 Y59.764
X10.946 Y62.632 F2000
X10.973 Y62.721 F1500
G3 X10.536 Y62.947 I-0.239 J0.072
G1 X10.42 Y62.787 F2000
X10.399 Y62.766
X10.214 Y62.591
X10.141 Y62.533
X9.872 Y62.332
X9.754 Y62.247
X9.669 Y62.203
X9.624 Y62.178
X9.564 Y62.137
X9.529 Y62.106
X9.504 Y62.074
X9.495 Y62.059
X9.481 Y62.03
X9.472 Y62.002
X9.466 Y61.973
X9.463 Y61.945
X9.464 Y61.912
X9.469 Y61.88
X9.479 Y61.848
X9.495 Y61.813
X9.564 Y61.686
X9.614 Y61.557
X9.642 Y61.478
X9.649 Y61.453
X9.655 Y61.428
X9.691 Y61.17
X9.708 Y61.04
X9.751 Y60.685
Y60.669
X9.726 Y60.314
X9.724 Y60.298
X9.675 Y60.136
X9.619 Y60.007
X9.588 Y59.942
X9.574 Y59.91
X9.565 Y59.878
X9.56 Y59.845
X9.559 Y59.813
X9.586 Y59.49
X9.594 Y59.361
X9.588 Y58.99
X9.505 Y58.586
X9.501 Y58.554
X9.5 Y58.521
X9.502 Y58.489
X9.509 Y58.457
X9.519 Y58.424
X9.536 Y58.392
X9.582 Y58.327
X9.624 Y58.271
X9.684 Y58.198
X9.774 Y58.069
X9.855 Y57.94
X9.883 Y57.886
X9.918 Y57.811
X9.995 Y57.617
X10.001 Y57.601
X10.057 Y57.294
X10.075 Y57.165
X10.079 Y57.036
X10.063 Y56.874
X10.06 Y56.858
X9.942 Y56.506
X9.937 Y56.493
X9.754 Y56.236
X9.673 Y56.131
X9.624 Y56.084
X9.514 Y55.986
X9.495 Y55.965
X9.478 Y55.942
X9.465 Y55.919
X9.443 Y55.873
X9.434 Y55.841
X9.43 Y55.808
X9.429 Y55.776
X9.433 Y55.744
X9.441 Y55.712
X9.454 Y55.681
X9.472 Y55.649
X9.498 Y55.615
X9.588 Y55.485
X9.675 Y55.356
X9.754 Y55.204
X9.832 Y55.049
X9.852 Y55.009
G3 X10.19 Y54.907 I0.22 J0.119 F1500
X10.292 Y55.246 I-0.119 J0.22
G1 X10.265 Y55.295 Z14.031
X10.24 Y55.342 Z14.049
X10.218 Y55.383 Z14.079
X10.199 Y55.418 Z14.119
X10.185 Y55.444 Z14.166
X10.176 Y55.461 Z14.219
X10.173 Y55.466 Z14.275
G0 Z21
X1.717 Y-13.519
Z14.525
G1 Z14.275 F1500
X1.718 Y-13.513 Z14.219
X1.723 Y-13.495 Z14.166
X1.73 Y-13.467 Z14.119
X1.74 Y-13.428 Z14.079
X1.752 Y-13.382 Z14.049
X1.765 Y-13.331 Z14.031
X1.779 Y-13.277 Z14.025
G3 X2.002 Y-11.722 I-7.063 J1.809
G1 Y-11.616 F2000
X2.082 Y-11.343
X2.412 Y-10.879
X2.512 Y-10.73
X2.547 Y-10.649
X2.553 Y-10.561
X2.527 Y-10.477
X2.519 Y-10.461
X2.493 Y-10.399
X2.445 Y-10.27
X2.414 Y-10.141
X2.395 Y-10.012
X2.39 Y-9.935
X2.388 Y-9.883
X2.398 Y-9.754
X2.421 Y-9.624
X2.436 Y-9.56
X2.44 Y-9.544
X2.604 Y-9.175
X2.613 Y-9.16
X2.763 Y-8.964
X2.777 Y-8.949
X2.923 Y-8.82
X2.939 Y-8.807
X3.083 Y-8.72
X3.165 Y-8.679
X3.504 Y-8.543
X3.876 Y-8.509
X4.247 Y-8.545
X4.263 Y-8.548
X4.586 Y-8.643
X4.715 Y-8.693
X4.974 Y-8.811
X5.05 Y-8.849
X5.437 Y-9.108
X5.49 Y-9.151
X5.588 Y-9.237
X5.749 Y-9.395
X5.848 Y-9.495
X5.878 Y-9.532
X5.95 Y-9.624
X6.136 Y-9.95
X6.17 Y-10.012
X6.217 Y-10.141
X6.26 Y-10.351
X6.25 Y-10.658
X6.237 Y-10.787
X6.208 Y-10.916
X6.158 Y-11.084
X6.148 Y-11.104
X5.932 Y-11.467
X5.878 Y-11.525
X5.839 Y-11.562
X5.49 Y-11.845
X5.361 Y-11.906
X5.087 Y-12.033
X5.071 Y-12.038
X4.699 Y-12.131
X4.328 Y-12.142
X4.199 Y-12.125
X4.069 Y-12.096
X4.01 Y-12.079
X3.94 Y-12.057
X3.811 Y-12.004
X3.706 Y-11.95
X3.682 Y-11.935
X3.553 Y-11.855
X3.423 Y-11.751
X3.353 Y-11.691
X3.294 Y-11.635
X3.226 Y-11.562
X3.165 Y-11.488
X3.125 Y-11.433
X3.035 Y-11.304
X2.954 Y-11.175
X2.907 Y-11.094
X2.846 Y-10.981
X2.8 Y-10.916
X2.777 Y-10.886
X2.708 Y-10.787
X2.623 Y-10.658
X2.553 Y-10.529
X2.527 Y-10.477
G3 X2.09 Y-10.719 I-0.219 J-0.121 F1500
G1 X2.117 Y-10.768 Z14.031
X2.142 Y-10.814 Z14.049
X2.165 Y-10.856 Z14.079
X2.184 Y-10.89 Z14.119
X2.199 Y-10.916 Z14.166
X2.208 Y-10.933 Z14.219
X2.211 Y-10.938 Z14.275
G0 Z14.525
X14.12 Y-18.273
G1 Z14.275 F1500
X14.122 Y-18.267 Z14.219
X14.127 Y-18.249 Z14.166
X14.134 Y-18.22 Z14.119
X14.144 Y-18.182 Z14.079
X14.156 Y-18.136 Z14.049
X14.169 Y-18.085 Z14.031
X14.182 Y-18.031 Z14.025
G3 X14.406 Y-16.476 I-7.063 J1.809
G1 Y-16.405 F2000
X14.416 Y-16.371
X14.723 Y-15.893
X14.82 Y-15.778
X14.906 Y-15.655
X14.984 Y-15.527
X15.052 Y-15.393
X15.111 Y-15.255
X15.163 Y-15.114
X15.207 Y-14.971
X15.244 Y-14.826
X15.273 Y-14.679
X15.297 Y-14.531
X15.314 Y-14.382
X15.326 Y-14.232
X15.333 Y-14.082
X15.335 Y-13.94
X15.345 Y-13.906
X15.365 Y-13.876
X15.392 Y-13.853
X15.424 Y-13.838
X15.459 Y-13.833
X15.494 Y-13.839
X16.007 Y-14.075
X16.118 Y-14.097
X16.229 Y-14.068
X16.314 Y-13.994
X16.354 Y-13.938
X16.497 Y-13.804
X16.51 Y-13.794
X16.875 Y-13.594
X16.891 Y-13.586
X16.923 Y-13.578
X17.246 Y-13.507
X17.302 Y-13.5
X17.376 Y-13.493
X17.505 Y-13.487
X17.634 Y-13.49
X18.021 Y-13.531
X18.151 Y-13.562
X18.28 Y-13.598
X18.409 Y-13.639
X18.797 Y-13.834
X18.881 Y-13.887
X18.926 Y-13.917
X19.057 Y-14.017
X19.184 Y-14.131
X19.199 Y-14.146
X19.307 Y-14.275
X19.397 Y-14.404
X19.482 Y-14.533
X19.572 Y-14.708
X19.602 Y-14.792
X19.646 Y-14.921
X19.68 Y-15.05
X19.696 Y-15.179
X19.718 Y-15.486
X19.674 Y-15.858
X19.671 Y-15.874
X19.572 Y-16.182
X19.56 Y-16.213
X19.486 Y-16.342
X19.442 Y-16.415
X19.398 Y-16.471
X19.292 Y-16.6
X19.238 Y-16.656
X19.211 Y-16.682
X18.829 Y-16.941
X18.813 Y-16.95
X18.797 Y-16.956
X18.7 Y-16.988
X18.49 Y-17.038
X18.474 Y-17.041
X18.102 Y-17.04
X17.844 Y-16.988
X17.763 Y-16.969
X17.634 Y-16.899
X17.376 Y-16.754
X17.337 Y-16.73
X17.246 Y-16.659
X17.18 Y-16.6
X16.988 Y-16.442
X16.859 Y-16.34
X16.693 Y-16.213
X16.6 Y-16.136
X16.545 Y-16.084
X16.424 Y-15.954
X16.263 Y-15.78
X16.251 Y-15.765
X16.207 Y-15.696
X16.128 Y-15.567
X16.048 Y-15.405
X16.005 Y-15.237
G3 X15.576 Y-15.143 I-0.24 J-0.07 F1500
G1 X15.556 Y-15.187 Z14.03
X15.536 Y-15.229 Z14.044
X15.518 Y-15.268 Z14.067
X15.515 Y-15.307 Z14.1
X15.518 Y-15.339 Z14.141
X15.521 Y-15.362 Z14.188
X15.524 Y-15.373 Z14.231
X15.525 Y-15.377 Z14.275
G0 Z21
X11.341 Y39.272
Z14.025
G1 Z13.775 F1500
X11.335 Y39.274 Z13.72
X11.317 Y39.278 Z13.667
X11.288 Y39.286 Z13.62
X11.25 Y39.295 Z13.58
X11.204 Y39.307 Z13.55
X11.153 Y39.32 Z13.532
X11.099 Y39.334 Z13.525
G3 X9.544 Y39.558 I-1.809 J-7.063
G1 X9.508 F2000
X9.474 Y39.568
X8.996 Y39.875
X8.584 Y40.141
X8.052 Y40.341
X7.493 Y40.443
X6.924 Y40.456
X6.357 Y40.416
X5.79 Y40.377
X5.222 Y40.346
X4.654 Y40.381
X4.088 Y40.436
X3.52 Y40.443
X2.952 Y40.419
X2.384 Y40.38
X2.242 Y40.376
X2.102 Y40.4
X1.845 Y40.521
X1.392 Y40.865
X1.04 Y41.311
X0.785 Y41.819
X0.734 Y41.889
X0.661 Y41.937
X0.577 Y41.957
X0.452 Y41.965
X0.323 Y41.991
X0.124 Y42.063
X0.112 Y42.069
X-0.256 Y42.329
X-0.273 Y42.348
X-0.51 Y42.712
X-0.607 Y43.084
X-0.611 Y43.213
X-0.604 Y43.342
X-0.586 Y43.471
X-0.509 Y43.81
X-0.5 Y43.826
X-0.264 Y44.246
X-0.253 Y44.278
X-0.246 Y44.311
X-0.244 Y44.343
X-0.246 Y44.375
X-0.252 Y44.408
X-0.263 Y44.44
X-0.279 Y44.472
X-0.302 Y44.505
X-0.323 Y44.527
X-0.355 Y44.553
X-0.388 Y44.571
X-0.452 Y44.599
X-0.525 Y44.634
X-0.581 Y44.665
X-0.694 Y44.738
X-0.711 Y44.75
X-0.899 Y44.924
X-1.055 Y45.15
X-1.098 Y45.231
X-1.12 Y45.28
X-1.235 Y45.667
X-1.257 Y45.732
X-1.276 Y45.764
X-1.302 Y45.796
X-1.329 Y45.826
X-1.356 Y45.847
X-1.45 Y45.926
X-1.486 Y45.961
X-1.569 Y46.055
X-1.654 Y46.167
X-1.666 Y46.184
X-1.831 Y46.555
X-1.837 Y46.572
X-1.873 Y46.723
X-1.886 Y46.83
X-1.893 Y46.911
X-1.892 Y46.927
X-1.881 Y47.23
X-1.983 Y47.79
X-2.114 Y48.343
X-2.112 Y48.503
X-2.114 Y48.543
X-2.124 Y48.583
X-2.14 Y48.621
G3 X-2.605 Y48.464 I-0.218 J-0.122 F1500
G1 X-2.592 Y48.372
X-2.397 Y46.987 F2000
X-2.388 Y46.922 F1500
G3 X-1.892 Y46.927 I0.248 J0.035
G1 X-1.86 Y47.298 F2000
X-1.744 Y47.702
X-1.713 Y47.799
X-1.704 Y47.831
X-1.7 Y47.863
X-1.699 Y47.896
X-1.703 Y47.928
X-1.712 Y47.96
X-1.724 Y47.993
X-1.744 Y48.03
X-1.828 Y48.122
X-1.934 Y48.251
X-1.972 Y48.303
X-2.002 Y48.355
X-2.19 Y48.719
X-2.197 Y48.735
X-2.226 Y48.832
X-2.238 Y48.865
X-2.255 Y48.897
X-2.261 Y48.906
X-2.367 Y49.026
X-2.39 Y49.053
X-2.463 Y49.155
X-2.519 Y49.248
X-2.697 Y49.591
X-2.762 Y49.801
X-2.777 Y49.853
X-2.806 Y49.963
X-2.809 Y49.995
X-2.834 Y50.318
X-2.838 Y50.447
X-2.841 Y50.705
X-2.831 Y50.835
X-2.777 Y51.168
X-2.659 Y51.61
X-2.586 Y51.868
X-2.547 Y51.997
X-2.405 Y52.385
X-2.373 Y52.469
X-2.368 Y52.492
X-2.365 Y52.514
Y52.546
X-2.368 Y52.579
X-2.375 Y52.611
X-2.386 Y52.643
X-2.39 Y52.652
X-2.471 Y52.772
X-2.519 Y52.847
X-2.602 Y53.015
X-2.609 Y53.031
X-2.706 Y53.418
X-2.761 Y53.806
X-2.81 Y54.194
X-2.813 Y54.323
X-2.804 Y54.581
X-2.794 Y54.71
X-2.765 Y54.969
X-2.687 Y55.356
X-2.659 Y55.485
X-2.621 Y55.615
X-2.61 Y55.744
X-2.599 Y55.873
X-2.585 Y56.002
X-2.566 Y56.131
X-2.528 Y56.293
X-2.524 Y56.325
X-2.525 Y56.357
X-2.529 Y56.39
X-2.538 Y56.422
X-2.552 Y56.454
X-2.572 Y56.487
X-2.599 Y56.519
X-2.624 Y56.543
X-2.648 Y56.561
X-2.681 Y56.579
X-2.713 Y56.591
X-2.777 Y56.605
X-2.907 Y56.641
X-2.927 Y56.648
X-3.31 Y56.821
X-3.326 Y56.833
X-3.423 Y56.908
X-3.553 Y57.01
X-3.682 Y57.143
X-3.811 Y57.309
X-3.899 Y57.423
X-4.091 Y57.682
X-4.199 Y57.831
X-4.328 Y58.005
X-4.375 Y58.069
X-4.457 Y58.189
X-4.464 Y58.198
X-4.495 Y58.23
X-4.525 Y58.256
X-4.586 Y58.299
X-4.974 Y58.603
X-5.092 Y58.715
X-5.49 Y59.124
X-5.802 Y59.49
X-5.816 Y59.506
X-5.823 Y59.522
X-5.974 Y59.894
X-6.03 Y60.249
Y60.265
X-5.999 Y60.524
X-5.98 Y60.653
X-5.942 Y60.782
X-5.887 Y60.911
X-5.878 Y60.931
X-5.821 Y61.04
X-5.606 Y61.299
X-5.487 Y61.428
X-5.361 Y61.537
X-5.103 Y61.741
X-4.999 Y61.815
X-4.715 Y61.996
X-4.577 Y62.074
X-4.457 Y62.138
X-4.339 Y62.203
X-4.263 Y62.263
X-4.231 Y62.289
X-4.199 Y62.323
X-4.192 Y62.332
X-4.172 Y62.365
X-4.129 Y62.461
X-4.079 Y62.591
X-4.069 Y62.611
X-4.013 Y62.72
X-3.754 Y63.107
X-3.682 Y63.194
X-3.401 Y63.495
X-3.274 Y63.624
X-2.907 Y63.933
X-2.797 Y64.012
X-2.519 Y64.192
X-2.39 Y64.272
X-2.261 Y64.346
X-2.132 Y64.422
X-2.002 Y64.491
X-1.744 Y64.597
X-1.615 Y64.648
X-1.356 Y64.734
X-1.227 Y64.773
X-1.188 Y64.787
X-0.84 Y64.95
X-0.711 Y65.009
X-0.323 Y65.176
X0.003 Y65.304
X0.065 Y65.327
X0.452 Y65.469
X0.581 Y65.514
X0.969 Y65.639
X1.356 Y65.759
X1.744 Y65.887
X1.873 Y65.933
X2.267 Y66.079
X2.648 Y66.216
X3.052 Y66.337
X3.46 Y66.466
X3.553 Y66.488
X3.811 Y66.542
X3.94 Y66.568
X4.328 Y66.625
X4.715 Y66.638
X4.844 Y66.633
X5.103 Y66.62
X5.232 Y66.616
X5.62 Y66.614
X6.007 Y66.623
X6.395 Y66.62
X6.524 Y66.617
X6.782 Y66.608
X6.911 Y66.602
X7.299 Y66.575
X7.687 Y66.524
X8.203 Y66.449
X8.462 Y66.409
X8.591 Y66.386
X8.849 Y66.325
X8.978 Y66.294
X9.366 Y66.164
X9.559 Y66.079
X9.624 Y66.048
X9.754 Y65.972
X9.787 Y65.949
X10.149 Y65.691
X10.27 Y65.576
X10.29 Y65.562
X10.399 Y65.508
X10.566 Y65.433
X10.658 Y65.39
X10.916 Y65.241
X11.025 Y65.174
X11.433 Y64.89
X11.562 Y64.807
X11.597 Y64.787
X11.821 Y64.642
X12.208 Y64.392
X12.337 Y64.311
X12.614 Y64.141
X12.725 Y64.068
X12.854 Y63.977
X12.983 Y63.877
X13.128 Y63.753
X13.283 Y63.624
X13.5 Y63.446
X13.597 Y63.366
X13.629 Y63.333
X13.846 Y63.107
X14.017 Y62.922
X14.146 Y62.802
X14.404 Y62.564
X14.505 Y62.461
X14.663 Y62.284
X14.724 Y62.203
X14.81 Y62.074
X14.903 Y61.945
X15.004 Y61.815
X15.234 Y61.557
X15.309 Y61.471
X15.341 Y61.428
X15.414 Y61.299
X15.562 Y61.023
X15.66 Y60.653
X15.67 Y60.588
X15.674 Y60.524
Y60.394
X15.672 Y60.33
X15.668 Y60.298
X15.562 Y59.93
X15.325 Y59.564
X15.309 Y59.545
X14.937 Y59.256
X14.921 Y59.246
X14.893 Y59.232
X14.792 Y59.186
X14.663 Y59.145
X14.533 Y59.103
X14.275 Y58.963
X14.146 Y58.893
X14.06 Y58.844
X14.038 Y58.827
X14.017 Y58.806
X13.939 Y58.715
X13.887 Y58.652
X13.605 Y58.289
X13.597 Y58.278
X13.242 Y58.018
X13.109 Y57.94
X12.983 Y57.871
X12.854 Y57.798
X12.725 Y57.73
X12.596 Y57.665
X12.424 Y57.583
X12.381 Y57.552
X12.357 Y57.53
X12.337 Y57.508
X12.279 Y57.423
X12.208 Y57.34
X12.079 Y57.194
X11.95 Y57.084
X11.856 Y57.007
X11.836 Y56.986
X11.821 Y56.965
X11.791 Y56.906
X11.691 Y56.694
X11.606 Y56.519
X11.599 Y56.487
X11.595 Y56.454
Y56.422
X11.599 Y56.39
X11.629 Y56.26
X11.691 Y55.95
X11.704 Y55.873
X11.72 Y55.744
X11.727 Y55.615
X11.725 Y55.485
X11.714 Y55.356
X11.685 Y55.227
X11.643 Y55.098
X11.589 Y54.969
X11.515 Y54.839
X11.433 Y54.708
X11.421 Y54.676
X11.414 Y54.645
X11.409 Y54.613
Y54.581
X11.433 Y54.433
X11.444 Y54.323
X11.453 Y54.194
X11.455 Y54.064
X11.446 Y53.935
X11.433 Y53.832
X11.392 Y53.677
X11.374 Y53.612
X11.368 Y53.58
X11.365 Y53.548
X11.368 Y53.515
X11.374 Y53.483
X11.384 Y53.451
X11.398 Y53.418
X11.465 Y53.289
X11.529 Y53.16
X11.648 Y52.902
X11.691 Y52.803
X11.811 Y52.514
X11.821 Y52.487
X11.85 Y52.385
X11.92 Y52.127
X11.95 Y51.997
X11.998 Y51.642
X11.966 Y51.271
X11.962 Y51.255
X11.858 Y50.899
X11.846 Y50.867
X11.83 Y50.835
X11.751 Y50.705
X11.691 Y50.62
X11.603 Y50.512
X11.585 Y50.479
X11.562 Y50.424
X11.405 Y50.06
X11.397 Y50.043
X11.304 Y49.907
X11.224 Y49.801
X11.208 Y49.769
X11.196 Y49.737
X11.189 Y49.704
X11.187 Y49.672
X11.189 Y49.64
X11.195 Y49.607
X11.212 Y49.543
X11.236 Y49.414
X11.268 Y49.075
X11.267 Y49.058
X11.222 Y48.719
X11.22 Y48.703
X11.045 Y48.33
X10.984 Y48.251
X10.863 Y48.122
X10.71 Y47.993
X10.692 Y47.97
X10.678 Y47.948
X10.666 Y47.925
X10.658 Y47.903
X10.648 Y47.863
X10.644 Y47.734
X10.611 Y47.395
X10.529 Y47.142
X10.504 Y47.088
X10.428 Y46.959
X10.399 Y46.915
X10.339 Y46.83
X10.27 Y46.751
X10.246 Y46.726
X10.227 Y46.701
X10.209 Y46.668
X10.197 Y46.636
X10.189 Y46.604
X10.185 Y46.572
X10.187 Y46.442
X10.164 Y46.103
X10.16 Y46.087
X10.109 Y45.926
X10.053 Y45.796
X10.012 Y45.722
X9.754 Y45.343
X9.733 Y45.311
X9.719 Y45.28
X9.709 Y45.247
X9.669 Y45.021
X9.639 Y44.892
X9.624 Y44.853
X9.427 Y44.479
X9.419 Y44.467
X9.304 Y44.33
X8.938 Y43.895
X8.599 Y43.439
X8.273 Y42.973
X8.208 Y42.846
X8.164 Y42.749
X8.149 Y42.717
X8.126 Y42.69
X8.097 Y42.67
X7.553 Y42.503
X6.418 Y42.425
X5.851 Y42.388
X5.282 Y42.378
X4.714 Y42.405
X4.146 Y42.425
X3.578 Y42.427
X3.464 Y42.424
X3.446 Y42.422
X3.428 Y42.42
X3.411 Y42.416
G3 X3.549 Y41.936 I0.069 J-0.24 F1500
G1 X3.602 Y41.951 Z13.532
X3.653 Y41.966 Z13.55
X3.699 Y41.979 Z13.58
X3.737 Y41.99 Z13.62
X3.765 Y41.998 Z13.667
X3.783 Y42.003 Z13.72
X3.789 Y42.005 Z13.775
G0 Z21
X10.228 Y44.783
Z14.025
G1 Z13.775 F1500
X10.222 Y44.782 Z13.72
X10.204 Y44.777 Z13.667
X10.176 Y44.769 Z13.62
X10.137 Y44.759 Z13.58
X10.092 Y44.746 Z13.55
X10.041 Y44.732 Z13.532
X9.987 Y44.718 Z13.525
G3 X9.304 Y44.33 I0.415 J-1.527
G1 X9.289 Y44.315 F2000
X9.032 Y44.117
X9.019 Y44.108
X8.946 Y44.07
X8.575 Y43.961
X8.559
X8.203 Y43.96
X7.816 Y44.048
X7.557 Y44.094
X7.425 Y44.117
X7.299 Y44.141
X7.267 Y44.145
X7.234
X7.202 Y44.141
X7.17 Y44.133
X7.122 Y44.117
X6.911 Y44.053
X6.782 Y44.019
X6.605 Y43.988
X6.524 Y43.975
X6.395 Y43.957
X6.136 Y43.944
X6.007 Y43.938
X5.555 Y43.949
X5.523
X5.49 Y43.944
X5.458 Y43.934
X5.426 Y43.919
X5.394 Y43.898
X5.377 Y43.885
X5.361 Y43.869
X5.352 Y43.859
X5.328 Y43.826
X5.309 Y43.794
X5.226 Y43.579
X4.992 Y43.196
X4.974 Y43.179
X4.586 Y42.868
X4.522 Y42.825
X4.199 Y42.664
X3.811 Y42.513
X3.682 Y42.481
X3.423 Y42.419
X3.294 Y42.387
X2.999 Y42.308
X2.907 Y42.287
X2.777 Y42.26
X2.648 Y42.248
X2.519 Y42.249
X2.261 Y42.269
X2.132 Y42.283
X2.067 Y42.289
X2.035 Y42.286
X2.002 Y42.279
X1.744 Y42.167
X1.615 Y42.114
X1.486 Y42.073
X1.411 Y42.05
X1.227 Y42.001
X1.098 Y41.968
X0.969 Y41.951
X0.84 Y41.944
X0.577 Y41.957
G3 X0.564 Y41.457 I-0.006 J-0.25 F1500
G1 X0.62 Y41.456 Z13.532
X0.673 Y41.455 Z13.55
X0.72 Y41.453 Z13.58
X0.76 Y41.452 Z13.62
X0.79 Z13.667
X0.808 Y41.451 Z13.72
X0.814 Z13.775
G0 Z14.025
X-32.477 Y11.35
G1 Z13.775 F1500
X-32.483 Y11.351 Z13.72
X-32.501 Y11.356 Z13.667
X-32.53 Y11.363 Z13.62
X-32.568 Y11.373 Z13.58
X-32.614 Y11.385 Z13.55
X-32.665 Y11.398 Z13.532
X-32.719 Y11.412 Z13.525
G3 X-34.274 Y11.635 I-1.809 J-7.063
G1 X-34.309 F2000
X-34.344 Y11.645
X-34.822 Y11.952
X-34.941 Y12.044
X-35.068 Y12.123
X-35.202 Y12.191
X-35.342 Y12.246
X-35.483 Y12.295
X-35.627 Y12.338
X-35.773 Y12.375
X-35.919 Y12.407
X-36.478 Y12.512
X-37.037 Y12.613
X-37.597 Y12.717
X-37.737 Y12.741
X-38.024 Y12.787
X-38.587 Y12.865
X-39.142 Y12.991
X-39.685 Y13.16
X-39.955 Y13.25
X-40.215 Y13.364
X-40.665 Y13.712
X-40.86 Y13.919
X-40.937 Y14.038
X-40.972 Y14.1
X-41.007 Y14.162
X-41.031 Y14.302
X-41.035 Y14.587
X-40.877 Y15.133
X-40.82 Y15.272
X-40.767 Y15.412
X-40.713 Y15.564
X-40.654 Y15.744
X-40.585 Y15.969
X-40.502 Y16.268
X-40.385 Y16.721
X-40.321 Y16.998
X-40.23 Y17.267
X-39.437 Y18.447
X-39.138 Y18.892
X-39.057 Y19.019
X-38.98 Y19.148
X-38.908 Y19.279
X-38.838 Y19.412
X-38.767 Y19.557
X-38.703 Y19.693
X-38.644 Y19.831
X-38.589 Y19.971
X-38.538 Y20.112
X-38.484 Y20.27
X-38.424 Y20.461
X-38.354 Y20.701
X-38.314 Y20.852
X-38.279 Y20.998
X-38.249 Y21.145
X-38.224 Y21.293
X-38.206 Y21.442
X-38.195 Y21.592
X-38.19 Y21.742
X-38.189 Y21.892
X-38.193 Y22.042
X-38.201 Y22.193
X-38.214 Y22.368
X-38.234 Y22.58
X-38.252 Y22.729
X-38.273 Y22.878
X-38.285 Y22.944
X-38.331 Y23.05
X-38.42 Y23.124
X-38.532 Y23.151
X-38.691 Y23.15
X-38.707
X-39.079 Y23.243
X-39.466 Y23.43
X-39.477 Y23.438
X-39.67 Y23.616
X-39.684 Y23.631
X-39.74 Y23.706
X-39.832 Y23.835
X-39.983 Y24.094
X-40.055 Y24.222
X-40.112 Y24.367
X-40.152 Y24.481
X-40.186 Y24.61
X-40.211 Y24.739
X-40.249 Y24.997
X-40.289 Y25.385
X-40.292 Y25.514
X-40.294 Y25.773
X-40.289 Y25.902
X-40.274 Y26.16
X-40.26 Y26.322
X-40.262 Y26.354
X-40.268 Y26.386
X-40.278 Y26.419
X-40.293 Y26.449
X-40.314 Y26.479
X-40.338 Y26.509
X-40.354 Y26.526
X-40.371 Y26.539
X-40.382 Y26.548
X-40.411 Y26.565
X-40.441 Y26.578
X-40.47 Y26.586
X-40.5 Y26.591
X-40.629 Y26.608
X-40.758 Y26.621
X-40.887 Y26.634
X-41.017 Y26.653
X-41.123 Y26.677
X-41.275 Y26.719
X-41.502 Y26.806
X-41.662 Y26.863
X-41.792 Y26.913
X-42.05 Y27.047
X-42.438 Y27.303
X-42.463 Y27.323
X-42.602 Y27.452
X-42.696 Y27.546
X-42.843 Y27.71
X-43.213 Y28.16
X-43.269 Y28.227
X-43.471 Y28.488
X-43.553 Y28.615
X-43.624 Y28.744
X-43.687 Y28.873
X-43.724 Y29.002
X-43.789 Y29.261
X-43.815 Y29.39
X-43.859 Y29.666
X-43.879 Y29.777
X-43.967 Y30.149
Y30.165
X-43.957 Y30.52
X-43.859 Y30.89
X-43.854 Y30.903
X-43.701 Y31.198
X-43.6 Y31.348
X-43.525 Y31.457
X-43.471 Y31.537
X-43.461 Y31.562
X-43.453 Y31.586
X-43.447 Y31.618
X-43.444 Y31.651
X-43.445 Y31.683
X-43.45 Y31.715
X-43.471 Y31.794
X-43.482 Y31.844
X-43.506 Y31.974
X-43.552 Y32.28
X-43.553 Y32.296
X-43.526 Y32.619
X-43.51 Y32.749
X-43.461 Y33.072
X-43.45 Y33.104
X-43.342 Y33.376
X-43.336 Y33.395
X-43.285 Y33.524
X-43.218 Y33.653
X-43.103 Y33.848
X-43.084 Y33.869
X-42.875 Y34.094
X-42.696 Y34.219
X-42.649 Y34.249
X-42.622 Y34.274
X-42.601 Y34.299
X-42.581 Y34.333
X-42.567 Y34.367
X-42.559 Y34.397
X-42.554 Y34.428
X-42.545 Y34.557
X-42.529 Y34.686
X-42.513 Y34.783
X-42.509 Y34.799
X-42.401 Y35.074
X-42.373 Y35.139
X-42.33 Y35.203
X-42.239 Y35.332
X-42.179 Y35.401
X-42.05 Y35.54
X-42.032 Y35.557
X-42.015 Y35.569
X-41.662 Y35.784
X-41.646 Y35.792
X-41.63 Y35.796
X-41.294 Y35.893
X-40.925 Y36.095
X-40.598 Y36.379
X-40.26 Y36.836
X-40.025 Y37.354
X-39.86 Y37.898
X-39.804 Y38.464
X-39.817 Y38.748
X-39.829 Y38.89
X-39.843 Y39.031
X-39.92 Y39.595
X-40.101 Y40.134
X-40.226 Y40.389
X-40.294 Y40.514
G3 X-40.751 Y40.453 I-0.216 J-0.126 F1500
G1 X-40.802 Y40.262
X-41.848 Y36.374 F2000
X-41.92 Y36.106 F1500
G3 X-41.63 Y35.796 I0.241 J-0.065
G1 X-41.291 Y35.875 F2000
X-41.017 Y35.866
X-40.887 Y35.858
X-40.758 Y35.836
X-40.629 Y35.802
X-40.564 Y35.783
X-40.5 Y35.771
X-40.467 Y35.769
X-40.435 Y35.772
X-40.403 Y35.78
X-40.371 Y35.792
X-40.35 Y35.802
X-40.329 Y35.815
X-40.288 Y35.849
X-40.261 Y35.879
X-40.241 Y35.909
X-40.225 Y35.943
X-40.215 Y35.978
X-40.21 Y36.011
Y36.043
X-40.211 Y36.107
X-40.21 Y36.172
X-40.201 Y36.237
X-40.147 Y36.506
X-39.978 Y36.883
X-39.88 Y37.012
X-39.854 Y37.046
X-39.761 Y37.141
X-39.658 Y37.241
X-39.645 Y37.252
X-39.482 Y37.36
X-39.383 Y37.399
X-39.208 Y37.468
X-38.923 Y37.595
X-38.675 Y37.779
X-38.435 Y38.057
X-38.217 Y38.458
X-38.063 Y38.994
X-38.055 Y39.136
X-38.054 Y39.207
X-38.044 Y39.241
X-38.024 Y39.271
X-37.592 Y39.641
X-37.108 Y39.938
X-36.631 Y40.249
X-36.392 Y40.402
X-36.133 Y40.521
X-35.853 Y40.571
X-35.287 Y40.519
X-34.737 Y40.377
X-34.182 Y40.253
X-33.623 Y40.145
X-33.348 Y40.074
X-32.838 Y39.822
X-32.426 Y39.431
X-32.149 Y38.934
X-31.847 Y38.452
X-31.533 Y37.978
X-31.167 Y37.543
X-30.769 Y37.136
X-30.688 Y37.021
X-30.646 Y36.974
X-30.593 Y36.939
X-30.533 Y36.919
X-30.197 Y36.851
X-30.036 Y36.785
X-29.907 Y36.743
X-29.777 Y36.702
X-29.39 Y36.546
X-29.303 Y36.495
X-29.093 Y36.366
X-29.002 Y36.312
X-28.899 Y36.237
X-28.873 Y36.216
X-28.757 Y36.107
X-28.639 Y35.978
X-28.615 Y35.949
X-28.486 Y35.775
X-28.349 Y35.591
X-28.227 Y35.434
X-28.146 Y35.332
X-28.098 Y35.273
X-28.046 Y35.203
X-27.963 Y35.074
X-27.888 Y34.945
X-27.84 Y34.877
X-27.797 Y34.816
X-27.725 Y34.686
X-27.665 Y34.557
X-27.626 Y34.428
X-27.594 Y34.299
X-27.57 Y34.17
X-27.559 Y34.041
X-27.564 Y33.911
X-27.575 Y33.782
X-27.581 Y33.743
X-27.586 Y33.698
Y33.675
X-27.583 Y33.653
X-27.581 Y33.642
X-27.574 Y33.612
X-27.564 Y33.583
X-27.549 Y33.553
X-27.53 Y33.524
X-27.452 Y33.419
X-27.361 Y33.265
X-27.323 Y33.186
X-27.278 Y33.072
X-27.219 Y32.7
X-27.249 Y32.361
X-27.273 Y32.232
X-27.33 Y31.974
X-27.36 Y31.844
X-27.364 Y31.812
Y31.78
X-27.361 Y31.747
X-27.353 Y31.715
X-27.34 Y31.684
X-27.323 Y31.653
X-27.09 Y31.31
X-27.079 Y31.293
X-26.923 Y30.924
X-26.918 Y30.908
X-26.828 Y30.495
X-26.806 Y30.438
X-26.677 Y30.151
X-26.626 Y30.036
X-26.517 Y29.648
X-26.503 Y29.519
X-26.489 Y29.261
X-26.497 Y28.873
X-26.5 Y28.808
X-26.511 Y28.744
X-26.563 Y28.496
X-26.566 Y28.486
X-26.755 Y28.098
X-26.893 Y27.84
X-26.935 Y27.774
X-26.977 Y27.71
X-27.079 Y27.581
X-27.287 Y27.323
X-27.323 Y27.285
X-27.581 Y27.055
X-27.71 Y26.943
X-27.723 Y26.935
X-27.84 Y26.867
X-27.969 Y26.8
X-28.098 Y26.735
X-28.486 Y26.596
X-28.873 Y26.499
X-29.002 Y26.475
X-29.067 Y26.466
X-29.099 Y26.457
X-29.131 Y26.444
X-29.39 Y26.332
X-29.777 Y26.16
X-29.907 Y26.109
X-30.036 Y26.06
X-30.165 Y26.026
X-30.294 Y26.009
X-30.552 Y25.977
X-30.682 Y25.972
X-30.94 Y25.966
X-31.069 Y25.975
X-31.328 Y26.004
X-31.469 Y26.031
X-31.586 Y26.057
X-31.715 Y26.092
X-31.844 Y26.137
X-32.103 Y26.234
X-32.225 Y26.289
X-32.49 Y26.438
X-32.672 Y26.548
X-32.749 Y26.594
X-32.878 Y26.68
X-32.942 Y26.724
X-32.975 Y26.744
X-33.007 Y26.759
X-33.039 Y26.77
X-33.072 Y26.776
X-33.104 Y26.777
X-33.136 Y26.774
X-33.265 Y26.75
X-33.298 Y26.742
X-33.33 Y26.729
X-33.447 Y26.677
X-33.653 Y26.578
X-33.723 Y26.548
X-33.782 Y26.523
X-33.911 Y26.475
X-34.17 Y26.395
X-34.557 Y26.273
X-34.904 Y26.16
X-34.945 Y26.149
X-35.53 Y26.031
X-35.591 Y26.022
X-35.72 Y26.006
X-35.978 Y25.978
X-36.172 Y25.962
X-36.204 Y25.953
X-36.237 Y25.939
X-36.264 Y25.923
X-36.291 Y25.902
X-36.314 Y25.881
X-36.337 Y25.856
X-36.353 Y25.833
X-36.366 Y25.81
X-36.381 Y25.773
X-36.417 Y25.643
X-36.456 Y25.514
X-36.54 Y25.256
X-36.582 Y25.127
X-36.627 Y24.997
X-36.753 Y24.671
X-36.778 Y24.61
X-36.883 Y24.381
X-36.971 Y24.222
X-37.217 Y23.835
X-37.399 Y23.64
X-37.468 Y23.576
X-37.605 Y23.453
X-37.965 Y23.261
X-37.981 Y23.255
X-38.336 Y23.153
X-38.352 Y23.152
X-38.532 Y23.151
G3 X-38.512 Y22.651 I0.01 J-0.25 F1500
G1 X-38.457 Y22.653 Z13.532
X-38.404 Y22.655 Z13.55
X-38.356 Y22.657 Z13.58
X-38.317 Y22.659 Z13.62
X-38.287 Y22.66 Z13.667
X-38.269 Y22.661 Z13.72
X-38.262 Z13.775
G0 Z21
X-40.237 Y37.442
Z14.025
G1 Z13.775 F1500
X-40.231 Y37.441 Z13.72
X-40.213 Y37.438 Z13.667
X-40.183 Y37.433 Z13.62
X-40.144 Y37.426 Z13.58
X-40.097 Y37.418 Z13.55
X-40.045 Y37.41 Z13.532
X-39.99 Y37.401 Z13.525
G3 X-39.208 Y37.468 I0.26 J1.561
G1 X-39.111 Y37.505 F2000
X-39.095 Y37.508
X-38.691 Y37.546
X-38.304 Y37.598
X-38.174 Y37.602
X-38.045 Y37.603
X-37.916 Y37.629
X-37.787 Y37.647
X-37.685 Y37.658
X-37.658 Y37.664
X-37.625 Y37.676
X-37.593 Y37.693
X-37.561 Y37.717
X-37.529 Y37.749
X-37.399 Y37.916
X-37.27 Y38.062
X-37.238 Y38.09
X-37.206 Y38.113
X-36.915 Y38.285
X-36.56 Y38.378
X-36.543 Y38.38
X-35.977 Y38.432
X-35.409 Y38.411
X-34.847 Y38.327
X-34.568 Y38.27
X-34.313 Y38.145
X-34.101 Y37.958
X-34.077 Y37.94
X-34.052 Y37.924
X-34.024 Y37.912
G3 X-33.863 Y38.385 I0.08 J0.237 F1500
G1 X-33.898 Y38.394 F2000
X-36.484 Y38.875
X-36.517 Y38.879
G3 X-36.543 Y38.38 I-0.013 J-0.25 F1500
G1 X-36.204 Y38.373 F2000
X-36.188 Y38.372
X-35.849 Y38.269
X-35.72 Y38.221
X-35.462 Y38.113
X-35.332 Y38.066
X-35.258 Y38.045
X-35.203 Y38.027
X-35.074 Y37.977
X-34.922 Y37.916
X-34.896 Y37.908
X-34.869 Y37.903
X-34.816 Y37.9
X-34.773 Y37.905
X-34.686 Y37.928
X-34.557 Y37.95
X-34.444 Y37.961
X-34.428 Y37.962
X-34.073 Y37.926
X-34.057 Y37.924
X-33.694 Y37.787
X-33.653 Y37.768
X-33.45 Y37.658
X-33.265 Y37.529
X-33.233 Y37.511
X-33.2 Y37.499
X-33.168 Y37.492
X-33.136 Y37.489
X-33.104 Y37.49
X-33.072 Y37.496
X-33.039 Y37.506
X-33.007 Y37.522
X-32.995 Y37.529
X-32.878 Y37.586
X-32.749 Y37.634
X-32.673 Y37.655
X-32.661 Y37.657
X-32.296 Y37.685
X-32.28 Y37.683
X-32.103 Y37.65
X-31.974 Y37.623
X-31.671 Y37.529
X-31.521 Y37.482
X-31.505 Y37.475
X-31.13 Y37.27
X-31.115 Y37.258
X-30.94 Y37.082
X-30.883 Y37.012
X-30.865 Y36.995
X-30.847 Y36.981
X-30.811 Y36.96
X-30.779 Y36.946
X-30.746 Y36.936
X-30.714 Y36.931
X-30.646 Y36.93
X-30.585 Y36.929
X-30.533 Y36.919
G3 X-30.451 Y37.412 I0.041 J0.247 F1500
G1 X-30.506 Y37.421 Z13.532
X-30.558 Y37.43 Z13.55
X-30.605 Y37.438 Z13.58
X-30.644 Y37.444 Z13.62
X-30.674 Y37.449 Z13.667
X-30.692 Y37.452 Z13.72
X-30.698 Y37.453 Z13.775
G0 Z21
X-34.483 Y10.616
Z14.025
G1 Z13.775 F1500
X-34.482 Y10.622 Z13.72
X-34.477 Y10.64 Z13.667
X-34.47 Y10.669 Z13.62
X-34.46 Y10.707 Z13.58
X-34.448 Y10.753 Z13.55
X-34.435 Y10.804 Z13.532
X-34.421 Y10.858 Z13.525
G3 X-34.309 Y11.635 I-3.532 J0.905
G1 Y12.203 F2000
X-34.256 Y12.391
X-34.219 Y12.536
X-34.202 Y12.685
X-34.206 Y12.835
X-34.227 Y12.984
X-34.265 Y13.129
X-34.319 Y13.269
X-34.386 Y13.403
X-34.465 Y13.53
X-34.555 Y13.65
X-34.655 Y13.762
X-34.763 Y13.867
X-34.877 Y13.964
X-34.998 Y14.053
X-35.123 Y14.135
X-35.253 Y14.211
X-35.386 Y14.28
X-35.522 Y14.344
X-35.66 Y14.402
X-35.8 Y14.456
X-35.941 Y14.507
X-36.09 Y14.555
X-36.266 Y14.609
X-36.467 Y14.665
X-36.685 Y14.72
X-36.932 Y14.777
X-37.212 Y14.836
X-37.771 Y14.94
X-38.05 Y14.995
X-38.188 Y15.027
X-38.326 Y15.061
X-38.601 Y15.133
X-38.635 Y15.146
X-38.663 Y15.167
X-38.684 Y15.195
X-38.697 Y15.229
X-38.7 Y15.264
X-38.64 Y15.542
X-38.387 Y16.051
X-38.086 Y16.534
X-37.635 Y17.216
X-37.608 Y17.239
X-37.576 Y17.253
X-37.54 Y17.258
X-37.505 Y17.253
X-36.99 Y17.012
X-36.88 Y16.91
X-36.765 Y16.814
X-36.644 Y16.725
X-36.519 Y16.642
X-36.391 Y16.565
X-36.259 Y16.492
X-36.125 Y16.425
X-35.99 Y16.361
X-35.859 Y16.304
X-35.734 Y16.237
X-35.542 Y16.028
X-35.486 Y15.897
G3 X-35.153 Y15.777 I0.226 J0.106 F1500
X-35.033 Y16.109 I-0.106 J0.226
G1 X-35.057 Y16.16 Z13.532
X-35.079 Y16.207 Z13.55
X-35.099 Y16.25 Z13.58
X-35.116 Y16.286 Z13.62
X-35.129 Y16.313 Z13.667
X-35.136 Y16.33 Z13.72
X-35.139 Y16.336 Z13.775
G0 Z21
X-44.755 Y41.686
Z14.025
G1 Z13.775 F1500
X-44.749 Y41.684 Z13.72
X-44.731 Y41.679 Z13.667
X-44.702 Y41.672 Z13.62
X-44.664 Y41.662 Z13.58
X-44.618 Y41.65 Z13.55
X-44.567 Y41.637 Z13.532
X-44.513 Y41.623 Z13.525
G3 X-43.736 Y41.512 I0.905 J3.532
G1 X-43.593 F2000
X-43.051 Y41.342
X-42.936 Y41.258
G3 X-42.589 Y41.325 I0.14 J0.207 F1500
X-42.655 Y41.672 I-0.207 J0.14
G1 X-42.701 Y41.703 Z13.532
X-42.745 Y41.733 Z13.55
X-42.784 Y41.759 Z13.58
X-42.817 Y41.782 Z13.62
X-42.842 Y41.798 Z13.667
X-42.857 Y41.809 Z13.72
X-42.862 Y41.812 Z13.775
G0 Z21
X18.509 Y-20.247
Z14.025
G1 Z13.775 F1500
X18.503 Y-20.245 Z13.72
X18.485 Y-20.241 Z13.667
X18.456 Y-20.233 Z13.62
X18.418 Y-20.224 Z13.58
X18.372 Y-20.212 Z13.55
X18.321 Y-20.199 Z13.532
X18.267 Y-20.185 Z13.525
G3 X16.712 Y-19.961 I-1.809 J-7.063
G1 X16.57 F2000
X16.536 Y-19.951
X16.057 Y-19.644
X15.956 Y-19.534
X15.839 Y-19.439
X15.711 Y-19.362
X15.574 Y-19.301
X15.431 Y-19.256
X15.285 Y-19.221
X15.138 Y-19.189
X14.991 Y-19.163
X14.838 Y-19.139
X14.658 Y-19.115
X14.468 Y-19.093
X14.26 Y-19.075
X13.996 Y-19.057
X13.628 Y-19.04
X13.06 Y-19.027
X12.504 Y-18.908
X11.98 Y-18.686
X11.484 Y-18.409
X11.24 Y-18.264
X11.124 Y-18.181
X11.04 Y-18.115
X10.959 Y-17.999
X10.772 Y-17.462
X10.661 Y-16.904
X10.63 Y-16.348
X10.617 Y-16.184
X10.598 Y-15.99
X10.569 Y-15.749
X10.522 Y-15.428
X10.496 Y-15.273
X10.468 Y-15.126
X10.435 Y-14.979
X10.397 Y-14.834
X10.352 Y-14.691
X10.3 Y-14.55
X10.244 Y-14.411
X10.183 Y-14.274
X10.118 Y-14.139
X10.048 Y-14.001
X10.005 Y-13.92
X9.957 Y-13.833
X9.873 Y-13.685
X9.796 Y-13.556
X9.715 Y-13.43
X9.628 Y-13.307
X9.536 Y-13.189
X9.438 Y-13.075
X9.336 Y-12.966
X9.23 Y-12.86
X9.12 Y-12.757
X9.008 Y-12.658
X8.887 Y-12.556
X8.742 Y-12.44
X8.623 Y-12.348
X8.501 Y-12.261
X8.376 Y-12.179
X8.247 Y-12.103
X8.114 Y-12.032
X7.979 Y-11.968
X7.841 Y-11.908
X7.702 Y-11.852
X7.561 Y-11.801
X7.408 Y-11.749
X7.256 Y-11.701
X7.151 Y-11.694
X7.052 Y-11.731
X6.977 Y-11.805
X6.921 Y-11.891
X6.733 Y-12.079
X6.653 Y-12.146
X6.524 Y-12.249
X6.391 Y-12.337
X6.266 Y-12.404
X6.136 Y-12.464
X6.007 Y-12.505
X5.878 Y-12.536
X5.569 Y-12.596
X5.49 Y-12.604
X5.232 Y-12.628
X5.103 Y-12.643
X4.974 Y-12.665
X4.844 Y-12.674
X4.715 Y-12.68
X4.586 Y-12.667
X4.457 Y-12.642
X4.328 Y-12.606
X4.199 Y-12.561
X4.069 Y-12.502
X3.994 Y-12.466
X3.682 Y-12.289
X3.565 Y-12.208
X3.405 Y-12.079
X3.277 Y-11.95
X3.162 Y-11.821
X3.036 Y-11.657
X2.962 Y-11.562
X2.934 Y-11.538
X2.907 Y-11.52
X2.874 Y-11.505
X2.842 Y-11.493
X2.81 Y-11.486
X2.777 Y-11.483
X2.648 Y-11.501
X2.519 Y-11.511
X2.196 Y-11.51
X2.18
X1.869 Y-11.433
X1.744 Y-11.395
X1.45 Y-11.229
X1.437 Y-11.221
X1.238 Y-11.03
X1.098 Y-10.819
X1.078 Y-10.787
X1.035 Y-10.69
X1.03 Y-10.674
X0.949 Y-10.301
Y-9.947
X0.95 Y-9.931
X1.059 Y-9.56
X1.098 Y-9.489
X1.175 Y-9.366
X1.275 Y-9.237
X1.356 Y-9.141
X1.486 Y-8.998
X1.644 Y-8.849
X1.744 Y-8.758
X1.873 Y-8.644
X2.132 Y-8.449
X2.261 Y-8.354
X2.292 Y-8.332
X2.648 Y-8.129
X2.777 Y-8.072
X2.907 Y-8.024
X3.036 Y-7.978
X3.173 Y-7.945
X3.423 Y-7.887
X3.553 Y-7.868
X3.811 Y-7.849
X3.94 Y-7.851
X4.199 Y-7.874
X4.328 Y-7.895
X4.586 Y-7.957
X4.715 Y-7.993
X4.974 Y-8.094
X5.103 Y-8.153
X5.42 Y-8.332
X5.49 Y-8.374
X5.62 Y-8.469
X5.878 Y-8.662
X6.141 Y-8.849
X6.266 Y-8.94
X6.316 Y-8.978
X6.524 Y-9.156
X6.614 Y-9.237
X6.653 Y-9.281
X6.726 Y-9.366
X6.911 Y-9.598
X6.929 Y-9.624
X7.077 Y-9.883
X7.11 Y-9.947
X7.138 Y-10.012
X7.261 Y-10.383
X7.264 Y-10.399
X7.283 Y-10.529
X7.29 Y-10.658
Y-10.787
X7.278 Y-11.045
G3 X7.525 Y-11.298 I0.25 J-0.003 F1500
X7.778 Y-11.051 I0.003 J0.25
G1 X7.779 Y-10.996 Z13.532
Y-10.943 Z13.55
X7.78 Y-10.895 Z13.58
Y-10.856 Z13.62
X7.781 Y-10.826 Z13.667
Y-10.808 Z13.72
Y-10.801 Z13.775
G0 Z21
X16.432 Y-20.981
Z14.025
G1 Z13.775 F1500
X16.433 Y-20.975 Z13.72
X16.438 Y-20.957 Z13.667
X16.445 Y-20.928 Z13.62
X16.455 Y-20.89 Z13.58
X16.467 Y-20.844 Z13.55
X16.48 Y-20.793 Z13.532
X16.494 Y-20.739 Z13.525
G3 X16.605 Y-19.961 I-3.532 J0.905
G1 Y-19.784 F2000
X16.765 Y-19.238
X16.788 Y-18.999
X16.754 Y-18.73
X16.649 Y-18.435
X16.453 Y-18.121
X16.139 Y-17.801
X15.662 Y-17.491
X15.13 Y-17.289
X14.575 Y-17.166
X14.011 Y-17.096
X13.446 Y-17.028
X13.312 Y-16.981
X13.179 Y-16.931
X13.069 Y-16.84
X12.909 Y-16.605
X12.705 Y-16.075
X12.584 Y-15.519
X12.472 Y-14.962
X12.33 Y-14.411
X12.146 Y-13.873
X12.034 Y-13.612
X11.974 Y-13.483
X11.851 Y-13.226
X11.784 Y-13.101
X11.777 Y-13.066
X11.779 Y-13.031
X11.792 Y-12.998
X11.813 Y-12.969
X12.269 Y-12.63
X12.791 Y-12.403
X13.353 Y-12.317
X13.812 Y-12.258
X13.843 Y-12.252
X13.873 Y-12.242
X13.902 Y-12.228
X14.257 Y-12.071
X14.275 Y-12.064
X14.63 Y-12.016
X14.663 Y-12.019
X14.989 Y-12.062
X15.002 Y-12.066
X15.179 Y-12.147
X15.701 Y-12.355
X16.262 Y-12.446
X16.831 Y-12.44
X17.113 Y-12.405
X17.252 Y-12.376
X17.39 Y-12.344
X17.665 Y-12.273
X17.699 Y-12.262
X17.735 Y-12.261
X17.769 Y-12.271
X17.799 Y-12.29
X17.823 Y-12.316
X18.068 Y-12.829
X18.079 Y-12.898
X18.113 Y-12.988
X18.178 Y-13.059
X18.264 Y-13.1
G3 X18.391 Y-12.617 I0.053 J0.244 F1500
G1 X18.371 Y-12.611
X15.404 Y-11.697 F2000
X15.365 Y-11.685 F1500
G3 X15.179 Y-12.147 I-0.074 J-0.239
G1 X15.359 Y-12.23 F2000
X15.375 Y-12.238
X15.438 Y-12.295
X15.696 Y-12.541
X15.748 Y-12.596
X15.872 Y-12.789
X15.906 Y-12.826
X15.923 Y-12.841
X15.939 Y-12.854
X15.954 Y-12.864
X15.987 Y-12.88
X16.019 Y-12.89
X16.051 Y-12.897
X16.084 Y-12.898
X16.342 Y-12.88
X16.471 Y-12.877
X16.73 Y-12.872
X16.859 Y-12.877
X17.117 Y-12.895
X17.246 Y-12.909
X17.376 Y-12.929
X17.634 Y-12.971
X18.021 Y-13.039
X18.409 Y-13.137
X18.538 Y-13.185
X18.67 Y-13.242
X18.797 Y-13.303
X18.899 Y-13.371
X19.086 Y-13.5
X19.184 Y-13.575
X19.238 Y-13.629
X19.488 Y-13.887
X19.572 Y-13.979
X19.601 Y-14.017
X19.774 Y-14.275
X19.83 Y-14.374
X19.961 Y-14.663
X20.009 Y-14.792
X20.088 Y-15.068
X20.112 Y-15.179
X20.151 Y-15.438
X20.163 Y-15.567
Y-15.825
X20.157 Y-15.954
X20.128 Y-16.213
X20.109 Y-16.342
X20.018 Y-16.73
X19.973 Y-16.859
X19.916 Y-16.988
X19.857 Y-17.117
X19.784 Y-17.246
X19.701 Y-17.36
X19.578 Y-17.505
X19.442 Y-17.643
X19.313 Y-17.744
X19.286 Y-17.763
X19.184 Y-17.828
X19.044 Y-17.892
X18.877 Y-17.963
X18.861 Y-17.969
X18.497 Y-18.028
X18.134 Y-17.993
X18.118 Y-17.99
X18.021 Y-17.96
X17.892 Y-17.909
X17.856 Y-17.892
X17.763 Y-17.847
X17.631 Y-17.763
X17.505 Y-17.67
X17.46 Y-17.634
X17.376 Y-17.562
X17.323 Y-17.505
X17.246 Y-17.409
X17.117 Y-17.238
X17.037 Y-17.117
X16.988 Y-17.034
X16.859 Y-16.823
X16.826 Y-16.776
X16.784 Y-16.73
X16.757 Y-16.707
X16.73 Y-16.688
X16.59 Y-16.6
X16.471 Y-16.528
X16.084 Y-16.298
X16.019 Y-16.263
X15.987 Y-16.25
X15.954 Y-16.242
X15.922 Y-16.239
X15.89
X15.825 Y-16.247
X15.696 Y-16.268
X15.438 Y-16.316
X15.265 Y-16.342
X15.179 Y-16.349
X15.05 Y-16.357
X14.673 Y-16.338
X14.291 Y-16.241
X14.146 Y-16.17
X14.017 Y-16.091
X13.947 Y-16.041
X13.93 Y-16.025
X13.72 Y-15.793
X13.706 Y-15.777
X13.594 Y-15.567
X13.542 Y-15.438
X13.489 Y-15.061
X13.488 Y-15.05
X13.509 Y-14.679
X13.512 Y-14.663
X13.585 Y-14.404
X13.631 Y-14.275
X13.638 Y-14.243
X13.641 Y-14.21
X13.64 Y-14.178
X13.635 Y-14.146
X13.629 Y-14.125
X13.618 Y-14.098
X13.604 Y-14.071
X13.569 Y-14.017
X13.503 Y-13.887
G3 X13.066 Y-14.13 I-0.219 J-0.121 F1500
G1 X13.092 Y-14.179 Z13.532
X13.118 Y-14.225 Z13.55
X13.141 Y-14.266 Z13.58
X13.16 Y-14.301 Z13.62
X13.175 Y-14.327 Z13.667
X13.184 Y-14.343 Z13.72
X13.187 Y-14.349 Z13.775
G0 Z21
X52.057 Y23.399
Z14.025
G1 Z13.775 F1500
X52.052 Y23.395 Z13.72
X52.039 Y23.382 Z13.667
X52.018 Y23.36 Z13.62
X51.99 Y23.333 Z13.58
X51.957 Y23.299 Z13.55
X51.919 Y23.262 Z13.532
X51.88 Y23.222 Z13.525
G3 X50.894 Y22 I5.149 J-5.163
G1 X50.774 Y21.799 F2000
X50.699 Y21.669
X50.641 Y21.484
X50.615 Y21.189
X50.662 Y20.831
X50.789 Y20.481
X50.828 Y20.411
X50.889 Y20.358
X50.964 Y20.328
X51.109 Y20.281
X51.125 Y20.273
X51.512 Y20.05
X51.527 Y20.039
X51.543 Y20.024
X51.868 Y19.683
X51.932 Y19.615
X51.964 Y19.59
X51.997 Y19.571
X52.256 Y19.428
X52.385 Y19.353
X52.585 Y19.193
X52.595 Y19.184
X52.726 Y19.029
X52.735 Y19.017
X52.835 Y18.845
X52.842 Y18.829
X52.928 Y18.538
X52.963 Y18.409
X53.031 Y18.065
X53.039 Y18.021
X53.091 Y17.65
X53.089 Y17.634
X53.035 Y17.277
X52.902 Y16.89
X52.772 Y16.674
X52.727 Y16.6
X52.62 Y16.471
X52.329 Y16.127
X52.315 Y16.115
X52.256 Y16.071
X52.127 Y15.978
X52.086 Y15.954
X51.997 Y15.906
X51.882 Y15.825
X51.739 Y15.708
X51.357 Y15.363
X51.106 Y15.01
X50.925 Y14.58
X50.898 Y14.438
X50.899 Y14.346
X50.932 Y14.26
X50.995 Y14.192
G3 X51.344 Y14.258 I0.142 J0.206 F1500
G1 X51.563 Y14.581
X52.052 Y15.302 F2000
X52.097 Y15.369 F1500
G3 X51.739 Y15.708 I-0.207 J0.14
G1 X51.724 Y15.696 F2000
X51.53 Y15.567
X51.351 Y15.47
X51.222 Y15.387
X51.093 Y15.302
X50.964 Y15.212
X50.835 Y15.118
X50.705 Y15.001
X50.614 Y14.921
X50.593 Y14.896
X50.576 Y14.871
X50.565 Y14.851
X50.555 Y14.831
X50.539 Y14.792
X50.517 Y14.727
X50.512 Y14.695
X50.511 Y14.663
X50.515 Y14.63
X50.523 Y14.598
X50.535 Y14.566
X50.554 Y14.533
X50.576 Y14.505
X50.609 Y14.473
X50.641 Y14.449
X50.71 Y14.404
X51.058 Y14.146
X51.171 Y14.046
X51.187 Y14.031
X51.434 Y13.694
X51.452 Y13.661
X51.61 Y13.318
X51.644 Y13.242
X51.689 Y13.112
X51.708 Y13.054
X51.722 Y13.024
X51.739 Y12.995
X51.748 Y12.983
X51.761 Y12.967
X51.778 Y12.95
X51.808 Y12.926
X51.907 Y12.854
X51.997 Y12.782
X52.067 Y12.725
X52.256 Y12.554
X52.348 Y12.466
X52.461 Y12.337
X52.514 Y12.271
X52.663 Y12.079
X52.765 Y11.95
X52.869 Y11.821
X52.964 Y11.691
X53.04 Y11.562
X53.066 Y11.527
X53.1 Y11.493
X53.184 Y11.433
X53.289 Y11.356
X53.353 Y11.304
X53.418 Y11.245
X53.598 Y11.045
X53.677 Y10.936
X53.773 Y10.787
X53.855 Y10.658
X53.935 Y10.505
X53.975 Y10.399
X54.018 Y10.27
X54.108 Y9.883
X54.174 Y9.624
X54.194 Y9.491
X54.205 Y9.429
X54.216 Y9.397
X54.232 Y9.366
X54.327 Y9.237
X54.452 Y9.07
X54.509 Y8.978
X54.582 Y8.849
X54.636 Y8.72
X54.689 Y8.559
X54.693 Y8.526
X54.728 Y8.203
Y8.074
X54.719 Y7.816
X54.709 Y7.687
X54.684 Y7.428
X54.666 Y7.299
X54.64 Y7.17
X54.581 Y7.006
X54.533 Y6.911
X54.452 Y6.76
X54.376 Y6.653
X54.323 Y6.587
X54.265 Y6.524
X54.194 Y6.454
X54.172 Y6.424
X54.157 Y6.395
X54.143 Y6.362
X54.134 Y6.33
X54.13 Y6.298
Y6.266
X54.141 Y6.136
X54.147 Y6.007
X54.142 Y5.878
X54.125 Y5.749
X54.111 Y5.668
X54.106 Y5.652
X54.046 Y5.49
X53.997 Y5.361
X53.935 Y5.26
X53.824 Y5.103
X53.806 Y5.076
X53.745 Y4.974
X53.677 Y4.86
X53.57 Y4.715
X53.418 Y4.529
X53.358 Y4.457
X53.236 Y4.328
X53.16 Y4.254
X52.95 Y4.069
X52.902 Y4.032
X52.791 Y3.94
X52.658 Y3.789
X52.643 Y3.767
X52.601 Y3.682
X52.532 Y3.553
X52.256 Y3.168
X51.993 Y2.907
X51.858 Y2.778
X51.515 Y2.519
X51.481 Y2.499
X51.351 Y2.429
X51.275 Y2.39
X51.222 Y2.362
X51.093 Y2.278
X50.964 Y2.199
X50.844 Y2.132
X50.705 Y2.068
X50.686 Y2.056
X50.666 Y2.041
X50.576 Y1.953
X50.48 Y1.873
X50.304 Y1.744
X50.189 Y1.664
X49.93 Y1.512
X49.672 Y1.385
X49.414 Y1.259
X49.333 Y1.227
X49.026 Y1.113
X48.984 Y1.098
X48.897 Y1.076
X48.768 Y1.048
X48.639 Y1.031
X48.509 Y1.019
X48.38 Y1.012
X48.251 Y1.01
X48.122 Y1.018
X47.993 Y1.031
X47.863 Y1.049
X47.734 Y1.071
X47.597 Y1.098
X47.476 Y1.124
X47.03 Y1.227
X46.959 Y1.246
X46.572 Y1.377
X46.184 Y1.53
X46.055 Y1.577
X45.926 Y1.604
X45.878 Y1.615
X45.667 Y1.673
X45.538 Y1.708
X45.409 Y1.736
X45.215 Y1.755
X45.15 Y1.754
X45.007 Y1.744
X44.892 Y1.73
X44.763 Y1.705
X44.634 Y1.672
X44.246 Y1.551
X44.117 Y1.513
X43.859 Y1.428
X43.729 Y1.395
X43.471 Y1.332
X43.342 Y1.302
X43.213 Y1.274
X43.084 Y1.257
X42.954 Y1.249
X42.696
X42.567
X42.438 Y1.248
X42.308 Y1.25
X42.179 Y1.258
X41.792 Y1.307
X41.404 Y1.363
X41.275 Y1.377
X41.146 Y1.387
X41.017 Y1.414
X40.887 Y1.446
X40.629 Y1.518
X40.5 Y1.559
X40.112 Y1.694
X39.725 Y1.856
X39.687 Y1.873
X39.439 Y2.002
X39.337 Y2.056
X39.202 Y2.132
X38.95 Y2.277
X38.82 Y2.355
X38.562 Y2.553
X38.445 Y2.648
X38.311 Y2.778
X38.045 Y3.002
X38.001 Y3.036
X37.787 Y3.196
X37.658 Y3.329
X37.573 Y3.423
X37.433 Y3.589
X37.237 Y3.94
X37.11 Y4.199
X37.012 Y4.402
X36.944 Y4.586
X36.914 Y4.715
X36.903 Y4.766
X36.883 Y4.816
X36.867 Y4.844
X36.753 Y4.977
X36.652 Y5.103
X36.624 Y5.127
X36.523 Y5.232
