(afr_rough1)
(T1  D=6 CR=0 - ZMIN=0.5 - flat end mill)
G90 G94
G17
G21
G28 G91 Z0
G90

(Adaptive2)
T1
S18000 M3
G54
G0 X8.9 Y-44.842
Z31
Z21
Z17.003
G3 X7.182 Y-50.277 Z16.691 I-0.859 J-2.717 F2000
X8.9 Y-44.842 Z16.378 I0.859 J2.717
X7.182 Y-50.277 Z16.065 I-0.859 J-2.717
X8.9 Y-44.842 Z15.753 I0.859 J2.717
X7.182 Y-50.277 Z15.44 I-0.859 J-2.717
X8.9 Y-44.842 Z15.127 I0.859 J2.717
X7.182 Y-50.277 Z14.815 I-0.859 J-2.717
X8.9 Y-44.842 Z14.502 I0.859 J2.717
X7.182 Y-50.277 Z14.189 I-0.859 J-2.717
X10.891 Y-47.56 Z14.002 I0.859 J2.717
X5.191 Y-47.56 I-2.85 J0
X10.891 Y-47.56 I2.85 J0
G1 X10.893 Y-47.44
X10.937 Y-47.329
X11.58 Y-46.619
X11.729 Y-46.423
X11.862 Y-46.18
X11.971 Y-45.891
X12.044 Y-45.557
X12.07 Y-45.183
X12.04 Y-44.774
X11.944 Y-44.339
X11.773 Y-43.889
X11.52 Y-43.434
X11.182 Y-42.99
X10.756 Y-42.573
X10.244 Y-42.199
X9.651 Y-41.885
X8.985 Y-41.648
X8.26 Y-41.502
X7.492 Y-41.461
X6.699 Y-41.533
X5.903 Y-41.724
X5.124 Y-42.034
X4.383 Y-42.462
X3.701 Y-43
X3.096 Y-43.638
X2.585 Y-44.363
X2.179 Y-45.161
X1.892 Y-46.014
X1.729 Y-46.903
X1.695 Y-47.81
X1.793 Y-48.714
X2.02 Y-49.597
X2.372 Y-50.44
X2.842 Y-51.224
X3.421 Y-51.933
X4.096 Y-52.551
X4.854 Y-53.067
X5.678 Y-53.468
X6.552 Y-53.747
X7.456 Y-53.897
X8.373 Y-53.915
X9.284 Y-53.802
X10.168 Y-53.558
X11.009 Y-53.19
X11.788 Y-52.705
X12.489 Y-52.113
X13.124 Y-51.396
X13.67 Y-50.609
X14.212 Y-49.819
X14.703 Y-48.997
X15.113 Y-48.132
X15.419 Y-47.224
X15.607 Y-46.285
X15.669 Y-45.329
X15.601 Y-44.374
X15.405 Y-43.437
X15.085 Y-42.534
X14.647 Y-41.683
X14.103 Y-40.895
X13.464 Y-40.181
X12.744 Y-39.549
X11.954 Y-39.007
X11.105 Y-38.565
X10.21 Y-38.223
X9.284 Y-37.98
X8.337 Y-37.84
X7.38 Y-37.807
X6.424 Y-37.874
X5.48 Y-38.036
X4.56 Y-38.299
X3.671 Y-38.655
X2.82 Y-39.095
X2.019 Y-39.621
X1.276 Y-40.224
X0.592 Y-40.895
X-0.021 Y-41.631
X-0.557 Y-42.425
X-1.018 Y-43.264
X-1.392 Y-44.145
X-1.678 Y-45.059
X-1.88 Y-45.996
X-1.987 Y-46.947
X-2.001 Y-47.905
X-1.929 Y-48.86
X-1.761 Y-49.803
X-1.503 Y-50.725
X-1.163 Y-51.62
X-0.735 Y-52.477
X-0.227 Y-53.289
X0.351 Y-54.052
X1.004 Y-54.753
X1.72 Y-55.389
X2.491 Y-55.958
X3.315 Y-56.446
X4.181 Y-56.854
X5.081 Y-57.182
X6.009 Y-57.418
X6.955 Y-57.566
X7.911 Y-57.627
X8.868 Y-57.592
X9.817 Y-57.467
X10.752 Y-57.257
X11.66 Y-56.953
X12.536 Y-56.566
X13.373 Y-56.101
X14.159 Y-55.554
X14.893 Y-54.938
X15.572 Y-54.263
X16.209 Y-53.548
X16.802 Y-52.796
X17.348 Y-52.009
X17.845 Y-51.19
X18.283 Y-50.339
X18.654 Y-49.456
X18.957 Y-48.547
X19.186 Y-47.617
X19.332 Y-46.671
X19.402 Y-45.716
X19.387 Y-44.758
X19.287 Y-43.806
X19.109 Y-42.865
X18.846 Y-41.944
X18.502 Y-41.05
X18.087 Y-40.187
X17.596 Y-39.364
X17.037 Y-38.587
X16.417 Y-37.857
X15.738 Y-37.182
X15.004 Y-36.567
X14.224 Y-36.011
X13.401 Y-35.521
X12.541 Y-35.1
X11.651 Y-34.747
X10.737 Y-34.461
X9.802 Y-34.251
X8.854 Y-34.114
X7.899 Y-34.046
X6.941 Y-34.051
X5.987 Y-34.13
X5.041 Y-34.277
X4.108 Y-34.493
X3.194 Y-34.779
X2.303 Y-35.131
X1.438 Y-35.543
X0.607 Y-36.019
X-0.187 Y-36.554
X-0.942 Y-37.143
X-1.655 Y-37.783
X-2.317 Y-38.475
X-2.929 Y-39.211
X-3.491 Y-39.987
X-3.995 Y-40.801
X-4.439 Y-41.65
X-4.823 Y-42.527
X-5.148 Y-43.428
X-5.406 Y-44.35
X-5.598 Y-45.288
X-5.726 Y-46.238
X-5.79 Y-47.193
X-5.783 Y-48.151
X-5.71 Y-49.106
X-5.574 Y-50.054
X-5.371 Y-50.99
X-5.102 Y-51.909
X-4.771 Y-52.807
X-4.38 Y-53.682
X-3.928 Y-54.526
X-3.417 Y-55.336
X-2.854 Y-56.111
X-2.238 Y-56.844
X-1.572 Y-57.532
X-0.86 Y-58.172
X-0.107 Y-58.764
X0.687 Y-59.3
X1.516 Y-59.779
X2.376 Y-60.201
X3.262 Y-60.565
X4.172 Y-60.863
X5.101 Y-61.097
X6.043 Y-61.27
X6.994 Y-61.376
X7.951 Y-61.414
X8.909 Y-61.386
X9.862 Y-61.296
X10.807 Y-61.137
X11.737 Y-60.912
X12.651 Y-60.624
X13.544 Y-60.278
X14.408 Y-59.866
X15.243 Y-59.396
X16.044 Y-58.872
X16.81 Y-58.296
X17.538 Y-57.674
X18.229 Y-57.011
X18.884 Y-56.313
X19.503 Y-55.582
X20.084 Y-54.82
X20.621 Y-54.028
X21.115 Y-53.207
X21.563 Y-52.361
X21.965 Y-51.491
X22.312 Y-50.599
X22.605 Y-49.687
X22.843 Y-48.759
X23.025 Y-47.819
X23.146 Y-46.869
X23.205 Y-45.913
Y-44.955
X23.146 Y-43.999
X23.022 Y-43.05
X22.836 Y-42.11
X22.592 Y-41.184
X22.291 Y-40.275
X21.929 Y-39.388
X21.511 Y-38.527
X21.039 Y-37.693
X20.518 Y-36.89
X19.945 Y-36.123
X19.324 Y-35.394
X18.659 Y-34.704
X17.955 Y-34.055
X17.21 Y-33.454
X16.429 Y-32.899
X15.616 Y-32.393
X14.775 Y-31.935
X13.907 Y-31.531
X13.015 Y-31.18
X12.105 Y-30.882
X11.179 Y-30.637
X10.24 Y-30.448
X9.292 Y-30.316
X8.337 Y-30.239
X7.38 Y-30.217
X6.423 Y-30.249
X5.469 Y-30.338
X4.522 Y-30.482
X3.585 Y-30.679
X2.66 Y-30.927
X1.751 Y-31.228
X0.861 Y-31.582
X-0.008 Y-31.984
X-0.854 Y-32.433
X-1.673 Y-32.929
X-2.463 Y-33.471
X-3.221 Y-34.056
X-3.947 Y-34.681
X-4.637 Y-35.345
X-5.288 Y-36.047
X-5.899 Y-36.784
X-6.47 Y-37.554
X-6.998 Y-38.353
X-7.48 Y-39.18
X-7.916 Y-40.033
X-8.305 Y-40.908
X-8.646 Y-41.803
X-8.939 Y-42.715
X-9.179 Y-43.642
X-9.368 Y-44.581
X-9.507 Y-45.528
X-9.595 Y-46.482
X-9.63 Y-47.439
X-9.612 Y-48.397
X-9.542 Y-49.352
X-9.421 Y-50.302
X-9.25 Y-51.244
X-9.026 Y-52.175
X-8.751 Y-53.093
X-8.428 Y-53.994
X-8.057 Y-54.877
X-7.639 Y-55.739
X-7.173 Y-56.576
X-6.663 Y-57.386
X-6.11 Y-58.168
X-5.516 Y-58.919
X-4.882 Y-59.637
X-4.209 Y-60.319
X-3.501 Y-60.963
X-2.759 Y-61.568
X-1.986 Y-62.134
X-1.182 Y-62.655
X-0.352 Y-63.131
X0.504 Y-63.563
X1.38 Y-63.948
X2.277 Y-64.286
X3.19 Y-64.573
X4.118 Y-64.81
X5.057 Y-64.997
X6.005 Y-65.134
X6.959 Y-65.219
X7.916 Y-65.251
X8.874 Y-65.231
X9.829 Y-65.161
X10.779 Y-65.04
X11.721 Y-64.865
X12.651 Y-64.64
X13.569 Y-64.365
X14.471 Y-64.043
X15.353 Y-63.671
X16.214 Y-63.251
X17.051 Y-62.786
X17.863 Y-62.279
X18.649 Y-61.731
X19.406 Y-61.145
X20.134 Y-60.522
X20.831 Y-59.866
X21.499 Y-59.179
X22.136 Y-58.464
X22.742 Y-57.723
X23.313 Y-56.953
X23.848 Y-56.159
X24.347 Y-55.342
X24.81 Y-54.503
X25.234 Y-53.645
X25.616 Y-52.767
X25.955 Y-51.871
X26.25 Y-50.96
X26.503 Y-50.036
X26.71 Y-49.101
X26.87 Y-48.157
X26.981 Y-47.206
X27.045 Y-46.25
X27.061 Y-45.292
X27.03 Y-44.335
X26.949 Y-43.381
X26.818 Y-42.432
X26.639 Y-41.491
X26.414 Y-40.561
X26.142 Y-39.642
X25.822 Y-38.74
X25.456 Y-37.855
X25.045 Y-36.99
X24.593 Y-36.145
X24.099 Y-35.325
X23.563 Y-34.531
X22.987 Y-33.767
X22.373 Y-33.031
X21.725 Y-32.326
X21.043 Y-31.654
X20.327 Y-31.018
X19.58 Y-30.419
X18.804 Y-29.857
X18.003 Y-29.333
X17.177 Y-28.847
X16.328 Y-28.404
X15.458 Y-28.003
X14.57 Y-27.645
X13.666 Y-27.329
X12.748 Y-27.055
X11.818 Y-26.827
X10.878 Y-26.645
X9.93 Y-26.508
X8.977 Y-26.414
X8.021 Y-26.365
X7.063 Y-26.36
X6.106 Y-26.403
X5.152 Y-26.49
X4.204 Y-26.621
X3.262 Y-26.794
X2.329 Y-27.01
X1.407 Y-27.271
X0.499 Y-27.575
X-0.394 Y-27.92
X-1.271 Y-28.305
X-2.13 Y-28.728
X-2.969 Y-29.191
X-3.784 Y-29.693
X-4.576 Y-30.232
X-5.343 Y-30.806
X-6.084 Y-31.412
X-6.797 Y-32.052
X-7.479 Y-32.724
X-8.129 Y-33.427
X-8.748 Y-34.158
X-9.333 Y-34.916
X-9.885 Y-35.699
X-10.401 Y-36.506
X-10.878 Y-37.336
X-11.317 Y-38.187
X-11.719 Y-39.057
X-12.082 Y-39.943
X-12.406 Y-40.844
X-12.687 Y-41.76
X-12.926 Y-42.687
X-13.124 Y-43.624
X-13.28 Y-44.569
X-13.396 Y-45.52
X-13.468 Y-46.475
X-13.496 Y-47.432
X-13.481 Y-48.389
X-13.425 Y-49.345
X-13.326 Y-50.298
X-13.186 Y-51.246
X-13.003 Y-52.185
X-12.776 Y-53.116
X-12.509 Y-54.036
X-12.202 Y-54.943
X-11.856 Y-55.836
X-11.47 Y-56.712
X-11.045 Y-57.57
X-10.581 Y-58.408
X-10.08 Y-59.225
X-9.545 Y-60.019
X-8.976 Y-60.789
X-8.372 Y-61.532
X-7.735 Y-62.247
X-7.066 Y-62.933
X-6.369 Y-63.589
X-5.644 Y-64.215
X-4.891 Y-64.807
X-4.112 Y-65.365
X-3.309 Y-65.886
X-2.484 Y-66.372
X-1.638 Y-66.821
X-0.774 Y-67.234
X0.109 Y-67.606
X1.007 Y-67.938
X1.919 Y-68.229
X2.843 Y-68.481
X3.777 Y-68.692
X4.72 Y-68.862
X5.669 Y-68.988
X6.623 Y-69.072
X7.58 Y-69.113
X8.538 Y-69.112
X9.495 Y-69.071
X10.449 Y-68.985
X11.398 Y-68.857
X12.34 Y-68.685
X13.274 Y-68.473
X14.198 Y-68.221
X15.11 Y-67.929
X16.007 Y-67.595
X16.889 Y-67.221
X17.753 Y-66.808
X18.599 Y-66.359
X19.425 Y-65.875
X20.23 Y-65.356
X21.012 Y-64.803
X21.77 Y-64.218
X22.504 Y-63.603
X23.214 Y-62.959
X23.899 Y-62.29
X24.558 Y-61.596
X25.19 Y-60.875
X25.792 Y-60.131
X26.366 Y-59.364
X26.911 Y-58.577
X27.425 Y-57.769
X27.91 Y-56.943
X28.361 Y-56.098
X28.778 Y-55.236
X29.159 Y-54.357
X29.506 Y-53.465
X29.818 Y-52.559
X30.094 Y-51.642
X30.332 Y-50.714
X30.53 Y-49.778
X30.689 Y-48.833
X30.809 Y-47.883
X30.89 Y-46.929
X30.933 Y-45.972
X30.935 Y-45.014
X30.896 Y-44.057
X30.815 Y-43.103
X30.694 Y-42.153
X30.535 Y-41.209
X30.337 Y-40.272
X30.099 Y-39.344
X29.821 Y-38.428
X29.503 Y-37.524
X29.148 Y-36.635
X28.757 Y-35.76
X28.331 Y-34.903
X27.868 Y-34.064
X27.369 Y-33.247
X26.836 Y-32.451
X26.271 Y-31.678
X25.674 Y-30.929
X25.049 Y-30.204
X24.392 Y-29.507
X23.706 Y-28.838
X22.993 Y-28.199
X22.255 Y-27.589
X21.492 Y-27.009
X20.708 Y-26.46
X19.901 Y-25.945
X19.073 Y-25.464
X18.225 Y-25.017
X17.361 Y-24.605
X16.481 Y-24.227
X15.587 Y-23.884
X14.68 Y-23.578
X13.76 Y-23.309
X12.831 Y-23.079
X11.893 Y-22.885
X10.948 Y-22.728
X9.998 Y-22.608
X9.044 Y-22.525
X8.087 Y-22.482
X7.129 Y-22.477
X6.172 Y-22.51
X5.217 Y-22.58
X4.265 Y-22.686
X3.318 Y-22.829
X2.378 Y-23.01
X1.445 Y-23.228
X0.522 Y-23.483
X-0.391 Y-23.773
X-1.292 Y-24.097
X-2.18 Y-24.455
X-3.054 Y-24.848
X-3.911 Y-25.275
X-4.75 Y-25.735
X-5.572 Y-26.228
X-6.374 Y-26.75
X-7.157 Y-27.303
X-7.918 Y-27.884
X-8.655 Y-28.496
X-9.367 Y-29.136
X-10.055 Y-29.802
X-10.717 Y-30.495
X-11.352 Y-31.211
X-11.961 Y-31.95
X-12.54 Y-32.713
X-13.089 Y-33.498
X-13.608 Y-34.303
X-14.095 Y-35.127
X-14.552 Y-35.969
X-14.977 Y-36.827
X-15.37 Y-37.701
X-15.727 Y-38.589
X-16.051 Y-39.49
X-16.339 Y-40.404
X-16.594 Y-41.327
X-16.814 Y-42.259
X-17 Y-43.198
X-17.149 Y-44.144
X-17.261 Y-45.096
X-17.337 Y-46.05
X-17.377 Y-47.007
X-17.381 Y-47.965
X-17.35 Y-48.922
X-17.284 Y-49.877
X-17.18 Y-50.829
X-17.039 Y-51.777
X-16.863 Y-52.718
X-16.651 Y-53.652
X-16.406 Y-54.578
X-16.127 Y-55.494
X-15.812 Y-56.398
X-15.463 Y-57.29
X-15.08 Y-58.168
X-14.664 Y-59.031
X-14.216 Y-59.877
X-13.738 Y-60.707
X-13.23 Y-61.519
X-12.69 Y-62.31
X-12.12 Y-63.079
X-11.521 Y-63.827
X-10.895 Y-64.551
X-10.242 Y-65.252
X-9.565 Y-65.929
X-8.862 Y-66.579
X-8.134 Y-67.202
X-7.383 Y-67.796
X-6.61 Y-68.362
X-5.817 Y-68.899
X-5.005 Y-69.406
X-4.174 Y-69.883
X-3.326 Y-70.327
X-2.461 Y-70.738
X-1.581 Y-71.116
X-0.687 Y-71.461
X0.218 Y-71.773
X1.134 Y-72.052
X2.061 Y-72.295
X2.996 Y-72.502
X3.938 Y-72.674
X4.886 Y-72.81
X5.838 Y-72.91
X6.794 Y-72.976
X7.751 Y-73.007
X8.709 Y-73
X9.665 Y-72.956
X10.62 Y-72.876
X11.57 Y-72.761
X12.516 Y-72.61
X13.456 Y-72.425
X14.388 Y-72.205
X15.311 Y-71.948
X16.223 Y-71.657
X17.124 Y-71.332
X18.012 Y-70.973
X18.886 Y-70.582
X19.746 Y-70.16
X20.589 Y-69.706
X21.414 Y-69.221
X22.222 Y-68.706
X23.01 Y-68.162
X23.78 Y-67.592
X24.529 Y-66.995
X25.258 Y-66.374
X25.965 Y-65.728
X26.649 Y-65.058
X27.31 Y-64.365
X27.948 Y-63.651
X28.562 Y-62.916
X29.152 Y-62.161
X29.717 Y-61.388
X30.256 Y-60.596
X30.767 Y-59.787
X31.251 Y-58.96
X31.707 Y-58.118
X32.134 Y-57.261
X32.533 Y-56.39
X32.901 Y-55.506
X33.24 Y-54.61
X33.547 Y-53.703
X33.822 Y-52.785
X34.064 Y-51.859
X34.273 Y-50.924
X34.45 Y-49.983
X34.595 Y-49.036
X34.706 Y-48.085
X34.782 Y-47.131
X34.824 Y-46.174
X34.831 Y-45.216
X34.804 Y-44.259
X34.743 Y-43.303
X34.649 Y-42.35
X34.521 Y-41.401
X34.357 Y-40.457
X34.16 Y-39.52
X33.928 Y-38.591
X33.663 Y-37.671
X33.366 Y-36.76
X33.037 Y-35.861
X32.675 Y-34.974
X32.281 Y-34.101
X31.856 Y-33.243
X31.4 Y-32.401
X30.914 Y-31.575
X30.4 Y-30.768
X29.858 Y-29.978
X29.287 Y-29.209
X28.689 Y-28.461
X28.065 Y-27.735
X27.414 Y-27.032
X26.74 Y-26.352
X26.042 Y-25.696
X25.322 Y-25.064
X24.58 Y-24.459
X23.817 Y-23.881
X23.033 Y-23.33
X22.231 Y-22.807
X21.411 Y-22.312
X20.574 Y-21.846
X19.722 Y-21.409
X18.855 Y-21.002
X17.975 Y-20.625
X17.081 Y-20.28
X16.177 Y-19.966
X15.262 Y-19.684
X14.337 Y-19.433
X13.405 Y-19.213
X12.466 Y-19.025
X11.521 Y-18.87
X10.571 Y-18.748
X9.618 Y-18.659
X8.662 Y-18.602
X7.704 Y-18.577
X6.747 Y-18.585
X5.79 Y-18.624
X4.835 Y-18.697
X3.883 Y-18.802
X2.935 Y-18.94
X1.993 Y-19.109
X1.056 Y-19.31
X0.127 Y-19.542
X-0.794 Y-19.804
X-1.706 Y-20.098
X-2.607 Y-20.422
X-3.496 Y-20.777
X-4.374 Y-21.161
X-5.238 Y-21.574
X-6.088 Y-22.015
X-6.923 Y-22.484
X-7.742 Y-22.981
X-8.543 Y-23.505
X-9.327 Y-24.055
X-10.092 Y-24.631
X-10.837 Y-25.233
X-11.563 Y-25.858
X-12.267 Y-26.507
X-12.95 Y-27.179
X-13.61 Y-27.873
X-14.246 Y-28.588
X-14.858 Y-29.325
X-15.446 Y-30.081
X-16.008 Y-30.856
X-16.545 Y-31.649
X-17.056 Y-32.459
X-17.54 Y-33.286
X-17.995 Y-34.128
X-18.423 Y-34.985
X-18.823 Y-35.856
X-19.193 Y-36.739
X-19.535 Y-37.633
X-19.847 Y-38.539
X-20.13 Y-39.454
X-20.382 Y-40.378
X-20.603 Y-41.309
X-20.794 Y-42.248
X-20.953 Y-43.192
X-21.082 Y-44.141
X-21.18 Y-45.094
X-21.247 Y-46.049
X-21.283 Y-47.006
X-21.286 Y-47.964
X-21.259 Y-48.921
X-21.199 Y-49.877
X-21.109 Y-50.831
X-20.988 Y-51.781
X-20.836 Y-52.726
X-20.653 Y-53.666
X-20.44 Y-54.6
X-20.195 Y-55.526
X-19.921 Y-56.443
X-19.617 Y-57.351
X-19.283 Y-58.249
X-18.92 Y-59.135
X-18.753 Y-59.508
X-18.735 Y-59.543
X-18.455 Y-60.035
X-18.352 Y-60.252
X-17.941 Y-61.117
X-17.496 Y-61.965
X-17.02 Y-62.796
X-16.514 Y-63.609
X-15.979 Y-64.404
X-15.418 Y-65.18
X-14.832 Y-65.937
X-14.221 Y-66.675
X-13.588 Y-67.393
X-12.93 Y-68.089
X-12.249 Y-68.763
X-11.547 Y-69.414
X-10.823 Y-70.041
X-10.079 Y-70.644
X-9.316 Y-71.223
X-8.536 Y-71.778
X-7.738 Y-72.307
X-6.922 Y-72.81
X-6.09 Y-73.284
X-5.243 Y-73.731
X-4.382 Y-74.15
X-3.508 Y-74.541
X-2.621 Y-74.904
X-1.724 Y-75.238
X-0.816 Y-75.543
X0.102 Y-75.817
X1.028 Y-76.061
X1.961 Y-76.274
X2.902 Y-76.456
X3.847 Y-76.608
X4.797 Y-76.73
X5.75 Y-76.822
X6.706 Y-76.882
X7.663 Y-76.91
X8.621 Y-76.905
X9.578 Y-76.87
X10.534 Y-76.804
X11.486 Y-76.707
X12.436 Y-76.581
X13.38 Y-76.423
X14.319 Y-76.233
X15.251 Y-76.013
X16.175 Y-75.762
X17.091 Y-75.481
X17.508 Y-75.338
X17.533 Y-75.329
X17.558 Y-75.318
X17.583 Y-75.307
X17.836 Y-75.18
X18.054 Y-75.08
X19.359 Y-74.647
X19.576 Y-74.572
X20.098 Y-74.391
X20.229 Y-74.338
X21.54 Y-73.738
X21.752 Y-73.636
X22.187 Y-73.415
X22.404 Y-73.293
X23.709 Y-72.543
X23.898 Y-72.433
X24.607 Y-71.998
X24.797 Y-71.871
X25.251 Y-71.563
X25.449 Y-71.423
X25.667 Y-71.263
X25.845 Y-71.128
X26.111 Y-70.91
X27.433 Y-69.823
X27.625 Y-69.664
X27.952 Y-69.388
X28.435 Y-68.953
X29.147 Y-68.274
X29.334 Y-68.083
X29.8 Y-67.595
X30.017 Y-67.365
X30.576 Y-66.778
X30.887 Y-66.44
X31.175 Y-66.125
X31.322 Y-65.957
X31.858 Y-65.255
X32.011 Y-65.037
X32.177 Y-64.82
X32.724 Y-64.034
X33.255 Y-63.237
X33.769 Y-62.429
X34.264 Y-61.609
X34.737 Y-60.776
X35.187 Y-59.93
X35.613 Y-59.073
X36.014 Y-58.203
X36.39 Y-57.322
X36.74 Y-56.431
X37.063 Y-55.529
X37.36 Y-54.619
X37.628 Y-53.699
X37.867 Y-52.772
X38.078 Y-51.838
X38.26 Y-50.897
X38.414 Y-49.952
X38.538 Y-49.003
X38.634 Y-48.05
X38.7 Y-47.094
X38.735 Y-46.137
X38.74 Y-45.18
X38.715 Y-44.222
X38.66 Y-43.266
X38.576 Y-42.312
X38.462 Y-41.361
X38.319 Y-40.414
X38.146 Y-39.472
X37.943 Y-38.536
X37.71 Y-37.607
X37.448 Y-36.686
X37.158 Y-35.774
X36.839 Y-34.87
X36.493 Y-33.978
X36.119 Y-33.096
X35.717 Y-32.227
X35.288 Y-31.371
X34.831 Y-30.529
X34.349 Y-29.701
X33.841 Y-28.889
X33.309 Y-28.093
X32.752 Y-27.314
X32.171 Y-26.552
X31.567 Y-25.809
X30.94 Y-25.086
X30.29 Y-24.383
X29.618 Y-23.699
X28.926 Y-23.037
X28.214 Y-22.397
X27.483 Y-21.778
X26.734 Y-21.182
X25.966 Y-20.61
X25.18 Y-20.062
X24.378 Y-19.539
X23.561 Y-19.04
X22.728 Y-18.566
X22.109 Y-18.238
X21.909 Y-18.174
X21.699 Y-18.182
X21.505 Y-18.263
X21.351 Y-18.405
X21.027 Y-18.829
X20.928 Y-18.924
X20.327 Y-19.422
X20.316 Y-19.429
X19.726 Y-19.722
X19.712 Y-19.727
X19.141 Y-19.891
X18.924 Y-19.922
X18.489 Y-19.97
X18.475 Y-19.971
X17.864 Y-19.924
X17.246 Y-19.757
X16.599 Y-19.449
X16.586 Y-19.439
X16.096 Y-19.064
X15.929 Y-18.924
X15.879 Y-18.875
X15.717 Y-18.706
X15.661 Y-18.644
X15.526 Y-18.489
X15.444 Y-18.409
X15.389 Y-18.367
X15.335 Y-18.334
X15.281 Y-18.308
X15.226 Y-18.289
X15.151 Y-18.271
X15.08 Y-18.264
X15.009
X14.791 Y-18.256
X14.356 Y-18.216
X14.139 Y-18.18
X13.634 Y-18.054
X13.486 Y-17.998
X13.269 Y-17.896
X13.051 Y-17.777
X12.833 Y-17.611
X12.485 Y-17.333
X12.436 Y-17.287
X12.398 Y-17.241
X12.356 Y-17.184
X12.022 Y-16.782
X11.531 Y-16.34
X10.865 Y-15.895
X10 Y-15.483
X9.087 Y-15.194
X8.149 Y-15.002
X7.198 Y-14.888
X6.242 Y-14.837
X5.284 Y-14.838
X4.327 Y-14.883
X3.374 Y-14.969
X2.424 Y-15.09
X1.478 Y-15.244
X0.539 Y-15.43
X-0.394 Y-15.644
X-1.321 Y-15.888
X-2.239 Y-16.159
X-3.149 Y-16.458
X-4.049 Y-16.785
X-4.939 Y-17.139
X-5.818 Y-17.52
X-6.685 Y-17.925
X-7.541 Y-18.356
X-8.383 Y-18.812
X-9.212 Y-19.291
X-10.027 Y-19.795
X-10.826 Y-20.323
X-11.609 Y-20.875
X-12.375 Y-21.449
X-13.124 Y-22.045
X-13.856 Y-22.663
X-14.57 Y-23.301
X-15.265 Y-23.96
X-15.941 Y-24.639
X-16.596 Y-25.337
X-17.23 Y-26.055
X-17.843 Y-26.791
X-18.435 Y-27.544
X-19.004 Y-28.314
X-19.551 Y-29.1
X-20.075 Y-29.902
X-20.576 Y-30.718
X-21.054 Y-31.548
X-21.506 Y-32.392
X-21.933 Y-33.249
X-22.335 Y-34.119
X-22.547 Y-34.615
X-22.594 Y-34.805
X-22.577 Y-34.999
X-22.499 Y-35.178
X-22.367 Y-35.322
X-22.196 Y-35.417
X-22.081 Y-35.455
X-21.997 Y-35.474 F1500
X-21.911 Y-35.48
X-21.91
G3 X-21.415 Y-35.22 I0 J0.6
G1 X-21.398 Y-35.195
X-21.214 Y-34.925 F2000
G2 X-20.881 Y-35.148 I0.165 J-0.113
G3 X-21.238 Y-35.848 I3.051 J-1.995 F1500
G1 X-21.928 Y-37.848 F2000
X-21.969 Y-37.99
X-22.161 Y-38.718
X-22.331 Y-39.371
X-22.497 Y-40.023
X-22.548 Y-40.241
X-22.696 Y-40.893
X-22.737 Y-41.111
X-22.817 Y-41.546
X-22.839 Y-41.684
X-22.914 Y-42.198
X-22.942 Y-42.416
X-23.058 Y-43.721
X-23.075 Y-43.938
X-23.104 Y-44.373
X-23.118 Y-44.591
X-23.145 Y-45.243
Y-45.461
X-23.138 Y-45.896
X-23.132 Y-46.114
X-23.097 Y-46.766
X-23.05 Y-47.419
X-23.001 Y-48.071
X-22.985 Y-48.289
X-22.884 Y-48.941
X-22.839 Y-49.21
X-22.622 Y-50.469
X-22.571 Y-50.681
X-22.23 Y-51.986
X-22.039 Y-52.639
X-21.969 Y-52.857
X-21.511 Y-54.162
X-21.431 Y-54.379
X-21.268 Y-54.814
X-21.181 Y-55.032
X-20.882 Y-55.716
X-20.785 Y-55.902
X-20.555 Y-56.337
X-20.439 Y-56.554
X-20.08 Y-57.207
X-19.076 Y-58.947
X-18.735 Y-59.543
X-18.73 Y-59.55 F1500
X-18.63 Y-59.677
X-18.589 Y-59.742
X-18.437 Y-60.025
X-18.405 Y-60.094
X-18.353 Y-60.248
X-18.352 Y-60.252
X-18.262 Y-60.47 F2000
X-17.914 Y-61.34
X-17.301 Y-62.862
X-17.043 Y-63.515
X-16.874 Y-63.95
X-16.712 Y-64.385
X-16.487 Y-65.037
X-16.314 Y-65.52
X-16.173 Y-65.908
X-15.933 Y-66.56
X-15.661 Y-67.269
X-15.414 Y-67.865
X-15.322 Y-68.083
X-15.039 Y-68.735
X-15.009 Y-68.802
X-14.727 Y-69.388
X-14.612 Y-69.605
X-13.851 Y-70.91
X-13.704 Y-71.155
X-13.452 Y-71.563
X-13.315 Y-71.78
X-13.051 Y-72.174
X-12.478 Y-72.941
X-11.865 Y-73.677
X-11.185 Y-74.351
X-10.457 Y-74.973
X-9.692 Y-75.55
X-8.899 Y-76.087
X-8.083 Y-76.588
X-7.248 Y-77.058
X-6.952 Y-77.211
X-6.927 Y-77.223
X-6.902 Y-77.234
X-6.876 Y-77.243
G3 X-6.19 Y-76.992 I0.18 J0.573 F1500
G1 X-6.14 Y-76.913 Z14.01
X-6.091 Y-76.836 Z14.032
X-6.044 Y-76.763 Z14.068
X-6.001 Y-76.695 Z14.117
X-5.963 Y-76.634 Z14.178
X-5.93 Y-76.583 Z14.25
X-5.904 Y-76.541 Z14.33
X-5.884 Y-76.511 Z14.417
X-5.872 Y-76.492 Z14.509
X-5.869 Y-76.486 Z14.602
G0 Z15.202
X-13.321 Y-70.826
G1 Z14.602 F1500
Y-70.833 Z14.509
X-13.319 Y-70.855 Z14.417
X-13.317 Y-70.891 Z14.33
X-13.315 Y-70.94 Z14.25
X-13.311 Y-71.001 Z14.178
X-13.307 Y-71.073 Z14.117
X-13.303 Y-71.153 Z14.068
X-13.298 Y-71.24 Z14.032
X-13.293 Y-71.331 Z14.01
X-13.288 Y-71.425 Z14.002
G3 X-13.051 Y-72.174 I1.58 J0.088
G1 X-12.833 Y-72.497 F2000
X-12.561 Y-72.868
X-12.398 Y-73.086
X-12.218 Y-73.303
X-11.746 Y-73.82
X-11.617 Y-73.956
X-10.876 Y-74.695
X-10.739 Y-74.826
X-10.223 Y-75.303
X-10.006 Y-75.483
X-9.788 Y-75.647
X-9.429 Y-75.913
X-9.353 Y-75.965
X-8.918 Y-76.25
X-8.757 Y-76.348
X-8.701 Y-76.382
X-8.483 Y-76.501
X-7.95 Y-76.783
X-7.831 Y-76.844
X-7.396 Y-77.047
X-7.178 Y-77.133
X-6.947 Y-77.218
X-6.525 Y-77.367
X-6.326 Y-77.436
X-5.655 Y-77.616
X-5.504 Y-77.653
X-5.003 Y-77.77
X-4.785 Y-77.819
X-4.133 Y-77.954
X-3.915 Y-77.99
X-3.48 Y-78.06
X-3.263 Y-78.093
X-2.61 Y-78.181
X-1.305 Y-78.349
X-1.088 Y-78.375
X-0.435 Y-78.429
X1.088 Y-78.546
X1.74 Y-78.601
X1.958 Y-78.607
X2.393 Y-78.616
X2.61 Y-78.619
X3.263 Y-78.621
X4.568 Y-78.619
X4.785 Y-78.618
X5.438 Y-78.611
X6.09 Y-78.583
X6.308 Y-78.569
X6.525 Y-78.549
X6.767 Y-78.523
X6.961 Y-78.502
X7.613 Y-78.423
X8.266 Y-78.339
X9.136 Y-78.226
X9.571 Y-78.15
X9.914 Y-78.088
X10.658 Y-77.926
X11.093 Y-77.814
X11.311 Y-77.756
X11.528 Y-77.693
X12.181 Y-77.491
X13.486 Y-77.069
X13.684 Y-77.001
X14.356 Y-76.741
X15.661 Y-76.22
X15.879 Y-76.13
X16.531 Y-75.83
X16.806 Y-75.696
X17.401 Y-75.398
X17.583 Y-75.307
G3 X17.786 Y-75.091 I-0.23 J0.421 F1500
G2 X17.999 Y-74.657 I16.15 J-7.648
X19.36 Y-72.403 I15.937 J-8.082 F2000
G1 X19.401 Y-72.351
X19.448 Y-72.304
X19.5 Y-72.262
X28.635 Y-65.707
X28.691 Y-65.672
X28.751 Y-65.642
X28.813 Y-65.62
G2 X31.448 Y-65.044 I5.123 J-17.119
X31.864 Y-64.99 I2.489 J-17.695 F1500
G3 X32.177 Y-64.82 I-0.056 J0.477
G1 X32.346 Y-64.602 F2000
X32.41 Y-64.533
X32.627 Y-64.326
X32.845 Y-64.133
X33.933 Y-63.185
X34.042 Y-63.08
X34.15 Y-62.972
X34.667 Y-62.427
X34.803 Y-62.272
X34.856 Y-62.21
X35.028 Y-61.992
X35.238 Y-61.717
X35.354 Y-61.557
X35.673 Y-61.08
X35.775 Y-60.905
X36.149 Y-60.252
X36.27 Y-60.035
X36.384 Y-59.817
X36.543 Y-59.509
X36.607 Y-59.382
X36.921 Y-58.729
X36.978 Y-58.609
X37.015 Y-58.512
X37.258 Y-57.859
X37.325 Y-57.642
X37.454 Y-57.207
X37.515 Y-56.989
X37.678 Y-56.363
X37.682 Y-56.35
X37.694 Y-56.337
X37.713 Y-56.322
X38.283 Y-55.981
X38.399 Y-55.902
X39.153 Y-55.363
X39.299 Y-55.249
X39.371 Y-55.193
X39.559 Y-55.032
X40.212 Y-54.415
X40.767 Y-53.714
X41.247 Y-52.886
X41.626 Y-52.006
X41.923 Y-51.096
X42.155 Y-50.167
X42.333 Y-49.226
X42.465 Y-48.277
X42.556 Y-47.324
X42.611 Y-46.368
X42.634 Y-45.41
X42.627 Y-44.453
X42.591 Y-43.496
X42.526 Y-42.54
X42.435 Y-41.587
X42.316 Y-40.636
X42.17 Y-39.69
X41.996 Y-38.748
X41.796 Y-37.812
X41.569 Y-36.881
X41.317 Y-35.957
X41.04 Y-35.04
X40.737 Y-34.132
X40.41 Y-33.232
X40.058 Y-32.341
X39.681 Y-31.461
X39.278 Y-30.592
X38.852 Y-29.734
X38.402 Y-28.889
X37.929 Y-28.056
X37.433 Y-27.237
X36.916 Y-26.431
X36.376 Y-25.639
X35.815 Y-24.863
X35.232 Y-24.104
X34.628 Y-23.361
X34.003 Y-22.635
X33.359 Y-21.926
X32.696 Y-21.235
X32.014 Y-20.563
X31.314 Y-19.909
X30.597 Y-19.274
X29.863 Y-18.659
X29.112 Y-18.065
X28.344 Y-17.493
X27.561 Y-16.941
X26.763 Y-16.411
X25.952 Y-15.903
X25.119 Y-15.429
X24.246 Y-15.037
X23.465 Y-14.812
X22.869 Y-14.731
X22.656 Y-14.74
X22.459 Y-14.824
X22.304 Y-14.971
X22.21 Y-15.163
X22.19 Y-15.375
X22.196 Y-15.444
X22.204 Y-15.661
X22.178 Y-16.096
X22.156 Y-16.314
X22.078 Y-16.749
X22.028 Y-16.966
X21.885 Y-17.401
G3 X22.151 Y-18.082 I0.576 J-0.167 F1500
G1 X22.231 Y-18.13 Z14.01
X22.309 Y-18.178 Z14.032
X22.384 Y-18.223 Z14.068
X22.452 Y-18.264 Z14.117
X22.514 Y-18.301 Z14.178
X22.566 Y-18.333 Z14.25
X22.608 Y-18.358 Z14.33
X22.639 Y-18.377 Z14.417
X22.658 Y-18.388 Z14.509
X22.664 Y-18.392 Z14.602
G0 Z15.202
X38.251 Y-55.454
G1 Z14.602 F1500
X38.258 Y-55.453 Z14.509
X38.28 Y-55.449 Z14.417
X38.315 Y-55.443 Z14.33
X38.364 Y-55.435 Z14.25
X38.424 Y-55.424 Z14.178
X38.494 Y-55.412 Z14.117
X38.574 Y-55.399 Z14.068
X38.659 Y-55.384 Z14.032
X38.75 Y-55.369 Z14.01
X38.842 Y-55.353 Z14.002
G3 X39.559 Y-55.032 I-0.268 J1.56
G1 X39.814 Y-54.814 F2000
X40.023 Y-54.621
X40.266 Y-54.379
X40.676 Y-53.965
X40.893 Y-53.723
X41.065 Y-53.509
X41.402 Y-53.074
X41.546 Y-52.869
X41.981 Y-52.16
X42.072 Y-51.986
X42.198 Y-51.74
X42.291 Y-51.551
X42.393 Y-51.334
X42.668 Y-50.681
X42.747 Y-50.464
X42.961 Y-49.811
X43.024 Y-49.594
X43.139 Y-49.159
X43.19 Y-48.941
X43.286 Y-48.505
X43.33 Y-48.289
X43.419 Y-47.636
X43.437 Y-47.419
X43.467 Y-46.766
X43.489 Y-46.114
X43.545 Y-44.591
X43.544 Y-43.938
X43.537 Y-43.721
X43.503 Y-43.088
X43.475 Y-42.851
X43.451 Y-42.633
X43.462 Y-42.619
X43.477 Y-42.604
X43.884 Y-42.416
X44.017 Y-42.346
X44.346 Y-41.986
X44.669 Y-41.511
X44.974 Y-40.884
X45.236 Y-40.059
X45.393 Y-39.115
X45.43 Y-38.158
X45.376 Y-37.201
X45.252 Y-36.252
X45.073 Y-35.311
X44.85 Y-34.379
X44.591 Y-33.458
X44.299 Y-32.545
X43.978 Y-31.643
X43.631 Y-30.751
X43.257 Y-29.869
X42.86 Y-28.998
X42.439 Y-28.137
X41.997 Y-27.288
X41.533 Y-26.45
X41.049 Y-25.623
X40.545 Y-24.809
X40.02 Y-24.008
X39.476 Y-23.22
X38.912 Y-22.446
X38.328 Y-21.687
X37.725 Y-20.943
X37.104 Y-20.214
X36.465 Y-19.5
X35.809 Y-18.803
X35.136 Y-18.121
X34.447 Y-17.456
X33.742 Y-16.808
X33.021 Y-16.177
X32.285 Y-15.565
X31.533 Y-14.972
X30.766 Y-14.398
X29.986 Y-13.842
X29.191 Y-13.308
X28.38 Y-12.8
X27.546 Y-12.328
X26.683 Y-11.914
X25.791 Y-11.565
X24.872 Y-11.297
X24.018 Y-11.158
X23.24 Y-11.146
X22.531 Y-11.237
X21.883 Y-11.418
X21.294 Y-11.679
X21.228 Y-11.721
X21.077 Y-11.856
X20.98 Y-12.033
X20.947 Y-12.233
X20.983 Y-12.432
X21.082 Y-12.608
X21.317 Y-12.901
X21.433 Y-13.051
X21.564 Y-13.269
X21.68 Y-13.486
X21.752 Y-13.623
X21.787 Y-13.704
X21.969 Y-14.187
X22.025 Y-14.356
X22.12 Y-14.791
X22.159 Y-15.009
X22.19 Y-15.375
G3 X22.7 Y-15.898 I0.596 J0.071 F1500
G1 X22.793 Y-15.912 Z14.01
X22.883 Y-15.925 Z14.032
X22.969 Y-15.937 Z14.068
X23.049 Y-15.949 Z14.117
X23.12 Y-15.959 Z14.178
X23.18 Y-15.968 Z14.25
X23.229 Y-15.975 Z14.33
X23.265 Y-15.98 Z14.417
X23.286 Y-15.983 Z14.509
X23.294 Y-15.984 Z14.602
G0 Z15.202
X42.542 Y-42.751
G1 Z14.602 F1500
X42.549 Y-42.75 Z14.509
X42.571 Y-42.746 Z14.417
X42.606 Y-42.739 Z14.33
X42.655 Y-42.73 Z14.25
X42.715 Y-42.719 Z14.178
X42.785 Y-42.706 Z14.117
X42.864 Y-42.691 Z14.068
X42.949 Y-42.675 Z14.032
X43.039 Y-42.659 Z14.01
X43.132 Y-42.641 Z14.002
G3 X43.884 Y-42.416 I-0.665 J3.584
G1 X44.156 Y-42.289 F2000
X44.373 Y-42.184
X44.808 Y-41.969
X45.026 Y-41.856
X45.613 Y-41.546
X45.678 Y-41.507
X45.896 Y-41.368
X46.331 Y-41.083
X46.549 Y-40.927
X46.766 Y-40.767
X47.244 Y-40.372
X47.623 Y-39.954
X47.979 Y-39.425
X48.315 Y-38.726
X48.588 Y-37.853
X48.74 Y-36.908
X48.778 Y-35.951
X48.727 Y-34.995
X48.606 Y-34.045
X48.427 Y-33.104
X48.201 Y-32.173
X47.935 Y-31.253
X47.634 Y-30.344
X47.303 Y-29.445
X46.945 Y-28.557
X46.562 Y-27.679
X46.157 Y-26.811
X45.73 Y-25.954
X45.282 Y-25.108
X44.815 Y-24.272
X44.328 Y-23.447
X43.822 Y-22.634
X43.297 Y-21.832
X42.754 Y-21.044
X42.193 Y-20.268
X41.614 Y-19.505
X41.018 Y-18.755
X40.405 Y-18.019
X39.776 Y-17.297
X39.132 Y-16.589
X38.471 Y-15.895
X37.796 Y-15.216
X37.105 Y-14.552
X36.4 Y-13.905
X35.68 Y-13.274
X34.945 Y-12.659
X34.197 Y-12.061
X33.436 Y-11.48
X32.661 Y-10.916
X31.873 Y-10.373
X31.068 Y-9.854
X30.243 Y-9.367
X29.397 Y-8.918
X28.53 Y-8.511
X27.643 Y-8.15
X26.733 Y-7.852
X25.803 Y-7.625
X24.857 Y-7.476
X23.901 Y-7.414
X22.944 Y-7.449
X21.996 Y-7.586
X21.075 Y-7.824
X20.334 Y-8.135
X19.687 Y-8.525
X19.162 Y-8.955
X18.71 Y-9.449
X18.362 Y-9.962
X18.214 Y-10.267
X18.156 Y-10.47
X18.173 Y-10.681
X18.261 Y-10.873
X18.411 Y-11.022
X18.603 Y-11.11
X18.924 Y-11.195
X19.141 Y-11.269
X19.576 Y-11.443
X19.756 Y-11.528
X20.135 Y-11.746
X20.229 Y-11.812
X20.415 Y-11.963
X20.911 Y-12.398
X21.082 Y-12.608
G0 Z21
X45.431 Y-41.096
Z15.202
G1 Z14.602 F1500
X45.439 Y-41.095 Z14.509
X45.461 Y-41.093 Z14.417
X45.496 Y-41.089 Z14.33
X45.545 Y-41.084 Z14.25
X45.606 Y-41.078 Z14.178
X45.677 Y-41.071 Z14.117
X45.757 Y-41.063 Z14.068
X45.844 Y-41.055 Z14.032
X45.935 Y-41.045 Z14.01
X46.028 Y-41.036 Z14.002
G3 X46.766 Y-40.767 I-0.157 J1.575
G1 X46.984 Y-40.604 F2000
X47.201 Y-40.439
X47.74 Y-40.023
X47.854 Y-39.93
X48.506 Y-39.367
X48.724 Y-39.171
X48.961 Y-38.935
X49.393 Y-38.5
X49.599 Y-38.283
X49.801 Y-38.065
X50.029 Y-37.798
X50.246 Y-37.538
X50.681 Y-37.013
X51.101 Y-36.444
X51.414 Y-35.858
X51.688 Y-35.098
X51.881 Y-34.159
X51.942 Y-33.204
X51.899 Y-32.247
X51.774 Y-31.297
X51.585 Y-30.359
X51.343 Y-29.432
X51.06 Y-28.517
X50.741 Y-27.614
X50.391 Y-26.722
X50.015 Y-25.842
X49.616 Y-24.971
X49.193 Y-24.112
X48.75 Y-23.263
X48.287 Y-22.425
X47.805 Y-21.597
X47.305 Y-20.78
X46.788 Y-19.974
X46.253 Y-19.18
X45.702 Y-18.397
X45.134 Y-17.625
X44.55 Y-16.866
X43.951 Y-16.119
X43.337 Y-15.384
X42.707 Y-14.662
X42.063 Y-13.954
X41.404 Y-13.259
X40.731 Y-12.577
X40.044 Y-11.91
X39.344 Y-11.257
X38.63 Y-10.618
X37.904 Y-9.994
X37.164 Y-9.386
X36.412 Y-8.793
X35.648 Y-8.216
X34.87 Y-7.658
X34.076 Y-7.121
X33.267 Y-6.609
X32.441 Y-6.124
X31.599 Y-5.668
X30.74 Y-5.244
X29.863 Y-4.861
X28.967 Y-4.522
X28.054 Y-4.231
X27.128 Y-3.989
X26.188 Y-3.804
X25.238 Y-3.682
X24.282 Y-3.622
X23.325 Y-3.626
X22.37 Y-3.704
X21.424 Y-3.854
X20.494 Y-4.08
X19.589 Y-4.393
X18.719 Y-4.795
X17.895 Y-5.283
X17.127 Y-5.854
X16.425 Y-6.506
X15.813 Y-7.233
X15.394 Y-7.909
X15.094 Y-8.597
X14.915 Y-9.254
X14.88 Y-9.536
X14.886 Y-9.72
X14.948 Y-9.894
X15.059 Y-10.041
X15.21 Y-10.147
X15.386 Y-10.202
X15.444 Y-10.211
X15.484 Y-10.223
X15.661 Y-10.281
X15.879 Y-10.354
X16.067 Y-10.441
X16.314 Y-10.579
X16.44 Y-10.658
X16.531 Y-10.721
X16.64 Y-10.8
X16.694 Y-10.83
X16.749 Y-10.854
X16.814 Y-10.876
X16.89 Y-10.891
X16.966 Y-10.897
X17.184 Y-10.91
X17.619 Y-10.94
X17.836 Y-10.969
X18.271 Y-11.042
X18.489 Y-11.083
X18.539 Y-11.093
X18.603 Y-11.11
G3 X19.265 Y-10.802 I0.131 J0.586 F1500
G1 X19.309 Y-10.719 Z14.01
X19.351 Y-10.638 Z14.032
X19.391 Y-10.561 Z14.068
X19.428 Y-10.49 Z14.117
X19.461 Y-10.426 Z14.178
X19.49 Y-10.372 Z14.25
X19.513 Y-10.328 Z14.33
X19.529 Y-10.296 Z14.417
X19.539 Y-10.277 Z14.509
X19.543 Y-10.27 Z14.602
G0 Z21
X12.695 Y-18.516
Z15.202
G1 Z14.602 F1500
X12.694 Y-18.509 Z14.509
X12.691 Y-18.487 Z14.417
X12.688 Y-18.451 Z14.33
X12.682 Y-18.402 Z14.25
X12.676 Y-18.341 Z14.178
X12.668 Y-18.27 Z14.117
X12.66 Y-18.19 Z14.068
X12.65 Y-18.104 Z14.032
X12.641 Y-18.013 Z14.01
X12.631 Y-17.92 Z14.002
G3 X12.356 Y-17.184 I-1.574 J-0.169
G1 X12.03 Y-16.749 F2000
X11.963 Y-16.633
X11.8 Y-16.314
X11.746 Y-16.186
X11.716 Y-16.096
X11.571 Y-15.512
X11.569 Y-15.498
X11.548 Y-15.009
X11.541 Y-14.791
X11.534 Y-14.139
X11.528 Y-14.059
X11.44 Y-13.391
X11.476 Y-12.793
X11.478 Y-12.779
X11.635 Y-12.181
X11.726 Y-11.963
X11.746 Y-11.919
X11.836 Y-11.746
X11.963 Y-11.54
X12.398 Y-11.007
X12.419 Y-10.986
X12.44 Y-10.968
X13.003 Y-10.551
X13.269 Y-10.421
X13.486 Y-10.322
X13.475 Y-10.296 F1500
X13.454 Y-10.277
X13.371 Y-10.234 Z14.01
X13.29 Y-10.192 Z14.032
X13.212 Y-10.152 Z14.068
X13.141 Y-10.115 Z14.117
X13.078 Y-10.082 Z14.178
X13.023 Y-10.054 Z14.25
X12.98 Y-10.032 Z14.33
X12.948 Y-10.015 Z14.417
X12.928 Y-10.005 Z14.509
X12.921 Y-10.001 Z14.602
G0 Z21
X49.465 Y-37.653
Z15.202
G1 Z14.602 F1500
X49.472 Y-37.651 Z14.509
X49.492 Y-37.643 Z14.417
X49.526 Y-37.631 Z14.33
X49.573 Y-37.615 Z14.25
X49.63 Y-37.594 Z14.178
X49.698 Y-37.57 Z14.117
X49.773 Y-37.543 Z14.068
X49.855 Y-37.514 Z14.032
X49.941 Y-37.484 Z14.01
X50.03 Y-37.452 Z14.002
G3 X50.681 Y-37.013 I-0.53 J1.491
G1 X50.71 Y-36.978 F2000
X50.883 Y-36.76
X51.198 Y-36.325
X51.334 Y-36.126
X51.626 Y-35.673
X51.755 Y-35.455
X52.091 Y-34.803
X52.204 Y-34.576
X52.305 Y-34.368
X52.409 Y-34.15
X52.503 Y-33.933
X52.75 Y-33.28
X52.821 Y-33.063
X53.001 Y-32.41
X53.16 Y-31.757
X53.203 Y-31.54
X53.308 Y-30.887
X53.339 Y-30.452
X53.354 Y-30.235
X53.365 Y-30.017
X53.386 Y-29.365
X53.384 Y-28.712
X53.38 Y-28.495
X53.375 Y-28.277
Y-28.251
X53.392 Y-28.237
X53.42 Y-28.213
X53.572 Y-27.489
X53.628 Y-26.578
X53.549 Y-25.624
X53.361 Y-24.685
X53.092 Y-23.766
X52.762 Y-22.867
X52.385 Y-21.986
X51.972 Y-21.122
X51.529 Y-20.273
X51.061 Y-19.438
X50.57 Y-18.615
X50.059 Y-17.805
X49.53 Y-17.007
X48.984 Y-16.22
X48.421 Y-15.445
X47.844 Y-14.682
X47.251 Y-13.929
X46.643 Y-13.189
X46.022 Y-12.46
X45.386 Y-11.744
X44.738 Y-11.039
X44.075 Y-10.347
X43.4 Y-9.668
X42.712 Y-9.002
X42.011 Y-8.35
X41.298 Y-7.71
X40.573 Y-7.085
X39.835 Y-6.474
X39.086 Y-5.877
X38.325 Y-5.296
X37.551 Y-4.733
X36.763 Y-4.188
X35.962 Y-3.663
X35.147 Y-3.161
X34.316 Y-2.683
X33.471 Y-2.233
X32.61 Y-1.813
X31.735 Y-1.425
X30.845 Y-1.071
X29.942 Y-0.753
X29.024 Y-0.477
X28.095 Y-0.244
X27.156 Y-0.056
X26.209 Y0.087
X25.257 Y0.182
X24.3 Y0.224
X23.342 Y0.214
X22.387 Y0.151
X21.436 Y0.034
X20.495 Y-0.145
X19.568 Y-0.384
X18.657 Y-0.682
X17.77 Y-1.043
X16.912 Y-1.467
X16.085 Y-1.951
X15.295 Y-2.492
X14.551 Y-3.095
X13.857 Y-3.755
X13.222 Y-4.471
X12.658 Y-5.246
X12.001 Y-5.942
X11.297 Y-6.592
X10.605 Y-7.254
X9.948 Y-7.95
X9.351 Y-8.699
X9.103 Y-9.09
X9.032 Y-9.247
X9.009 Y-9.418
X9.036 Y-9.588
X9.136 Y-9.914
X9.155 Y-10.006
X9.194 Y-10.223
X9.215 Y-10.441
X9.225 Y-10.658
Y-11.093
X9.21 Y-11.311
X9.17 Y-11.528
X9.12 Y-11.746
X9.04 Y-11.963
X8.867 Y-12.398
X8.747 Y-12.616
X8.562 Y-12.939
X8.524 Y-12.991
X8.483 Y-13.044
X7.922 Y-13.648
X7.91 Y-13.659
X7.897 Y-13.669
X7.396 Y-14.015
X7.177 Y-14.139
X6.961 Y-14.243
X6.743 Y-14.339
X6.696 Y-14.356
X6.09 Y-14.518
X5.873 Y-14.552
X5.438 Y-14.608
X5.22 Y-14.632
X4.704 Y-14.683
X4.133 Y-14.64
X3.915 Y-14.593
X3.48 Y-14.482
X3.263 Y-14.402
X3.045 Y-14.317
X2.936 Y-14.264
X2.828 Y-14.209
X2.175 Y-13.784
X2.076 Y-13.704
X1.958 Y-13.602
X1.829 Y-13.486
X1.785 Y-13.453
X1.74 Y-13.425
X1.631 Y-13.377
X1.523 Y-13.345
X1.305 Y-13.28
X1.277 Y-13.269
X0.87 Y-13.086
X0.241 Y-12.841
X-0.588 Y-12.649
X-1.543 Y-12.57
X-2.5 Y-12.612
X-3.448 Y-12.747
X-4.383 Y-12.952
X-5.304 Y-13.215
X-6.211 Y-13.522
X-7.105 Y-13.867
X-7.985 Y-14.245
X-8.852 Y-14.652
X-9.706 Y-15.084
X-10.548 Y-15.542
X-11.376 Y-16.023
X-12.19 Y-16.528
X-12.989 Y-17.054
X-13.775 Y-17.603
X-14.545 Y-18.172
X-15.3 Y-18.76
X-16.04 Y-19.369
X-16.764 Y-19.996
X-17.471 Y-20.641
X-18.162 Y-21.305
X-18.835 Y-21.986
X-19.489 Y-22.686
X-20.124 Y-23.402
X-20.741 Y-24.135
X-21.338 Y-24.884
X-21.916 Y-25.647
X-22.474 Y-26.425
X-23.013 Y-27.218
X-23.531 Y-28.023
X-24.027 Y-28.842
X-24.502 Y-29.674
X-24.954 Y-30.518
X-25.384 Y-31.374
X-25.756 Y-32.256
X-25.953 Y-32.949
X-25.975 Y-33.13
X-25.943 Y-33.31
X-25.857 Y-33.471
X-25.727 Y-33.599
X-25.449 Y-33.8
X-25.256 Y-33.933
X-24.797 Y-34.23
X-24.579 Y-34.356
X-23.927 Y-34.705
X-23.729 Y-34.803
G3 X-23.023 Y-34.615 I0.23 J0.554 F1500
G1 X-22.965 Y-34.54 Z14.01
X-22.91 Y-34.468 Z14.032
X-22.857 Y-34.399 Z14.068
X-22.808 Y-34.335 Z14.117
X-22.764 Y-34.278 Z14.178
X-22.727 Y-34.23 Z14.25
X-22.697 Y-34.191 Z14.33
X-22.675 Y-34.162 Z14.417
X-22.661 Y-34.145 Z14.509
X-22.657 Y-34.139 Z14.602
G0 Z15.202
X1.812 Y-14.087
G1 Z14.602 F1500
X1.808 Y-14.081 Z14.509
X1.796 Y-14.063 Z14.417
X1.775 Y-14.033 Z14.33
X1.746 Y-13.993 Z14.25
X1.711 Y-13.943 Z14.178
X1.67 Y-13.885 Z14.117
X1.624 Y-13.819 Z14.068
X1.574 Y-13.748 Z14.032
X1.521 Y-13.673 Z14.01
X1.467 Y-13.596 Z14.002
G3 X0.87 Y-13.086 I-1.294 J-0.911
G1 X0.653 Y-12.988 F2000
X0.544 Y-12.924
X0.426 Y-12.833
X0.148 Y-12.616
X0 Y-12.49
X-0.087 Y-12.398
X-0.218 Y-12.245
X-0.565 Y-11.746
X-0.581 Y-11.72
X-0.592 Y-11.695
X-0.68 Y-11.501
X-0.872 Y-11.202
X-1.152 Y-10.879
X-1.512 Y-10.569
X-1.993 Y-10.262
X-2.591 Y-9.993
X-3.361 Y-9.772
X-4.31 Y-9.644
X-5.268 Y-9.651
X-6.219 Y-9.765
X-7.156 Y-9.961
X-8.078 Y-10.221
X-8.983 Y-10.533
X-9.874 Y-10.886
X-10.749 Y-11.274
X-11.61 Y-11.694
X-12.457 Y-12.141
X-13.29 Y-12.614
X-14.109 Y-13.11
X-14.915 Y-13.627
X-15.708 Y-14.165
X-16.486 Y-14.722
X-17.251 Y-15.298
X-18.003 Y-15.892
X-18.739 Y-16.504
X-19.461 Y-17.133
X-20.168 Y-17.78
X-20.859 Y-18.443
X-21.533 Y-19.123
X-22.191 Y-19.819
X-22.833 Y-20.53
X-23.458 Y-21.255
X-24.066 Y-21.995
X-24.657 Y-22.749
X-25.23 Y-23.516
X-25.785 Y-24.297
X-26.321 Y-25.09
X-26.838 Y-25.896
X-27.336 Y-26.715
X-27.814 Y-27.544
X-28.269 Y-28.387
X-28.692 Y-29.247
X-29.016 Y-30.016
X-29.058 Y-30.174
X-29.057 Y-30.337
X-29.011 Y-30.493
X-28.925 Y-30.632
X-28.495 Y-31.152
X-28.345 Y-31.322
X-27.714 Y-31.975
X-27.625 Y-32.055
X-27.217 Y-32.41
X-26.956 Y-32.627
X-26.755 Y-32.793
X-26.102 Y-33.319
X-25.884 Y-33.486
X-25.727 Y-33.599
G3 X-24.998 Y-33.553 I0.334 J0.498 F1500
G1 X-24.928 Y-33.491 Z14.01
X-24.859 Y-33.431 Z14.032
X-24.793 Y-33.374 Z14.068
X-24.733 Y-33.321 Z14.117
X-24.679 Y-33.274 Z14.178
X-24.633 Y-33.234 Z14.25
X-24.596 Y-33.202 Z14.33
X-24.568 Y-33.178 Z14.417
X-24.552 Y-33.163 Z14.509
X-24.546 Y-33.159 Z14.602
G0 Z15.202
X-0.617 Y-13.069
G1 Z14.602 F1500
X-0.616 Y-13.062 Z14.509
X-0.613 Y-13.04 Z14.417
X-0.607 Y-13.005 Z14.33
X-0.599 Y-12.956 Z14.25
X-0.589 Y-12.896 Z14.178
X-0.578 Y-12.825 Z14.117
X-0.565 Y-12.746 Z14.068
X-0.551 Y-12.66 Z14.032
X-0.536 Y-12.57 Z14.01
X-0.521 Y-12.477 Z14.002
G3 X-0.592 Y-11.695 I-1.562 J0.253
G1 X-0.835 Y-11.081 F2000
X-0.838 Y-11.068
X-0.911 Y-10.658
X-0.946 Y-10.441
X-0.955 Y-9.843
X-0.959 Y-9.564
X-1.013 Y-9.225
X-1.121 Y-8.879
X-1.309 Y-8.487
X-1.589 Y-8.071
X-1.944 Y-7.678
X-2.44 Y-7.269
X-3.033 Y-6.907
X-3.812 Y-6.576
X-4.738 Y-6.332
X-5.689 Y-6.223
X-6.647 Y-6.224
X-7.6 Y-6.317
X-8.543 Y-6.483
X-9.473 Y-6.711
X-10.389 Y-6.992
X-11.29 Y-7.317
X-12.176 Y-7.68
X-13.048 Y-8.076
X-13.906 Y-8.501
X-14.751 Y-8.951
X-15.583 Y-9.426
X-16.402 Y-9.922
X-17.209 Y-10.439
X-18.002 Y-10.976
X-18.782 Y-11.531
X-19.549 Y-12.104
X-20.304 Y-12.694
X-21.044 Y-13.301
X-21.772 Y-13.924
X-22.485 Y-14.563
X-23.185 Y-15.217
X-23.87 Y-15.887
X-24.54 Y-16.57
X-25.196 Y-17.269
X-25.836 Y-17.981
X-26.461 Y-18.707
X-27.07 Y-19.446
X-27.663 Y-20.198
X-28.24 Y-20.962
X-28.8 Y-21.739
X-29.344 Y-22.527
X-29.87 Y-23.327
X-30.38 Y-24.138
X-30.87 Y-24.961
X-31.338 Y-25.796
X-31.721 Y-26.539
X-31.777 Y-26.702
X-31.785 Y-26.874
X-31.744 Y-27.041
X-31.656 Y-27.189
X-31.307 Y-27.625
X-30.78 Y-28.277
X-30.609 Y-28.495
X-30.444 Y-28.712
X-30.118 Y-29.147
X-29.954 Y-29.365
X-29.8 Y-29.565
X-29.073 Y-30.452
X-28.925 Y-30.632
G3 X-28.208 Y-30.77 I0.449 J0.398 F1500
G1 X-28.124 Y-30.728 Z14.01
X-28.042 Y-30.687 Z14.032
X-27.964 Y-30.648 Z14.068
X-27.893 Y-30.612 Z14.117
X-27.829 Y-30.58 Z14.178
X-27.774 Y-30.553 Z14.25
X-27.73 Y-30.53 Z14.33
X-27.698 Y-30.514 Z14.417
X-27.678 Y-30.505 Z14.509
X-27.672 Y-30.501 Z14.602
G0 Z15.202
X-1.586 Y-11.064
G1 Z14.602 F1500
X-1.582 Y-11.058 Z14.509
X-1.569 Y-11.04 Z14.417
X-1.548 Y-11.011 Z14.33
X-1.519 Y-10.971 Z14.25
X-1.484 Y-10.921 Z14.178
X-1.442 Y-10.863 Z14.117
X-1.396 Y-10.797 Z14.068
X-1.345 Y-10.726 Z14.032
X-1.292 Y-10.652 Z14.01
X-1.238 Y-10.575 Z14.002
G3 X-0.955 Y-9.843 I-1.289 J0.918
G1 X-0.954 Y-9.829 F2000
X-0.849 Y-9.229
X-0.845 Y-9.216
X-0.608 Y-8.592
X-0.58 Y-8.538
X-0.547 Y-8.483
X-0.435 Y-8.316
X-0.358 Y-8.188
X-0.247 Y-7.907
X-0.171 Y-7.589
X-0.139 Y-7.222
X-0.163 Y-6.791
X-0.253 Y-6.348
X-0.435 Y-5.84
X-0.708 Y-5.327
X-1.1 Y-4.792
X-1.63 Y-4.254
X-2.301 Y-3.745
X-3.133 Y-3.285
X-4.029 Y-2.948
X-4.959 Y-2.72
X-5.908 Y-2.591
X-6.865 Y-2.553
X-7.822 Y-2.591
X-8.774 Y-2.696
X-9.718 Y-2.86
X-10.651 Y-3.076
X-11.572 Y-3.339
X-12.48 Y-3.643
X-13.375 Y-3.982
X-14.258 Y-4.354
X-15.128 Y-4.754
X-15.986 Y-5.18
X-16.831 Y-5.63
X-17.664 Y-6.102
X-18.485 Y-6.596
X-19.294 Y-7.109
X-20.09 Y-7.641
X-20.875 Y-8.19
X-21.647 Y-8.756
X-22.407 Y-9.339
X-23.155 Y-9.937
X-23.891 Y-10.55
X-24.614 Y-11.178
X-25.325 Y-11.82
X-26.022 Y-12.476
X-26.706 Y-13.147
X-27.376 Y-13.831
X-28.032 Y-14.529
X-28.674 Y-15.239
X-29.302 Y-15.962
X-29.916 Y-16.698
X-30.515 Y-17.445
X-31.099 Y-18.203
X-31.669 Y-18.973
X-32.223 Y-19.754
X-32.762 Y-20.546
X-33.285 Y-21.348
X-33.79 Y-22.162
X-34.248 Y-22.943
X-34.321 Y-23.137
X-34.323 Y-23.345
X-34.254 Y-23.54
X-34.15 Y-23.726
X-34.034 Y-23.927
X-33.627 Y-24.579
X-33.481 Y-24.797
X-33.181 Y-25.232
X-33.063 Y-25.401
X-32.845 Y-25.691
X-32.698 Y-25.884
X-31.656 Y-27.189
G3 X-30.941 Y-27.339 I0.455 J0.391 F1500
G1 X-30.857 Y-27.298 Z14.01
X-30.774 Y-27.258 Z14.032
X-30.696 Y-27.221 Z14.068
X-30.624 Y-27.186 Z14.117
X-30.559 Y-27.155 Z14.178
X-30.504 Y-27.128 Z14.25
X-30.46 Y-27.107 Z14.33
X-30.427 Y-27.091 Z14.417
X-30.407 Y-27.082 Z14.509
X-30.401 Y-27.079 Z14.602
G0 Z15.202
X-1.58 Y-9.078
G1 Z14.602 F1500
X-1.573 Y-9.075 Z14.509
X-1.553 Y-9.065 Z14.417
X-1.521 Y-9.05 Z14.33
X-1.476 Y-9.028 Z14.25
X-1.421 Y-9.002 Z14.178
X-1.356 Y-8.971 Z14.117
X-1.284 Y-8.937 Z14.068
X-1.205 Y-8.899 Z14.032
X-1.123 Y-8.86 Z14.01
X-1.038 Y-8.82 Z14.002
G3 X-0.435 Y-8.316 I-0.681 J1.429
G1 X-0.218 Y-7.991 F2000
X-0.086 Y-7.831
X0 Y-7.728
X0.099 Y-7.613
X0.319 Y-7.396
X0.435 Y-7.287
X0.653 Y-7.096
X0.823 Y-6.961
X0.94 Y-6.867
X1.146 Y-6.626
X1.325 Y-6.343
X1.488 Y-5.979
X1.604 Y-5.566
X1.667 Y-5.088
X1.66 Y-4.535
X1.568 Y-3.955
X1.36 Y-3.289
X1.045 Y-2.629
X0.558 Y-1.904
X-0.074 Y-1.204
X-0.812 Y-0.594
X-1.622 Y-0.083
X-2.482 Y0.337
X-3.381 Y0.669
X-4.306 Y0.915
X-5.249 Y1.085
X-6.201 Y1.186
X-7.158 Y1.221
X-8.116 Y1.195
X-9.07 Y1.113
X-10.019 Y0.982
X-10.96 Y0.805
X-11.892 Y0.585
X-12.814 Y0.327
X-13.725 Y0.032
X-14.626 Y-0.294
X-15.515 Y-0.65
X-16.393 Y-1.033
X-17.259 Y-1.441
X-18.114 Y-1.872
X-18.959 Y-2.324
X-19.791 Y-2.797
X-20.613 Y-3.29
X-21.422 Y-3.801
X-22.221 Y-4.33
X-23.008 Y-4.875
X-23.785 Y-5.436
X-24.549 Y-6.012
X-25.303 Y-6.603
X-26.045 Y-7.209
X-26.776 Y-7.828
X-27.494 Y-8.461
X-28.201 Y-9.107
X-28.896 Y-9.766
X-29.578 Y-10.438
X-30.247 Y-11.124
X-30.904 Y-11.821
X-31.547 Y-12.53
X-32.177 Y-13.252
X-32.794 Y-13.984
X-33.398 Y-14.728
X-33.988 Y-15.482
X-34.564 Y-16.247
X-35.127 Y-17.022
X-35.675 Y-17.807
X-36.208 Y-18.603
X-36.724 Y-19.409
X-36.729 Y-19.46
X-36.694 Y-19.497
X-36.643 Y-19.496
X-36.434 Y-19.398
X-36.38 Y-19.374
X-36.361 Y-19.389
X-36.35 Y-19.4
X-36.342 Y-19.411
X-36.325 Y-19.448
X-36.09 Y-20.012
X-35.997 Y-20.229
X-35.706 Y-20.882
X-35.673 Y-20.952
X-35.383 Y-21.534
X-35.269 Y-21.752
X-35.018 Y-22.187
X-34.892 Y-22.404
X-34.254 Y-23.54
G3 X-33.573 Y-23.805 I0.513 J0.311 F1500
G1 X-33.483 Y-23.779 Z14.01
X-33.395 Y-23.753 Z14.032
X-33.312 Y-23.729 Z14.068
X-33.235 Y-23.706 Z14.117
X-33.166 Y-23.686 Z14.178
X-33.107 Y-23.669 Z14.25
X-33.06 Y-23.655 Z14.33
X-33.026 Y-23.645 Z14.417
X-33.004 Y-23.639 Z14.509
X-32.997 Y-23.637 Z14.602
G0 Z15.202
X-0.515 Y-7.277
G1 Z14.602 F1500
X-0.508 Y-7.276 Z14.509
X-0.486 Y-7.274 Z14.417
X-0.45 Y-7.271 Z14.33
X-0.401 Y-7.266 Z14.25
X-0.34 Y-7.261 Z14.178
X-0.269 Y-7.255 Z14.117
X-0.189 Y-7.247 Z14.068
X-0.102 Y-7.24 Z14.032
X-0.011 Y-7.231 Z14.01
X0.083 Y-7.223 Z14.002
G3 X0.823 Y-6.961 I-0.142 J1.576
G1 X1.124 Y-6.743 F2000
X1.305 Y-6.62
X1.476 Y-6.525
X1.958 Y-6.28
X2.175 Y-6.194
X2.393 Y-6.124
X2.593 Y-6.048
X2.869 Y-5.895
X3.137 Y-5.691
X3.407 Y-5.415
X3.67 Y-5.056
X3.889 Y-4.642
X4.076 Y-4.118
X4.19 Y-3.551
X4.228 Y-2.856
X4.162 Y-2.132
X3.958 Y-1.278
X3.621 Y-0.432
X3.143 Y0.398
X2.562 Y1.16
X1.9 Y1.852
X1.167 Y2.468
X0.38 Y3.013
X-0.45 Y3.491
X-1.317 Y3.898
X-2.213 Y4.237
X-3.129 Y4.514
X-4.062 Y4.732
X-5.006 Y4.892
X-5.958 Y4.995
X-6.915 Y5.045
X-7.872 Y5.046
X-8.829 Y5.001
X-9.783 Y4.913
X-10.731 Y4.783
X-11.674 Y4.612
X-12.609 Y4.406
X-13.536 Y4.165
X-14.454 Y3.892
X-15.363 Y3.591
X-16.262 Y3.261
X-17.151 Y2.906
X-18.03 Y2.525
X-18.899 Y2.122
X-19.758 Y1.697
X-20.606 Y1.252
X-21.443 Y0.788
X-22.27 Y0.306
X-23.087 Y-0.194
X-23.894 Y-0.711
X-24.69 Y-1.243
X-25.475 Y-1.791
X-26.251 Y-2.353
X-27.015 Y-2.93
X-27.769 Y-3.521
X-28.512 Y-4.125
X-29.244 Y-4.743
X-29.965 Y-5.373
X-30.675 Y-6.016
X-31.373 Y-6.671
X-32.061 Y-7.338
X-32.736 Y-8.017
X-33.399 Y-8.708
X-34.051 Y-9.409
X-34.691 Y-10.122
X-35.318 Y-10.846
X-35.933 Y-11.58
X-36.536 Y-12.324
X-37.125 Y-13.079
X-37.702 Y-13.844
X-38.265 Y-14.618
X-38.815 Y-15.403
X-39.337 Y-16.205
X-39.734 Y-16.994
X-39.966 Y-17.69
X-40.082 Y-18.333
X-40.102 Y-18.938
X-39.996 Y-19.889
X-39.994 Y-19.899
X-39.921 Y-20.067
X-39.802 Y-20.205
X-39.646 Y-20.301
X-39.469 Y-20.346
X-39.286 Y-20.335
X-38.718 Y-20.212
G3 X-38.282 Y-19.625 I-0.164 J0.577 F1500
G1 X-38.284 Y-19.532 Z14.01
X-38.285 Y-19.44 Z14.032
X-38.287 Y-19.353 Z14.068
X-38.288 Y-19.273 Z14.117
X-38.289 Y-19.201 Z14.178
X-38.29 Y-19.14 Z14.25
X-38.291 Y-19.091 Z14.33
Y-19.055 Z14.417
X-38.292 Y-19.033 Z14.509
Y-19.025 Z14.602
G0 Z15.202
X1.023 Y-6.011
G1 Z14.602 F1500
X1.03 Y-6.013 Z14.509
X1.051 Y-6.018 Z14.417
X1.086 Y-6.026 Z14.33
X1.134 Y-6.037 Z14.25
X1.194 Y-6.05 Z14.178
X1.264 Y-6.066 Z14.117
X1.342 Y-6.084 Z14.068
X1.427 Y-6.103 Z14.032
X1.516 Y-6.124 Z14.01
X1.608 Y-6.145 Z14.002
G3 X2.393 Y-6.124 I0.352 J1.543
G1 X2.61 Y-6.054 F2000
X2.828 Y-6
X3.263 Y-5.918
X3.48 Y-5.898
X3.915 Y-5.877
X4.133 Y-5.89
X4.568 Y-5.93
X4.785 Y-5.971
X5.003 Y-6.017
X5.22 Y-6.072
X5.281 Y-6.09
X5.873 Y-6.318
X6.09 Y-6.432
X6.525 Y-6.674
X6.619 Y-6.743
X7.184 Y-7.178
X7.396 Y-7.337
X7.468 Y-7.396
X7.831 Y-7.705
X7.967 Y-7.831
X8.048 Y-7.916
X8.164 Y-8.048
X8.497 Y-8.483
X8.637 Y-8.701
X8.94 Y-9.283
X8.947 Y-9.297
X9.036 Y-9.588
G3 X9.645 Y-9.991 I0.567 J0.196 F1500
G1 X9.739 Y-9.984 Z14.01
X9.83 Y-9.978 Z14.032
X9.917 Y-9.971 Z14.068
X9.997 Y-9.966 Z14.117
X10.068 Y-9.961 Z14.178
X10.129 Y-9.956 Z14.25
X10.178 Y-9.953 Z14.33
X10.214 Y-9.95 Z14.417
X10.236 Y-9.949 Z14.509
X10.244 Y-9.948 Z14.602
G0 Z21
X52.153 Y-28.853
Z15.202
G1 Z14.602 F1500
X52.16 Y-28.85 Z14.509
X52.18 Y-28.841 Z14.417
X52.213 Y-28.827 Z14.33
X52.259 Y-28.808 Z14.25
X52.315 Y-28.784 Z14.178
X52.381 Y-28.756 Z14.117
X52.455 Y-28.725 Z14.068
X52.535 Y-28.691 Z14.032
X52.619 Y-28.656 Z14.01
X52.706 Y-28.619 Z14.002
G3 X53.392 Y-28.237 I-1.42 J3.358
G1 X53.408 Y-28.224 F2000
X53.442 Y-28.212
X53.509 Y-28.188
X54.162 Y-27.954
X54.379 Y-27.865
X54.597 Y-27.769
X54.833 Y-27.642
X55.124 Y-27.427
X55.433 Y-27.12
X55.735 Y-26.72
X56.008 Y-26.221
X56.245 Y-25.585
X56.413 Y-24.803
X56.478 Y-23.848
X56.407 Y-22.893
X56.23 Y-21.951
X55.973 Y-21.029
X55.653 Y-20.126
X55.283 Y-19.243
X54.873 Y-18.377
X54.43 Y-17.528
X53.959 Y-16.694
X53.464 Y-15.874
X52.949 Y-15.067
X52.415 Y-14.272
X51.864 Y-13.489
X51.298 Y-12.717
X50.716 Y-11.956
X50.12 Y-11.206
X49.51 Y-10.468
X48.887 Y-9.741
X48.251 Y-9.025
X47.601 Y-8.321
X46.939 Y-7.629
X46.265 Y-6.948
X45.579 Y-6.28
X44.881 Y-5.625
X44.171 Y-4.981
X43.451 Y-4.351
X42.719 Y-3.733
X41.975 Y-3.13
X41.22 Y-2.54
X40.454 Y-1.966
X39.675 Y-1.408
X38.884 Y-0.869
X38.08 Y-0.348
X37.263 Y0.151
X36.433 Y0.629
X35.589 Y1.082
X34.733 Y1.511
X33.864 Y1.914
X32.983 Y2.288
X32.088 Y2.631
X31.182 Y2.941
X30.265 Y3.217
X29.338 Y3.457
X28.403 Y3.663
X27.46 Y3.831
X26.511 Y3.959
X25.557 Y4.045
X24.6 Y4.089
X23.643 Y4.092
X22.686 Y4.053
X22.566 Y4.058
X22.416 Y4.063
X22.266 Y4.066
X22.109
X21.944 Y4.065
X21.77 Y4.061
X21.585 Y4.054
X21.39 Y4.045
X21.209 Y4.033
X21.041 Y4.02
X20.864 Y4.004
X20.677 Y3.984
X20.478 Y3.961
X20.266 Y3.933
X20.049 Y3.901
X19.867 Y3.872
X19.684 Y3.84
X19.488 Y3.803
X19.281 Y3.761
X19.058 Y3.713
X18.827 Y3.659
X18.638 Y3.613
X18.45 Y3.564
X18.25 Y3.509
X18.037 Y3.447
X17.808 Y3.377
X17.577 Y3.303
X17.388 Y3.24
X17.194 Y3.172
X16.988 Y3.097
X16.766 Y3.013
X16.527 Y2.918
X16.316 Y2.831
X16.13 Y2.751
X15.931 Y2.663
X15.719 Y2.565
X15.491 Y2.456
X15.26 Y2.341
X15.08 Y2.249
X14.9 Y2.154
X14.71 Y2.05
X14.506 Y1.935
X14.287 Y1.807
X14.082 Y1.684
X13.915 Y1.58
X13.741 Y1.469
X13.557 Y1.347
X13.359 Y1.214
X13.148 Y1.066
X12.97 Y0.938
X12.816 Y0.824
X12.653 Y0.7
X12.481 Y0.565
X12.298 Y0.418
X12.103 Y0.257
X11.942 Y0.119
X11.806 Y0
X11.664 Y-0.128
X11.516 Y-0.265
X11.359 Y-0.414
X10.893 Y-0.869
X10.217 Y-1.548
X9.875 Y-1.883
X9.765 Y-1.931
X9.647 Y-1.95
X9.53 Y-1.926
X9.428 Y-1.862
X8.85 Y-1.099
X8.412 Y-0.248
X8.095 Y0.361
X7.962 Y0.608
X7.832 Y0.844
X7.684 Y1.101
X7.517 Y1.384
X7.372 Y1.622
X7.263 Y1.795
X7.148 Y1.971
X7.023 Y2.159
X6.886 Y2.359
X6.733 Y2.575
X6.599 Y2.758
X6.489 Y2.905
X6.376 Y3.052
X6.253 Y3.207
X6.119 Y3.371
X5.973 Y3.544
X5.819 Y3.723
X5.691 Y3.867
X5.572 Y3.998
X5.444 Y4.135
X5.305 Y4.279
X5.155 Y4.431
X4.992 Y4.592
X4.834 Y4.743
X4.701 Y4.866
X4.563 Y4.992
X4.414 Y5.123
X4.254 Y5.26
X4.079 Y5.406
X3.897 Y5.553
X3.748 Y5.671
X3.601 Y5.784
X3.443 Y5.902
X3.273 Y6.025
X3.088 Y6.155
X2.889 Y6.291
X2.721 Y6.402
X2.561 Y6.505
X2.39 Y6.612
X2.206 Y6.724
X2.005 Y6.842
X1.791 Y6.964
X1.61 Y7.063
X1.433 Y7.158
X1.242 Y7.257
X1.035 Y7.36
X0.809 Y7.469
X0.587 Y7.572
X0.398 Y7.657
X0.195 Y7.745
X-0.024 Y7.836
X-0.263 Y7.932
X-0.511 Y8.027
X-0.715 Y8.102
X-0.929 Y8.178
X-1.162 Y8.257
X-1.417 Y8.34
X-1.679 Y8.42
X-1.895 Y8.484
X-2.124 Y8.548
X-2.374 Y8.614
X-2.649 Y8.682
X-2.911 Y8.744
X-3.143 Y8.795
X-3.396 Y8.847
X-3.673 Y8.9
X-3.973 Y8.953
X-4.219 Y8.994
X-4.48 Y9.033
X-4.766 Y9.072
X-5.084 Y9.111
X-5.351 Y9.139
X-5.626 Y9.165
X-5.929 Y9.19
X-6.264 Y9.212
X-6.543 Y9.227
X-6.836 Y9.239
X-7.162 Y9.247
X-7.506 Y9.251
X-7.792
X-8.108 Y9.246
X-8.462 Y9.236
X-8.786 Y9.222
X-9.1 Y9.204
X-9.451 Y9.18
X-9.816 Y9.149
X-10.134 Y9.118
X-10.49 Y9.079
X-10.881 Y9.03
X-11.21 Y8.984
X-11.579 Y8.928
X-11.987 Y8.859
X-12.332 Y8.797
X-12.723 Y8.721
X-13.136 Y8.634
X-13.507 Y8.551
X-13.931 Y8.45
X-14.337 Y8.348
X-14.745 Y8.239
X-15.203 Y8.109
X-15.6 Y7.992
X-16.061 Y7.848
X-16.49 Y7.708
X-16.943 Y7.553
X-17.409 Y7.387
X-17.864 Y7.217
X-18.357 Y7.026
X-18.821 Y6.838
X-19.332 Y6.623
X-19.813 Y6.414
X-20.337 Y6.177
X-21.143 Y5.66
X-21.961 Y5.161
X-22.781 Y4.667
X-23.6 Y4.171
X-24.415 Y3.668
X-25.224 Y3.155
X-26.026 Y2.632
X-26.82 Y2.096
X-27.605 Y1.548
X-28.382 Y0.987
X-29.149 Y0.414
X-29.906 Y-0.173
X-30.654 Y-0.771
X-31.391 Y-1.382
X-32.119 Y-2.004
X-32.836 Y-2.639
X-33.543 Y-3.285
X-34.24 Y-3.942
X-34.925 Y-4.611
X-35.6 Y-5.291
X-36.263 Y-5.981
X-36.916 Y-6.683
X-37.557 Y-7.394
X-38.186 Y-8.116
X-38.804 Y-8.848
X-39.41 Y-9.589
X-40.005 Y-10.34
X-40.587 Y-11.1
X-41.155 Y-11.871
X-41.707 Y-12.654
X-42.22 Y-13.462
X-42.682 Y-14.302
X-43.078 Y-15.173
X-43.397 Y-16.076
X-43.625 Y-17.007
X-43.752 Y-17.956
X-43.785 Y-18.913
X-43.698 Y-19.728
X-43.692 Y-19.749
X-43.609 Y-19.934
X-43.469 Y-20.081
X-43.288 Y-20.173
X-42.633 Y-20.318
X-42.416 Y-20.357
X-41.763 Y-20.448
X-41.546 Y-20.46
X-41.111 Y-20.48
X-40.893 Y-20.483
X-40.241 Y-20.462
X-40.086 Y-20.447
X-39.588 Y-20.384
X-39.371 Y-20.353
X-39.286 Y-20.335
G3 X-38.833 Y-19.761 I-0.147 J0.582 F1500
G1 X-38.832 Y-19.668 Z14.01
X-38.831 Y-19.576 Z14.032
X-38.83 Y-19.489 Z14.068
X-38.828 Y-19.409 Z14.117
X-38.827 Y-19.337 Z14.178
Y-19.276 Z14.25
X-38.826 Y-19.227 Z14.33
X-38.825 Y-19.191 Z14.417
Y-19.169 Z14.509
Y-19.161 Z14.602
G0 Z15.202
X53.222 Y-27.796
G1 Z14.602 F1500
X53.23 Y-27.797 Z14.509
X53.251 Y-27.8 Z14.417
X53.287 Y-27.804 Z14.33
X53.336 Y-27.81 Z14.25
X53.397 Y-27.818 Z14.178
X53.468 Y-27.826 Z14.117
X53.547 Y-27.836 Z14.068
X53.634 Y-27.847 Z14.032
X53.725 Y-27.858 Z14.01
X53.818 Y-27.87 Z14.002
G3 X54.597 Y-27.769 I0.193 J1.571
G1 X54.814 Y-27.666 F2000
X55.335 Y-27.407
X55.684 Y-27.233
X55.768 Y-27.19
X56.119 Y-26.999
X56.166 Y-26.972
X56.554 Y-26.738
X57.234 Y-26.32
X57.424 Y-26.191
X57.854 Y-25.884
X58.199 Y-25.611
X58.55 Y-25.239
X58.872 Y-24.781
X59.178 Y-24.176
X59.419 Y-23.457
X59.582 Y-22.553
X59.616 Y-21.596
X59.534 Y-20.642
X59.358 Y-19.7
X59.107 Y-18.776
X58.795 Y-17.871
X58.434 Y-16.984
X58.032 Y-16.114
X57.598 Y-15.261
X57.135 Y-14.422
X56.647 Y-13.598
X56.138 Y-12.787
X55.61 Y-11.988
X55.064 Y-11.201
X54.502 Y-10.426
X53.925 Y-9.661
X53.334 Y-8.908
X52.729 Y-8.165
X52.111 Y-7.433
X51.481 Y-6.712
X50.838 Y-6.002
X50.184 Y-5.303
X49.518 Y-4.615
X48.84 Y-3.938
X48.151 Y-3.273
X47.451 Y-2.619
X46.741 Y-1.977
X46.019 Y-1.347
X45.287 Y-0.73
X45.221 Y-0.676
X45.052 Y-0.58
X44.862 Y-0.542
X44.669 Y-0.567
X44.591 Y-0.591
X44.373 Y-0.649
X43.938 Y-0.736
X43.721 Y-0.778
X43.503 Y-0.811
X43.286 Y-0.836
X43.068 Y-0.849
X42.633 Y-0.832
X42.416 Y-0.816
X41.763 Y-0.708
X40.676 Y-0.523
X40.458 Y-0.479
X40.312 Y-0.435
X39.806 Y-0.275
X39.645 Y-0.218
X39.11 Y0
X38.935 Y0.077
X38.718 Y0.181
X38.5 Y0.298
X38.283 Y0.423
X37.848 Y0.693
X37.63 Y0.829
X37.572 Y0.87
X37.413 Y0.989
X37.284 Y1.088
X37.03 Y1.305
X36.978 Y1.348
X36.755 Y1.523
X36.518 Y1.74
X36.325 Y1.92
X36.29 Y1.958
X36.095 Y2.175
X35.89 Y2.465
X35.673 Y2.779
X35.647 Y2.828
X35.33 Y3.48
X35.238 Y3.642
X35.059 Y3.915
X34.615 Y4.526
X33.993 Y5.162
X33.232 Y5.744
X32.406 Y6.228
X31.537 Y6.631
X30.64 Y6.967
X29.724 Y7.246
X28.794 Y7.475
X27.854 Y7.657
X26.906 Y7.796
X25.954 Y7.894
X24.998 Y7.953
X24.041 Y7.991
X23.083 Y8.007
X22.126 Y7.99
X21.17 Y7.935
X20.217 Y7.837
X19.27 Y7.697
X18.33 Y7.511
X17.4 Y7.282
X16.482 Y7.01
X15.578 Y6.695
X14.689 Y6.338
X13.818 Y5.94
X12.967 Y5.501
X12.552 Y5.262
X12.347 Y5.138
X12.144 Y5.011
X12.043 Y4.947
X11.926 Y4.923
X11.453 Y4.998
X10.579 Y5.39
X9.785 Y5.925
X9.03 Y6.515
X8.29 Y7.122
X7.548 Y7.727
X6.794 Y8.318
X6.023 Y8.886
X5.232 Y9.426
X4.42 Y9.934
X3.587 Y10.408
X2.735 Y10.845
X1.865 Y11.244
X0.978 Y11.606
X0.076 Y11.928
X-0.839 Y12.212
X-1.764 Y12.457
X-2.699 Y12.664
X-3.642 Y12.832
X-4.591 Y12.964
X-5.544 Y13.06
X-6.5 Y13.119
X-7.457 Y13.144
X-8.415 Y13.136
X-9.371 Y13.094
X-10.326 Y13.02
X-11.278 Y12.916
X-12.226 Y12.781
X-13.17 Y12.618
X-14.109 Y12.427
X-15.041 Y12.21
X-15.968 Y11.967
X-16.887 Y11.7
X-17.8 Y11.408
X-18.704 Y11.094
X-19.601 Y10.759
X-20.489 Y10.399
X-21.354 Y9.988
X-22.204 Y9.546
X-23.044 Y9.087
X-23.877 Y8.615
X-24.705 Y8.133
X-25.527 Y7.641
X-26.343 Y7.14
X-27.152 Y6.629
X-27.955 Y6.106
X-28.751 Y5.573
X-29.539 Y5.029
X-30.318 Y4.473
X-31.09 Y3.905
X-31.852 Y3.326
X-32.606 Y2.735
X-33.351 Y2.133
X-34.087 Y1.52
X-34.813 Y0.896
X-35.53 Y0.26
X-36.236 Y-0.386
X-36.933 Y-1.043
X-37.619 Y-1.711
X-38.295 Y-2.389
X-38.961 Y-3.078
X-39.617 Y-3.776
X-40.262 Y-4.484
X-40.896 Y-5.202
X-41.519 Y-5.929
X-42.132 Y-6.665
X-42.733 Y-7.41
X-43.323 Y-8.165
X-43.899 Y-8.93
X-44.455 Y-9.709
X-44.983 Y-10.508
X-45.478 Y-11.328
X-45.935 Y-12.17
X-46.348 Y-13.034
X-46.705 Y-13.923
X-47.005 Y-14.832
X-47.246 Y-15.759
X-47.421 Y-16.701
X-47.523 Y-17.653
X-47.533 Y-18.069
X-47.509 Y-18.253
X-47.43 Y-18.421
X-47.302 Y-18.557
X-47.14 Y-18.647
X-46.978 Y-18.706
X-46.766 Y-18.767
X-46.194 Y-18.924
X-46.154 Y-18.937
X-46.114 Y-18.959
X-45.678 Y-19.209
X-45.461 Y-19.322
X-44.946 Y-19.576
X-44.808 Y-19.642
X-44.591 Y-19.732
X-44.436 Y-19.794
X-44.156 Y-19.896
X-43.938 Y-19.97
X-43.385 Y-20.143
X-43.288 Y-20.173
X-43.261 Y-20.165 F1500
X-43.241 Y-20.146
X-43.189 Y-20.067 Z14.01
X-43.139 Y-19.991 Z14.032
X-43.092 Y-19.918 Z14.068
X-43.048 Y-19.851 Z14.117
X-43.009 Y-19.791 Z14.178
X-42.975 Y-19.739 Z14.25
X-42.948 Y-19.698 Z14.33
X-42.929 Y-19.668 Z14.417
X-42.917 Y-19.65 Z14.509
X-42.913 Y-19.643 Z14.602
G0 Z21
X35.311 Y2.564
Z15.202
G1 Z14.602 F1500
Y2.571 Z14.509
X35.31 Y2.593 Z14.417
X35.309 Y2.629 Z14.33
X35.307 Y2.678 Z14.25
X35.304 Y2.74 Z14.178
X35.301 Y2.811 Z14.117
X35.297 Y2.891 Z14.068
X35.294 Y2.978 Z14.032
X35.29 Y3.07 Z14.01
X35.286 Y3.163 Z14.002
G3 X35.059 Y3.915 I-1.581 J-0.067
G1 X34.915 Y4.133 F2000
X34.803 Y4.291
X34.769 Y4.35
X34.462 Y4.935
X34.457 Y4.949
X34.309 Y5.438
X34.244 Y5.655
X34.129 Y6.09
X34.078 Y6.308
X34.033 Y6.743
X34.011 Y6.961
X33.84 Y7.567
X33.624 Y8.053
X33.286 Y8.588
X32.804 Y9.152
X32.118 Y9.753
X31.314 Y10.274
X30.454 Y10.695
X29.557 Y11.03
X28.636 Y11.294
X27.7 Y11.497
X26.755 Y11.652
X25.804 Y11.766
X24.85 Y11.845
X23.893 Y11.893
X22.935 Y11.906
X21.978 Y11.885
X21.022 Y11.829
X20.069 Y11.738
X19.119 Y11.611
X18.176 Y11.448
X17.239 Y11.249
X16.311 Y11.013
X15.393 Y10.739
X14.486 Y10.431
X13.592 Y10.087
X13.114 Y10.059
X12.166 Y10.19
X11.271 Y10.533
X10.42 Y10.971
X9.592 Y11.452
X8.775 Y11.952
X7.958 Y12.452
X7.136 Y12.943
X6.304 Y13.417
X5.459 Y13.869
X4.602 Y14.295
X3.731 Y14.694
X2.848 Y15.064
X1.952 Y15.404
X1.046 Y15.713
X0.129 Y15.989
X-0.798 Y16.232
X-1.732 Y16.443
X-2.672 Y16.622
X-3.619 Y16.77
X-4.569 Y16.887
X-5.523 Y16.972
X-6.479 Y17.027
X-7.437 Y17.051
X-8.394 Y17.046
X-9.351 Y17.011
X-10.307 Y16.948
X-11.261 Y16.858
X-12.211 Y16.742
X-13.158 Y16.6
X-14.101 Y16.432
X-15.039 Y16.24
X-15.972 Y16.023
X-16.899 Y15.783
X-17.82 Y15.521
X-18.735 Y15.237
X-19.643 Y14.933
X-20.543 Y14.604
X-21.431 Y14.247
X-22.308 Y13.861
X-23.173 Y13.45
X-24.028 Y13.02
X-24.875 Y12.572
X-25.714 Y12.111
X-26.546 Y11.637
X-27.372 Y11.151
X-28.191 Y10.654
X-29.003 Y10.147
X-29.808 Y9.629
X-30.607 Y9.1
X-31.398 Y8.56
X-32.182 Y8.01
X-32.958 Y7.449
X-33.726 Y6.877
X-34.486 Y6.294
X-35.238 Y5.701
X-35.981 Y5.097
X-36.716 Y4.483
X-37.441 Y3.857
X-38.157 Y3.222
X-38.864 Y2.576
X-39.562 Y1.92
X-40.25 Y1.254
X-40.929 Y0.578
X-41.598 Y-0.108
X-42.257 Y-0.802
X-42.906 Y-1.506
X-43.546 Y-2.219
X-44.175 Y-2.941
X-44.794 Y-3.672
X-45.402 Y-4.412
X-45.999 Y-5.161
X-46.583 Y-5.92
X-47.148 Y-6.693
X-47.692 Y-7.481
X-48.212 Y-8.285
X-48.704 Y-9.107
X-49.166 Y-9.946
X-49.594 Y-10.803
X-49.98 Y-11.679
X-50.325 Y-12.573
X-50.625 Y-13.482
X-50.88 Y-14.405
X-51.086 Y-15.341
X-51.178 Y-15.943
X-51.176 Y-16.136
X-51.114 Y-16.317
X-50.997 Y-16.47
X-50.838 Y-16.578
X-50.545 Y-16.715
X-50.464 Y-16.776
X-50.029 Y-17.128
X-49.594 Y-17.43
X-49.376 Y-17.577
X-49.31 Y-17.619
X-49.159 Y-17.708
X-48.506 Y-18.068
X-48.071 Y-18.281
X-47.854 Y-18.377
X-47.636 Y-18.466
X-47.14 Y-18.647
G3 X-46.451 Y-18.405 I0.186 J0.57 F1500
G1 X-46.399 Y-18.326 Z14.01
X-46.349 Y-18.249 Z14.032
X-46.302 Y-18.176 Z14.068
X-46.258 Y-18.109 Z14.117
X-46.219 Y-18.049 Z14.178
X-46.186 Y-17.998 Z14.25
X-46.159 Y-17.957 Z14.33
X-46.139 Y-17.926 Z14.417
X-46.127 Y-17.908 Z14.509
X-46.123 Y-17.902 Z14.602
G0 Z21
X33.616 Y5.644
Z15.202
G1 Z14.602 F1500
X33.619 Y5.65 Z14.509
X33.628 Y5.67 Z14.417
X33.644 Y5.703 Z14.33
X33.664 Y5.748 Z14.25
X33.69 Y5.803 Z14.178
X33.72 Y5.868 Z14.117
X33.754 Y5.941 Z14.068
X33.79 Y6.02 Z14.032
X33.829 Y6.103 Z14.01
X33.868 Y6.188 Z14.002
G3 X34.011 Y6.961 I-1.436 J0.664
G1 X33.961 Y7.178 F2000
X33.832 Y7.695
X33.83 Y7.708
X33.797 Y8.306
Y8.32
X33.877 Y8.918
X33.934 Y9.136
X33.995 Y9.353
X34.067 Y9.669
X34.097 Y10.056
X34.069 Y10.475
X33.968 Y10.949
X33.769 Y11.487
X33.467 Y12.041
X33.01 Y12.65
X32.379 Y13.279
X31.61 Y13.851
X30.774 Y14.319
X29.895 Y14.699
X28.988 Y15.005
X28.062 Y15.249
X27.123 Y15.441
X26.177 Y15.587
X25.225 Y15.691
X24.27 Y15.759
X23.313 Y15.792
X22.355
X21.398 Y15.759
X20.442 Y15.695
X19.489 Y15.599
X18.54 Y15.47
X17.596 Y15.309
X16.658 Y15.116
X15.727 Y14.892
X14.804 Y14.638
X13.847 Y14.598
X12.909 Y14.789
X12.004 Y15.104
X11.126 Y15.487
X10.264 Y15.905
X9.41 Y16.338
X8.557 Y16.773
X7.701 Y17.202
X6.839 Y17.619
X5.969 Y18.019
X5.09 Y18.399
X4.201 Y18.756
X3.303 Y19.088
X2.395 Y19.395
X1.479 Y19.674
X0.555 Y19.927
X-0.375 Y20.152
X-1.312 Y20.35
X-2.255 Y20.522
X-3.202 Y20.665
X-4.152 Y20.78
X-5.106 Y20.867
X-6.062 Y20.928
X-7.019 Y20.962
X-7.976 Y20.969
X-8.934 Y20.951
X-9.891 Y20.908
X-10.846 Y20.841
X-11.799 Y20.748
X-12.75 Y20.631
X-13.697 Y20.491
X-14.641 Y20.328
X-15.58 Y20.142
X-16.515 Y19.935
X-17.445 Y19.706
X-18.37 Y19.457
X-19.289 Y19.188
X-20.202 Y18.898
X-21.107 Y18.586
X-22.004 Y18.249
X-22.892 Y17.89
X-23.77 Y17.508
X-24.639 Y17.106
X-25.5 Y16.687
X-26.353 Y16.251
X-27.198 Y15.801
X-28.036 Y15.337
X-28.868 Y14.862
X-29.692 Y14.374
X-30.51 Y13.876
X-31.321 Y13.367
X-32.126 Y12.848
X-32.923 Y12.318
X-33.714 Y11.777
X-34.497 Y11.226
X-35.273 Y10.665
X-36.042 Y10.093
X-36.803 Y9.512
X-37.556 Y8.92
X-38.3 Y8.318
X-39.037 Y7.706
X-39.766 Y7.084
X-40.485 Y6.453
X-41.197 Y5.811
X-41.899 Y5.16
X-42.593 Y4.5
X-43.278 Y3.831
X-43.953 Y3.152
X-44.62 Y2.464
X-45.277 Y1.768
X-45.925 Y1.063
X-46.564 Y0.349
X-47.192 Y-0.374
X-47.811 Y-1.105
X-48.419 Y-1.845
X-49.014 Y-2.595
X-49.595 Y-3.356
X-50.16 Y-4.13
X-50.707 Y-4.916
X-51.233 Y-5.716
X-51.737 Y-6.531
X-52.216 Y-7.36
X-52.666 Y-8.205
X-53.085 Y-9.066
X-53.473 Y-9.942
X-53.826 Y-10.832
X-54.145 Y-11.735
X-54.428 Y-12.65
X-54.599 Y-13.317
X-54.617 Y-13.502
X-54.576 Y-13.685
X-54.482 Y-13.846
X-54.421 Y-13.921
X-53.944 Y-14.443
X-53.823 Y-14.574
X-53.727 Y-14.668
X-53.588 Y-14.791
X-53.074 Y-15.236
X-52.857 Y-15.409
X-52.186 Y-15.879
X-51.986 Y-15.999
X-51.823 Y-16.096
X-51.769 Y-16.126
X-51.404 Y-16.314
X-51.334 Y-16.348
X-50.838 Y-16.578
G3 X-50.131 Y-16.394 I0.234 J0.553 F1500
G1 X-50.073 Y-16.32 Z14.01
X-50.017 Y-16.248 Z14.032
X-49.963 Y-16.179 Z14.068
X-49.914 Y-16.116 Z14.117
X-49.87 Y-16.06 Z14.178
X-49.832 Y-16.011 Z14.25
X-49.802 Y-15.973 Z14.33
X-49.78 Y-15.944 Z14.417
X-49.766 Y-15.927 Z14.509
X-49.762 Y-15.921 Z14.602
G0 Z15.202
X33.145 Y8.273
G1 Z14.602 F1500
X33.15 Y8.278 Z14.509
X33.166 Y8.293 Z14.417
X33.192 Y8.318 Z14.33
X33.228 Y8.352 Z14.25
X33.272 Y8.394 Z14.178
X33.324 Y8.444 Z14.117
X33.382 Y8.499 Z14.068
X33.445 Y8.559 Z14.032
X33.511 Y8.622 Z14.01
X33.579 Y8.687 Z14.002
G3 X33.995 Y9.353 I-1.092 J1.145
G1 X34.056 Y9.571 F2000
X34.15 Y9.827
X34.218 Y10.006
X34.311 Y10.223
X34.437 Y10.441
X34.57 Y10.658
X34.711 Y10.876
X34.803 Y11.01
X34.862 Y11.093
X34.893 Y11.148
X34.918 Y11.202
X34.952 Y11.311
X35.023 Y11.528
X35.11 Y11.746
X35.217 Y12.016
X35.314 Y12.42
X35.356 Y12.888
X35.329 Y13.39
X35.209 Y13.988
X34.992 Y14.598
X34.625 Y15.291
X34.117 Y15.986
X33.447 Y16.67
X32.693 Y17.261
X31.879 Y17.766
X31.022 Y18.192
X30.133 Y18.55
X29.223 Y18.846
X28.296 Y19.09
X27.359 Y19.286
X26.414 Y19.441
X25.463 Y19.556
X24.509 Y19.635
X23.552 Y19.68
X22.595 Y19.693
X21.637 Y19.677
X20.68 Y19.63
X19.726 Y19.555
X18.774 Y19.451
X17.825 Y19.318
X16.881 Y19.155
X15.942 Y18.967
X14.985 Y18.939
X14.038 Y19.084
X13.115 Y19.339
X12.213 Y19.66
X11.326 Y20.021
X10.447 Y20.402
X9.572 Y20.791
X8.697 Y21.179
X7.818 Y21.56
X6.934 Y21.928
X6.044 Y22.281
X5.146 Y22.616
X4.242 Y22.931
X3.33 Y23.225
X2.412 Y23.496
X1.487 Y23.744
X0.556 Y23.968
X-0.381 Y24.168
X-1.322 Y24.344
X-2.268 Y24.495
X-3.217 Y24.622
X-4.169 Y24.725
X-5.124 Y24.804
X-6.08 Y24.86
X-7.037 Y24.891
X-7.995 Y24.898
X-8.952 Y24.882
X-9.909 Y24.843
X-10.865 Y24.782
X-11.819 Y24.698
X-12.771 Y24.593
X-13.72 Y24.466
X-14.666 Y24.319
X-15.609 Y24.15
X-16.548 Y23.962
X-17.483 Y23.753
X-18.413 Y23.525
X-19.338 Y23.278
X-20.258 Y23.011
X-21.171 Y22.724
X-22.078 Y22.416
X-22.978 Y22.088
X-23.87 Y21.74
X-24.755 Y21.373
X-25.632 Y20.988
X-26.501 Y20.585
X-27.362 Y20.166
X-28.216 Y19.733
X-29.063 Y19.285
X-29.903 Y18.825
X-30.736 Y18.353
X-31.562 Y17.869
X-32.382 Y17.375
X-33.196 Y16.869
X-34.003 Y16.354
X-34.803 Y15.828
X-35.597 Y15.292
X-36.384 Y14.746
X-37.164 Y14.19
X-37.937 Y13.625
X-38.703 Y13.05
X-39.461 Y12.465
X-40.212 Y11.871
X-40.955 Y11.267
X-41.691 Y10.653
X-42.418 Y10.031
X-43.138 Y9.398
X-43.849 Y8.757
X-44.552 Y8.107
X-45.246 Y7.447
X-45.933 Y6.779
X-46.61 Y6.102
X-47.279 Y5.417
X-47.939 Y4.723
X-48.591 Y4.021
X-49.233 Y3.311
X-49.866 Y2.592
X-50.49 Y1.865
X-51.103 Y1.129
X-51.704 Y0.384
X-52.293 Y-0.371
X-52.868 Y-1.137
X-53.427 Y-1.915
X-53.968 Y-2.705
X-54.491 Y-3.507
X-54.994 Y-4.322
X-55.474 Y-5.151
X-55.931 Y-5.992
X-56.363 Y-6.847
X-56.769 Y-7.715
X-57.146 Y-8.595
X-57.494 Y-9.487
X-57.55 Y-9.648
X-57.584 Y-9.854
X-57.544 Y-10.06
X-57.437 Y-10.239
X-57.275 Y-10.371
X-57.207 Y-10.409
X-56.989 Y-10.517
X-56.554 Y-10.733
X-56.337 Y-10.834
X-56.239 Y-10.876
X-56.184 Y-10.908
X-56.172 Y-10.923
X-56.142 Y-10.962
X-56.133 Y-10.979
X-56.001 Y-11.311
X-55.902 Y-11.537
X-55.588 Y-12.181
X-55.467 Y-12.404
X-55.249 Y-12.788
X-55.081 Y-13.051
X-54.597 Y-13.706
X-54.482 Y-13.846
G0 Z15.202
X34.066 Y10.851
G1 Z14.602 F1500
X34.072 Y10.855 Z14.509
X34.091 Y10.867 Z14.417
X34.121 Y10.886 Z14.33
X34.163 Y10.912 Z14.25
X34.215 Y10.945 Z14.178
X34.275 Y10.984 Z14.117
X34.343 Y11.027 Z14.068
X34.416 Y11.073 Z14.032
X34.493 Y11.123 Z14.01
X34.572 Y11.173 Z14.002
G3 X35.11 Y11.746 I-0.85 J1.335
G1 X35.329 Y12.181 F2000
X35.44 Y12.398
X35.58 Y12.616
X35.673 Y12.754
X36.081 Y13.269
X36.325 Y13.576
X36.422 Y13.704
X36.543 Y13.868
X36.584 Y13.921
X36.664 Y14.03
X36.692 Y14.084
X36.714 Y14.139
X36.731 Y14.193
X36.741 Y14.247
X36.747 Y14.302
Y14.356
X36.736 Y14.465
X36.723 Y14.519
X36.704 Y14.574
X36.679 Y14.628
X36.647 Y14.682
X36.384 Y15.009
X36.325 Y15.088
X36.235 Y15.226
X36.001 Y15.661
X35.893 Y15.879
X35.742 Y16.314
X35.714 Y16.423
X35.639 Y16.966
X35.625 Y17.061
Y17.075
X35.616 Y17.311
X35.518 Y17.837
X35.317 Y18.427
X34.994 Y19.059
X34.51 Y19.741
X33.849 Y20.435
X33.1 Y21.032
X32.29 Y21.542
X31.435 Y21.974
X30.549 Y22.338
X29.642 Y22.644
X28.719 Y22.9
X27.784 Y23.109
X26.841 Y23.277
X25.892 Y23.406
X24.939 Y23.5
X23.984 Y23.561
X23.026 Y23.593
X22.069 Y23.596
X21.111 Y23.571
X20.155 Y23.519
X19.201 Y23.44
X18.249 Y23.334
X17.3 Y23.204
X16.344 Y23.155
X15.39 Y23.24
X14.451 Y23.428
X13.529 Y23.689
X12.622 Y23.996
X11.725 Y24.331
X10.833 Y24.68
X9.943 Y25.034
X9.053 Y25.387
X8.16 Y25.733
X7.263 Y26.069
X6.361 Y26.39
X5.453 Y26.695
X4.539 Y26.983
X3.62 Y27.251
X2.695 Y27.5
X1.765 Y27.728
X0.83 Y27.935
X-0.109 Y28.122
X-1.053 Y28.287
X-2 Y28.43
X-2.95 Y28.552
X-3.902 Y28.652
X-4.857 Y28.73
X-5.813 Y28.785
X-6.77 Y28.82
X-7.727 Y28.833
X-8.685 Y28.824
X-9.642 Y28.795
X-10.599 Y28.746
X-11.554 Y28.676
X-12.507 Y28.587
X-13.459 Y28.477
X-14.408 Y28.348
X-15.354 Y28.2
X-16.297 Y28.032
X-17.236 Y27.846
X-18.172 Y27.641
X-19.103 Y27.418
X-20.03 Y27.176
X-20.952 Y26.917
X-21.868 Y26.639
X-22.779 Y26.343
X-23.683 Y26.028
X-24.581 Y25.695
X-25.473 Y25.345
X-26.357 Y24.977
X-27.234 Y24.593
X-28.104 Y24.193
X-28.968 Y23.778
X-29.824 Y23.349
X-30.674 Y22.908
X-31.517 Y22.453
X-32.353 Y21.987
X-33.184 Y21.51
X-34.008 Y21.022
X-34.825 Y20.523
X-35.637 Y20.015
X-36.442 Y19.496
X-37.24 Y18.967
X-38.033 Y18.429
X-38.818 Y17.882
X-39.597 Y17.325
X-40.37 Y16.758
X-41.135 Y16.182
X-41.893 Y15.597
X-42.644 Y15.003
X-43.388 Y14.4
X-44.124 Y13.788
X-44.853 Y13.166
X-45.575 Y12.536
X-46.288 Y11.898
X-46.994 Y11.25
X-47.692 Y10.594
X-48.382 Y9.93
X-49.064 Y9.258
X-49.737 Y8.577
X-50.403 Y7.888
X-51.06 Y7.192
X-51.708 Y6.487
X-52.348 Y5.774
X-52.979 Y5.054
X-53.6 Y4.324
X-54.21 Y3.586
X-54.809 Y2.839
X-55.396 Y2.082
X-55.969 Y1.315
X-56.528 Y0.537
X-57.071 Y-0.252
X-57.597 Y-1.052
X-58.106 Y-1.863
X-58.596 Y-2.686
X-59.065 Y-3.521
X-59.514 Y-4.367
X-59.939 Y-5.225
X-60.341 Y-6.095
X-60.707 Y-6.98
X-60.854 Y-7.459
X-60.88 Y-7.65
X-60.845 Y-7.839
X-60.751 Y-8.007
X-60.609 Y-8.137
X-60.412 Y-8.266
X-60.252 Y-8.369
X-60.08 Y-8.483
X-58.512 Y-9.579
X-58.077 Y-9.878
X-57.882 Y-10.006
X-57.424 Y-10.288
X-57.275 Y-10.371
G3 X-56.557 Y-10.239 I0.273 J0.534 F1500
G1 X-56.494 Y-10.169 Z14.01
X-56.433 Y-10.101 Z14.032
X-56.374 Y-10.037 Z14.068
X-56.32 Y-9.977 Z14.117
X-56.272 Y-9.924 Z14.178
X-56.231 Y-9.879 Z14.25
X-56.198 Y-9.842 Z14.33
X-56.174 Y-9.815 Z14.417
X-56.16 Y-9.799 Z14.509
X-56.155 Y-9.793 Z14.602
G0 Z15.202
X35.045 Y15.829
G1 Z14.602 F1500
X35.049 Y15.835 Z14.509
X35.061 Y15.853 Z14.417
X35.081 Y15.883 Z14.33
X35.108 Y15.925 Z14.25
X35.141 Y15.976 Z14.178
X35.18 Y16.036 Z14.117
X35.224 Y16.103 Z14.068
X35.271 Y16.176 Z14.032
X35.321 Y16.253 Z14.01
X35.373 Y16.331 Z14.002
G3 X35.625 Y17.075 I-1.326 J0.864
G1 X35.647 Y17.619 F2000
X35.669 Y17.836
X35.729 Y18.271
X35.767 Y18.489
X35.898 Y19.005
X35.902 Y19.015
X36.063 Y19.359
X36.179 Y19.642
X36.268 Y19.996
X36.311 Y20.423
X36.289 Y20.928
X36.187 Y21.463
X35.97 Y22.089
X35.636 Y22.737
X35.12 Y23.458
X34.457 Y24.148
X33.71 Y24.748
X32.902 Y25.262
X32.052 Y25.703
X31.172 Y26.08
X30.269 Y26.402
X29.351 Y26.673
X28.42 Y26.899
X27.481 Y27.084
X26.534 Y27.232
X25.583 Y27.346
X24.629 Y27.429
X23.673 Y27.482
X22.716 Y27.508
X21.758
X20.801 Y27.482
X19.845 Y27.429
X18.89 Y27.352
X17.934 Y27.296
X16.977 Y27.32
X16.026 Y27.44
X15.089 Y27.635
X14.164 Y27.884
X13.25 Y28.171
X12.344 Y28.481
X11.442 Y28.803
X10.542 Y29.131
X9.642 Y29.457
X8.739 Y29.777
X7.834 Y30.088
X6.924 Y30.387
X6.01 Y30.673
X5.091 Y30.943
X4.167 Y31.196
X3.239 Y31.432
X2.307 Y31.651
X1.37 Y31.85
X0.43 Y32.031
X-0.514 Y32.193
X-1.462 Y32.334
X-2.412 Y32.456
X-3.364 Y32.558
X-4.318 Y32.64
X-5.274 Y32.702
X-6.23 Y32.745
X-7.188 Y32.768
X-8.146 Y32.772
X-9.103 Y32.757
X-10.06 Y32.723
X-11.016 Y32.67
X-11.971 Y32.599
X-12.925 Y32.509
X-13.876 Y32.4
X-14.826 Y32.273
X-15.772 Y32.129
X-16.716 Y31.966
X-17.657 Y31.787
X-18.594 Y31.59
X-19.528 Y31.376
X-20.457 Y31.146
X-21.382 Y30.898
X-22.303 Y30.633
X-23.218 Y30.352
X-24.128 Y30.053
X-24.19 Y30.031
X-24.364 Y29.936
X-24.498 Y29.789
X-24.576 Y29.607
X-24.59 Y29.409
X-24.586 Y29.365
X-24.588 Y29.147
X-24.598 Y28.712
X-24.633 Y28.495
X-24.707 Y28.06
X-24.85 Y27.625
X-24.952 Y27.407
X-25.232 Y26.903
X-25.317 Y26.755
X-25.464 Y26.537
X-25.629 Y26.32
X-25.667 Y26.271
X-25.804 Y26.102
X-26.102 Y25.79
X-26.232 Y25.667
X-26.32 Y25.59
X-26.492 Y25.449
X-26.755 Y25.268
X-26.815 Y25.232
X-27.407 Y24.917
X-27.516 Y24.867
X-27.625 Y24.83
X-28.06 Y24.697
X-28.277 Y24.645
X-28.495 Y24.597
X-28.587 Y24.579
X-28.65 Y24.564
X-28.712 Y24.542
X-28.93 Y24.451
X-29.365 Y24.288
X-29.582 Y24.211
X-29.8 Y24.159
X-29.888 Y24.144
X-30.017 Y24.126
X-30.235 Y24.1
X-30.67 Y24.067
X-30.887 Y24.062
X-31.322 Y24.094
X-31.54 Y24.115
X-31.757 Y24.147
X-31.975 Y24.189
X-32.192 Y24.24
X-32.656 Y24.348
X-33.368 Y24.408
X-33.441 Y24.404
X-33.504 Y24.397
X-33.566 Y24.383
X-33.626 Y24.363
G3 X-33.979 Y23.723 I0.24 J-0.55 F1500
X-33.47 Y23.219 I0.593 J0.09 F2000
G1 X-32.462 Y23.075
G3 X-31.778 Y23.638 I0.085 J0.594
X-32.192 Y24.24 I-0.599 J0.031 F1500
G1 X-32.627 Y24.365 F2000
X-32.845 Y24.431
X-32.954 Y24.473
X-33.008 Y24.489
X-33.063 Y24.499
X-33.117 Y24.505
X-33.171
X-33.226 Y24.501
X-33.28 Y24.491
X-33.498 Y24.414
X-33.933 Y24.242
X-34.214 Y24.144
X-34.368 Y24.103
X-34.64 Y24.034
X-34.694 Y24.014
X-34.748 Y23.989
X-34.803 Y23.956
X-34.841 Y23.927
X-34.9 Y23.872
X-34.948 Y23.818
X-34.987 Y23.764
X-35.136 Y23.492
X-35.266 Y23.274
X-35.406 Y23.057
X-35.556 Y22.839
X-35.673 Y22.677
X-35.719 Y22.622
X-35.89 Y22.44
X-36.155 Y22.187
X-36.325 Y22.032
X-36.407 Y21.969
X-36.543 Y21.869
X-36.76 Y21.737
X-36.978 Y21.622
X-37.522 Y21.396
X-38.12 Y21.262
X-38.133 Y21.26
X-38.147
X-39.023 Y21.194
X-39.958 Y20.985
X-40.858 Y20.658
X-41.723 Y20.248
X-42.558 Y19.78
X-43.369 Y19.269
X-44.159 Y18.727
X-44.932 Y18.163
X-45.692 Y17.58
X-46.44 Y16.982
X-47.178 Y16.371
X-47.906 Y15.75
X-48.626 Y15.118
X-49.337 Y14.477
X-50.041 Y13.826
X-50.736 Y13.168
X-51.423 Y12.501
X-52.103 Y11.826
X-52.774 Y11.143
X-53.438 Y10.453
X-54.093 Y9.754
X-54.74 Y9.048
X-55.379 Y8.335
X-56.008 Y7.613
X-56.628 Y6.882
X-57.237 Y6.143
X-57.835 Y5.396
X-58.422 Y4.639
X-58.996 Y3.872
X-59.557 Y3.096
X-60.104 Y2.31
X-60.636 Y1.514
X-61.152 Y0.707
X-61.652 Y-0.11
X-62.134 Y-0.937
X-62.598 Y-1.775
X-63.042 Y-2.624
X-63.462 Y-3.485
X-63.781 Y-4.206
X-63.828 Y-4.383
X-63.82 Y-4.567
X-63.757 Y-4.739
X-63.611 Y-5.003
X-63.515 Y-5.152
X-63.297 Y-5.48
X-63.179 Y-5.655
X-63.08 Y-5.794
X-63.015 Y-5.873
X-62.459 Y-6.525
X-62.427 Y-6.561
X-62.21 Y-6.782
X-62.032 Y-6.961
X-61.775 Y-7.205
X-61.557 Y-7.399
X-60.905 Y-7.93
X-60.687 Y-8.086
X-60.609 Y-8.137
G3 X-59.883 Y-8.057 I0.311 J0.513 F1500
G1 X-59.815 Y-7.992 Z14.01
X-59.749 Y-7.929 Z14.032
X-59.686 Y-7.869 Z14.068
X-59.628 Y-7.813 Z14.117
X-59.577 Y-7.764 Z14.178
X-59.532 Y-7.721 Z14.25
X-59.497 Y-7.687 Z14.33
X-59.471 Y-7.662 Z14.417
X-59.455 Y-7.647 Z14.509
X-59.45 Y-7.642 Z14.602
G0 Z15.202
X-36.865 Y20.764
G1 Z14.602 F1500
X-36.871 Y20.768 Z14.509
X-36.89 Y20.778 Z14.417
X-36.922 Y20.796 Z14.33
X-36.965 Y20.82 Z14.25
X-37.018 Y20.85 Z14.178
X-37.08 Y20.885 Z14.117
X-37.15 Y20.924 Z14.068
X-37.226 Y20.967 Z14.032
X-37.306 Y21.012 Z14.01
X-37.388 Y21.058 Z14.002
G3 X-38.147 Y21.26 I-0.774 J-1.38
G1 X-38.718 Y21.245 F2000
X-38.827 Y21.25
X-38.935 Y21.263
X-39.205 Y21.317
X-39.371 Y21.351
X-39.997 Y21.56
X-40.567 Y21.882
X-40.594 Y21.899
X-40.621 Y21.921
X-40.804 Y22.059
X-41.168 Y22.258
X-41.613 Y22.425
X-42.174 Y22.546
X-42.846 Y22.593
X-43.676 Y22.53
X-44.611 Y22.321
X-45.511 Y21.993
X-46.375 Y21.58
X-47.206 Y21.105
X-48.01 Y20.584
X-48.791 Y20.029
X-49.553 Y19.449
X-50.299 Y18.85
X-51.033 Y18.234
X-51.755 Y17.604
X-52.467 Y16.964
X-53.169 Y16.313
X-53.863 Y15.652
X-54.548 Y14.983
X-55.225 Y14.306
X-55.894 Y13.621
X-56.555 Y12.928
X-57.208 Y12.227
X-57.853 Y11.519
X-58.489 Y10.803
X-59.116 Y10.079
X-59.734 Y9.347
X-60.341 Y8.607
X-60.938 Y7.858
X-61.523 Y7.1
X-62.097 Y6.334
X-62.659 Y5.558
X-63.208 Y4.773
X-63.743 Y3.979
X-64.264 Y3.175
X-64.77 Y2.362
X-65.26 Y1.539
X-65.733 Y0.707
X-65.99 Y0.232
X-66.051 Y0.043
X-66.039 Y-0.154
X-65.957 Y-0.334
X-65.815 Y-0.472
X-65.777 Y-0.508
X-65.767 Y-0.526
X-65.72 Y-0.653
X-65.49 Y-1.305
X-65.473 Y-1.35
X-65.398 Y-1.523
X-65.201 Y-1.958
X-65.093 Y-2.175
X-64.731 Y-2.828
X-64.457 Y-3.263
X-64.385 Y-3.4
X-64.353 Y-3.48
X-64.074 Y-4.133
X-63.972 Y-4.35
X-63.757 Y-4.739
G3 X-63.078 Y-5.007 I0.515 J0.309 F1500
G1 X-62.987 Y-4.982 Z14.01
X-62.899 Y-4.957 Z14.032
X-62.816 Y-4.933 Z14.068
X-62.738 Y-4.911 Z14.117
X-62.67 Y-4.891 Z14.178
X-62.611 Y-4.874 Z14.25
X-62.564 Y-4.861 Z14.33
X-62.529 Y-4.851 Z14.417
X-62.508 Y-4.845 Z14.509
X-62.501 Y-4.843 Z14.602
G0 Z15.202
X-39.986 Y20.702
G1 Z14.602 F1500
X-39.988 Y20.709 Z14.509
X-39.996 Y20.73 Z14.417
X-40.008 Y20.764 Z14.33
X-40.024 Y20.81 Z14.25
X-40.044 Y20.868 Z14.178
X-40.068 Y20.935 Z14.117
X-40.095 Y21.011 Z14.068
X-40.124 Y21.093 Z14.032
X-40.154 Y21.179 Z14.01
X-40.185 Y21.268 Z14.002
G3 X-40.621 Y21.921 I-1.493 J-0.525
G1 X-40.893 Y22.148 F2000
X-40.933 Y22.187
X-41.134 Y22.404
X-41.305 Y22.622
X-41.604 Y23.057
X-41.725 Y23.274
X-41.829 Y23.492
X-41.91 Y23.663
X-42.09 Y23.934
X-42.355 Y24.229
X-42.699 Y24.515
X-43.115 Y24.77
X-43.658 Y25.004
X-44.28 Y25.17
X-45.061 Y25.262
X-45.973 Y25.238
X-46.916 Y25.074
X-47.833 Y24.798
X-48.719 Y24.434
X-49.575 Y24.005
X-50.403 Y23.523
X-51.207 Y23.002
X-51.988 Y22.449
X-52.751 Y21.87
X-53.499 Y21.271
X-54.232 Y20.655
X-54.953 Y20.025
X-55.664 Y19.383
X-56.364 Y18.73
X-57.056 Y18.067
X-57.738 Y17.396
X-58.413 Y16.716
X-59.079 Y16.028
X-59.737 Y15.332
X-60.387 Y14.629
X-61.029 Y13.918
X-61.662 Y13.199
X-62.286 Y12.473
X-62.901 Y11.738
X-63.506 Y10.996
X-64.101 Y10.245
X-64.685 Y9.487
X-65.258 Y8.719
X-65.819 Y7.943
X-66.368 Y7.159
X-66.905 Y6.365
X-67.428 Y5.563
X-67.938 Y4.752
X-68.433 Y3.933
X-68.89 Y3.091
X-69.142 Y2.483
X-69.185 Y2.317
X-69.179 Y2.146
X-69.124 Y1.984
X-69.026 Y1.843
X-68.953 Y1.765
X-68.928 Y1.74
X-68.698 Y1.523
X-68.518 Y1.353
X-68.213 Y1.088
X-68.083 Y0.983
X-67.648 Y0.648
X-67.43 Y0.49
X-67.349 Y0.435
X-66.677 Y0
G3 X-65.958 Y0.128 I0.277 J0.532 F1500
G1 X-65.894 Y0.197 Z14.01
X-65.833 Y0.264 Z14.032
X-65.774 Y0.329 Z14.068
X-65.72 Y0.388 Z14.117
X-65.671 Y0.441 Z14.178
X-65.63 Y0.486 Z14.25
X-65.597 Y0.522 Z14.33
X-65.573 Y0.549 Z14.417
X-65.558 Y0.565 Z14.509
X-65.553 Y0.57 Z14.602
G0 Z15.202
X-41.848 Y22.117
G1 Z14.602 F1500
X-41.846 Y22.125 Z14.509
X-41.843 Y22.146 Z14.417
X-41.837 Y22.182 Z14.33
X-41.83 Y22.23 Z14.25
X-41.82 Y22.291 Z14.178
X-41.809 Y22.362 Z14.117
X-41.797 Y22.441 Z14.068
X-41.783 Y22.527 Z14.032
X-41.769 Y22.617 Z14.01
X-41.754 Y22.71 Z14.002
G3 X-41.829 Y23.492 I-1.563 J0.246
G1 X-41.916 Y23.709 F2000
X-41.981 Y23.927
X-42.106 Y24.362
X-42.156 Y24.579
X-42.198 Y24.755
X-42.216 Y24.797
X-42.245 Y24.851
X-42.282 Y24.906
X-42.328 Y24.96
X-42.385 Y25.014
X-42.416 Y25.039
X-42.47 Y25.074
X-42.524 Y25.102
X-42.633 Y25.152
X-42.787 Y25.232
X-42.851 Y25.266
X-43.286 Y25.517
X-43.394 Y25.591
X-43.503 Y25.668
X-43.987 Y26.102
X-44.156 Y26.272
X-44.568 Y26.755
X-44.81 Y27.011
X-45.165 Y27.293
X-45.636 Y27.566
X-46.203 Y27.793
X-46.905 Y27.962
X-47.733 Y28.039
X-48.689 Y27.99
X-49.631 Y27.812
X-50.547 Y27.534
X-51.435 Y27.175
X-52.295 Y26.753
X-53.128 Y26.281
X-53.937 Y25.769
X-54.726 Y25.226
X-55.496 Y24.656
X-56.25 Y24.065
X-56.989 Y23.457
X-57.715 Y22.833
X-58.43 Y22.195
X-59.135 Y21.546
X-59.829 Y20.887
X-60.515 Y20.218
X-61.192 Y19.541
X-61.86 Y18.855
X-62.52 Y18.161
X-63.172 Y17.46
X-63.816 Y16.751
X-64.451 Y16.034
X-65.078 Y15.31
X-65.696 Y14.578
X-66.305 Y13.839
X-66.904 Y13.092
X-67.493 Y12.337
X-68.072 Y11.574
X-68.64 Y10.803
X-69.197 Y10.024
X-69.743 Y9.237
X-70.277 Y8.442
X-70.798 Y7.638
X-71.299 Y6.822
X-71.539 Y6.397
X-71.602 Y6.232
X-71.615 Y6.057
X-71.575 Y5.885
X-71.302 Y5.22
X-71.195 Y5.003
X-70.91 Y4.441
X-70.614 Y3.915
X-70.491 Y3.698
X-70.475 Y3.671
X-70.258 Y3.366
X-70.028 Y3.045
X-69.867 Y2.828
X-69.694 Y2.61
X-69.333 Y2.175
X-69.133 Y1.958
X-69.026 Y1.843
G0 Z15.202
X-44.145 Y25.446
G1 Z14.602 F1500
X-44.147 Y25.454 Z14.509
X-44.15 Y25.475 Z14.417
X-44.156 Y25.511 Z14.33
X-44.165 Y25.559 Z14.25
X-44.175 Y25.62 Z14.178
X-44.187 Y25.69 Z14.117
X-44.201 Y25.769 Z14.068
X-44.216 Y25.855 Z14.032
X-44.231 Y25.945 Z14.01
X-44.247 Y26.038 Z14.002
G3 X-44.568 Y26.755 I-1.56 J-0.268
G1 X-44.749 Y26.972 F2000
X-44.808 Y27.045
X-44.918 Y27.19
X-45.079 Y27.407
X-45.215 Y27.625
X-45.479 Y28.13
X-45.484 Y28.141
X-45.653 Y28.712
X-45.741 Y28.971
X-45.9 Y29.283
X-46.146 Y29.629
X-46.468 Y29.967
X-46.877 Y30.288
X-47.417 Y30.597
X-48.044 Y30.845
X-48.839 Y31.033
X-49.786 Y31.117
X-50.742 Y31.063
X-51.685 Y30.893
X-52.606 Y30.632
X-53.503 Y30.297
X-54.376 Y29.902
X-55.224 Y29.458
X-56.049 Y28.972
X-56.854 Y28.452
X-57.639 Y27.905
X-58.408 Y27.333
X-59.161 Y26.742
X-59.901 Y26.134
X-60.628 Y25.511
X-61.344 Y24.875
X-62.05 Y24.227
X-62.745 Y23.568
X-63.431 Y22.901
X-64.109 Y22.224
X-64.778 Y21.539
X-65.439 Y20.845
X-66.092 Y20.144
X-66.736 Y19.436
X-67.372 Y18.72
X-68 Y17.997
X-68.619 Y17.266
X-69.229 Y16.528
X-69.83 Y15.782
X-70.422 Y15.029
X-71.004 Y14.269
X-71.576 Y13.501
X-72.138 Y12.725
X-72.689 Y11.942
X-73.229 Y11.151
X-73.569 Y10.633
X-73.648 Y10.454
X-73.666 Y10.26
X-73.62 Y10.07
X-73.409 Y9.571
X-73.291 Y9.353
X-73.051 Y8.918
X-72.926 Y8.701
X-72.637 Y8.266
X-72.433 Y7.985
X-72.248 Y7.742
X-72.241 Y7.731
X-72.13 Y7.396
X-71.978 Y6.961
X-71.901 Y6.743
X-71.78 Y6.422
X-71.655 Y6.09
X-71.575 Y5.885
G3 X-70.938 Y5.528 I0.551 J0.237 F1500
G1 X-70.845 Y5.542 Z14.01
X-70.755 Y5.555 Z14.032
X-70.669 Y5.567 Z14.068
X-70.589 Y5.579 Z14.117
X-70.518 Y5.589 Z14.178
X-70.458 Y5.598 Z14.25
X-70.409 Y5.605 Z14.33
X-70.373 Y5.61 Z14.417
X-70.352 Y5.613 Z14.509
X-70.344 Y5.614 Z14.602
G0 Z15.202
X-45.812 Y27.347
G1 Z14.602 F1500
X-45.81 Y27.354 Z14.509
X-45.804 Y27.375 Z14.417
X-45.795 Y27.41 Z14.33
X-45.782 Y27.457 Z14.25
X-45.767 Y27.517 Z14.178
X-45.749 Y27.586 Z14.117
X-45.728 Y27.663 Z14.068
X-45.706 Y27.748 Z14.032
X-45.683 Y27.836 Z14.01
X-45.659 Y27.927 Z14.002
G3 X-45.653 Y28.712 I-1.53 J0.404
G1 X-45.678 Y28.802 F2000
X-45.803 Y29.365
X-45.842 Y29.582
X-45.9 Y30.017
X-45.909 Y30.235
X-45.892 Y30.67
X-45.882 Y30.736
X-45.866 Y30.885
X-45.882 Y31.195
X-45.95 Y31.542
X-46.091 Y31.942
X-46.297 Y32.335
X-46.6 Y32.754
X-47.02 Y33.185
X-47.523 Y33.572
X-48.195 Y33.949
X-48.97 Y34.246
X-49.904 Y34.457
X-50.859 Y34.536
X-51.816 Y34.505
X-52.765 Y34.376
X-53.699 Y34.164
X-54.615 Y33.884
X-55.51 Y33.545
X-56.386 Y33.157
X-57.24 Y32.724
X-58.075 Y32.254
X-58.89 Y31.752
X-59.688 Y31.222
X-60.469 Y30.668
X-61.236 Y30.094
X-61.988 Y29.502
X-62.728 Y28.894
X-63.456 Y28.271
X-64.173 Y27.636
X-64.88 Y26.99
X-65.577 Y26.333
X-66.265 Y25.667
X-66.944 Y24.992
X-67.614 Y24.308
X-68.276 Y23.616
X-68.93 Y22.916
X-69.576 Y22.209
X-70.214 Y21.495
X-70.844 Y20.773
X-71.465 Y20.045
X-72.078 Y19.309
X-72.682 Y18.566
X-73.278 Y17.816
X-73.864 Y17.058
X-74.114 Y16.726
X-74.169 Y16.639
X-74.208 Y16.543
X-74.231 Y16.442
X-74.274 Y16.096
X-74.328 Y15.661
X-74.342 Y15.444
X-74.366 Y15.009
X-74.374 Y14.791
X-74.376 Y14.139
X-74.364 Y13.486
X-74.352 Y13.269
X-74.296 Y12.616
X-74.187 Y11.963
X-74.173 Y11.894
X-74.139 Y11.746
X-73.978 Y11.093
X-73.956 Y11.02
X-73.738 Y10.363
X-73.685 Y10.223
X-73.62 Y10.07
G3 X-72.973 Y9.731 I0.544 J0.252 F1500
G1 X-72.88 Y9.747 Z14.01
X-72.79 Y9.763 Z14.032
X-72.704 Y9.778 Z14.068
X-72.625 Y9.792 Z14.117
X-72.555 Y9.804 Z14.178
X-72.495 Y9.815 Z14.25
X-72.446 Y9.823 Z14.33
X-72.411 Y9.829 Z14.417
X-72.389 Y9.833 Z14.509
X-72.382 Y9.834 Z14.602
G0 Z15.202
X-46.6 Y29.563
G1 Z14.602 F1500
X-46.595 Y29.569 Z14.509
X-46.581 Y29.586 Z14.417
X-46.558 Y29.614 Z14.33
X-46.527 Y29.652 Z14.25
X-46.488 Y29.699 Z14.178
X-46.442 Y29.754 Z14.117
X-46.391 Y29.816 Z14.068
X-46.336 Y29.883 Z14.032
X-46.277 Y29.953 Z14.01
X-46.217 Y30.025 Z14.002
G3 X-45.882 Y30.736 I-1.219 J1.009
G1 X-45.858 Y30.887 F2000
X-45.765 Y31.322
X-45.695 Y31.54
X-45.678 Y31.587
X-45.611 Y31.757
X-45.512 Y31.975
X-45.495 Y32.029
X-45.483 Y32.084
X-45.476 Y32.138
X-45.465 Y32.41
X-45.452 Y32.627
X-45.436 Y32.845
X-45.403 Y33.063
X-45.365 Y33.28
X-45.33 Y33.573
X-45.339 Y33.979
X-45.411 Y34.405
X-45.561 Y34.874
X-45.812 Y35.385
X-46.151 Y35.881
X-46.647 Y36.419
X-47.239 Y36.9
X-48.029 Y37.371
X-48.913 Y37.738
X-49.839 Y37.986
X-50.786 Y38.123
X-51.743 Y38.166
X-52.7 Y38.125
X-53.65 Y38.008
X-54.59 Y37.823
X-55.516 Y37.579
X-56.427 Y37.283
X-57.322 Y36.941
X-58.199 Y36.556
X-59.058 Y36.133
X-59.9 Y35.677
X-60.725 Y35.191
X-61.535 Y34.679
X-62.329 Y34.144
X-63.109 Y33.589
X-63.875 Y33.014
X-64.629 Y32.423
X-65.371 Y31.818
X-66.101 Y31.198
X-66.821 Y30.566
X-67.53 Y29.923
X-68.23 Y29.269
X-68.921 Y28.606
X-69.604 Y27.934
X-70.277 Y27.254
X-70.943 Y26.565
X-71.601 Y25.869
X-72.25 Y25.165
X-72.892 Y24.454
X-73.526 Y23.736
X-74.151 Y23.011
X-74.769 Y22.279
X-75.379 Y21.541
X-75.855 Y20.95
X-75.954 Y20.771
X-75.988 Y20.569
X-75.951 Y20.367
X-75.742 Y19.794
X-75.696 Y19.675
X-75.654 Y19.576
X-75.558 Y19.359
X-75.345 Y18.924
X-74.987 Y18.271
X-74.858 Y18.054
X-74.826 Y18.002
X-74.807 Y17.974
G3 X-74.104 Y17.774 I0.482 J0.358 F1500
G1 X-74.017 Y17.809 Z14.01
X-73.932 Y17.842 Z14.032
X-73.851 Y17.874 Z14.068
X-73.776 Y17.904 Z14.117
X-73.71 Y17.93 Z14.178
X-73.653 Y17.953 Z14.25
X-73.607 Y17.971 Z14.33
X-73.574 Y17.984 Z14.417
X-73.553 Y17.992 Z14.509
X-73.546 Y17.995 Z14.602
G0 Z15.202
X-46.103 Y32.12
G1 Z14.602 F1500
X-46.098 Y32.125 Z14.509
X-46.083 Y32.142 Z14.417
X-46.06 Y32.169 Z14.33
X-46.028 Y32.207 Z14.25
X-45.988 Y32.253 Z14.178
X-45.942 Y32.307 Z14.117
X-45.889 Y32.368 Z14.068
X-45.833 Y32.435 Z14.032
X-45.773 Y32.504 Z14.01
X-45.712 Y32.575 Z14.002
G3 X-45.365 Y33.28 I-1.202 J1.029
G1 X-45.318 Y33.552 F2000
X-45.088 Y34.15
X-45.026 Y34.283
X-44.808 Y34.711
X-44.755 Y34.803
X-44.62 Y35.02
X-44.428 Y35.367
X-44.303 Y35.697
X-44.222 Y36.063
X-44.189 Y36.511
X-44.223 Y36.989
X-44.34 Y37.521
X-44.564 Y38.117
X-44.889 Y38.706
X-45.379 Y39.352
X-46 Y39.964
X-46.771 Y40.531
X-47.613 Y40.988
X-48.501 Y41.346
X-49.422 Y41.608
X-50.364 Y41.783
X-51.317 Y41.88
X-52.274 Y41.908
X-53.231 Y41.867
X-54.183 Y41.765
X-55.128 Y41.607
X-56.063 Y41.4
X-56.986 Y41.147
X-57.897 Y40.85
X-58.793 Y40.513
X-59.675 Y40.139
X-60.542 Y39.733
X-61.395 Y39.296
X-62.232 Y38.832
X-63.056 Y38.343
X-63.865 Y37.831
X-64.661 Y37.298
X-65.444 Y36.746
X-66.213 Y36.177
X-66.971 Y35.591
X-67.718 Y34.991
X-68.454 Y34.378
X-69.179 Y33.753
X-69.895 Y33.117
X-70.601 Y32.47
X-71.298 Y31.813
X-71.987 Y31.148
X-72.667 Y30.474
X-73.339 Y29.792
X-74.004 Y29.102
X-74.66 Y28.404
X-75.309 Y27.7
X-75.95 Y26.988
X-76.583 Y26.27
X-76.913 Y25.886
X-77.006 Y25.741
X-77.053 Y25.576
X-77.052 Y25.404
X-77.002 Y25.239
X-76.774 Y24.797
X-76.655 Y24.579
X-76.557 Y24.407
X-76.544 Y23.927
X-76.538 Y23.709
X-76.53 Y23.492
X-76.485 Y22.839
X-76.456 Y22.622
X-76.386 Y22.187
X-76.348 Y21.969
X-76.212 Y21.317
X-76.157 Y21.099
X-76.042 Y20.664
X-75.98 Y20.447
X-75.951 Y20.367
G3 X-75.321 Y19.997 I0.556 J0.225 F1500
G1 X-75.228 Y20.009 Z14.01
X-75.137 Y20.02 Z14.032
X-75.051 Y20.031 Z14.068
X-74.971 Y20.041 Z14.117
X-74.9 Y20.05 Z14.178
X-74.84 Y20.057 Z14.25
X-74.791 Y20.063 Z14.33
X-74.755 Y20.068 Z14.417
X-74.733 Y20.07 Z14.509
X-74.726 Y20.071 Z14.602
G0 Z15.202
X-45.739 Y34.221
G1 Z14.602 F1500
X-45.732 Y34.224 Z14.509
X-45.712 Y34.234 Z14.417
X-45.68 Y34.251 Z14.33
X-45.637 Y34.274 Z14.25
X-45.582 Y34.302 Z14.178
X-45.519 Y34.335 Z14.117
X-45.448 Y34.372 Z14.068
X-45.37 Y34.412 Z14.032
X-45.289 Y34.454 Z14.01
X-45.206 Y34.497 Z14.002
G3 X-44.62 Y35.02 I-0.728 J1.405
G1 X-44.35 Y35.455 F2000
X-44.225 Y35.673
X-44.123 Y35.89
X-44.009 Y36.108
X-43.938 Y36.223
X-43.863 Y36.325
X-43.426 Y36.857
X-43.395 Y36.889
X-43.286 Y36.972
X-43.172 Y37.069
X-42.963 Y37.315
X-42.781 Y37.607
X-42.623 Y37.968
X-42.499 Y38.416
X-42.438 Y38.896
X-42.45 Y39.475
X-42.551 Y40.09
X-42.768 Y40.774
X-43.118 Y41.495
X-43.644 Y42.268
X-44.29 Y42.975
X-45.026 Y43.588
X-45.826 Y44.114
X-46.675 Y44.558
X-47.561 Y44.922
X-48.474 Y45.21
X-49.406 Y45.429
X-50.351 Y45.586
X-51.304 Y45.68
X-52.261 Y45.715
X-53.219 Y45.696
X-54.174 Y45.627
X-55.124 Y45.511
X-56.069 Y45.35
X-57.004 Y45.146
X-57.93 Y44.902
X-58.846 Y44.621
X-59.75 Y44.305
X-60.642 Y43.957
X-61.522 Y43.579
X-62.389 Y43.172
X-63.243 Y42.738
X-64.084 Y42.28
X-64.912 Y41.799
X-65.727 Y41.296
X-66.53 Y40.775
X-67.321 Y40.235
X-68.1 Y39.678
X-68.868 Y39.106
X-69.625 Y38.519
X-70.372 Y37.919
X-71.108 Y37.307
X-71.835 Y36.683
X-72.552 Y36.048
X-73.26 Y35.403
X-73.959 Y34.749
X-74.65 Y34.085
X-75.333 Y33.414
X-76.008 Y32.735
X-76.675 Y32.047
X-77.335 Y31.353
X-77.664 Y30.999
X-77.738 Y30.901
X-77.79 Y30.791
X-77.819 Y30.672
X-77.871 Y30.189
X-77.881 Y30.017
X-77.903 Y29.365
X-77.883 Y28.712
X-77.871 Y28.51
X-77.827 Y28.06
X-77.8 Y27.842
X-77.759 Y27.625
X-77.653 Y27.088
X-77.624 Y26.972
X-77.436 Y26.32
X-77.356 Y26.102
X-77.188 Y25.667
X-77.101 Y25.449
X-77.002 Y25.239
G3 X-76.342 Y24.927 I0.534 J0.274 F1500
G1 X-76.25 Y24.947 Z14.01
X-76.16 Y24.966 Z14.032
X-76.075 Y24.984 Z14.068
X-75.997 Y25.001 Z14.117
X-75.927 Y25.016 Z14.178
X-75.867 Y25.029 Z14.25
X-75.819 Y25.04 Z14.33
X-75.784 Y25.047 Z14.417
X-75.762 Y25.052 Z14.509
X-75.755 Y25.053 Z14.602
G0 Z15.202
X-44.614 Y36.618
G1 Z14.602 F1500
X-44.607 Y36.619 Z14.509
X-44.585 Y36.622 Z14.417
X-44.549 Y36.626 Z14.33
X-44.5 Y36.632 Z14.25
X-44.44 Y36.639 Z14.178
X-44.369 Y36.648 Z14.117
X-44.289 Y36.657 Z14.068
X-44.203 Y36.667 Z14.032
X-44.112 Y36.678 Z14.01
X-44.018 Y36.689 Z14.002
G3 X-43.286 Y36.972 I-0.186 J1.572
G1 X-42.815 Y37.333 F2000
X-42.633 Y37.427
X-42.416 Y37.534
X-42.198 Y37.617
X-42.157 Y37.63
X-41.981 Y37.682
X-41.872 Y37.711
X-41.818 Y37.733
X-41.763 Y37.761
X-41.705 Y37.799
X-41.648 Y37.848
X-41.546 Y37.967
X-41.233 Y38.366
X-41.111 Y38.472
X-40.828 Y38.743
X-40.571 Y39.073
X-40.35 Y39.461
X-40.156 Y39.959
X-40.03 Y40.502
X-39.974 Y41.163
X-40.018 Y41.881
X-40.188 Y42.704
X-40.496 Y43.551
X-40.95 Y44.395
X-41.507 Y45.174
X-42.15 Y45.884
X-42.863 Y46.523
X-43.63 Y47.096
X-44.442 Y47.604
X-45.292 Y48.045
X-46.171 Y48.425
X-47.073 Y48.746
X-47.993 Y49.013
X-48.927 Y49.224
X-49.872 Y49.382
X-50.824 Y49.489
X-51.779 Y49.549
X-52.737 Y49.564
X-53.694 Y49.536
X-54.649 Y49.465
X-55.601 Y49.354
X-56.546 Y49.204
X-57.486 Y49.018
X-58.418 Y48.797
X-59.341 Y48.543
X-60.256 Y48.259
X-61.16 Y47.943
X-62.054 Y47.599
X-62.936 Y47.227
X-63.808 Y46.83
X-64.668 Y46.409
X-65.517 Y45.966
X-66.354 Y45.501
X-67.18 Y45.017
X-67.995 Y44.513
X-68.798 Y43.992
X-69.59 Y43.453
X-70.372 Y42.899
X-71.142 Y42.331
X-71.903 Y41.749
X-72.653 Y41.154
X-73.394 Y40.547
X-74.126 Y39.929
X-74.848 Y39.301
X-75.562 Y38.662
X-76.268 Y38.014
X-76.965 Y37.358
X-77.458 Y36.882
X-77.552 Y36.766
X-77.614 Y36.631
X-77.641 Y36.485
X-77.663 Y36.108
X-77.675 Y35.89
X-77.672 Y35.238
X-77.663 Y35.02
X-77.614 Y34.368
X-77.512 Y33.715
X-77.469 Y33.498
X-77.3 Y32.815
X-77.29 Y32.777
Y32.763
X-77.337 Y32.627
X-77.41 Y32.41
X-77.606 Y31.757
X-77.653 Y31.559
X-77.746 Y31.105
X-77.789 Y30.887
X-77.819 Y30.672
G3 X-77.435 Y30.05 I0.597 J-0.061 F1500
G1 X-77.348 Y30.017 Z14.01
X-77.262 Y29.984 Z14.032
X-77.181 Y29.953 Z14.068
X-77.106 Y29.925 Z14.117
X-77.039 Y29.899 Z14.178
X-76.982 Y29.878 Z14.25
X-76.936 Y29.86 Z14.33
X-76.902 Y29.847 Z14.417
X-76.882 Y29.839 Z14.509
X-76.875 Y29.837 Z14.602
G0 Z15.202
X-42.415 Y38.038
G1 Z14.602 F1500
X-42.408 Y38.039 Z14.509
X-42.386 Y38.043 Z14.417
X-42.351 Y38.05 Z14.33
X-42.302 Y38.058 Z14.25
X-42.242 Y38.069 Z14.178
X-42.172 Y38.082 Z14.117
X-42.093 Y38.096 Z14.068
X-42.007 Y38.112 Z14.032
X-41.917 Y38.128 Z14.01
X-41.825 Y38.145 Z14.002
G3 X-41.111 Y38.472 I-0.281 J1.557
G1 X-40.676 Y38.85 F2000
X-40.566 Y38.935
X-40.458 Y39.001
X-40.023 Y39.215
X-39.493 Y39.371
X-39.371 Y39.404
X-39.188 Y39.453
X-38.898 Y39.578
X-38.583 Y39.772
X-38.284 Y40.022
X-37.974 Y40.369
X-37.691 Y40.795
X-37.45 Y41.307
X-37.254 Y41.944
X-37.148 Y42.637
X-37.141 Y43.48
X-37.266 Y44.398
X-37.531 Y45.318
X-37.914 Y46.196
X-38.39 Y47.027
X-38.947 Y47.806
X-39.574 Y48.53
X-40.257 Y49.201
X-40.988 Y49.82
X-41.761 Y50.386
X-42.57 Y50.897
X-43.41 Y51.358
X-44.274 Y51.77
X-45.16 Y52.135
X-46.064 Y52.452
X-46.983 Y52.721
X-47.914 Y52.945
X-48.854 Y53.127
X-49.802 Y53.266
X-50.754 Y53.365
X-51.71 Y53.424
X-52.668 Y53.443
X-53.625 Y53.424
X-54.581 Y53.37
X-55.535 Y53.281
X-56.485 Y53.159
X-57.43 Y53.004
X-58.369 Y52.817
X-59.302 Y52.6
X-60.227 Y52.353
X-61.145 Y52.078
X-62.054 Y51.777
X-62.954 Y51.45
X-63.844 Y51.098
X-64.726 Y50.723
X-65.597 Y50.325
X-66.457 Y49.905
X-67.308 Y49.464
X-68.148 Y49.004
X-68.977 Y48.525
X-69.796 Y48.029
X-70.605 Y47.517
X-71.404 Y46.988
X-72.193 Y46.445
X-72.84 Y45.982
X-72.893 Y45.939
X-72.94 Y45.891
X-72.982 Y45.838
X-73.094 Y45.678
X-73.234 Y45.461
X-73.371 Y45.243
X-73.521 Y44.98
X-73.613 Y44.808
X-73.956 Y44.112
X-74.118 Y43.721
X-74.173 Y43.581
X-74.281 Y43.286
X-74.391 Y42.969
X-74.427 Y42.851
X-74.469 Y42.742
X-74.476 Y42.728
X-74.488 Y42.715
X-74.826 Y42.387
X-75.043 Y42.173
X-75.223 Y41.981
X-75.478 Y41.694
X-75.599 Y41.546
X-75.774 Y41.328
X-76.234 Y40.676
X-76.348 Y40.496
X-76.727 Y39.806
X-76.783 Y39.684
X-77.018 Y39.153
X-77.104 Y38.935
X-77.318 Y38.283
X-77.374 Y38.065
X-77.477 Y37.63
X-77.525 Y37.413
X-77.617 Y36.76
X-77.637 Y36.543
X-77.641 Y36.485
G3 X-77.21 Y35.895 I0.6 J-0.015 F1500
G1 X-77.12 Y35.869 Z14.01
X-77.032 Y35.843 Z14.032
X-76.949 Y35.818 Z14.068
X-76.872 Y35.796 Z14.117
X-76.803 Y35.775 Z14.178
X-76.745 Y35.758 Z14.25
X-76.697 Y35.744 Z14.33
X-76.663 Y35.734 Z14.417
X-76.642 Y35.728 Z14.509
X-76.635 Y35.726 Z14.602
G0 Z15.202
X-40.701 Y39.75
G1 Z14.602 F1500
X-40.694 Y39.747 Z14.509
X-40.674 Y39.738 Z14.417
X-40.641 Y39.724 Z14.33
X-40.595 Y39.705 Z14.25
X-40.539 Y39.682 Z14.178
X-40.473 Y39.654 Z14.117
X-40.399 Y39.623 Z14.068
X-40.319 Y39.589 Z14.032
X-40.234 Y39.554 Z14.01
X-40.148 Y39.518 Z14.002
G3 X-39.371 Y39.404 I0.611 J1.46
G1 X-38.718 Y39.495 F2000
X-38.609 Y39.513
X-38.5 Y39.548
X-38.42 Y39.588
X-38.283 Y39.686
X-38.094 Y39.806
X-37.814 Y39.968
X-37.803 Y39.973
X-37.195 Y40.196
X-37.182 Y40.199
X-36.76 Y40.263
X-36.5 Y40.317
X-36.172 Y40.434
X-35.829 Y40.618
X-35.454 Y40.894
X-35.106 Y41.237
X-34.762 Y41.692
X-34.45 Y42.259
X-34.201 Y42.92
X-34.026 Y43.725
X-33.96 Y44.655
X-34.031 Y45.61
X-34.227 Y46.548
X-34.525 Y47.458
X-34.91 Y48.335
X-35.375 Y49.172
X-35.906 Y49.969
X-36.494 Y50.725
X-37.132 Y51.44
X-37.816 Y52.11
X-38.539 Y52.737
X-39.298 Y53.322
X-40.087 Y53.865
X-40.903 Y54.367
X-41.743 Y54.826
X-42.604 Y55.244
X-43.484 Y55.622
X-44.38 Y55.961
X-45.29 Y56.261
X-46.211 Y56.523
X-47.142 Y56.746
X-48.082 Y56.932
X-49.028 Y57.082
X-49.978 Y57.197
X-50.933 Y57.278
X-51.889 Y57.325
X-52.847 Y57.339
X-53.804 Y57.32
X-54.761 Y57.27
X-55.715 Y57.188
X-56.666 Y57.078
X-57.614 Y56.938
X-58.557 Y56.771
X-59.494 Y56.576
X-60.426 Y56.355
X-61.351 Y56.107
X-62.269 Y55.834
X-63.18 Y55.537
X-64.082 Y55.217
X-64.977 Y54.874
X-65.862 Y54.51
X-66.739 Y54.125
X-67.607 Y53.721
X-68.466 Y53.296
X-69.315 Y52.854
X-70.155 Y52.394
X-70.985 Y51.916
X-71.806 Y51.422
X-72.114 Y51.228
X-72.218 Y51.145
X-72.302 Y51.042
X-72.36 Y50.922
X-72.446 Y50.681
X-72.514 Y50.464
X-72.689 Y49.811
X-72.737 Y49.594
X-72.812 Y49.159
X-72.843 Y48.941
X-72.902 Y48.289
X-72.907 Y48.071
X-72.911 Y47.636
X-72.908 Y47.419
X-72.892 Y47.201
G3 X-72.387 Y46.673 I0.596 J0.065 F1500
G1 X-72.294 Y46.659 Z14.01
X-72.204 Y46.645 Z14.032
X-72.118 Y46.632 Z14.068
X-72.038 Y46.62 Z14.117
X-71.968 Y46.609 Z14.178
X-71.907 Y46.599 Z14.25
X-71.859 Y46.592 Z14.33
X-71.823 Y46.587 Z14.417
X-71.801 Y46.583 Z14.509
X-71.794 Y46.582 Z14.602
G0 Z15.202
X-38.095 Y40.594
G1 Z14.602 F1500
X-38.088 Y40.591 Z14.509
X-38.068 Y40.583 Z14.417
X-38.034 Y40.569 Z14.33
X-37.989 Y40.551 Z14.25
X-37.932 Y40.528 Z14.178
X-37.866 Y40.501 Z14.117
X-37.791 Y40.471 Z14.068
X-37.71 Y40.438 Z14.032
X-37.626 Y40.404 Z14.01
X-37.539 Y40.368 Z14.002
G3 X-36.76 Y40.263 I0.594 J1.467
G1 X-36.584 Y40.29 F2000
X-35.972 Y40.264
X-35.455 Y40.14
X-35.238 Y40.071
X-35.114 Y40.023
X-34.972 Y39.974
X-34.669 Y39.921
X-34.331 Y39.91
X-33.958 Y39.953
X-33.53 Y40.065
X-33.105 Y40.246
X-32.634 Y40.532
X-32.179 Y40.908
X-31.724 Y41.411
X-31.301 Y42.04
X-30.928 Y42.819
X-30.647 Y43.717
X-30.495 Y44.663
X-30.46 Y45.62
X-30.531 Y46.575
X-30.697 Y47.518
X-30.946 Y48.443
X-31.267 Y49.345
X-31.658 Y50.22
X-32.11 Y51.064
X-32.615 Y51.878
X-33.167 Y52.66
X-33.764 Y53.409
X-34.403 Y54.123
X-35.079 Y54.801
X-35.787 Y55.445
X-36.526 Y56.055
X-37.291 Y56.631
X-38.083 Y57.17
X-38.897 Y57.674
X-39.732 Y58.143
X-40.586 Y58.577
X-41.455 Y58.978
X-42.34 Y59.346
X-43.237 Y59.68
X-44.147 Y59.979
X-45.067 Y60.245
X-45.996 Y60.479
X-46.932 Y60.68
X-47.874 Y60.851
X-48.822 Y60.991
X-49.773 Y61.101
X-50.728 Y61.18
X-51.684 Y61.228
X-52.641 Y61.248
X-53.599 Y61.239
X-54.556 Y61.202
X-55.512 Y61.138
X-56.465 Y61.047
X-57.416 Y60.931
X-58.363 Y60.789
X-59.306 Y60.621
X-60.244 Y60.428
X-61.177 Y60.211
X-62.104 Y59.971
X-63.025 Y59.709
X-63.939 Y59.424
X-64.847 Y59.119
X-65.747 Y58.792
X-66.64 Y58.446
X-67.525 Y58.08
X-68.402 Y57.695
X-69.27 Y57.291
X-70.13 Y56.87
X-70.668 Y56.593
X-70.771 Y56.525
X-70.859 Y56.437
X-70.927 Y56.334
X-71.148 Y55.902
X-71.256 Y55.684
X-71.513 Y55.032
X-71.563 Y54.893
X-71.78 Y54.16
X-71.91 Y53.509
X-71.946 Y53.292
X-72 Y52.857
X-72.024 Y52.639
X-72.034 Y52.422
X-72.051 Y51.986
X-72.058 Y51.739
Y51.715
X-72.066 Y51.687
X-72.216 Y51.326
X-72.36 Y50.922
G3 X-72.112 Y50.235 I0.572 J-0.182 F1500
G1 X-72.033 Y50.184 Z14.01
X-71.956 Y50.135 Z14.032
X-71.883 Y50.088 Z14.068
X-71.816 Y50.044 Z14.117
X-71.755 Y50.006 Z14.178
X-71.704 Y49.973 Z14.25
X-71.662 Y49.946 Z14.33
X-71.632 Y49.927 Z14.417
X-71.614 Y49.915 Z14.509
X-71.607 Y49.911 Z14.602
G0 Z15.202
X-36.096 Y40.985
G1 Z14.602 F1500
X-36.092 Y40.979 Z14.509
X-36.078 Y40.961 Z14.417
X-36.056 Y40.933 Z14.33
X-36.026 Y40.894 Z14.25
X-35.989 Y40.845 Z14.178
X-35.946 Y40.788 Z14.117
X-35.897 Y40.725 Z14.068
X-35.844 Y40.656 Z14.032
X-35.788 Y40.583 Z14.01
X-35.731 Y40.508 Z14.002
G3 X-35.114 Y40.023 I1.256 J0.963
G1 X-35.02 Y39.986 F2000
X-34.911 Y39.936
X-34.857 Y39.916
X-34.803 Y39.902
X-34.694 Y39.889
X-34.585 Y39.891
X-34.368 Y39.882
X-33.933 Y39.837
X-33.739 Y39.806
X-33.498 Y39.742
X-33.28 Y39.676
X-33.063 Y39.599
X-33.019 Y39.588
X-32.932 Y39.577
X-32.845 Y39.578
X-32.761 Y39.588
X-32.627 Y39.599
X-32.41 Y39.602
X-32.203 Y39.588
X-31.757 Y39.525
X-31.518 Y39.494
X-31.137 Y39.5
X-30.695 Y39.571
X-30.204 Y39.725
X-29.713 Y39.961
X-29.164 Y40.33
X-28.654 Y40.793
X-28.122 Y41.438
X-27.658 Y42.203
X-27.284 Y43.085
X-27.026 Y44.007
X-26.871 Y44.952
X-26.816 Y45.908
X-26.848 Y46.865
X-26.956 Y47.817
X-27.133 Y48.758
X-27.379 Y49.684
X-27.686 Y50.591
X-28.046 Y51.478
X-28.457 Y52.343
X-28.915 Y53.185
X-29.417 Y54
X-29.96 Y54.789
X-30.54 Y55.551
X-31.155 Y56.285
X-31.802 Y56.991
X-32.48 Y57.668
X-33.186 Y58.315
X-33.917 Y58.933
X-34.673 Y59.521
X-35.451 Y60.08
X-36.249 Y60.61
X-37.066 Y61.109
X-37.901 Y61.577
X-38.752 Y62.017
X-39.618 Y62.426
X-40.497 Y62.807
X-41.388 Y63.158
X-42.29 Y63.48
X-43.202 Y63.773
X-44.122 Y64.037
X-45.051 Y64.272
X-45.986 Y64.479
X-46.926 Y64.658
X-47.872 Y64.81
X-48.821 Y64.935
X-49.774 Y65.033
X-50.729 Y65.105
X-51.686 Y65.15
X-52.643 Y65.168
X-53.601 Y65.161
X-54.558 Y65.129
X-55.514 Y65.073
X-56.469 Y64.993
X-57.421 Y64.889
X-58.37 Y64.762
X-58.64 Y64.719
X-58.817 Y64.662
X-58.968 Y64.553
X-59.078 Y64.404
X-59.18 Y64.211
X-59.189 Y64.196
X-59.201 Y64.182
X-59.817 Y64.1
X-60.035 Y64.065
X-60.252 Y64.023
X-60.687 Y63.921
X-61.122 Y63.788
X-61.34 Y63.721
X-61.557 Y63.648
X-62.21 Y63.399
X-62.436 Y63.297
X-62.645 Y63.195
X-62.869 Y63.08
X-63.08 Y62.964
X-63.732 Y62.559
X-63.918 Y62.427
X-64.472 Y61.992
X-64.602 Y61.884
X-64.724 Y61.775
X-64.82 Y61.687
X-65.255 Y61.262
X-65.392 Y61.122
X-65.473 Y61.038
X-65.597 Y60.905
X-65.69 Y60.801
X-65.735 Y60.753
X-65.758 Y60.734
X-65.769 Y60.728
X-66.56 Y60.408
X-66.778 Y60.301
X-67.284 Y60.035
X-67.43 Y59.951
X-67.984 Y59.6
X-68.083 Y59.533
X-68.278 Y59.382
X-68.81 Y58.947
X-68.953 Y58.825
X-69.281 Y58.512
X-69.388 Y58.406
X-69.693 Y58.077
X-69.823 Y57.921
X-70.258 Y57.38
X-70.389 Y57.207
X-70.475 Y57.079
X-70.806 Y56.554
X-70.91 Y56.365
X-70.927 Y56.334
G3 X-70.771 Y55.62 I0.543 J-0.255 F1500
G1 X-70.699 Y55.559 Z14.01
X-70.629 Y55.5 Z14.032
X-70.563 Y55.444 Z14.068
X-70.501 Y55.392 Z14.117
X-70.447 Y55.346 Z14.178
X-70.4 Y55.307 Z14.25
X-70.362 Y55.275 Z14.33
X-70.335 Y55.252 Z14.417
X-70.318 Y55.238 Z14.509
X-70.312 Y55.233 Z14.602
G0 Z15.202
X-32.912 Y40.271
G1 Z14.602 F1500
X-32.907 Y40.266 Z14.509
X-32.89 Y40.252 Z14.417
X-32.863 Y40.228 Z14.33
X-32.826 Y40.196 Z14.25
X-32.78 Y40.156 Z14.178
X-32.726 Y40.109 Z14.117
X-32.665 Y40.056 Z14.068
X-32.599 Y39.999 Z14.032
X-32.53 Y39.939 Z14.01
X-32.459 Y39.877 Z14.002
G3 X-31.757 Y39.525 I1.038 J1.194
G1 X-31.54 Y39.486 F2000
X-31.005 Y39.367
X-30.955 Y39.345
X-30.452 Y39.126
X-30.344 Y39.075
X-30.235 Y39.008
X-29.909 Y38.775
X-29.8 Y38.724
X-29.783 Y38.718
X-29.582 Y38.654
X-29.365 Y38.586
X-29.019 Y38.496
X-28.589 Y38.448
X-28.122 Y38.464
X-27.607 Y38.557
X-27.022 Y38.752
X-26.446 Y39.043
X-25.802 Y39.494
X-25.195 Y40.066
X-24.599 Y40.816
X-24.113 Y41.642
X-23.727 Y42.518
X-23.44 Y43.432
X-23.241 Y44.369
X-23.121 Y45.319
X-23.073 Y46.275
X-23.096 Y47.233
X-23.183 Y48.186
X-23.328 Y49.133
X-23.527 Y50.07
X-23.78 Y50.994
X-24.082 Y51.903
X-24.429 Y52.795
X-24.818 Y53.67
X-25.247 Y54.526
X-25.715 Y55.362
X-26.219 Y56.176
X-26.758 Y56.968
X-27.329 Y57.737
X-27.929 Y58.483
X-28.558 Y59.205
X-29.213 Y59.904
X-29.895 Y60.577
X-30.6 Y61.224
X-31.329 Y61.846
X-32.078 Y62.443
X-32.846 Y63.014
X-33.633 Y63.56
X-34.437 Y64.08
X-35.258 Y64.574
X-36.094 Y65.041
X-36.944 Y65.482
X-37.807 Y65.897
X-38.682 Y66.286
X-39.568 Y66.65
X-40.464 Y66.988
X-41.37 Y67.3
X-42.283 Y67.587
X-43.205 Y67.848
X-44.133 Y68.083
X-45.068 Y68.292
X-46.007 Y68.477
X-46.952 Y68.638
X-47.9 Y68.774
X-48.851 Y68.887
X-49.804 Y68.975
X-50.76 Y69.04
X-51.717 Y69.08
X-52.674 Y69.098
X-53.632 Y69.091
X-54.589 Y69.063
X-55.246 Y69.028
X-55.371 Y69.007
X-55.489 Y68.962
X-55.595 Y68.892
X-55.785 Y68.735
X-55.902 Y68.635
X-56.337 Y68.229
X-56.554 Y68.016
X-56.699 Y67.865
X-56.989 Y67.548
X-57.094 Y67.43
X-57.275 Y67.213
X-57.424 Y67.027
X-57.642 Y66.731
X-57.759 Y66.56
X-58.077 Y66.086
X-58.195 Y65.908
X-58.512 Y65.415
G3 X-58.426 Y64.689 I0.515 J-0.307 F1500
G1 X-58.361 Y64.622 Z14.01
X-58.297 Y64.556 Z14.032
X-58.237 Y64.494 Z14.068
X-58.181 Y64.436 Z14.117
X-58.131 Y64.385 Z14.178
X-58.088 Y64.341 Z14.25
X-58.054 Y64.306 Z14.33
X-58.029 Y64.28 Z14.417
X-58.013 Y64.265 Z14.509
X-58.008 Y64.259 Z14.602
G0 Z15.202
X-30.417 Y39.47
G1 Z14.602 F1500
X-30.412 Y39.465 Z14.509
X-30.398 Y39.448 Z14.417
X-30.374 Y39.421 Z14.33
X-30.341 Y39.385 Z14.25
X-30.3 Y39.339 Z14.178
X-30.252 Y39.286 Z14.117
X-30.199 Y39.226 Z14.068
X-30.141 Y39.161 Z14.032
X-30.08 Y39.093 Z14.01
X-30.017 Y39.023 Z14.002
G3 X-29.365 Y38.586 I1.18 J1.055
G1 X-29.147 Y38.517 F2000
X-28.93 Y38.442
X-28.712 Y38.355
X-28.495 Y38.261
X-28.277 Y38.142
X-28.157 Y38.065
X-27.625 Y37.702
X-27.526 Y37.63
X-27.49 Y37.593
X-27.381 Y37.49
X-27.106 Y37.308
X-26.771 Y37.151
X-26.388 Y37.034
X-25.912 Y36.961
X-25.403 Y36.958
X-24.82 Y37.038
X-24.169 Y37.227
X-23.498 Y37.531
X-22.772 Y37.997
X-22.049 Y38.625
X-21.418 Y39.345
X-20.883 Y40.14
X-20.435 Y40.986
X-20.065 Y41.869
X-19.773 Y42.781
X-19.553 Y43.713
X-19.398 Y44.658
X-19.304 Y45.611
X-19.268 Y46.569
X-19.289 Y47.526
X-19.362 Y48.481
X-19.485 Y49.431
X-19.653 Y50.374
X-19.865 Y51.307
X-20.122 Y52.23
X-20.42 Y53.14
X-20.756 Y54.037
X-21.128 Y54.919
X-21.535 Y55.786
X-21.975 Y56.637
X-22.448 Y57.47
X-22.953 Y58.284
X-23.486 Y59.079
X-24.048 Y59.855
X-24.636 Y60.611
X-25.248 Y61.347
X-25.885 Y62.062
X-26.545 Y62.756
X-27.228 Y63.428
X-27.932 Y64.077
X-28.655 Y64.705
X-29.397 Y65.31
X-30.157 Y65.893
X-30.934 Y66.454
X-31.726 Y66.992
X-32.533 Y67.507
X-33.355 Y67.998
X-34.191 Y68.466
X-35.039 Y68.91
X-35.899 Y69.332
X-36.77 Y69.73
X-37.651 Y70.106
X-38.541 Y70.459
X-39.44 Y70.789
X-40.348 Y71.096
X-41.262 Y71.379
X-42.184 Y71.639
X-43.112 Y71.876
X-44.045 Y72.091
X-44.984 Y72.283
X-45.926 Y72.453
X-46.872 Y72.601
X-47.822 Y72.727
X-48.774 Y72.831
X-49.728 Y72.914
X-50.683 Y72.975
X-50.772 Y72.979
X-50.936 Y72.963
X-51.089 Y72.904
X-51.22 Y72.805
X-51.375 Y72.651
X-51.551 Y72.465
X-51.579 Y72.433
X-52.115 Y71.78
X-52.281 Y71.563
X-52.437 Y71.345
X-52.639 Y71.056
X-52.732 Y70.91
X-53.003 Y70.475
X-53.074 Y70.365
X-53.087 Y70.354
X-53.126 Y70.326
X-53.509 Y70.159
X-53.751 Y70.04
X-54.186 Y69.823
X-54.379 Y69.717
X-55.032 Y69.306
X-55.249 Y69.153
X-55.467 Y68.996
X-55.595 Y68.892
G3 X-55.735 Y68.175 I0.397 J-0.45 F1500
G1 X-55.693 Y68.091 Z14.01
X-55.653 Y68.009 Z14.032
X-55.614 Y67.931 Z14.068
X-55.578 Y67.859 Z14.117
X-55.546 Y67.795 Z14.178
X-55.519 Y67.74 Z14.25
X-55.497 Y67.696 Z14.33
X-55.481 Y67.664 Z14.417
X-55.471 Y67.644 Z14.509
X-55.468 Y67.638 Z14.602
G0 Z15.202
X-27.986 Y38.875
G1 Z14.602 F1500
X-27.985 Y38.868 Z14.509
X-27.98 Y38.846 Z14.417
X-27.972 Y38.811 Z14.33
X-27.961 Y38.763 Z14.25
X-27.947 Y38.704 Z14.178
X-27.931 Y38.634 Z14.117
X-27.913 Y38.556 Z14.068
X-27.893 Y38.471 Z14.032
X-27.872 Y38.382 Z14.01
X-27.851 Y38.29 Z14.002
G3 X-27.49 Y37.593 I1.542 J0.357
G1 X-26.904 Y36.978 F2000
X-26.73 Y36.76
X-26.384 Y36.325
X-26.32 Y36.241
X-26.236 Y36.108
X-26.173 Y35.988
X-26.097 Y35.859
X-26.019 Y35.731
X-25.932 Y35.609
X-25.838 Y35.492
X-25.736 Y35.382
X-25.627 Y35.279
X-25.512 Y35.182
X-25.392 Y35.092
X-25.268 Y35.008
X-25.139 Y34.931
X-25.007 Y34.86
X-24.872 Y34.795
