(alu_chamfer_1)
(T2  D=3 CR=0 TAPER=45deg - ZMIN=-0.9 - chamfer mill)
G90 G94
G17
G21
G28 G91 Z0
G90

(2D Chamfer2)
T2
S15000 M3
G54
G0 X27.5 Y-19.35
Z15
Z5
G1 Z2 F333.3
Z-0.9
Y-19.05 F1000
X-27.5
G2 X-28.05 Y-18.5 I0 J0.55
G1 Y18.5
G2 X-27.5 Y19.05 I0.55 J0
G1 X27.5
G2 X28.05 Y18.5 I0 J-0.55
G1 Y-18.5
G2 X27.5 Y-19.05 I-0.55 J0
G1 Y-19.35
G0 Z15
G28 G91 Z0
G90
G28 G91 X0 Y0
G90
M5
M30
