(alu_face_n20um)
(T1  D=6 CR=0 - ZMIN=-0.5 - flat end mill)
G90 G94
G17
G21
G28 G91 Z0
G90

(Face2)
T1
S18000 M3
G54
G0 X40.353 Y-26.526
Z15
Z5
G1 Z0.1 F500
G18 G3 X39.753 Z-0.5 I-0.6 K0
G1 X37.389
X-37.389
G3 X-37.989 Z0.1 I0 K0.6
G0 Z5
X41.397 Y-22.593
G1 Z0.1 F500
G3 X40.797 Z-0.5 I-0.6 K0
G1 X37.5
X-37.5
G3 X-38.1 Z0.1 I0 K0.6
G0 Z5
X41.4 Y-18.659
G1 Z0.1 F500
G3 X40.8 Z-0.5 I-0.6 K0
G1 X37.5
X-37.5
G3 X-38.1 Z0.1 I0 K0.6
G0 Z5
X41.4 Y-14.726
G1 Z0.1 F500
G3 X40.8 Z-0.5 I-0.6 K0
G1 X37.5
X-37.5
G3 X-38.1 Z0.1 I0 K0.6
G0 Z5
X41.4 Y-10.792
G1 Z0.1 F500
G3 X40.8 Z-0.5 I-0.6 K0
G1 X37.5
X-37.5
G3 X-38.1 Z0.1 I0 K0.6
G0 Z5
X41.4 Y-6.859
G1 Z0.1 F500
G3 X40.8 Z-0.5 I-0.6 K0
G1 X37.5
X-37.5
G3 X-38.1 Z0.1 I0 K0.6
G0 Z5
X41.4 Y-2.925
G1 Z0.1 F500
G3 X40.8 Z-0.5 I-0.6 K0
G1 X37.5
X-37.5
G3 X-38.1 Z0.1 I0 K0.6
G0 Z5
X41.4 Y1.009
G1 Z0.1 F500
G3 X40.8 Z-0.5 I-0.6 K0
G1 X37.5
X-37.5
G3 X-38.1 Z0.1 I0 K0.6
G0 Z5
X41.4 Y4.942
G1 Z0.1 F500
G3 X40.8 Z-0.5 I-0.6 K0
G1 X37.5
X-37.5
G3 X-38.1 Z0.1 I0 K0.6
G0 Z5
X41.4 Y8.876
G1 Z0.1 F500
G3 X40.8 Z-0.5 I-0.6 K0
G1 X37.5
X-37.5
G3 X-38.1 Z0.1 I0 K0.6
G0 Z5
X41.4 Y12.809
G1 Z0.1 F500
G3 X40.8 Z-0.5 I-0.6 K0
G1 X37.5
X-37.5
G3 X-38.1 Z0.1 I0 K0.6
G0 Z5
X41.4 Y16.743
G1 Z0.1 F500
G3 X40.8 Z-0.5 I-0.6 K0
G1 X37.5
X-37.5
G3 X-38.1 Z0.1 I0 K0.6
G0 Z5
X41.4 Y20.676
G1 Z0.1 F500
G3 X40.8 Z-0.5 I-0.6 K0
G1 X37.5
X-37.5
G3 X-38.1 Z0.1 I0 K0.6
G0 Z5
X41.124 Y24.61
G1 Z0.1 F500
G3 X40.524 Z-0.5 I-0.6 K0
G1 X37.5
X-37.5
G3 X-38.1 Z0.1 I0 K0.6
G0 Z15
G17
G28 G91 Z0
G90
G28 G91 X0 Y0
G90
M5
M30
