(alu_face_n20um)
(T18  D=3 CR=0 - ZMIN=-0.2 - flat end mill)
G90 G94
G17
G21
G28 G91 Z0
G90

(Face2)
T18
(3mm flat-single flute)
S18000 M3
G54
G0 X37.682 Y-27.014
Z15
Z5
G1 Z0.1 F375
G18 G3 X37.382 Z-0.2 I-0.3 K0
G1 X36.483
X-36.483 F500
G3 X-36.783 Z0.1 I0 K0.3 F375
G0 Z5
X38.938 Y-25.049
G1 Z0.1 F375
G3 X38.638 Z-0.2 I-0.3 K0
G1 X37.384
X-37.384 F500
G3 X-37.684 Z0.1 I0 K0.3 F375
G0 Z5
X39.422 Y-23.083
G1 Z0.1 F375
G3 X39.122 Z-0.2 I-0.3 K0
G1 X37.5
X-37.5 F500
G3 X-37.8 Z0.1 I0 K0.3 F375
G0 Z5
X39.45 Y-21.118
G1 Z0.1 F375
G3 X39.15 Z-0.2 I-0.3 K0
G1 X37.5
X-37.5 F500
G3 X-37.8 Z0.1 I0 K0.3 F375
G0 Z5
X39.45 Y-19.152
G1 Z0.1 F375
G3 X39.15 Z-0.2 I-0.3 K0
G1 X37.5
X-37.5 F500
G3 X-37.8 Z0.1 I0 K0.3 F375
G0 Z5
X39.45 Y-17.187
G1 Z0.1 F375
G3 X39.15 Z-0.2 I-0.3 K0
G1 X37.5
X-37.5 F500
G3 X-37.8 Z0.1 I0 K0.3 F375
G0 Z5
X39.45 Y-15.221
G1 Z0.1 F375
G3 X39.15 Z-0.2 I-0.3 K0
G1 X37.5
X-37.5 F500
G3 X-37.8 Z0.1 I0 K0.3 F375
G0 Z5
X39.45 Y-13.256
G1 Z0.1 F375
G3 X39.15 Z-0.2 I-0.3 K0
G1 X37.5
X-37.5 F500
G3 X-37.8 Z0.1 I0 K0.3 F375
G0 Z5
X39.45 Y-11.29
G1 Z0.1 F375
G3 X39.15 Z-0.2 I-0.3 K0
G1 X37.5
X-37.5 F500
G3 X-37.8 Z0.1 I0 K0.3 F375
G0 Z5
X39.45 Y-9.325
G1 Z0.1 F375
G3 X39.15 Z-0.2 I-0.3 K0
G1 X37.5
X-37.5 F500
G3 X-37.8 Z0.1 I0 K0.3 F375
G0 Z5
X39.45 Y-7.359
G1 Z0.1 F375
G3 X39.15 Z-0.2 I-0.3 K0
G1 X37.5
X-37.5 F500
G3 X-37.8 Z0.1 I0 K0.3 F375
G0 Z5
X39.45 Y-5.394
G1 Z0.1 F375
G3 X39.15 Z-0.2 I-0.3 K0
G1 X37.5
X-37.5 F500
G3 X-37.8 Z0.1 I0 K0.3 F375
G0 Z5
X39.45 Y-3.428
G1 Z0.1 F375
G3 X39.15 Z-0.2 I-0.3 K0
G1 X37.5
X-37.5 F500
G3 X-37.8 Z0.1 I0 K0.3 F375
G0 Z5
X39.45 Y-1.462
G1 Z0.1 F375
G3 X39.15 Z-0.2 I-0.3 K0
G1 X37.5
X-37.5 F500
G3 X-37.8 Z0.1 I0 K0.3 F375
G0 Z5
X39.45 Y0.503
G1 Z0.1 F375
G3 X39.15 Z-0.2 I-0.3 K0
G1 X37.5
X-37.5 F500
G3 X-37.8 Z0.1 I0 K0.3 F375
G0 Z5
X39.45 Y2.469
G1 Z0.1 F375
G3 X39.15 Z-0.2 I-0.3 K0
G1 X37.5
X-37.5 F500
G3 X-37.8 Z0.1 I0 K0.3 F375
G0 Z5
X39.45 Y4.434
G1 Z0.1 F375
G3 X39.15 Z-0.2 I-0.3 K0
G1 X37.5
X-37.5 F500
G3 X-37.8 Z0.1 I0 K0.3 F375
G0 Z5
X39.45 Y6.4
G1 Z0.1 F375
G3 X39.15 Z-0.2 I-0.3 K0
G1 X37.5
X-37.5 F500
G3 X-37.8 Z0.1 I0 K0.3 F375
G0 Z5
X39.45 Y8.365
G1 Z0.1 F375
G3 X39.15 Z-0.2 I-0.3 K0
G1 X37.5
X-37.5 F500
G3 X-37.8 Z0.1 I0 K0.3 F375
G0 Z5
X39.45 Y10.331
G1 Z0.1 F375
G3 X39.15 Z-0.2 I-0.3 K0
G1 X37.5
X-37.5 F500
G3 X-37.8 Z0.1 I0 K0.3 F375
G0 Z5
X39.45 Y12.296
G1 Z0.1 F375
G3 X39.15 Z-0.2 I-0.3 K0
G1 X37.5
X-37.5 F500
G3 X-37.8 Z0.1 I0 K0.3 F375
G0 Z5
X39.45 Y14.262
G1 Z0.1 F375
G3 X39.15 Z-0.2 I-0.3 K0
G1 X37.5
X-37.5 F500
G3 X-37.8 Z0.1 I0 K0.3 F375
G0 Z5
X39.45 Y16.227
G1 Z0.1 F375
G3 X39.15 Z-0.2 I-0.3 K0
G1 X37.5
X-37.5 F500
G3 X-37.8 Z0.1 I0 K0.3 F375
G0 Z5
X39.45 Y18.193
G1 Z0.1 F375
G3 X39.15 Z-0.2 I-0.3 K0
G1 X37.5
X-37.5 F500
G3 X-37.8 Z0.1 I0 K0.3 F375
G0 Z5
X39.45 Y20.158
G1 Z0.1 F375
G3 X39.15 Z-0.2 I-0.3 K0
G1 X37.5
X-37.5 F500
G3 X-37.8 Z0.1 I0 K0.3 F375
G0 Z5
X39.45 Y22.124
G1 Z0.1 F375
G3 X39.15 Z-0.2 I-0.3 K0
G1 X37.5
X-37.5 F500
G3 X-37.8 Z0.1 I0 K0.3 F375
G0 Z5
X39.254 Y24.089
G1 Z0.1 F375
G3 X38.954 Z-0.2 I-0.3 K0
G1 X37.496
X-37.496 F500
G3 X-37.796 Z0.1 I0 K0.3 F375
G0 Z5
X38.415 Y26.055
G1 Z0.1 F375
G3 X38.115 Z-0.2 I-0.3 K0
G1 X37.056
X-37.056 F500
G3 X-37.356 Z0.1 I0 K0.3 F375
G0 Z15
G17
G28 G91 Z0
G90
G28 G91 X0 Y0
G90
M5
M30
