(alu_adap_1)
(T18  D=3 CR=0 - ZMIN=-2 - flat end mill)
G90 G94
G17
G21
G28 G91 Z0
G90

(Adaptive1)
T18
(3mm flat-single flute)
S18000 M3
G54
G0 X-32.794 Y-25.985
Z15
Z5
Z0.3
G1 Z0 F375
X-32.792 Y-25.978 Z-0.067
X-32.787 Y-25.957 Z-0.13
X-32.778 Y-25.922 Z-0.187
X-32.766 Y-25.876 Z-0.235
X-32.752 Y-25.821 Z-0.27
X-32.736 Y-25.76 Z-0.292
X-32.72 Y-25.695 Z-0.3
G3 X-32.485 Y-24.062 I-7.419 J1.9
G1 Y-23.971 F500
X-32.269 Y-23.361
X-32.129 Y-22.653
X-32.057 Y-21.935
X-32.02 Y-21.214
X-32.002 Y-20.492
X-31.994 Y-19.77
X-31.989 Y-19.048
X-31.987 Y-18.326
X-31.985 Y-16.16
Y21.113
X-31.973 Y21.157
X-31.95 Y21.195
X-31.687 Y21.443
X-31.03 Y21.743
X-30.32 Y21.87
X-29.6 Y21.93
X-28.879 Y21.958
X-28.157 Y21.972
X-27.435 Y21.979
X-26.713 Y21.982
X-25.269 Y21.984
X-15.883 Y21.985
X23.105
X31.092
X31.135 Y21.973
X31.174 Y21.95
X31.422 Y21.687
X31.735 Y21.036
X31.867 Y20.326
X31.928 Y19.607
X31.957 Y18.886
X31.972 Y18.164
X31.978 Y17.442
X31.982 Y16.72
X31.984 Y15.276
X31.985 Y6.612
Y-20.102
Y-21.095
X31.973 Y-21.138
X31.95 Y-21.177
X31.687 Y-21.424
X31.035 Y-21.736
X30.326 Y-21.867
X29.606 Y-21.928
X28.885 Y-21.957
X28.163 Y-21.972
X27.441 Y-21.978
X26.719 Y-21.982
X25.275 Y-21.984
X16.611 Y-21.985
X-17.323
X-29.191
X-29.234 Y-21.973
X-29.273 Y-21.95
X-29.397 Y-21.818
X-29.741 Y-21.183
X-29.875 Y-20.474
X-29.934 Y-19.755
X-29.961 Y-19.033
X-29.974 Y-18.311
X-29.98 Y-17.589
X-29.983 Y-16.867
X-29.984 Y-15.423
X-29.985 Y16.345
Y18.917
X-29.973 Y18.96
X-29.926 Y19.037
X-29.692 Y19.312
X-29.07 Y19.678
X-28.365 Y19.836
X-27.647 Y19.911
X-27.595 Y19.914
X-27.571 Y19.916
X-27.548 Y19.92
X-27.525 Y19.926
X-27.36 Y19.963
X-27.236 Y19.984
X-27.196 Y19.988
X-26.704 Y20
X26.704
X26.868 Y19.996
X27.59 Y20.015
X28.312 Y20
X28.898 Y19.994
X28.985 Y19.969
X29.059 Y19.917
X29.324 Y19.673
X29.683 Y19.046
X29.838 Y18.341
X29.912 Y17.623
X29.949 Y16.902
X29.967 Y16.18
X29.976 Y15.458
X29.98 Y14.736
X29.983 Y14.014
X29.985 Y11.848
Y-18.927
X29.973 Y-18.971
X29.926 Y-19.048
X29.686 Y-19.318
X29.062 Y-19.68
X28.357 Y-19.837
X27.639 Y-19.912
X27.595 Y-19.914
X27.571 Y-19.916
X27.548 Y-19.92
X27.525 Y-19.926
X27.36 Y-19.963
X27.236 Y-19.984
X27.196 Y-19.988
X26.704 Y-20
X-26.704
X-27.196 Y-19.988
X-27.236 Y-19.984
X-27.36 Y-19.963
X-27.524 Y-19.926
X-27.687 Y-19.878
X-27.851 Y-19.807
X-28.015 Y-19.719
X-28.12 Y-19.656
X-28.179 Y-19.613
X-28.343 Y-19.478
X-28.484 Y-19.329
X-28.507 Y-19.304
X-28.625 Y-19.165
X-28.727 Y-19.001
X-28.812 Y-18.837
X-28.834 Y-18.789
X-28.88 Y-18.674
X-28.932 Y-18.51
X-28.966 Y-18.346
X-28.985 Y-18.182
X-28.998 Y-17.797
X-29 Y-17.691
Y17.691
X-28.998 Y17.797
X-28.985 Y18.182
X-28.966 Y18.346
X-28.932 Y18.51
X-28.88 Y18.674
X-28.834 Y18.789
X-28.812 Y18.837
X-28.727 Y19.001
X-28.625 Y19.165
X-28.507 Y19.304
X-28.484 Y19.329
X-28.343 Y19.478
X-28.244 Y19.559
G3 X-28.503 Y20.077 I-0.199 J0.225 F375
G1 X-28.568 Y20.064 Z-0.292
X-28.631 Y20.051 Z-0.27
X-28.686 Y20.04 Z-0.235
X-28.733 Y20.03 Z-0.187
X-28.768 Y20.023 Z-0.13
X-28.79 Y20.019 Z-0.067
X-28.797 Y20.017 Z0
G0 Z5
X25.866 Y20.394
Z0.3
G1 Z0 F375
X25.872 Y20.39 Z-0.067
X25.891 Y20.379 Z-0.13
X25.921 Y20.36 Z-0.187
X25.962 Y20.334 Z-0.235
X26.01 Y20.304 Z-0.27
X26.064 Y20.271 Z-0.292
X26.12 Y20.235 Z-0.3
G3 X26.868 Y19.996 I0.841 J1.341
G1 X27.196 Y19.988 F500
X27.236 Y19.984
X27.36 Y19.963
X27.524 Y19.926
X27.687 Y19.878
X27.851 Y19.807
X28.015 Y19.719
X28.12 Y19.656
X28.179 Y19.613
X28.343 Y19.478
X28.484 Y19.329
X28.507 Y19.304
X28.625 Y19.165
X28.727 Y19.001
X28.812 Y18.837
X28.834 Y18.789
X28.88 Y18.674
X28.932 Y18.51
X28.966 Y18.346
X28.985 Y18.182
X28.998 Y17.797
X29 Y17.691
Y-17.691
X28.998 Y-17.797
X28.985 Y-18.182
X28.966 Y-18.346
X28.932 Y-18.51
X28.88 Y-18.674
X28.834 Y-18.789
X28.812 Y-18.837
X28.727 Y-19.001
X28.625 Y-19.165
X28.507 Y-19.304
X28.484 Y-19.329
X28.343 Y-19.478
X28.244 Y-19.559
G3 X28.228 Y-19.992 I0.199 J-0.225 F375
G1 X28.273 Y-20.02 Z-0.295
X28.317 Y-20.046 Z-0.281
X28.358 Y-20.071 Z-0.258
X28.404 Y-20.078 Z-0.223
X28.443 Y-20.083 Z-0.18
X28.476 Y-20.08 Z-0.125
X28.496 Y-20.078 Z-0.064
X28.503 Y-20.077 Z0
G0 Z5
X-32.794 Y-25.985
Z0
G1 Z-0.3 F375
X-32.792 Y-25.978 Z-0.367
X-32.787 Y-25.957 Z-0.43
X-32.778 Y-25.922 Z-0.487
X-32.766 Y-25.876 Z-0.535
X-32.752 Y-25.821 Z-0.57
X-32.736 Y-25.76 Z-0.592
X-32.72 Y-25.695 Z-0.6
G3 X-32.485 Y-24.062 I-7.419 J1.9
G1 Y-23.971 F500
X-32.269 Y-23.361
X-32.129 Y-22.653
X-32.057 Y-21.935
X-32.02 Y-21.214
X-32.002 Y-20.492
X-31.994 Y-19.77
X-31.989 Y-19.048
X-31.987 Y-18.326
X-31.985 Y-16.16
Y21.113
X-31.973 Y21.157
X-31.95 Y21.195
X-31.687 Y21.443
X-31.03 Y21.743
X-30.32 Y21.87
X-29.6 Y21.93
X-28.879 Y21.958
X-28.157 Y21.972
X-27.435 Y21.979
X-26.713 Y21.982
X-25.269 Y21.984
X-15.883 Y21.985
X23.105
X31.092
X31.135 Y21.973
X31.174 Y21.95
X31.422 Y21.687
X31.735 Y21.036
X31.867 Y20.326
X31.928 Y19.607
X31.957 Y18.886
X31.972 Y18.164
X31.978 Y17.442
X31.982 Y16.72
X31.984 Y15.276
X31.985 Y6.612
Y-20.102
Y-21.095
X31.973 Y-21.138
X31.95 Y-21.177
X31.687 Y-21.424
X31.035 Y-21.736
X30.326 Y-21.867
X29.606 Y-21.928
X28.885 Y-21.957
X28.163 Y-21.972
X27.441 Y-21.978
X26.719 Y-21.982
X25.275 Y-21.984
X16.611 Y-21.985
X-17.323
X-29.191
X-29.234 Y-21.973
X-29.273 Y-21.95
X-29.397 Y-21.818
X-29.741 Y-21.183
X-29.875 Y-20.474
X-29.934 Y-19.755
X-29.961 Y-19.033
X-29.974 Y-18.311
X-29.98 Y-17.589
X-29.983 Y-16.867
X-29.984 Y-15.423
X-29.985 Y16.345
Y18.917
X-29.973 Y18.96
X-29.926 Y19.037
X-29.692 Y19.312
X-29.07 Y19.678
X-28.365 Y19.836
X-27.647 Y19.911
X-27.595 Y19.914
X-27.571 Y19.916
X-27.548 Y19.92
X-27.525 Y19.926
X-27.36 Y19.963
X-27.236 Y19.984
X-27.196 Y19.988
X-26.704 Y20
X26.704
X26.868 Y19.996
X27.59 Y20.015
X28.312 Y20
X28.898 Y19.994
X28.985 Y19.969
X29.059 Y19.917
X29.324 Y19.673
X29.683 Y19.046
X29.838 Y18.341
X29.912 Y17.623
X29.949 Y16.902
X29.967 Y16.18
X29.976 Y15.458
X29.98 Y14.736
X29.983 Y14.014
X29.985 Y11.848
Y-18.927
X29.973 Y-18.971
X29.926 Y-19.048
X29.686 Y-19.318
X29.062 Y-19.68
X28.357 Y-19.837
X27.639 Y-19.912
X27.595 Y-19.914
X27.571 Y-19.916
X27.548 Y-19.92
X27.525 Y-19.926
X27.36 Y-19.963
X27.236 Y-19.984
X27.196 Y-19.988
X26.704 Y-20
X-26.704
X-27.196 Y-19.988
X-27.236 Y-19.984
X-27.36 Y-19.963
X-27.524 Y-19.926
X-27.687 Y-19.878
X-27.851 Y-19.807
X-28.015 Y-19.719
X-28.12 Y-19.656
X-28.179 Y-19.613
X-28.343 Y-19.478
X-28.484 Y-19.329
X-28.507 Y-19.304
X-28.625 Y-19.165
X-28.727 Y-19.001
X-28.812 Y-18.837
X-28.834 Y-18.789
X-28.88 Y-18.674
X-28.932 Y-18.51
X-28.966 Y-18.346
X-28.985 Y-18.182
X-28.998 Y-17.797
X-29 Y-17.691
Y17.691
X-28.998 Y17.797
X-28.985 Y18.182
X-28.966 Y18.346
X-28.932 Y18.51
X-28.88 Y18.674
X-28.834 Y18.789
X-28.812 Y18.837
X-28.727 Y19.001
X-28.625 Y19.165
X-28.507 Y19.304
X-28.484 Y19.329
X-28.343 Y19.478
X-28.244 Y19.559
G3 X-28.503 Y20.077 I-0.199 J0.225 F375
G1 X-28.568 Y20.064 Z-0.592
X-28.631 Y20.051 Z-0.57
X-28.686 Y20.04 Z-0.535
X-28.733 Y20.03 Z-0.487
X-28.768 Y20.023 Z-0.43
X-28.79 Y20.019 Z-0.367
X-28.797 Y20.017 Z-0.3
G0 Z5
X25.866 Y20.394
Z0
G1 Z-0.3 F375
X25.872 Y20.39 Z-0.367
X25.891 Y20.379 Z-0.43
X25.921 Y20.36 Z-0.487
X25.962 Y20.334 Z-0.535
X26.01 Y20.304 Z-0.57
X26.064 Y20.271 Z-0.592
X26.12 Y20.235 Z-0.6
G3 X26.868 Y19.996 I0.841 J1.341
G1 X27.196 Y19.988 F500
X27.236 Y19.984
X27.36 Y19.963
X27.524 Y19.926
X27.687 Y19.878
X27.851 Y19.807
X28.015 Y19.719
X28.12 Y19.656
X28.179 Y19.613
X28.343 Y19.478
X28.484 Y19.329
X28.507 Y19.304
X28.625 Y19.165
X28.727 Y19.001
X28.812 Y18.837
X28.834 Y18.789
X28.88 Y18.674
X28.932 Y18.51
X28.966 Y18.346
X28.985 Y18.182
X28.998 Y17.797
X29 Y17.691
Y-17.691
X28.998 Y-17.797
X28.985 Y-18.182
X28.966 Y-18.346
X28.932 Y-18.51
X28.88 Y-18.674
X28.834 Y-18.789
X28.812 Y-18.837
X28.727 Y-19.001
X28.625 Y-19.165
X28.507 Y-19.304
X28.484 Y-19.329
X28.343 Y-19.478
X28.244 Y-19.559
G3 X28.228 Y-19.992 I0.199 J-0.225 F375
G1 X28.273 Y-20.02 Z-0.595
X28.317 Y-20.046 Z-0.581
X28.358 Y-20.071 Z-0.558
X28.404 Y-20.078 Z-0.523
X28.443 Y-20.083 Z-0.48
X28.476 Y-20.08 Z-0.425
X28.496 Y-20.078 Z-0.364
X28.503 Y-20.077 Z-0.3
G0 Z5
X-32.794 Y-25.985
Z-0.3
G1 Z-0.6 F375
X-32.792 Y-25.978 Z-0.667
X-32.787 Y-25.957 Z-0.73
X-32.778 Y-25.922 Z-0.787
X-32.766 Y-25.876 Z-0.835
X-32.752 Y-25.821 Z-0.87
X-32.736 Y-25.76 Z-0.892
X-32.72 Y-25.695 Z-0.9
G3 X-32.485 Y-24.062 I-7.419 J1.9
G1 Y-23.971 F500
X-32.269 Y-23.361
X-32.129 Y-22.653
X-32.057 Y-21.935
X-32.02 Y-21.214
X-32.002 Y-20.492
X-31.994 Y-19.77
X-31.989 Y-19.048
X-31.987 Y-18.326
X-31.985 Y-16.16
Y21.113
X-31.973 Y21.157
X-31.95 Y21.195
X-31.687 Y21.443
X-31.03 Y21.743
X-30.32 Y21.87
X-29.6 Y21.93
X-28.879 Y21.958
X-28.157 Y21.972
X-27.435 Y21.979
X-26.713 Y21.982
X-25.269 Y21.984
X-15.883 Y21.985
X23.105
X31.092
X31.135 Y21.973
X31.174 Y21.95
X31.422 Y21.687
X31.735 Y21.036
X31.867 Y20.326
X31.928 Y19.607
X31.957 Y18.886
X31.972 Y18.164
X31.978 Y17.442
X31.982 Y16.72
X31.984 Y15.276
X31.985 Y6.612
Y-20.102
Y-21.095
X31.973 Y-21.138
X31.95 Y-21.177
X31.687 Y-21.424
X31.035 Y-21.736
X30.326 Y-21.867
X29.606 Y-21.928
X28.885 Y-21.957
X28.163 Y-21.972
X27.441 Y-21.978
X26.719 Y-21.982
X25.275 Y-21.984
X16.611 Y-21.985
X-17.323
X-29.191
X-29.234 Y-21.973
X-29.273 Y-21.95
X-29.397 Y-21.818
X-29.741 Y-21.183
X-29.875 Y-20.474
X-29.934 Y-19.755
X-29.961 Y-19.033
X-29.974 Y-18.311
X-29.98 Y-17.589
X-29.983 Y-16.867
X-29.984 Y-15.423
X-29.985 Y16.345
Y18.917
X-29.973 Y18.96
X-29.926 Y19.037
X-29.692 Y19.312
X-29.07 Y19.678
X-28.365 Y19.836
X-27.647 Y19.911
X-27.595 Y19.914
X-27.571 Y19.916
X-27.548 Y19.92
X-27.525 Y19.926
X-27.36 Y19.963
X-27.236 Y19.984
X-27.196 Y19.988
X-26.704 Y20
X26.704
X26.868 Y19.996
X27.59 Y20.015
X28.312 Y20
X28.898 Y19.994
X28.985 Y19.969
X29.059 Y19.917
X29.324 Y19.673
X29.683 Y19.046
X29.838 Y18.341
X29.912 Y17.623
X29.949 Y16.902
X29.967 Y16.18
X29.976 Y15.458
X29.98 Y14.736
X29.983 Y14.014
X29.985 Y11.848
Y-18.927
X29.973 Y-18.971
X29.926 Y-19.048
X29.686 Y-19.318
X29.062 Y-19.68
X28.357 Y-19.837
X27.639 Y-19.912
X27.595 Y-19.914
X27.571 Y-19.916
X27.548 Y-19.92
X27.525 Y-19.926
X27.36 Y-19.963
X27.236 Y-19.984
X27.196 Y-19.988
X26.704 Y-20
X-26.704
X-27.196 Y-19.988
X-27.236 Y-19.984
X-27.36 Y-19.963
X-27.524 Y-19.926
X-27.687 Y-19.878
X-27.851 Y-19.807
X-28.015 Y-19.719
X-28.12 Y-19.656
X-28.179 Y-19.613
X-28.343 Y-19.478
X-28.484 Y-19.329
X-28.507 Y-19.304
X-28.625 Y-19.165
X-28.727 Y-19.001
X-28.812 Y-18.837
X-28.834 Y-18.789
X-28.88 Y-18.674
X-28.932 Y-18.51
X-28.966 Y-18.346
X-28.985 Y-18.182
X-28.998 Y-17.797
X-29 Y-17.691
Y17.691
X-28.998 Y17.797
X-28.985 Y18.182
X-28.966 Y18.346
X-28.932 Y18.51
X-28.88 Y18.674
X-28.834 Y18.789
X-28.812 Y18.837
X-28.727 Y19.001
X-28.625 Y19.165
X-28.507 Y19.304
X-28.484 Y19.329
X-28.343 Y19.478
X-28.244 Y19.559
G3 X-28.503 Y20.077 I-0.199 J0.225 F375
G1 X-28.568 Y20.064 Z-0.892
X-28.631 Y20.051 Z-0.87
X-28.686 Y20.04 Z-0.835
X-28.733 Y20.03 Z-0.787
X-28.768 Y20.023 Z-0.73
X-28.79 Y20.019 Z-0.667
X-28.797 Y20.017 Z-0.6
G0 Z5
X25.866 Y20.394
Z-0.3
G1 Z-0.6 F375
X25.872 Y20.39 Z-0.667
X25.891 Y20.379 Z-0.73
X25.921 Y20.36 Z-0.787
X25.962 Y20.334 Z-0.835
X26.01 Y20.304 Z-0.87
X26.064 Y20.271 Z-0.892
X26.12 Y20.235 Z-0.9
G3 X26.868 Y19.996 I0.841 J1.341
G1 X27.196 Y19.988 F500
X27.236 Y19.984
X27.36 Y19.963
X27.524 Y19.926
X27.687 Y19.878
X27.851 Y19.807
X28.015 Y19.719
X28.12 Y19.656
X28.179 Y19.613
X28.343 Y19.478
X28.484 Y19.329
X28.507 Y19.304
X28.625 Y19.165
X28.727 Y19.001
X28.812 Y18.837
X28.834 Y18.789
X28.88 Y18.674
X28.932 Y18.51
X28.966 Y18.346
X28.985 Y18.182
X28.998 Y17.797
X29 Y17.691
Y-17.691
X28.998 Y-17.797
X28.985 Y-18.182
X28.966 Y-18.346
X28.932 Y-18.51
X28.88 Y-18.674
X28.834 Y-18.789
X28.812 Y-18.837
X28.727 Y-19.001
X28.625 Y-19.165
X28.507 Y-19.304
X28.484 Y-19.329
X28.343 Y-19.478
X28.244 Y-19.559
G3 X28.228 Y-19.992 I0.199 J-0.225 F375
G1 X28.273 Y-20.02 Z-0.895
X28.317 Y-20.046 Z-0.881
X28.358 Y-20.071 Z-0.858
X28.404 Y-20.078 Z-0.823
X28.443 Y-20.083 Z-0.78
X28.476 Y-20.08 Z-0.725
X28.496 Y-20.078 Z-0.664
X28.503 Y-20.077 Z-0.6
G0 Z5
X-32.794 Y-25.985
Z-0.6
G1 Z-0.9 F375
X-32.792 Y-25.978 Z-0.967
X-32.787 Y-25.957 Z-1.03
X-32.778 Y-25.922 Z-1.087
X-32.766 Y-25.876 Z-1.135
X-32.752 Y-25.821 Z-1.17
X-32.736 Y-25.76 Z-1.192
X-32.72 Y-25.695 Z-1.2
G3 X-32.485 Y-24.062 I-7.419 J1.9
G1 Y-23.971 F500
X-32.269 Y-23.361
X-32.129 Y-22.653
X-32.057 Y-21.935
X-32.02 Y-21.214
X-32.002 Y-20.492
X-31.994 Y-19.77
X-31.989 Y-19.048
X-31.987 Y-18.326
X-31.985 Y-16.16
Y21.113
X-31.973 Y21.157
X-31.95 Y21.195
X-31.687 Y21.443
X-31.03 Y21.743
X-30.32 Y21.87
X-29.6 Y21.93
X-28.879 Y21.958
X-28.157 Y21.972
X-27.435 Y21.979
X-26.713 Y21.982
X-25.269 Y21.984
X-15.883 Y21.985
X23.105
X31.092
X31.135 Y21.973
X31.174 Y21.95
X31.422 Y21.687
X31.735 Y21.036
X31.867 Y20.326
X31.928 Y19.607
X31.957 Y18.886
X31.972 Y18.164
X31.978 Y17.442
X31.982 Y16.72
X31.984 Y15.276
X31.985 Y6.612
Y-20.102
Y-21.095
X31.973 Y-21.138
X31.95 Y-21.177
X31.687 Y-21.424
X31.035 Y-21.736
X30.326 Y-21.867
X29.606 Y-21.928
X28.885 Y-21.957
X28.163 Y-21.972
X27.441 Y-21.978
X26.719 Y-21.982
X25.275 Y-21.984
X16.611 Y-21.985
X-17.323
X-29.191
X-29.234 Y-21.973
X-29.273 Y-21.95
X-29.397 Y-21.818
X-29.741 Y-21.183
X-29.875 Y-20.474
X-29.934 Y-19.755
X-29.961 Y-19.033
X-29.974 Y-18.311
X-29.98 Y-17.589
X-29.983 Y-16.867
X-29.984 Y-15.423
X-29.985 Y16.345
Y18.917
X-29.973 Y18.96
X-29.926 Y19.037
X-29.692 Y19.312
X-29.07 Y19.678
X-28.365 Y19.836
X-27.647 Y19.911
X-27.595 Y19.914
X-27.571 Y19.916
X-27.548 Y19.92
X-27.525 Y19.926
X-27.36 Y19.963
X-27.236 Y19.984
X-27.196 Y19.988
X-26.704 Y20
X26.704
X26.868 Y19.996
X27.59 Y20.015
X28.312 Y20
X28.898 Y19.994
X28.985 Y19.969
X29.059 Y19.917
X29.324 Y19.673
X29.683 Y19.046
X29.838 Y18.341
X29.912 Y17.623
X29.949 Y16.902
X29.967 Y16.18
X29.976 Y15.458
X29.98 Y14.736
X29.983 Y14.014
X29.985 Y11.848
Y-18.927
X29.973 Y-18.971
X29.926 Y-19.048
X29.686 Y-19.318
X29.062 Y-19.68
X28.357 Y-19.837
X27.639 Y-19.912
X27.595 Y-19.914
X27.571 Y-19.916
X27.548 Y-19.92
X27.525 Y-19.926
X27.36 Y-19.963
X27.236 Y-19.984
X27.196 Y-19.988
X26.704 Y-20
X-26.704
X-27.196 Y-19.988
X-27.236 Y-19.984
X-27.36 Y-19.963
X-27.524 Y-19.926
X-27.687 Y-19.878
X-27.851 Y-19.807
X-28.015 Y-19.719
X-28.12 Y-19.656
X-28.179 Y-19.613
X-28.343 Y-19.478
X-28.484 Y-19.329
X-28.507 Y-19.304
X-28.625 Y-19.165
X-28.727 Y-19.001
X-28.812 Y-18.837
X-28.834 Y-18.789
X-28.88 Y-18.674
X-28.932 Y-18.51
X-28.966 Y-18.346
X-28.985 Y-18.182
X-28.998 Y-17.797
X-29 Y-17.691
Y17.691
X-28.998 Y17.797
X-28.985 Y18.182
X-28.966 Y18.346
X-28.932 Y18.51
X-28.88 Y18.674
X-28.834 Y18.789
X-28.812 Y18.837
X-28.727 Y19.001
X-28.625 Y19.165
X-28.507 Y19.304
X-28.484 Y19.329
X-28.343 Y19.478
X-28.244 Y19.559
G3 X-28.503 Y20.077 I-0.199 J0.225 F375
G1 X-28.568 Y20.064 Z-1.192
X-28.631 Y20.051 Z-1.17
X-28.686 Y20.04 Z-1.135
X-28.733 Y20.03 Z-1.087
X-28.768 Y20.023 Z-1.03
X-28.79 Y20.019 Z-0.967
X-28.797 Y20.017 Z-0.9
G0 Z5
X25.866 Y20.394
Z-0.6
G1 Z-0.9 F375
X25.872 Y20.39 Z-0.967
X25.891 Y20.379 Z-1.03
X25.921 Y20.36 Z-1.087
X25.962 Y20.334 Z-1.135
X26.01 Y20.304 Z-1.17
X26.064 Y20.271 Z-1.192
X26.12 Y20.235 Z-1.2
G3 X26.868 Y19.996 I0.841 J1.341
G1 X27.196 Y19.988 F500
X27.236 Y19.984
X27.36 Y19.963
X27.524 Y19.926
X27.687 Y19.878
X27.851 Y19.807
X28.015 Y19.719
X28.12 Y19.656
X28.179 Y19.613
X28.343 Y19.478
X28.484 Y19.329
X28.507 Y19.304
X28.625 Y19.165
X28.727 Y19.001
X28.812 Y18.837
X28.834 Y18.789
X28.88 Y18.674
X28.932 Y18.51
X28.966 Y18.346
X28.985 Y18.182
X28.998 Y17.797
X29 Y17.691
Y-17.691
X28.998 Y-17.797
X28.985 Y-18.182
X28.966 Y-18.346
X28.932 Y-18.51
X28.88 Y-18.674
X28.834 Y-18.789
X28.812 Y-18.837
X28.727 Y-19.001
X28.625 Y-19.165
X28.507 Y-19.304
X28.484 Y-19.329
X28.343 Y-19.478
X28.244 Y-19.559
G3 X28.228 Y-19.992 I0.199 J-0.225 F375
G1 X28.273 Y-20.02 Z-1.195
X28.317 Y-20.046 Z-1.181
X28.358 Y-20.071 Z-1.158
X28.404 Y-20.078 Z-1.123
X28.443 Y-20.083 Z-1.08
X28.476 Y-20.08 Z-1.025
X28.496 Y-20.078 Z-0.964
X28.503 Y-20.077 Z-0.9
G0 Z5
X-32.794 Y-25.985
Z-0.9
G1 Z-1.2 F375
X-32.792 Y-25.978 Z-1.267
X-32.787 Y-25.957 Z-1.33
X-32.778 Y-25.922 Z-1.387
X-32.766 Y-25.876 Z-1.435
X-32.752 Y-25.821 Z-1.47
X-32.736 Y-25.76 Z-1.492
X-32.72 Y-25.695 Z-1.5
G3 X-32.485 Y-24.062 I-7.419 J1.9
G1 Y-23.971 F500
X-32.269 Y-23.361
X-32.129 Y-22.653
X-32.057 Y-21.935
X-32.02 Y-21.214
X-32.002 Y-20.492
X-31.994 Y-19.77
X-31.989 Y-19.048
X-31.987 Y-18.326
X-31.985 Y-16.16
Y21.113
X-31.973 Y21.157
X-31.95 Y21.195
X-31.687 Y21.443
X-31.03 Y21.743
X-30.32 Y21.87
X-29.6 Y21.93
X-28.879 Y21.958
X-28.157 Y21.972
X-27.435 Y21.979
X-26.713 Y21.982
X-25.269 Y21.984
X-15.883 Y21.985
X23.105
X31.092
X31.135 Y21.973
X31.174 Y21.95
X31.422 Y21.687
X31.735 Y21.036
X31.867 Y20.326
X31.928 Y19.607
X31.957 Y18.886
X31.972 Y18.164
X31.978 Y17.442
X31.982 Y16.72
X31.984 Y15.276
X31.985 Y6.612
Y-20.102
Y-21.095
X31.973 Y-21.138
X31.95 Y-21.177
X31.687 Y-21.424
X31.035 Y-21.736
X30.326 Y-21.867
X29.606 Y-21.928
X28.885 Y-21.957
X28.163 Y-21.972
X27.441 Y-21.978
X26.719 Y-21.982
X25.275 Y-21.984
X16.611 Y-21.985
X-17.323
X-29.191
X-29.234 Y-21.973
X-29.273 Y-21.95
X-29.397 Y-21.818
X-29.741 Y-21.183
X-29.875 Y-20.474
X-29.934 Y-19.755
X-29.961 Y-19.033
X-29.974 Y-18.311
X-29.98 Y-17.589
X-29.983 Y-16.867
X-29.984 Y-15.423
X-29.985 Y16.345
Y18.917
X-29.973 Y18.96
X-29.926 Y19.037
X-29.692 Y19.312
X-29.07 Y19.678
X-28.365 Y19.836
X-27.647 Y19.911
X-27.595 Y19.914
X-27.571 Y19.916
X-27.548 Y19.92
X-27.525 Y19.926
X-27.36 Y19.963
X-27.236 Y19.984
X-27.196 Y19.988
X-26.704 Y20
X26.704
X26.868 Y19.996
X27.59 Y20.015
X28.312 Y20
X28.898 Y19.994
X28.985 Y19.969
X29.059 Y19.917
X29.324 Y19.673
X29.683 Y19.046
X29.838 Y18.341
X29.912 Y17.623
X29.949 Y16.902
X29.967 Y16.18
X29.976 Y15.458
X29.98 Y14.736
X29.983 Y14.014
X29.985 Y11.848
Y-18.927
X29.973 Y-18.971
X29.926 Y-19.048
X29.686 Y-19.318
X29.062 Y-19.68
X28.357 Y-19.837
X27.639 Y-19.912
X27.595 Y-19.914
X27.571 Y-19.916
X27.548 Y-19.92
X27.525 Y-19.926
X27.36 Y-19.963
X27.236 Y-19.984
X27.196 Y-19.988
X26.704 Y-20
X-26.704
X-27.196 Y-19.988
X-27.236 Y-19.984
X-27.36 Y-19.963
X-27.524 Y-19.926
X-27.687 Y-19.878
X-27.851 Y-19.807
X-28.015 Y-19.719
X-28.12 Y-19.656
X-28.179 Y-19.613
X-28.343 Y-19.478
X-28.484 Y-19.329
X-28.507 Y-19.304
X-28.625 Y-19.165
X-28.727 Y-19.001
X-28.812 Y-18.837
X-28.834 Y-18.789
X-28.88 Y-18.674
X-28.932 Y-18.51
X-28.966 Y-18.346
X-28.985 Y-18.182
X-28.998 Y-17.797
X-29 Y-17.691
Y17.691
X-28.998 Y17.797
X-28.985 Y18.182
X-28.966 Y18.346
X-28.932 Y18.51
X-28.88 Y18.674
X-28.834 Y18.789
X-28.812 Y18.837
X-28.727 Y19.001
X-28.625 Y19.165
X-28.507 Y19.304
X-28.484 Y19.329
X-28.343 Y19.478
X-28.244 Y19.559
G3 X-28.503 Y20.077 I-0.199 J0.225 F375
G1 X-28.568 Y20.064 Z-1.492
X-28.631 Y20.051 Z-1.47
X-28.686 Y20.04 Z-1.435
X-28.733 Y20.03 Z-1.387
X-28.768 Y20.023 Z-1.33
X-28.79 Y20.019 Z-1.267
X-28.797 Y20.017 Z-1.2
G0 Z5
X25.866 Y20.394
Z-0.9
G1 Z-1.2 F375
X25.872 Y20.39 Z-1.267
X25.891 Y20.379 Z-1.33
X25.921 Y20.36 Z-1.387
X25.962 Y20.334 Z-1.435
X26.01 Y20.304 Z-1.47
X26.064 Y20.271 Z-1.492
X26.12 Y20.235 Z-1.5
G3 X26.868 Y19.996 I0.841 J1.341
G1 X27.196 Y19.988 F500
X27.236 Y19.984
X27.36 Y19.963
X27.524 Y19.926
X27.687 Y19.878
X27.851 Y19.807
X28.015 Y19.719
X28.12 Y19.656
X28.179 Y19.613
X28.343 Y19.478
X28.484 Y19.329
X28.507 Y19.304
X28.625 Y19.165
X28.727 Y19.001
X28.812 Y18.837
X28.834 Y18.789
X28.88 Y18.674
X28.932 Y18.51
X28.966 Y18.346
X28.985 Y18.182
X28.998 Y17.797
X29 Y17.691
Y-17.691
X28.998 Y-17.797
X28.985 Y-18.182
X28.966 Y-18.346
X28.932 Y-18.51
X28.88 Y-18.674
X28.834 Y-18.789
X28.812 Y-18.837
X28.727 Y-19.001
X28.625 Y-19.165
X28.507 Y-19.304
X28.484 Y-19.329
X28.343 Y-19.478
X28.244 Y-19.559
G3 X28.228 Y-19.992 I0.199 J-0.225 F375
G1 X28.273 Y-20.02 Z-1.495
X28.317 Y-20.046 Z-1.481
X28.358 Y-20.071 Z-1.458
X28.404 Y-20.078 Z-1.423
X28.443 Y-20.083 Z-1.38
X28.476 Y-20.08 Z-1.325
X28.496 Y-20.078 Z-1.264
X28.503 Y-20.077 Z-1.2
G0 Z5
X-32.794 Y-25.985
Z-1.2
G1 Z-1.5 F375
X-32.792 Y-25.978 Z-1.567
X-32.787 Y-25.957 Z-1.63
X-32.778 Y-25.922 Z-1.687
X-32.766 Y-25.876 Z-1.735
X-32.752 Y-25.821 Z-1.77
X-32.736 Y-25.76 Z-1.792
X-32.72 Y-25.695 Z-1.8
G3 X-32.485 Y-24.062 I-7.419 J1.9
G1 Y-23.971 F500
X-32.269 Y-23.361
X-32.129 Y-22.653
X-32.057 Y-21.935
X-32.02 Y-21.214
X-32.002 Y-20.492
X-31.994 Y-19.77
X-31.989 Y-19.048
X-31.987 Y-18.326
X-31.985 Y-16.16
Y21.113
X-31.973 Y21.157
X-31.95 Y21.195
X-31.687 Y21.443
X-31.03 Y21.743
X-30.32 Y21.87
X-29.6 Y21.93
X-28.879 Y21.958
X-28.157 Y21.972
X-27.435 Y21.979
X-26.713 Y21.982
X-25.269 Y21.984
X-15.883 Y21.985
X23.105
X31.092
X31.135 Y21.973
X31.174 Y21.95
X31.422 Y21.687
X31.735 Y21.036
X31.867 Y20.326
X31.928 Y19.607
X31.957 Y18.886
X31.972 Y18.164
X31.978 Y17.442
X31.982 Y16.72
X31.984 Y15.276
X31.985 Y6.612
Y-20.102
Y-21.095
X31.973 Y-21.138
X31.95 Y-21.177
X31.687 Y-21.424
X31.035 Y-21.736
X30.326 Y-21.867
X29.606 Y-21.928
X28.885 Y-21.957
X28.163 Y-21.972
X27.441 Y-21.978
X26.719 Y-21.982
X25.275 Y-21.984
X16.611 Y-21.985
X-17.323
X-29.191
X-29.234 Y-21.973
X-29.273 Y-21.95
X-29.397 Y-21.818
X-29.741 Y-21.183
X-29.875 Y-20.474
X-29.934 Y-19.755
X-29.961 Y-19.033
X-29.974 Y-18.311
X-29.98 Y-17.589
X-29.983 Y-16.867
X-29.984 Y-15.423
X-29.985 Y16.345
Y18.917
X-29.973 Y18.96
X-29.926 Y19.037
X-29.692 Y19.312
X-29.07 Y19.678
X-28.365 Y19.836
X-27.647 Y19.911
X-27.595 Y19.914
X-27.571 Y19.916
X-27.548 Y19.92
X-27.525 Y19.926
X-27.36 Y19.963
X-27.236 Y19.984
X-27.196 Y19.988
X-26.704 Y20
X26.704
X26.868 Y19.996
X27.59 Y20.015
X28.312 Y20
X28.898 Y19.994
X28.985 Y19.969
X29.059 Y19.917
X29.324 Y19.673
X29.683 Y19.046
X29.838 Y18.341
X29.912 Y17.623
X29.949 Y16.902
X29.967 Y16.18
X29.976 Y15.458
X29.98 Y14.736
X29.983 Y14.014
X29.985 Y11.848
Y-18.927
X29.973 Y-18.971
X29.926 Y-19.048
X29.686 Y-19.318
X29.062 Y-19.68
X28.357 Y-19.837
X27.639 Y-19.912
X27.595 Y-19.914
X27.571 Y-19.916
X27.548 Y-19.92
X27.525 Y-19.926
X27.36 Y-19.963
X27.236 Y-19.984
X27.196 Y-19.988
X26.704 Y-20
X-26.704
X-27.196 Y-19.988
X-27.236 Y-19.984
X-27.36 Y-19.963
X-27.524 Y-19.926
X-27.687 Y-19.878
X-27.851 Y-19.807
X-28.015 Y-19.719
X-28.12 Y-19.656
X-28.179 Y-19.613
X-28.343 Y-19.478
X-28.484 Y-19.329
X-28.507 Y-19.304
X-28.625 Y-19.165
X-28.727 Y-19.001
X-28.812 Y-18.837
X-28.834 Y-18.789
X-28.88 Y-18.674
X-28.932 Y-18.51
X-28.966 Y-18.346
X-28.985 Y-18.182
X-28.998 Y-17.797
X-29 Y-17.691
Y17.691
X-28.998 Y17.797
X-28.985 Y18.182
X-28.966 Y18.346
X-28.932 Y18.51
X-28.88 Y18.674
X-28.834 Y18.789
X-28.812 Y18.837
X-28.727 Y19.001
X-28.625 Y19.165
X-28.507 Y19.304
X-28.484 Y19.329
X-28.343 Y19.478
X-28.244 Y19.559
G3 X-28.503 Y20.077 I-0.199 J0.225 F375
G1 X-28.568 Y20.064 Z-1.792
X-28.631 Y20.051 Z-1.77
X-28.686 Y20.04 Z-1.735
X-28.733 Y20.03 Z-1.687
X-28.768 Y20.023 Z-1.63
X-28.79 Y20.019 Z-1.567
X-28.797 Y20.017 Z-1.5
G0 Z5
X25.866 Y20.394
Z-1.2
G1 Z-1.5 F375
X25.872 Y20.39 Z-1.567
X25.891 Y20.379 Z-1.63
X25.921 Y20.36 Z-1.687
X25.962 Y20.334 Z-1.735
X26.01 Y20.304 Z-1.77
X26.064 Y20.271 Z-1.792
X26.12 Y20.235 Z-1.8
G3 X26.868 Y19.996 I0.841 J1.341
G1 X27.196 Y19.988 F500
X27.236 Y19.984
X27.36 Y19.963
X27.524 Y19.926
X27.687 Y19.878
X27.851 Y19.807
X28.015 Y19.719
X28.12 Y19.656
X28.179 Y19.613
X28.343 Y19.478
X28.484 Y19.329
X28.507 Y19.304
X28.625 Y19.165
X28.727 Y19.001
X28.812 Y18.837
X28.834 Y18.789
X28.88 Y18.674
X28.932 Y18.51
X28.966 Y18.346
X28.985 Y18.182
X28.998 Y17.797
X29 Y17.691
Y-17.691
X28.998 Y-17.797
X28.985 Y-18.182
X28.966 Y-18.346
X28.932 Y-18.51
X28.88 Y-18.674
X28.834 Y-18.789
X28.812 Y-18.837
X28.727 Y-19.001
X28.625 Y-19.165
X28.507 Y-19.304
X28.484 Y-19.329
X28.343 Y-19.478
X28.244 Y-19.559
G3 X28.228 Y-19.992 I0.199 J-0.225 F375
G1 X28.273 Y-20.02 Z-1.795
X28.317 Y-20.046 Z-1.781
X28.358 Y-20.071 Z-1.758
X28.404 Y-20.078 Z-1.723
X28.443 Y-20.083 Z-1.68
X28.476 Y-20.08 Z-1.625
X28.496 Y-20.078 Z-1.564
X28.503 Y-20.077 Z-1.5
G0 Z5
X-32.794 Y-25.985
Z-1.4
G1 Z-1.7 F375
X-32.792 Y-25.978 Z-1.767
X-32.787 Y-25.957 Z-1.83
X-32.778 Y-25.922 Z-1.887
X-32.766 Y-25.876 Z-1.935
X-32.752 Y-25.821 Z-1.97
X-32.736 Y-25.76 Z-1.992
X-32.72 Y-25.695 Z-2
G3 X-32.485 Y-24.062 I-7.419 J1.9
G1 Y-23.971 F500
X-32.269 Y-23.361
X-32.129 Y-22.653
X-32.057 Y-21.935
X-32.02 Y-21.214
X-32.002 Y-20.492
X-31.994 Y-19.77
X-31.989 Y-19.048
X-31.987 Y-18.326
X-31.985 Y-16.16
Y21.113
X-31.973 Y21.157
X-31.95 Y21.195
X-31.687 Y21.443
X-31.03 Y21.743
X-30.32 Y21.87
X-29.6 Y21.93
X-28.879 Y21.958
X-28.157 Y21.972
X-27.435 Y21.979
X-26.713 Y21.982
X-25.269 Y21.984
X-15.883 Y21.985
X23.105
X31.092
X31.135 Y21.973
X31.174 Y21.95
X31.422 Y21.687
X31.735 Y21.036
X31.867 Y20.326
X31.928 Y19.607
X31.957 Y18.886
X31.972 Y18.164
X31.978 Y17.442
X31.982 Y16.72
X31.984 Y15.276
X31.985 Y6.612
Y-20.102
Y-21.095
X31.973 Y-21.138
X31.95 Y-21.177
X31.687 Y-21.424
X31.035 Y-21.736
X30.326 Y-21.867
X29.606 Y-21.928
X28.885 Y-21.957
X28.163 Y-21.972
X27.441 Y-21.978
X26.719 Y-21.982
X25.275 Y-21.984
X16.611 Y-21.985
X-17.323
X-29.191
X-29.234 Y-21.973
X-29.273 Y-21.95
X-29.397 Y-21.818
X-29.741 Y-21.183
X-29.875 Y-20.474
X-29.934 Y-19.755
X-29.961 Y-19.033
X-29.974 Y-18.311
X-29.98 Y-17.589
X-29.983 Y-16.867
X-29.984 Y-15.423
X-29.985 Y16.345
Y18.917
X-29.973 Y18.96
X-29.926 Y19.037
X-29.692 Y19.312
X-29.07 Y19.678
X-28.365 Y19.836
X-27.647 Y19.911
X-27.595 Y19.914
X-27.571 Y19.916
X-27.548 Y19.92
X-27.525 Y19.926
X-27.36 Y19.963
X-27.236 Y19.984
X-27.196 Y19.988
X-26.704 Y20
X26.704
X26.868 Y19.996
X27.59 Y20.015
X28.312 Y20
X28.898 Y19.994
X28.985 Y19.969
X29.059 Y19.917
X29.324 Y19.673
X29.683 Y19.046
X29.838 Y18.341
X29.912 Y17.623
X29.949 Y16.902
X29.967 Y16.18
X29.976 Y15.458
X29.98 Y14.736
X29.983 Y14.014
X29.985 Y11.848
Y-18.927
X29.973 Y-18.971
X29.926 Y-19.048
X29.686 Y-19.318
X29.062 Y-19.68
X28.357 Y-19.837
X27.639 Y-19.912
X27.595 Y-19.914
X27.571 Y-19.916
X27.548 Y-19.92
X27.525 Y-19.926
X27.36 Y-19.963
X27.236 Y-19.984
X27.196 Y-19.988
X26.704 Y-20
X-26.704
X-27.196 Y-19.988
X-27.236 Y-19.984
X-27.36 Y-19.963
X-27.524 Y-19.926
X-27.687 Y-19.878
X-27.851 Y-19.807
X-28.015 Y-19.719
X-28.12 Y-19.656
X-28.179 Y-19.613
X-28.343 Y-19.478
X-28.484 Y-19.329
X-28.507 Y-19.304
X-28.625 Y-19.165
X-28.727 Y-19.001
X-28.812 Y-18.837
X-28.834 Y-18.789
X-28.88 Y-18.674
X-28.932 Y-18.51
X-28.966 Y-18.346
X-28.985 Y-18.182
X-28.998 Y-17.797
X-29 Y-17.691
Y17.691
X-28.998 Y17.797
X-28.985 Y18.182
X-28.966 Y18.346
X-28.932 Y18.51
X-28.88 Y18.674
X-28.834 Y18.789
X-28.812 Y18.837
X-28.727 Y19.001
X-28.625 Y19.165
X-28.507 Y19.304
X-28.484 Y19.329
X-28.343 Y19.478
X-28.244 Y19.559
G3 X-28.503 Y20.077 I-0.199 J0.225 F375
G1 X-28.568 Y20.064 Z-1.992
X-28.631 Y20.051 Z-1.97
X-28.686 Y20.04 Z-1.935
X-28.733 Y20.03 Z-1.887
X-28.768 Y20.023 Z-1.83
X-28.79 Y20.019 Z-1.767
X-28.797 Y20.017 Z-1.7
G0 Z5
X25.866 Y20.394
Z-1.4
G1 Z-1.7 F375
X25.872 Y20.39 Z-1.767
X25.891 Y20.379 Z-1.83
X25.921 Y20.36 Z-1.887
X25.962 Y20.334 Z-1.935
X26.01 Y20.304 Z-1.97
X26.064 Y20.271 Z-1.992
X26.12 Y20.235 Z-2
G3 X26.868 Y19.996 I0.841 J1.341
G1 X27.196 Y19.988 F500
X27.236 Y19.984
X27.36 Y19.963
X27.524 Y19.926
X27.687 Y19.878
X27.851 Y19.807
X28.015 Y19.719
X28.12 Y19.656
X28.179 Y19.613
X28.343 Y19.478
X28.484 Y19.329
X28.507 Y19.304
X28.625 Y19.165
X28.727 Y19.001
X28.812 Y18.837
X28.834 Y18.789
X28.88 Y18.674
X28.932 Y18.51
X28.966 Y18.346
X28.985 Y18.182
X28.998 Y17.797
X29 Y17.691
Y-17.691
X28.998 Y-17.797
X28.985 Y-18.182
X28.966 Y-18.346
X28.932 Y-18.51
X28.88 Y-18.674
X28.834 Y-18.789
X28.812 Y-18.837
X28.727 Y-19.001
X28.625 Y-19.165
X28.507 Y-19.304
X28.484 Y-19.329
X28.343 Y-19.478
X28.244 Y-19.559
G3 X28.503 Y-20.077 I0.199 J-0.225 F375
G1 X28.568 Y-20.064 Z-1.992
X28.631 Y-20.051 Z-1.97
X28.686 Y-20.04 Z-1.935
X28.733 Y-20.03 Z-1.887
X28.768 Y-20.023 Z-1.83
X28.79 Y-20.019 Z-1.767
X28.797 Y-20.017 Z-1.7
G0 Z15
G28 G91 Z0
G90
G28 G91 X0 Y0
G90
M5
M30
