(dim_test_150mm)
(T1  D=6 CR=0 - ZMIN=-3 - flat end mill)
G90 G94
G17
G21
G28 G91 Z0
G90

(Adaptive1)
T1
S18000 M3
G54
G0 X-103.826 Y-96.381
Z15
Z5
Z0.2
G1 Z-0.4 F600
X-103.819 Y-96.383 Z-0.494
X-103.797 Y-96.389 Z-0.585
X-103.762 Y-96.398 Z-0.672
X-103.715 Y-96.41 Z-0.753
X-103.656 Y-96.425 Z-0.824
X-103.586 Y-96.443 Z-0.885
X-103.508 Y-96.463 Z-0.935
X-103.424 Y-96.484 Z-0.971
X-103.335 Y-96.507 Z-0.993
X-103.245 Y-96.53 Z-1
G3 X-99.978 Y-97 I3.801 J14.839
G1 X96.867 F2000
X96.868 Y-96.972 F800
X96.856 Y-96.947
X96.799 Y-96.873 Z-0.993
X96.742 Y-96.8 Z-0.971
X96.689 Y-96.732 Z-0.935
X96.639 Y-96.669 Z-0.885
X96.595 Y-96.612 Z-0.824
X96.558 Y-96.564 Z-0.753
X96.527 Y-96.525 Z-0.672
X96.505 Y-96.497 Z-0.585
X96.492 Y-96.48 Z-0.494
X96.487 Y-96.474 Z-0.4
G0 Z5
X103.826 Y96.381
Z0.2
G1 Z-0.4 F600
X103.819 Y96.383 Z-0.494
X103.797 Y96.389 Z-0.585
X103.762 Y96.398 Z-0.672
X103.715 Y96.41 Z-0.753
X103.656 Y96.425 Z-0.824
X103.586 Y96.443 Z-0.885
X103.508 Y96.463 Z-0.935
X103.424 Y96.484 Z-0.971
X103.335 Y96.507 Z-0.993
X103.245 Y96.53 Z-1
G3 X99.978 Y97 I-3.801 J-14.839
G1 X-96.867 F2000
X-96.868 Y96.972 F800
X-96.856 Y96.947
X-96.799 Y96.873 Z-0.993
X-96.742 Y96.8 Z-0.971
X-96.689 Y96.732 Z-0.935
X-96.639 Y96.669 Z-0.885
X-96.595 Y96.612 Z-0.824
X-96.558 Y96.564 Z-0.753
X-96.527 Y96.525 Z-0.672
X-96.505 Y96.497 Z-0.585
X-96.492 Y96.48 Z-0.494
X-96.487 Y96.474 Z-0.4
G0 Z5
X-97.068 Y-96.6
Z3.1
G1 Z2.5 F600
Z-1 F10
X-96.957 F2000
X-96.662 Y-95.765
X-96.454 Y-94.903
X-96.307 Y-94.029
X-96.203 Y-93.149
X-96.131 Y-92.266
X-96.081 Y-91.381
X-96.047 Y-90.496
X-96.023 Y-89.61
X-96.006 Y-88.724
X-95.995 Y-87.838
X-95.987 Y-86.952
X-95.982 Y-86.066
X-95.978 Y-85.18
X-95.974 Y-83.408
X-95.971 Y-80.749
X-95.97 Y-71.888
Y-46.19
Y4.319
Y54.828
Y91.269
X-95.934 Y91.374
X-95.797 Y91.548
X-95.074 Y92.061
X-94.245 Y92.375
X-93.383 Y92.579
X-92.507 Y92.715
X-91.626 Y92.806
X-90.742 Y92.867
X-89.857 Y92.909
X-88.971 Y92.938
X-88.085 Y92.957
X-87.199 Y92.971
X-86.313 Y92.98
X-85.427 Y92.986
X-84.541 Y92.991
X-82.769 Y92.996
X-80.11 Y92.999
X-73.021 Y93
X-32.26
X18.249
X68.758
X94.234
X94.339 Y92.964
X94.513 Y92.827
X95.028 Y92.105
X95.343 Y91.277
X95.548 Y90.415
X95.684 Y89.54
X95.775 Y88.658
X95.837 Y87.774
X95.879 Y86.889
X95.908 Y86.003
X95.927 Y85.117
X95.941 Y84.231
X95.95 Y83.345
X95.956 Y82.459
X95.961 Y81.573
X95.966 Y79.801
X95.969 Y77.143
X95.97 Y70.054
Y68.281
Y17.772
Y-32.737
Y-83.246
Y-91.221
X95.934 Y-91.326
X95.797 Y-91.499
X95.089 Y-92.033
X94.264 Y-92.358
X93.404 Y-92.568
X92.528 Y-92.707
X91.647 Y-92.801
X90.763 Y-92.864
X89.878 Y-92.907
X88.993 Y-92.936
X88.107 Y-92.956
X87.221 Y-92.97
X86.335 Y-92.979
X85.449 Y-92.986
X84.562 Y-92.99
X82.79 Y-92.995
X80.132 Y-92.999
X73.043 Y-93
X53.548
X3.039
X-47.47
X-90.558
X-90.662 Y-92.964
X-90.749 Y-92.895
X-91.227 Y-92.149
X-91.491 Y-91.303
X-91.658 Y-90.433
X-91.766 Y-89.553
X-91.836 Y-88.67
X-91.882 Y-87.785
X-91.912 Y-86.899
X-91.932 Y-86.013
X-91.945 Y-85.127
X-91.954 Y-84.241
X-91.959 Y-83.355
X-91.963 Y-82.469
X-91.967 Y-80.697
X-91.969 Y-78.038
X-91.97 Y-62.088
Y-35.505
Y15.005
Y65.514
Y86.78
X-91.897 Y86.99
X-91.83 Y87.078
X-91.538 Y87.41
X-90.828 Y87.941
X-90.009 Y88.28
X-89.152 Y88.505
X-88.279 Y88.658
X-87.399 Y88.762
X-86.516 Y88.835
X-85.631 Y88.885
X-84.746 Y88.92
X-83.86 Y88.944
X-82.974 Y88.961
X-82.088 Y88.973
X-81.202 Y88.981
X-80.316 Y88.987
X-79.43 Y88.991
X-77.658 Y88.995
X-74.999 Y88.998
X-67.91 Y89
X-63.48
X-12.971
X37.538
X88.047
X89.82
X89.924 Y88.964
X90.284 Y88.705
X90.851 Y88.024
X91.21 Y87.214
X91.448 Y86.36
X91.609 Y85.489
X91.719 Y84.61
X91.796 Y83.727
X91.848 Y82.842
X91.885 Y81.957
X91.911 Y81.071
X91.929 Y80.185
X91.941 Y79.299
X91.95 Y78.413
X91.956 Y77.527
X91.96 Y76.641
X91.965 Y74.869
X91.968 Y72.21
X91.97 Y65.121
Y41.196
Y-9.313
Y-59.822
Y-86.849
X91.934 Y-86.953
X91.675 Y-87.313
X90.994 Y-87.88
X90.183 Y-88.239
X89.33 Y-88.477
X88.459 Y-88.638
X87.579 Y-88.749
X86.697 Y-88.825
X85.812 Y-88.878
X84.927 Y-88.915
X84.041 Y-88.941
X83.155 Y-88.959
X82.269 Y-88.971
X81.383 Y-88.98
X80.497 Y-88.986
X79.611 Y-88.99
X77.838 Y-88.995
X75.18 Y-88.998
X68.977 Y-89
X18.468
X-32.041
X-82.55
X-85.873
X-85.978 Y-88.964
X-86.338 Y-88.706
X-86.898 Y-88.02
X-87.248 Y-87.206
X-87.479 Y-86.35
X-87.633 Y-85.477
X-87.738 Y-84.597
X-87.81 Y-83.714
X-87.86 Y-82.83
X-87.894 Y-81.944
X-87.917 Y-81.058
X-87.934 Y-80.172
X-87.945 Y-79.286
X-87.953 Y-78.4
X-87.958 Y-77.514
X-87.962 Y-76.628
X-87.966 Y-74.856
X-87.969 Y-72.197
X-87.97 Y-63.336
Y-42.069
Y8.44
Y58.949
Y82.653
X-87.902 Y82.864
X-87.84 Y82.956
X-87.566 Y83.303
X-86.877 Y83.861
X-86.066 Y84.219
X-85.213 Y84.459
X-84.343 Y84.623
X-83.464 Y84.736
X-82.581 Y84.815
X-81.697 Y84.87
X-80.811 Y84.909
X-79.926 Y84.936
X-79.04 Y84.955
X-78.154 Y84.968
X-77.268 Y84.978
X-76.382 Y84.984
X-75.496 Y84.989
X-73.723 Y84.995
X-71.065 Y84.998
X-64.862 Y85
X-62.204
X-11.695
X38.814
X85.668
X85.877 Y84.927
X85.967 Y84.862
X86.307 Y84.578
X86.852 Y83.879
X87.204 Y83.066
X87.439 Y82.212
X87.6 Y81.34
X87.711 Y80.461
X87.789 Y79.579
X87.843 Y78.694
X87.881 Y77.809
X87.907 Y76.923
X87.926 Y76.037
X87.939 Y75.151
X87.948 Y74.265
X87.955 Y73.379
X87.959 Y72.493
X87.965 Y70.721
X87.968 Y68.062
X87.97 Y61.859
Y31.731
Y-18.778
Y-69.287
Y-82.689
X87.897 Y-82.899
X87.833 Y-82.989
X87.55 Y-83.33
X86.854 Y-83.878
X86.041 Y-84.231
X85.187 Y-84.467
X84.316 Y-84.629
X83.437 Y-84.74
X82.554 Y-84.818
X81.67 Y-84.872
X80.784 Y-84.91
X79.899 Y-84.937
X79.013 Y-84.956
X78.127 Y-84.969
X77.24 Y-84.978
X76.354 Y-84.985
X75.468 Y-84.989
X73.696 Y-84.995
X71.038 Y-84.998
X64.835 Y-85
X51.543
X1.034
X-49.475
X-81.708
X-81.917 Y-84.927
X-82.005 Y-84.861
X-82.34 Y-84.57
X-82.877 Y-83.865
X-83.222 Y-83.049
X-83.454 Y-82.194
X-83.611 Y-81.322
X-83.72 Y-80.442
X-83.795 Y-79.559
X-83.848 Y-78.675
X-83.884 Y-77.789
X-83.91 Y-76.904
X-83.928 Y-76.018
X-83.941 Y-75.132
X-83.949 Y-74.246
X-83.956 Y-73.36
X-83.96 Y-72.473
X-83.965 Y-70.701
X-83.968 Y-68.043
X-83.969 Y-67.157
X-83.97 Y-57.409
Y-16.648
Y33.861
Y78.611
X-83.91 Y78.824
X-83.85 Y78.917
X-83.581 Y79.269
X-82.898 Y79.834
X-82.091 Y80.199
X-81.239 Y80.444
X-80.369 Y80.611
X-79.491 Y80.727
X-78.608 Y80.808
X-77.724 Y80.865
X-76.839 Y80.905
X-75.953 Y80.933
X-75.067 Y80.952
X-74.181 Y80.966
X-73.295 Y80.976
X-72.409 Y80.983
X-71.523 Y80.988
X-70.637 Y80.992
X-68.864 Y80.996
X-66.206 Y80.999
X-58.231 Y81
X-28.103
X22.406
X72.915
X81.666
X81.875 Y80.927
X81.964 Y80.861
X82.3 Y80.572
X82.842 Y79.871
X83.194 Y79.058
X83.431 Y78.204
X83.593 Y77.333
X83.705 Y76.454
X83.784 Y75.571
X83.839 Y74.687
X83.878 Y73.802
X83.905 Y72.916
X83.924 Y72.03
X83.937 Y71.144
X83.947 Y70.258
X83.954 Y69.372
X83.959 Y68.486
X83.964 Y66.714
X83.968 Y64.055
X83.97 Y58.739
Y40.13
Y-10.379
Y-60.888
Y-78.611
X83.911 Y-78.824
X83.851 Y-78.917
X83.582 Y-79.27
X82.9 Y-79.835
X82.092 Y-80.199
X81.241 Y-80.444
X80.37 Y-80.612
X79.492 Y-80.727
X78.609 Y-80.808
X77.725 Y-80.865
X76.84 Y-80.905
X75.954 Y-80.933
X75.068 Y-80.953
X74.182 Y-80.966
X73.296 Y-80.976
X72.41 Y-80.983
X71.524 Y-80.988
X70.638 Y-80.992
X68.866 Y-80.996
X66.207 Y-80.999
X58.232 Y-81
X52.029
X1.52
X-48.989
X-77.677
X-77.886 Y-80.927
X-77.975 Y-80.861
X-78.309 Y-80.57
X-78.85 Y-79.868
X-79.2 Y-79.054
X-79.436 Y-78.2
X-79.597 Y-77.329
X-79.708 Y-76.45
X-79.786 Y-75.567
X-79.841 Y-74.682
X-79.879 Y-73.797
X-79.906 Y-72.911
X-79.925 Y-72.025
X-79.938 Y-71.139
X-79.948 Y-70.253
X-79.954 Y-69.367
X-79.959 Y-68.481
X-79.964 Y-66.709
X-79.968 Y-64.051
X-79.97 Y-59.62
Y-9.111
Y41.398
Y74.628
X-79.898 Y74.837
X-79.837 Y74.929
X-79.563 Y75.278
X-78.876 Y75.838
X-78.068 Y76.2
X-77.216 Y76.444
X-76.345 Y76.611
X-75.467 Y76.727
X-74.584 Y76.808
X-74.294 Y76.826
X-74.201 Y76.839
X-74.112 Y76.867
X-74.027 Y76.908
X-74 Y76.924
X-73.59 Y77.126
X-72.618 Y77.528
X-72.499 Y77.576
X-72.298 Y77.656
X-72.053 Y77.73
X-71.895 Y77.765
X-71.693 Y77.802
X-70.485 Y77.962
X-70.284 Y77.976
X-69.881 Y77.996
X-69.68 Y78
X69.68
X69.881 Y77.996
X70.284 Y77.976
X70.485 Y77.962
X71.693 Y77.802
X71.895 Y77.765
X72.053 Y77.73
X72.096 Y77.717
X72.956 Y77.504
X73.829 Y77.351
X74.709 Y77.243
X75.592 Y77.168
X76.476 Y77.116
X77.362 Y77.08
X77.583 Y77.074
X77.793 Y77.002
X78.162 Y76.758
X78.753 Y76.098
X79.133 Y75.297
X79.388 Y74.448
X79.562 Y73.579
X79.684 Y72.702
X79.768 Y71.82
X79.828 Y70.935
X79.869 Y70.05
X79.899 Y69.165
X79.92 Y68.279
X79.934 Y67.393
X79.945 Y66.507
X79.952 Y65.621
X79.957 Y64.735
X79.961 Y63.848
X79.965 Y62.076
X79.968 Y59.418
X79.97 Y52.329
Y32.834
Y-17.675
Y-68.184
Y-74.608
X79.907 Y-74.821
X79.847 Y-74.914
X79.577 Y-75.265
X78.895 Y-75.83
X78.087 Y-76.195
X77.236 Y-76.441
X76.366 Y-76.609
X75.487 Y-76.725
X74.605 Y-76.806
X74.293 Y-76.826
X74.201 Y-76.84
X74.111 Y-76.867
X74.027 Y-76.909
X74 Y-76.924
X73.59 Y-77.126
X72.618 Y-77.528
X72.499 Y-77.576
X72.298 Y-77.656
X72.053 Y-77.73
X71.895 Y-77.765
X71.693 Y-77.802
X70.485 Y-77.962
X70.284 Y-77.976
X69.881 Y-77.996
X69.68 Y-78
X-69.68
X-69.881 Y-77.996
X-70.284 Y-77.976
X-70.485 Y-77.962
X-71.693 Y-77.802
X-71.895 Y-77.765
X-72.053 Y-77.73
X-72.096 Y-77.717
X-72.956 Y-77.504
X-73.393 Y-77.427
X-73.612 Y-77.395
X-74.011 Y-77.202
X-74.648 Y-76.587
X-74.695 Y-76.498
X-74.74 Y-76.424
X-74.796 Y-76.358
X-74.861 Y-76.3
G3 X-75.591 Y-76.324 I-0.35 J-0.488 F800
X-75.484 Y-77.322 I0.381 J-0.464 F2000
G1 X-72.563 Y-78.819
G3 X-71.691 Y-78.324 I0.274 J0.534
G1 X-71.689 Y-78.286 F600
Y-78.285
G3 X-72.096 Y-77.717 I-0.6 J0
G1 X-72.298 Y-77.656 F2000
X-72.499 Y-77.576
X-72.7 Y-77.494
X-73.59 Y-77.126
X-74 Y-76.924
X-74.11 Y-76.859
X-74.312 Y-76.715
X-74.859 Y-76.301
X-75.355 Y-75.917
X-75.52 Y-75.782
X-75.592 Y-75.716
X-75.721 Y-75.575
X-75.942 Y-75.313
X-76.107 Y-75.112
X-76.571 Y-74.508
X-76.728 Y-74.3
X-76.861 Y-74.105
X-76.93 Y-73.991
X-76.977 Y-73.904
X-77.073 Y-73.702
X-77.245 Y-73.3
X-77.332 Y-73.091
X-77.534 Y-72.605
X-77.579 Y-72.494
X-77.655 Y-72.293
X-77.717 Y-72.091
X-77.735 Y-72.026
X-77.765 Y-71.89
X-77.857 Y-71.286
X-77.936 Y-70.679
X-77.957 Y-70.48
X-77.995 Y-70.078
X-78 Y-69.876
Y69.876
X-77.995 Y70.078
X-77.957 Y70.48
X-77.936 Y70.682
X-77.857 Y71.286
X-77.765 Y71.89
X-77.735 Y72.026
X-77.717 Y72.091
X-77.655 Y72.293
X-77.579 Y72.494
X-77.496 Y72.696
X-77.329 Y73.098
X-77.131 Y73.567
X-77.073 Y73.702
X-76.977 Y73.904
X-76.93 Y73.991
X-76.861 Y74.105
X-76.724 Y74.307
X-76.527 Y74.565
X-76.107 Y75.112
X-75.923 Y75.337
X-75.721 Y75.575
X-75.592 Y75.716
X-75.52 Y75.782
X-75.355 Y75.917
X-74.834 Y76.32
X-74.301 Y76.723
X-74.11 Y76.859
X-74.027 Y76.908
G3 X-73.778 Y77.595 I-0.323 J0.506 F800
G1 X-73.807 Y77.684 Z-0.993
X-73.834 Y77.772 Z-0.971
X-73.86 Y77.855 Z-0.935
X-73.885 Y77.931 Z-0.885
X-73.906 Y77.999 Z-0.824
X-73.925 Y78.058 Z-0.753
X-73.939 Y78.105 Z-0.672
X-73.95 Y78.139 Z-0.585
X-73.957 Y78.16 Z-0.494
X-73.959 Y78.167 Z-0.4
G0 Z5
X71.033 Y78.588
Z0.2
G1 Z-0.4 F600
X71.038 Y78.583 Z-0.494
X71.053 Y78.567 Z-0.585
X71.077 Y78.54 Z-0.672
X71.111 Y78.504 Z-0.753
X71.152 Y78.459 Z-0.824
X71.2 Y78.406 Z-0.885
X71.255 Y78.347 Z-0.935
X71.313 Y78.283 Z-0.971
X71.375 Y78.215 Z-0.993
X71.439 Y78.146 Z-1
G3 X72.096 Y77.717 I1.167 J1.069
G1 X72.298 Y77.656 F2000
X72.499 Y77.576
X72.7 Y77.494
X73.59 Y77.126
X74 Y76.924
X74.11 Y76.859
X74.312 Y76.715
X74.834 Y76.32
X75.355 Y75.917
X75.52 Y75.782
X75.592 Y75.716
X75.721 Y75.575
X75.942 Y75.313
X76.107 Y75.112
X76.571 Y74.508
X76.728 Y74.3
X76.861 Y74.105
X76.93 Y73.991
X76.977 Y73.904
X77.073 Y73.702
X77.245 Y73.3
X77.332 Y73.091
X77.534 Y72.605
X77.579 Y72.494
X77.655 Y72.293
X77.717 Y72.091
X77.735 Y72.026
X77.765 Y71.89
X77.857 Y71.286
X77.936 Y70.679
X77.957 Y70.48
X77.995 Y70.078
X78 Y69.876
Y-69.876
X77.995 Y-70.078
X77.957 Y-70.48
X77.936 Y-70.682
X77.857 Y-71.286
X77.765 Y-71.89
X77.735 Y-72.026
X77.717 Y-72.091
X77.655 Y-72.293
X77.579 Y-72.494
X77.496 Y-72.696
X77.329 Y-73.098
X77.131 Y-73.567
X77.073 Y-73.702
X76.977 Y-73.904
X76.93 Y-73.991
X76.861 Y-74.105
X76.724 Y-74.307
X76.527 Y-74.565
X76.107 Y-75.112
X75.923 Y-75.337
X75.721 Y-75.575
X75.592 Y-75.716
X75.52 Y-75.782
X75.355 Y-75.917
X74.834 Y-76.32
X74.301 Y-76.723
X74.11 Y-76.859
X74.027 Y-76.909
X73.953 Y-76.964 F800
X73.888 Y-77.031
X73.852 Y-77.095 Z-0.995
X73.817 Y-77.158 Z-0.982
X73.782 Y-77.22 Z-0.959
X73.77 Y-77.29 Z-0.925
X73.76 Y-77.355 Z-0.883
X73.75 Y-77.414 Z-0.832
X73.759 Y-77.477 Z-0.76
X73.767 Y-77.528 Z-0.678
X73.773 Y-77.565 Z-0.59
X73.777 Y-77.588 Z-0.496
X73.778 Y-77.595 Z-0.4
G0 Z5
X-103.826 Y-96.381
Z-0.8
G1 Z-1.4 F600
X-103.819 Y-96.383 Z-1.494
X-103.797 Y-96.389 Z-1.585
X-103.762 Y-96.398 Z-1.672
X-103.715 Y-96.41 Z-1.753
X-103.656 Y-96.425 Z-1.824
X-103.586 Y-96.443 Z-1.885
X-103.508 Y-96.463 Z-1.935
X-103.424 Y-96.484 Z-1.971
X-103.335 Y-96.507 Z-1.993
X-103.245 Y-96.53 Z-2
G3 X-99.978 Y-97 I3.801 J14.839
G1 X96.867 F2000
X96.868 Y-96.972 F800
X96.856 Y-96.947
X96.799 Y-96.873 Z-1.993
X96.742 Y-96.8 Z-1.971
X96.689 Y-96.732 Z-1.935
X96.639 Y-96.669 Z-1.885
X96.595 Y-96.612 Z-1.824
X96.558 Y-96.564 Z-1.753
X96.527 Y-96.525 Z-1.672
X96.505 Y-96.497 Z-1.585
X96.492 Y-96.48 Z-1.494
X96.487 Y-96.474 Z-1.4
G0 Z5
X103.826 Y96.381
Z-0.8
G1 Z-1.4 F600
X103.819 Y96.383 Z-1.494
X103.797 Y96.389 Z-1.585
X103.762 Y96.398 Z-1.672
X103.715 Y96.41 Z-1.753
X103.656 Y96.425 Z-1.824
X103.586 Y96.443 Z-1.885
X103.508 Y96.463 Z-1.935
X103.424 Y96.484 Z-1.971
X103.335 Y96.507 Z-1.993
X103.245 Y96.53 Z-2
G3 X99.978 Y97 I-3.801 J-14.839
G1 X-96.867 F2000
X-96.868 Y96.972 F800
X-96.856 Y96.947
X-96.799 Y96.873 Z-1.993
X-96.742 Y96.8 Z-1.971
X-96.689 Y96.732 Z-1.935
X-96.639 Y96.669 Z-1.885
X-96.595 Y96.612 Z-1.824
X-96.558 Y96.564 Z-1.753
X-96.527 Y96.525 Z-1.672
X-96.505 Y96.497 Z-1.585
X-96.492 Y96.48 Z-1.494
X-96.487 Y96.474 Z-1.4
G0 Z5
X-97.068 Y-96.6
Z2.1
G1 Z1.5 F600
Z-2 F10
X-96.957 F2000
X-96.662 Y-95.765
X-96.454 Y-94.903
X-96.307 Y-94.029
X-96.203 Y-93.149
X-96.131 Y-92.266
X-96.081 Y-91.381
X-96.047 Y-90.496
X-96.023 Y-89.61
X-96.006 Y-88.724
X-95.995 Y-87.838
X-95.987 Y-86.952
X-95.982 Y-86.066
X-95.978 Y-85.18
X-95.974 Y-83.408
X-95.971 Y-80.749
X-95.97 Y-71.888
Y-46.19
Y4.319
Y54.828
Y91.269
X-95.934 Y91.374
X-95.797 Y91.548
X-95.074 Y92.061
X-94.245 Y92.375
X-93.383 Y92.579
X-92.507 Y92.715
X-91.626 Y92.806
X-90.742 Y92.867
X-89.857 Y92.909
X-88.971 Y92.938
X-88.085 Y92.957
X-87.199 Y92.971
X-86.313 Y92.98
X-85.427 Y92.986
X-84.541 Y92.991
X-82.769 Y92.996
X-80.11 Y92.999
X-73.021 Y93
X-32.26
X18.249
X68.758
X94.234
X94.339 Y92.964
X94.513 Y92.827
X95.028 Y92.105
X95.343 Y91.277
X95.548 Y90.415
X95.684 Y89.54
X95.775 Y88.658
X95.837 Y87.774
X95.879 Y86.889
X95.908 Y86.003
X95.927 Y85.117
X95.941 Y84.231
X95.95 Y83.345
X95.956 Y82.459
X95.961 Y81.573
X95.966 Y79.801
X95.969 Y77.143
X95.97 Y70.054
Y68.281
Y17.772
Y-32.737
Y-83.246
Y-91.221
X95.934 Y-91.326
X95.797 Y-91.499
X95.089 Y-92.033
X94.264 Y-92.358
X93.404 Y-92.568
X92.528 Y-92.707
X91.647 Y-92.801
X90.763 Y-92.864
X89.878 Y-92.907
X88.993 Y-92.936
X88.107 Y-92.956
X87.221 Y-92.97
X86.335 Y-92.979
X85.449 Y-92.986
X84.562 Y-92.99
X82.79 Y-92.995
X80.132 Y-92.999
X73.043 Y-93
X53.548
X3.039
X-47.47
X-90.558
X-90.662 Y-92.964
X-90.749 Y-92.895
X-91.227 Y-92.149
X-91.491 Y-91.303
X-91.658 Y-90.433
X-91.766 Y-89.553
X-91.836 Y-88.67
X-91.882 Y-87.785
X-91.912 Y-86.899
X-91.932 Y-86.013
X-91.945 Y-85.127
X-91.954 Y-84.241
X-91.959 Y-83.355
X-91.963 Y-82.469
X-91.967 Y-80.697
X-91.969 Y-78.038
X-91.97 Y-62.088
Y-35.505
Y15.005
Y65.514
Y86.78
X-91.897 Y86.99
X-91.83 Y87.078
X-91.538 Y87.41
X-90.828 Y87.941
X-90.009 Y88.28
X-89.152 Y88.505
X-88.279 Y88.658
X-87.399 Y88.762
X-86.516 Y88.835
X-85.631 Y88.885
X-84.746 Y88.92
X-83.86 Y88.944
X-82.974 Y88.961
X-82.088 Y88.973
X-81.202 Y88.981
X-80.316 Y88.987
X-79.43 Y88.991
X-77.658 Y88.995
X-74.999 Y88.998
X-67.91 Y89
X-63.48
X-12.971
X37.538
X88.047
X89.82
X89.924 Y88.964
X90.284 Y88.705
X90.851 Y88.024
X91.21 Y87.214
X91.448 Y86.36
X91.609 Y85.489
X91.719 Y84.61
X91.796 Y83.727
X91.848 Y82.842
X91.885 Y81.957
X91.911 Y81.071
X91.929 Y80.185
X91.941 Y79.299
X91.95 Y78.413
X91.956 Y77.527
X91.96 Y76.641
X91.965 Y74.869
X91.968 Y72.21
X91.97 Y65.121
Y41.196
Y-9.313
Y-59.822
Y-86.849
X91.934 Y-86.953
X91.675 Y-87.313
X90.994 Y-87.88
X90.183 Y-88.239
X89.33 Y-88.477
X88.459 Y-88.638
X87.579 Y-88.749
X86.697 Y-88.825
X85.812 Y-88.878
X84.927 Y-88.915
X84.041 Y-88.941
X83.155 Y-88.959
X82.269 Y-88.971
X81.383 Y-88.98
X80.497 Y-88.986
X79.611 Y-88.99
X77.838 Y-88.995
X75.18 Y-88.998
X68.977 Y-89
X18.468
X-32.041
X-82.55
X-85.873
X-85.978 Y-88.964
X-86.338 Y-88.706
X-86.898 Y-88.02
X-87.248 Y-87.206
X-87.479 Y-86.35
X-87.633 Y-85.477
X-87.738 Y-84.597
X-87.81 Y-83.714
X-87.86 Y-82.83
X-87.894 Y-81.944
X-87.917 Y-81.058
X-87.934 Y-80.172
X-87.945 Y-79.286
X-87.953 Y-78.4
X-87.958 Y-77.514
X-87.962 Y-76.628
X-87.966 Y-74.856
X-87.969 Y-72.197
X-87.97 Y-63.336
Y-42.069
Y8.44
Y58.949
Y82.653
X-87.902 Y82.864
X-87.84 Y82.956
X-87.566 Y83.303
X-86.877 Y83.861
X-86.066 Y84.219
X-85.213 Y84.459
X-84.343 Y84.623
X-83.464 Y84.736
X-82.581 Y84.815
X-81.697 Y84.87
X-80.811 Y84.909
X-79.926 Y84.936
X-79.04 Y84.955
X-78.154 Y84.968
X-77.268 Y84.978
X-76.382 Y84.984
X-75.496 Y84.989
X-73.723 Y84.995
X-71.065 Y84.998
X-64.862 Y85
X-62.204
X-11.695
X38.814
X85.668
X85.877 Y84.927
X85.967 Y84.862
X86.307 Y84.578
X86.852 Y83.879
X87.204 Y83.066
X87.439 Y82.212
X87.6 Y81.34
X87.711 Y80.461
X87.789 Y79.579
X87.843 Y78.694
X87.881 Y77.809
X87.907 Y76.923
X87.926 Y76.037
X87.939 Y75.151
X87.948 Y74.265
X87.955 Y73.379
X87.959 Y72.493
X87.965 Y70.721
X87.968 Y68.062
X87.97 Y61.859
Y31.731
Y-18.778
Y-69.287
Y-82.689
X87.897 Y-82.899
X87.833 Y-82.989
X87.55 Y-83.33
X86.854 Y-83.878
X86.041 Y-84.231
X85.187 Y-84.467
X84.316 Y-84.629
X83.437 Y-84.74
X82.554 Y-84.818
X81.67 Y-84.872
X80.784 Y-84.91
X79.899 Y-84.937
X79.013 Y-84.956
X78.127 Y-84.969
X77.24 Y-84.978
X76.354 Y-84.985
X75.468 Y-84.989
X73.696 Y-84.995
X71.038 Y-84.998
X64.835 Y-85
X51.543
X1.034
X-49.475
X-81.708
X-81.917 Y-84.927
X-82.005 Y-84.861
X-82.34 Y-84.57
X-82.877 Y-83.865
X-83.222 Y-83.049
X-83.454 Y-82.194
X-83.611 Y-81.322
X-83.72 Y-80.442
X-83.795 Y-79.559
X-83.848 Y-78.675
X-83.884 Y-77.789
X-83.91 Y-76.904
X-83.928 Y-76.018
X-83.941 Y-75.132
X-83.949 Y-74.246
X-83.956 Y-73.36
X-83.96 Y-72.473
X-83.965 Y-70.701
X-83.968 Y-68.043
X-83.969 Y-67.157
X-83.97 Y-57.409
Y-16.648
Y33.861
Y78.611
X-83.91 Y78.824
X-83.85 Y78.917
X-83.581 Y79.269
X-82.898 Y79.834
X-82.091 Y80.199
X-81.239 Y80.444
X-80.369 Y80.611
X-79.491 Y80.727
X-78.608 Y80.808
X-77.724 Y80.865
X-76.839 Y80.905
X-75.953 Y80.933
X-75.067 Y80.952
X-74.181 Y80.966
X-73.295 Y80.976
X-72.409 Y80.983
X-71.523 Y80.988
X-70.637 Y80.992
X-68.864 Y80.996
X-66.206 Y80.999
X-58.231 Y81
X-28.103
X22.406
X72.915
X81.666
X81.875 Y80.927
X81.964 Y80.861
X82.3 Y80.572
X82.842 Y79.871
X83.194 Y79.058
X83.431 Y78.204
X83.593 Y77.333
X83.705 Y76.454
X83.784 Y75.571
X83.839 Y74.687
X83.878 Y73.802
X83.905 Y72.916
X83.924 Y72.03
X83.937 Y71.144
X83.947 Y70.258
X83.954 Y69.372
X83.959 Y68.486
X83.964 Y66.714
X83.968 Y64.055
X83.97 Y58.739
Y40.13
Y-10.379
Y-60.888
Y-78.611
X83.911 Y-78.824
X83.851 Y-78.917
X83.582 Y-79.27
X82.9 Y-79.835
X82.092 Y-80.199
X81.241 Y-80.444
X80.37 Y-80.612
X79.492 Y-80.727
X78.609 Y-80.808
X77.725 Y-80.865
X76.84 Y-80.905
X75.954 Y-80.933
X75.068 Y-80.953
X74.182 Y-80.966
X73.296 Y-80.976
X72.41 Y-80.983
X71.524 Y-80.988
X70.638 Y-80.992
X68.866 Y-80.996
X66.207 Y-80.999
X58.232 Y-81
X52.029
X1.52
X-48.989
X-77.677
X-77.886 Y-80.927
X-77.975 Y-80.861
X-78.309 Y-80.57
X-78.85 Y-79.868
X-79.2 Y-79.054
X-79.436 Y-78.2
X-79.597 Y-77.329
X-79.708 Y-76.45
X-79.786 Y-75.567
X-79.841 Y-74.682
X-79.879 Y-73.797
X-79.906 Y-72.911
X-79.925 Y-72.025
X-79.938 Y-71.139
X-79.948 Y-70.253
X-79.954 Y-69.367
X-79.959 Y-68.481
X-79.964 Y-66.709
X-79.968 Y-64.051
X-79.97 Y-59.62
Y-9.111
Y41.398
Y74.628
X-79.898 Y74.837
X-79.837 Y74.929
X-79.563 Y75.278
X-78.876 Y75.838
X-78.068 Y76.2
X-77.216 Y76.444
X-76.345 Y76.611
X-75.467 Y76.727
X-74.584 Y76.808
X-74.294 Y76.826
X-74.201 Y76.839
X-74.112 Y76.867
X-74.027 Y76.908
X-74 Y76.924
X-73.59 Y77.126
X-72.618 Y77.528
X-72.499 Y77.576
X-72.298 Y77.656
X-72.053 Y77.73
X-71.895 Y77.765
X-71.693 Y77.802
X-70.485 Y77.962
X-70.284 Y77.976
X-69.881 Y77.996
X-69.68 Y78
X69.68
X69.881 Y77.996
X70.284 Y77.976
X70.485 Y77.962
X71.693 Y77.802
X71.895 Y77.765
X72.053 Y77.73
X72.096 Y77.717
X72.956 Y77.504
X73.829 Y77.351
X74.709 Y77.243
X75.592 Y77.168
X76.476 Y77.116
X77.362 Y77.08
X77.583 Y77.074
X77.793 Y77.002
X78.162 Y76.758
X78.753 Y76.098
X79.133 Y75.297
X79.388 Y74.448
X79.562 Y73.579
X79.684 Y72.702
X79.768 Y71.82
X79.828 Y70.935
X79.869 Y70.05
X79.899 Y69.165
X79.92 Y68.279
X79.934 Y67.393
X79.945 Y66.507
X79.952 Y65.621
X79.957 Y64.735
X79.961 Y63.848
X79.965 Y62.076
X79.968 Y59.418
X79.97 Y52.329
Y32.834
Y-17.675
Y-68.184
Y-74.608
X79.907 Y-74.821
X79.847 Y-74.914
X79.577 Y-75.265
X78.895 Y-75.83
X78.087 Y-76.195
X77.236 Y-76.441
X76.366 Y-76.609
X75.487 Y-76.725
X74.605 Y-76.806
X74.293 Y-76.826
X74.201 Y-76.84
X74.111 Y-76.867
X74.027 Y-76.909
X74 Y-76.924
X73.59 Y-77.126
X72.618 Y-77.528
X72.499 Y-77.576
X72.298 Y-77.656
X72.053 Y-77.73
X71.895 Y-77.765
X71.693 Y-77.802
X70.485 Y-77.962
X70.284 Y-77.976
X69.881 Y-77.996
X69.68 Y-78
X-69.68
X-69.881 Y-77.996
X-70.284 Y-77.976
X-70.485 Y-77.962
X-71.693 Y-77.802
X-71.895 Y-77.765
X-72.053 Y-77.73
X-72.096 Y-77.717
X-72.956 Y-77.504
X-73.393 Y-77.427
X-73.612 Y-77.395
X-74.011 Y-77.202
X-74.648 Y-76.587
X-74.695 Y-76.498
X-74.74 Y-76.424
X-74.796 Y-76.358
X-74.861 Y-76.3
G3 X-75.591 Y-76.324 I-0.35 J-0.488 F800
X-75.484 Y-77.322 I0.381 J-0.464 F2000
G1 X-72.563 Y-78.819
G3 X-71.691 Y-78.324 I0.274 J0.534
G1 X-71.689 Y-78.286 F600
Y-78.285
G3 X-72.096 Y-77.717 I-0.6 J0
G1 X-72.298 Y-77.656 F2000
X-72.499 Y-77.576
X-72.7 Y-77.494
X-73.59 Y-77.126
X-74 Y-76.924
X-74.11 Y-76.859
X-74.312 Y-76.715
X-74.859 Y-76.301
X-75.355 Y-75.917
X-75.52 Y-75.782
X-75.592 Y-75.716
X-75.721 Y-75.575
X-75.942 Y-75.313
X-76.107 Y-75.112
X-76.571 Y-74.508
X-76.728 Y-74.3
X-76.861 Y-74.105
X-76.93 Y-73.991
X-76.977 Y-73.904
X-77.073 Y-73.702
X-77.245 Y-73.3
X-77.332 Y-73.091
X-77.534 Y-72.605
X-77.579 Y-72.494
X-77.655 Y-72.293
X-77.717 Y-72.091
X-77.735 Y-72.026
X-77.765 Y-71.89
X-77.857 Y-71.286
X-77.936 Y-70.679
X-77.957 Y-70.48
X-77.995 Y-70.078
X-78 Y-69.876
Y69.876
X-77.995 Y70.078
X-77.957 Y70.48
X-77.936 Y70.682
X-77.857 Y71.286
X-77.765 Y71.89
X-77.735 Y72.026
X-77.717 Y72.091
X-77.655 Y72.293
X-77.579 Y72.494
X-77.496 Y72.696
X-77.329 Y73.098
X-77.131 Y73.567
X-77.073 Y73.702
X-76.977 Y73.904
X-76.93 Y73.991
X-76.861 Y74.105
X-76.724 Y74.307
X-76.527 Y74.565
X-76.107 Y75.112
X-75.923 Y75.337
X-75.721 Y75.575
X-75.592 Y75.716
X-75.52 Y75.782
X-75.355 Y75.917
X-74.834 Y76.32
X-74.301 Y76.723
X-74.11 Y76.859
X-74.027 Y76.908
G3 X-73.778 Y77.595 I-0.323 J0.506 F800
G1 X-73.807 Y77.684 Z-1.993
X-73.834 Y77.772 Z-1.971
X-73.86 Y77.855 Z-1.935
X-73.885 Y77.931 Z-1.885
X-73.906 Y77.999 Z-1.824
X-73.925 Y78.058 Z-1.753
X-73.939 Y78.105 Z-1.672
X-73.95 Y78.139 Z-1.585
X-73.957 Y78.16 Z-1.494
X-73.959 Y78.167 Z-1.4
G0 Z5
X71.033 Y78.588
Z-0.8
G1 Z-1.4 F600
X71.038 Y78.583 Z-1.494
X71.053 Y78.567 Z-1.585
X71.077 Y78.54 Z-1.672
X71.111 Y78.504 Z-1.753
X71.152 Y78.459 Z-1.824
X71.2 Y78.406 Z-1.885
X71.255 Y78.347 Z-1.935
X71.313 Y78.283 Z-1.971
X71.375 Y78.215 Z-1.993
X71.439 Y78.146 Z-2
G3 X72.096 Y77.717 I1.167 J1.069
G1 X72.298 Y77.656 F2000
X72.499 Y77.576
X72.7 Y77.494
X73.59 Y77.126
X74 Y76.924
X74.11 Y76.859
X74.312 Y76.715
X74.834 Y76.32
X75.355 Y75.917
X75.52 Y75.782
X75.592 Y75.716
X75.721 Y75.575
X75.942 Y75.313
X76.107 Y75.112
X76.571 Y74.508
X76.728 Y74.3
X76.861 Y74.105
X76.93 Y73.991
X76.977 Y73.904
X77.073 Y73.702
X77.245 Y73.3
X77.332 Y73.091
X77.534 Y72.605
X77.579 Y72.494
X77.655 Y72.293
X77.717 Y72.091
X77.735 Y72.026
X77.765 Y71.89
X77.857 Y71.286
X77.936 Y70.679
X77.957 Y70.48
X77.995 Y70.078
X78 Y69.876
Y-69.876
X77.995 Y-70.078
X77.957 Y-70.48
X77.936 Y-70.682
X77.857 Y-71.286
X77.765 Y-71.89
X77.735 Y-72.026
X77.717 Y-72.091
X77.655 Y-72.293
X77.579 Y-72.494
X77.496 Y-72.696
X77.329 Y-73.098
X77.131 Y-73.567
X77.073 Y-73.702
X76.977 Y-73.904
X76.93 Y-73.991
X76.861 Y-74.105
X76.724 Y-74.307
X76.527 Y-74.565
X76.107 Y-75.112
X75.923 Y-75.337
X75.721 Y-75.575
X75.592 Y-75.716
X75.52 Y-75.782
X75.355 Y-75.917
X74.834 Y-76.32
X74.301 Y-76.723
X74.11 Y-76.859
X74.027 Y-76.909
X73.953 Y-76.964 F800
X73.888 Y-77.031
X73.852 Y-77.095 Z-1.995
X73.817 Y-77.158 Z-1.982
X73.782 Y-77.22 Z-1.959
X73.77 Y-77.29 Z-1.925
X73.76 Y-77.355 Z-1.883
X73.75 Y-77.414 Z-1.832
X73.759 Y-77.477 Z-1.76
X73.767 Y-77.528 Z-1.678
X73.773 Y-77.565 Z-1.59
X73.777 Y-77.588 Z-1.496
X73.778 Y-77.595 Z-1.4
G0 Z5
X-103.826 Y-96.381
Z-1.8
G1 Z-2.4 F600
X-103.819 Y-96.383 Z-2.494
X-103.797 Y-96.389 Z-2.585
X-103.762 Y-96.398 Z-2.672
X-103.715 Y-96.41 Z-2.753
X-103.656 Y-96.425 Z-2.824
X-103.586 Y-96.443 Z-2.885
X-103.508 Y-96.463 Z-2.935
X-103.424 Y-96.484 Z-2.971
X-103.335 Y-96.507 Z-2.993
X-103.245 Y-96.53 Z-3
G3 X-99.978 Y-97 I3.801 J14.839
G1 X96.867 F2000
X96.868 Y-96.972 F800
X96.856 Y-96.947
X96.799 Y-96.873 Z-2.993
X96.742 Y-96.8 Z-2.971
X96.689 Y-96.732 Z-2.935
X96.639 Y-96.669 Z-2.885
X96.595 Y-96.612 Z-2.824
X96.558 Y-96.564 Z-2.753
X96.527 Y-96.525 Z-2.672
X96.505 Y-96.497 Z-2.585
X96.492 Y-96.48 Z-2.494
X96.487 Y-96.474 Z-2.4
G0 Z5
X103.826 Y96.381
Z-1.8
G1 Z-2.4 F600
X103.819 Y96.383 Z-2.494
X103.797 Y96.389 Z-2.585
X103.762 Y96.398 Z-2.672
X103.715 Y96.41 Z-2.753
X103.656 Y96.425 Z-2.824
X103.586 Y96.443 Z-2.885
X103.508 Y96.463 Z-2.935
X103.424 Y96.484 Z-2.971
X103.335 Y96.507 Z-2.993
X103.245 Y96.53 Z-3
G3 X99.978 Y97 I-3.801 J-14.839
G1 X-96.867 F2000
X-96.868 Y96.972 F800
X-96.856 Y96.947
X-96.799 Y96.873 Z-2.993
X-96.742 Y96.8 Z-2.971
X-96.689 Y96.732 Z-2.935
X-96.639 Y96.669 Z-2.885
X-96.595 Y96.612 Z-2.824
X-96.558 Y96.564 Z-2.753
X-96.527 Y96.525 Z-2.672
X-96.505 Y96.497 Z-2.585
X-96.492 Y96.48 Z-2.494
X-96.487 Y96.474 Z-2.4
G0 Z5
X-97.068 Y-96.6
Z1.1
G1 Z0.5 F600
Z-3 F10
X-96.957 F2000
X-96.662 Y-95.765
X-96.454 Y-94.903
X-96.307 Y-94.029
X-96.203 Y-93.149
X-96.131 Y-92.266
X-96.081 Y-91.381
X-96.047 Y-90.496
X-96.023 Y-89.61
X-96.006 Y-88.724
X-95.995 Y-87.838
X-95.987 Y-86.952
X-95.982 Y-86.066
X-95.978 Y-85.18
X-95.974 Y-83.408
X-95.971 Y-80.749
X-95.97 Y-71.888
Y-46.19
Y4.319
Y54.828
Y91.269
X-95.934 Y91.374
X-95.797 Y91.548
X-95.074 Y92.061
X-94.245 Y92.375
X-93.383 Y92.579
X-92.507 Y92.715
X-91.626 Y92.806
X-90.742 Y92.867
X-89.857 Y92.909
X-88.971 Y92.938
X-88.085 Y92.957
X-87.199 Y92.971
X-86.313 Y92.98
X-85.427 Y92.986
X-84.541 Y92.991
X-82.769 Y92.996
X-80.11 Y92.999
X-73.021 Y93
X-32.26
X18.249
X68.758
X94.234
X94.339 Y92.964
X94.513 Y92.827
X95.028 Y92.105
X95.343 Y91.277
X95.548 Y90.415
X95.684 Y89.54
X95.775 Y88.658
X95.837 Y87.774
X95.879 Y86.889
X95.908 Y86.003
X95.927 Y85.117
X95.941 Y84.231
X95.95 Y83.345
X95.956 Y82.459
X95.961 Y81.573
X95.966 Y79.801
X95.969 Y77.143
X95.97 Y70.054
Y68.281
Y17.772
Y-32.737
Y-83.246
Y-91.221
X95.934 Y-91.326
X95.797 Y-91.499
X95.089 Y-92.033
X94.264 Y-92.358
X93.404 Y-92.568
X92.528 Y-92.707
X91.647 Y-92.801
X90.763 Y-92.864
X89.878 Y-92.907
X88.993 Y-92.936
X88.107 Y-92.956
X87.221 Y-92.97
X86.335 Y-92.979
X85.449 Y-92.986
X84.562 Y-92.99
X82.79 Y-92.995
X80.132 Y-92.999
X73.043 Y-93
X53.548
X3.039
X-47.47
X-90.558
X-90.662 Y-92.964
X-90.749 Y-92.895
X-91.227 Y-92.149
X-91.491 Y-91.303
X-91.658 Y-90.433
X-91.766 Y-89.553
X-91.836 Y-88.67
X-91.882 Y-87.785
X-91.912 Y-86.899
X-91.932 Y-86.013
X-91.945 Y-85.127
X-91.954 Y-84.241
X-91.959 Y-83.355
X-91.963 Y-82.469
X-91.967 Y-80.697
X-91.969 Y-78.038
X-91.97 Y-62.088
Y-35.505
Y15.005
Y65.514
Y86.78
X-91.897 Y86.99
X-91.83 Y87.078
X-91.538 Y87.41
X-90.828 Y87.941
X-90.009 Y88.28
X-89.152 Y88.505
X-88.279 Y88.658
X-87.399 Y88.762
X-86.516 Y88.835
X-85.631 Y88.885
X-84.746 Y88.92
X-83.86 Y88.944
X-82.974 Y88.961
X-82.088 Y88.973
X-81.202 Y88.981
X-80.316 Y88.987
X-79.43 Y88.991
X-77.658 Y88.995
X-74.999 Y88.998
X-67.91 Y89
X-63.48
X-12.971
X37.538
X88.047
X89.82
X89.924 Y88.964
X90.284 Y88.705
X90.851 Y88.024
X91.21 Y87.214
X91.448 Y86.36
X91.609 Y85.489
X91.719 Y84.61
X91.796 Y83.727
X91.848 Y82.842
X91.885 Y81.957
X91.911 Y81.071
X91.929 Y80.185
X91.941 Y79.299
X91.95 Y78.413
X91.956 Y77.527
X91.96 Y76.641
X91.965 Y74.869
X91.968 Y72.21
X91.97 Y65.121
Y41.196
Y-9.313
Y-59.822
Y-86.849
X91.934 Y-86.953
X91.675 Y-87.313
X90.994 Y-87.88
X90.183 Y-88.239
X89.33 Y-88.477
X88.459 Y-88.638
X87.579 Y-88.749
X86.697 Y-88.825
X85.812 Y-88.878
X84.927 Y-88.915
X84.041 Y-88.941
X83.155 Y-88.959
X82.269 Y-88.971
X81.383 Y-88.98
X80.497 Y-88.986
X79.611 Y-88.99
X77.838 Y-88.995
X75.18 Y-88.998
X68.977 Y-89
X18.468
X-32.041
X-82.55
X-85.873
X-85.978 Y-88.964
X-86.338 Y-88.706
X-86.898 Y-88.02
X-87.248 Y-87.206
X-87.479 Y-86.35
X-87.633 Y-85.477
X-87.738 Y-84.597
X-87.81 Y-83.714
X-87.86 Y-82.83
X-87.894 Y-81.944
X-87.917 Y-81.058
X-87.934 Y-80.172
X-87.945 Y-79.286
X-87.953 Y-78.4
X-87.958 Y-77.514
X-87.962 Y-76.628
X-87.966 Y-74.856
X-87.969 Y-72.197
X-87.97 Y-63.336
Y-42.069
Y8.44
Y58.949
Y82.653
X-87.902 Y82.864
X-87.84 Y82.956
X-87.566 Y83.303
X-86.877 Y83.861
X-86.066 Y84.219
X-85.213 Y84.459
X-84.343 Y84.623
X-83.464 Y84.736
X-82.581 Y84.815
X-81.697 Y84.87
X-80.811 Y84.909
X-79.926 Y84.936
X-79.04 Y84.955
X-78.154 Y84.968
X-77.268 Y84.978
X-76.382 Y84.984
X-75.496 Y84.989
X-73.723 Y84.995
X-71.065 Y84.998
X-64.862 Y85
X-62.204
X-11.695
X38.814
X85.668
X85.877 Y84.927
X85.967 Y84.862
X86.307 Y84.578
X86.852 Y83.879
X87.204 Y83.066
X87.439 Y82.212
X87.6 Y81.34
X87.711 Y80.461
X87.789 Y79.579
X87.843 Y78.694
X87.881 Y77.809
X87.907 Y76.923
X87.926 Y76.037
X87.939 Y75.151
X87.948 Y74.265
X87.955 Y73.379
X87.959 Y72.493
X87.965 Y70.721
X87.968 Y68.062
X87.97 Y61.859
Y31.731
Y-18.778
Y-69.287
Y-82.689
X87.897 Y-82.899
X87.833 Y-82.989
X87.55 Y-83.33
X86.854 Y-83.878
X86.041 Y-84.231
X85.187 Y-84.467
X84.316 Y-84.629
X83.437 Y-84.74
X82.554 Y-84.818
X81.67 Y-84.872
X80.784 Y-84.91
X79.899 Y-84.937
X79.013 Y-84.956
X78.127 Y-84.969
X77.24 Y-84.978
X76.354 Y-84.985
X75.468 Y-84.989
X73.696 Y-84.995
X71.038 Y-84.998
X64.835 Y-85
X51.543
X1.034
X-49.475
X-81.708
X-81.917 Y-84.927
X-82.005 Y-84.861
X-82.34 Y-84.57
X-82.877 Y-83.865
X-83.222 Y-83.049
X-83.454 Y-82.194
X-83.611 Y-81.322
X-83.72 Y-80.442
X-83.795 Y-79.559
X-83.848 Y-78.675
X-83.884 Y-77.789
X-83.91 Y-76.904
X-83.928 Y-76.018
X-83.941 Y-75.132
X-83.949 Y-74.246
X-83.956 Y-73.36
X-83.96 Y-72.473
X-83.965 Y-70.701
X-83.968 Y-68.043
X-83.969 Y-67.157
X-83.97 Y-57.409
Y-16.648
Y33.861
Y78.611
X-83.91 Y78.824
X-83.85 Y78.917
X-83.581 Y79.269
X-82.898 Y79.834
X-82.091 Y80.199
X-81.239 Y80.444
X-80.369 Y80.611
X-79.491 Y80.727
X-78.608 Y80.808
X-77.724 Y80.865
X-76.839 Y80.905
X-75.953 Y80.933
X-75.067 Y80.952
X-74.181 Y80.966
X-73.295 Y80.976
X-72.409 Y80.983
X-71.523 Y80.988
X-70.637 Y80.992
X-68.864 Y80.996
X-66.206 Y80.999
X-58.231 Y81
X-28.103
X22.406
X72.915
X81.666
X81.875 Y80.927
X81.964 Y80.861
X82.3 Y80.572
X82.842 Y79.871
X83.194 Y79.058
X83.431 Y78.204
X83.593 Y77.333
X83.705 Y76.454
X83.784 Y75.571
X83.839 Y74.687
X83.878 Y73.802
X83.905 Y72.916
X83.924 Y72.03
X83.937 Y71.144
X83.947 Y70.258
X83.954 Y69.372
X83.959 Y68.486
X83.964 Y66.714
X83.968 Y64.055
X83.97 Y58.739
Y40.13
Y-10.379
Y-60.888
Y-78.611
X83.911 Y-78.824
X83.851 Y-78.917
X83.582 Y-79.27
X82.9 Y-79.835
X82.092 Y-80.199
X81.241 Y-80.444
X80.37 Y-80.612
X79.492 Y-80.727
X78.609 Y-80.808
X77.725 Y-80.865
X76.84 Y-80.905
X75.954 Y-80.933
X75.068 Y-80.953
X74.182 Y-80.966
X73.296 Y-80.976
X72.41 Y-80.983
X71.524 Y-80.988
X70.638 Y-80.992
X68.866 Y-80.996
X66.207 Y-80.999
X58.232 Y-81
X52.029
X1.52
X-48.989
X-77.677
X-77.886 Y-80.927
X-77.975 Y-80.861
X-78.309 Y-80.57
X-78.85 Y-79.868
X-79.2 Y-79.054
X-79.436 Y-78.2
X-79.597 Y-77.329
X-79.708 Y-76.45
X-79.786 Y-75.567
X-79.841 Y-74.682
X-79.879 Y-73.797
X-79.906 Y-72.911
X-79.925 Y-72.025
X-79.938 Y-71.139
X-79.948 Y-70.253
X-79.954 Y-69.367
X-79.959 Y-68.481
X-79.964 Y-66.709
X-79.968 Y-64.051
X-79.97 Y-59.62
Y-9.111
Y41.398
Y74.628
X-79.898 Y74.837
X-79.837 Y74.929
X-79.563 Y75.278
X-78.876 Y75.838
X-78.068 Y76.2
X-77.216 Y76.444
X-76.345 Y76.611
X-75.467 Y76.727
X-74.584 Y76.808
X-74.294 Y76.826
X-74.201 Y76.839
X-74.112 Y76.867
X-74.027 Y76.908
X-74 Y76.924
X-73.59 Y77.126
X-72.618 Y77.528
X-72.499 Y77.576
X-72.298 Y77.656
X-72.053 Y77.73
X-71.895 Y77.765
X-71.693 Y77.802
X-70.485 Y77.962
X-70.284 Y77.976
X-69.881 Y77.996
X-69.68 Y78
X69.68
X69.881 Y77.996
X70.284 Y77.976
X70.485 Y77.962
X71.693 Y77.802
X71.895 Y77.765
X72.053 Y77.73
X72.096 Y77.717
X72.956 Y77.504
X73.829 Y77.351
X74.709 Y77.243
X75.592 Y77.168
X76.476 Y77.116
X77.362 Y77.08
X77.583 Y77.074
X77.793 Y77.002
X78.162 Y76.758
X78.753 Y76.098
X79.133 Y75.297
X79.388 Y74.448
X79.562 Y73.579
X79.684 Y72.702
X79.768 Y71.82
X79.828 Y70.935
X79.869 Y70.05
X79.899 Y69.165
X79.92 Y68.279
X79.934 Y67.393
X79.945 Y66.507
X79.952 Y65.621
X79.957 Y64.735
X79.961 Y63.848
X79.965 Y62.076
X79.968 Y59.418
X79.97 Y52.329
Y32.834
Y-17.675
Y-68.184
Y-74.608
X79.907 Y-74.821
X79.847 Y-74.914
X79.577 Y-75.265
X78.895 Y-75.83
X78.087 Y-76.195
X77.236 Y-76.441
X76.366 Y-76.609
X75.487 Y-76.725
X74.605 Y-76.806
X74.293 Y-76.826
X74.201 Y-76.84
X74.111 Y-76.867
X74.027 Y-76.909
X74 Y-76.924
X73.59 Y-77.126
X72.618 Y-77.528
X72.499 Y-77.576
X72.298 Y-77.656
X72.053 Y-77.73
X71.895 Y-77.765
X71.693 Y-77.802
X70.485 Y-77.962
X70.284 Y-77.976
X69.881 Y-77.996
X69.68 Y-78
X-69.68
X-69.881 Y-77.996
X-70.284 Y-77.976
X-70.485 Y-77.962
X-71.693 Y-77.802
X-71.895 Y-77.765
X-72.053 Y-77.73
X-72.096 Y-77.717
X-72.956 Y-77.504
X-73.393 Y-77.427
X-73.612 Y-77.395
X-74.011 Y-77.202
X-74.648 Y-76.587
X-74.695 Y-76.498
X-74.74 Y-76.424
X-74.796 Y-76.358
X-74.861 Y-76.3
G3 X-75.591 Y-76.324 I-0.35 J-0.488 F800
X-75.484 Y-77.322 I0.381 J-0.464 F2000
G1 X-72.563 Y-78.819
G3 X-71.691 Y-78.324 I0.274 J0.534
G1 X-71.689 Y-78.286 F600
Y-78.285
G3 X-72.096 Y-77.717 I-0.6 J0
G1 X-72.298 Y-77.656 F2000
X-72.499 Y-77.576
X-72.7 Y-77.494
X-73.59 Y-77.126
X-74 Y-76.924
X-74.11 Y-76.859
X-74.312 Y-76.715
X-74.859 Y-76.301
X-75.355 Y-75.917
X-75.52 Y-75.782
X-75.592 Y-75.716
X-75.721 Y-75.575
X-75.942 Y-75.313
X-76.107 Y-75.112
X-76.571 Y-74.508
X-76.728 Y-74.3
X-76.861 Y-74.105
X-76.93 Y-73.991
X-76.977 Y-73.904
X-77.073 Y-73.702
X-77.245 Y-73.3
X-77.332 Y-73.091
X-77.534 Y-72.605
X-77.579 Y-72.494
X-77.655 Y-72.293
X-77.717 Y-72.091
X-77.735 Y-72.026
X-77.765 Y-71.89
X-77.857 Y-71.286
X-77.936 Y-70.679
X-77.957 Y-70.48
X-77.995 Y-70.078
X-78 Y-69.876
Y69.876
X-77.995 Y70.078
X-77.957 Y70.48
X-77.936 Y70.682
X-77.857 Y71.286
X-77.765 Y71.89
X-77.735 Y72.026
X-77.717 Y72.091
X-77.655 Y72.293
X-77.579 Y72.494
X-77.496 Y72.696
X-77.329 Y73.098
X-77.131 Y73.567
X-77.073 Y73.702
X-76.977 Y73.904
X-76.93 Y73.991
X-76.861 Y74.105
X-76.724 Y74.307
X-76.527 Y74.565
X-76.107 Y75.112
X-75.923 Y75.337
X-75.721 Y75.575
X-75.592 Y75.716
X-75.52 Y75.782
X-75.355 Y75.917
X-74.834 Y76.32
X-74.301 Y76.723
X-74.11 Y76.859
X-74.027 Y76.908
G3 X-73.778 Y77.595 I-0.323 J0.506 F800
G1 X-73.807 Y77.684 Z-2.993
X-73.834 Y77.772 Z-2.971
X-73.86 Y77.855 Z-2.935
X-73.885 Y77.931 Z-2.885
X-73.906 Y77.999 Z-2.824
X-73.925 Y78.058 Z-2.753
X-73.939 Y78.105 Z-2.672
X-73.95 Y78.139 Z-2.585
X-73.957 Y78.16 Z-2.494
X-73.959 Y78.167 Z-2.4
G0 Z5
X71.033 Y78.588
Z-1.8
G1 Z-2.4 F600
X71.038 Y78.583 Z-2.494
X71.053 Y78.567 Z-2.585
X71.077 Y78.54 Z-2.672
X71.111 Y78.504 Z-2.753
X71.152 Y78.459 Z-2.824
X71.2 Y78.406 Z-2.885
X71.255 Y78.347 Z-2.935
X71.313 Y78.283 Z-2.971
X71.375 Y78.215 Z-2.993
X71.439 Y78.146 Z-3
G3 X72.096 Y77.717 I1.167 J1.069
G1 X72.298 Y77.656 F2000
X72.499 Y77.576
X72.7 Y77.494
X73.59 Y77.126
X74 Y76.924
X74.11 Y76.859
X74.312 Y76.715
X74.834 Y76.32
X75.355 Y75.917
X75.52 Y75.782
X75.592 Y75.716
X75.721 Y75.575
X75.942 Y75.313
X76.107 Y75.112
X76.571 Y74.508
X76.728 Y74.3
X76.861 Y74.105
X76.93 Y73.991
X76.977 Y73.904
X77.073 Y73.702
X77.245 Y73.3
X77.332 Y73.091
X77.534 Y72.605
X77.579 Y72.494
X77.655 Y72.293
X77.717 Y72.091
X77.735 Y72.026
X77.765 Y71.89
X77.857 Y71.286
X77.936 Y70.679
X77.957 Y70.48
X77.995 Y70.078
X78 Y69.876
Y-69.876
X77.995 Y-70.078
X77.957 Y-70.48
X77.936 Y-70.682
X77.857 Y-71.286
X77.765 Y-71.89
X77.735 Y-72.026
X77.717 Y-72.091
X77.655 Y-72.293
X77.579 Y-72.494
X77.496 Y-72.696
X77.329 Y-73.098
X77.131 Y-73.567
X77.073 Y-73.702
X76.977 Y-73.904
X76.93 Y-73.991
X76.861 Y-74.105
X76.724 Y-74.307
X76.527 Y-74.565
X76.107 Y-75.112
X75.923 Y-75.337
X75.721 Y-75.575
X75.592 Y-75.716
X75.52 Y-75.782
X75.355 Y-75.917
X74.834 Y-76.32
X74.301 Y-76.723
X74.11 Y-76.859
X74.027 Y-76.909
G3 X73.778 Y-77.595 I0.323 J-0.506 F800
G1 X73.806 Y-77.685 Z-2.993
X73.834 Y-77.772 Z-2.971
X73.86 Y-77.855 Z-2.935
X73.884 Y-77.931 Z-2.885
X73.906 Y-78 Z-2.824
X73.924 Y-78.058 Z-2.753
X73.939 Y-78.105 Z-2.672
X73.95 Y-78.139 Z-2.585
X73.956 Y-78.16 Z-2.494
X73.959 Y-78.167 Z-2.4
G0 Z15
G28 G91 Z0
G90
G28 G91 X0 Y0
G90
M5
M30
