(straight_edge_left)
(T1  D=6 CR=0 - ZMIN=-7 - flat end mill)
G90 G94
G17
G21
G28 G91 Z0
G90

(Adaptive1)
T1
S18000 M3
G54
G0 X-6.838 Y0.619
Z15
Z5
Z0.7
G1 Z0.1 F600
X-6.831 Y0.617 Z0.006
X-6.809 Y0.611 Z-0.085
X-6.775 Y0.602 Z-0.172
X-6.727 Y0.59 Z-0.253
X-6.668 Y0.575 Z-0.324
X-6.598 Y0.557 Z-0.385
X-6.521 Y0.537 Z-0.435
X-6.436 Y0.516 Z-0.471
X-6.348 Y0.493 Z-0.493
X-6.257 Y0.47 Z-0.5
G3 X-2.99 Y0 I3.801 J14.839
G1 X0.029 F1000
X0.179 Y0.007
X0.135 Y0.893
X0.104 Y1.778
X0.082 Y2.664
X0.067 Y3.55
X0.056 Y4.436
X0.048 Y5.322
X0.043 Y6.208
X0.039 Y7.094
X0.034 Y8.867
X0.032 Y11.525
X0.03 Y18.614
Y50.514
Y101.023
Y151.532
Y186.977
X0.045 Y187.198
X0.109 Y187.41
X0.327 Y187.796
X0.938 Y188.438
X1.126 Y188.591
X1.263 Y188.791
X1.337 Y189.021
X1.342 Y189.263
X1.278 Y189.497
X1.15 Y189.703
X0.968 Y189.863
X0.749 Y189.965
X0.509 Y190
G3 X-0.055 Y189.535 I0.021 J-0.6 F800
G1 X-0.076 Y189.444 Z-0.493
X-0.096 Y189.355 Z-0.471
X-0.116 Y189.27 Z-0.435
X-0.134 Y189.192 Z-0.385
X-0.15 Y189.122 Z-0.324
X-0.164 Y189.062 Z-0.253
X-0.175 Y189.014 Z-0.172
X-0.183 Y188.979 Z-0.085
X-0.188 Y188.958 Z0.006
X-0.19 Y188.951 Z0.1
G0 Z5
X-1.24 Y0.528
Z0.7
G1 Z0.1 F600
X-1.234 Y0.524 Z0.006
X-1.215 Y0.513 Z-0.085
X-1.184 Y0.495 Z-0.172
X-1.142 Y0.469 Z-0.253
X-1.089 Y0.438 Z-0.324
X-1.028 Y0.402 Z-0.385
X-0.959 Y0.361 Z-0.435
X-0.884 Y0.316 Z-0.471
X-0.805 Y0.269 Z-0.493
X-0.725 Y0.221 Z-0.5
G3 X0.029 Y0 I0.809 J1.36
G1 X1.237 F1000
X1.438 Y0.003
X1.538 Y0.021
X1.589 Y0.037
X1.639 Y0.059
X1.698 Y0.091
X1.757 Y0.13
X1.799 Y0.164
X1.84 Y0.205
X1.891 Y0.268
X1.93 Y0.331
X1.954 Y0.381
X1.972 Y0.432
X1.995 Y0.532
X2 Y0.734
Y189.266
X1.995 Y189.468
X1.988 Y189.498
X1.958 Y189.586 F800
X1.914 Y189.668
X1.864 Y189.722 Z-0.495
X1.815 Y189.775 Z-0.482
X1.767 Y189.827 Z-0.459
X1.696 Y189.862 Z-0.421
X1.631 Y189.895 Z-0.371
X1.573 Y189.924 Z-0.312
X1.517 Y189.932 Z-0.241
X1.471 Y189.938 Z-0.163
X1.438 Y189.943 Z-0.079
X1.418 Y189.946 Z0.009
X1.412 Y189.947 Z0.1
G0 Z5
X-6.838 Y0.619
Z0.2
G1 Z-0.4 F600
X-6.831 Y0.617 Z-0.494
X-6.809 Y0.611 Z-0.585
X-6.775 Y0.602 Z-0.672
X-6.727 Y0.59 Z-0.753
X-6.668 Y0.575 Z-0.824
X-6.598 Y0.557 Z-0.885
X-6.521 Y0.537 Z-0.935
X-6.436 Y0.516 Z-0.971
X-6.348 Y0.493 Z-0.993
X-6.257 Y0.47 Z-1
G3 X-2.99 Y0 I3.801 J14.839
G1 X0.029 F1000
X0.179 Y0.007
X0.135 Y0.893
X0.104 Y1.778
X0.082 Y2.664
X0.067 Y3.55
X0.056 Y4.436
X0.048 Y5.322
X0.043 Y6.208
X0.039 Y7.094
X0.034 Y8.867
X0.032 Y11.525
X0.03 Y18.614
Y50.514
Y101.023
Y151.532
Y186.977
X0.045 Y187.198
X0.109 Y187.41
X0.327 Y187.796
X0.938 Y188.438
X1.126 Y188.591
X1.263 Y188.791
X1.337 Y189.021
X1.342 Y189.263
X1.278 Y189.497
X1.15 Y189.703
X0.968 Y189.863
X0.749 Y189.965
X0.509 Y190
G3 X-0.055 Y189.535 I0.021 J-0.6 F800
G1 X-0.076 Y189.444 Z-0.993
X-0.096 Y189.355 Z-0.971
X-0.116 Y189.27 Z-0.935
X-0.134 Y189.192 Z-0.885
X-0.15 Y189.122 Z-0.824
X-0.164 Y189.062 Z-0.753
X-0.175 Y189.014 Z-0.672
X-0.183 Y188.979 Z-0.585
X-0.188 Y188.958 Z-0.494
X-0.19 Y188.951 Z-0.4
G0 Z5
X-1.24 Y0.528
Z0.2
G1 Z-0.4 F600
X-1.234 Y0.524 Z-0.494
X-1.215 Y0.513 Z-0.585
X-1.184 Y0.495 Z-0.672
X-1.142 Y0.469 Z-0.753
X-1.089 Y0.438 Z-0.824
X-1.028 Y0.402 Z-0.885
X-0.959 Y0.361 Z-0.935
X-0.884 Y0.316 Z-0.971
X-0.805 Y0.269 Z-0.993
X-0.725 Y0.221 Z-1
G3 X0.029 Y0 I0.809 J1.36
G1 X1.237 F1000
X1.438 Y0.003
X1.538 Y0.021
X1.589 Y0.037
X1.639 Y0.059
X1.698 Y0.091
X1.757 Y0.13
X1.799 Y0.164
X1.84 Y0.205
X1.891 Y0.268
X1.93 Y0.331
X1.954 Y0.381
X1.972 Y0.432
X1.995 Y0.532
X2 Y0.734
Y189.266
X1.995 Y189.468
X1.988 Y189.498
X1.958 Y189.586 F800
X1.914 Y189.668
X1.864 Y189.722 Z-0.995
X1.815 Y189.775 Z-0.982
X1.767 Y189.827 Z-0.959
X1.696 Y189.862 Z-0.921
X1.631 Y189.895 Z-0.871
X1.573 Y189.924 Z-0.812
X1.517 Y189.932 Z-0.741
X1.471 Y189.938 Z-0.663
X1.438 Y189.943 Z-0.579
X1.418 Y189.946 Z-0.491
X1.412 Y189.947 Z-0.4
G0 Z5
X-6.838 Y0.619
Z-0.3
G1 Z-0.9 F600
X-6.831 Y0.617 Z-0.994
X-6.809 Y0.611 Z-1.085
X-6.775 Y0.602 Z-1.172
X-6.727 Y0.59 Z-1.253
X-6.668 Y0.575 Z-1.324
X-6.598 Y0.557 Z-1.385
X-6.521 Y0.537 Z-1.435
X-6.436 Y0.516 Z-1.471
X-6.348 Y0.493 Z-1.493
X-6.257 Y0.47 Z-1.5
G3 X-2.99 Y0 I3.801 J14.839
G1 X0.029 F1000
X0.179 Y0.007
X0.135 Y0.893
X0.104 Y1.778
X0.082 Y2.664
X0.067 Y3.55
X0.056 Y4.436
X0.048 Y5.322
X0.043 Y6.208
X0.039 Y7.094
X0.034 Y8.867
X0.032 Y11.525
X0.03 Y18.614
Y50.514
Y101.023
Y151.532
Y186.977
X0.045 Y187.198
X0.109 Y187.41
X0.327 Y187.796
X0.938 Y188.438
X1.126 Y188.591
X1.263 Y188.791
X1.337 Y189.021
X1.342 Y189.263
X1.278 Y189.497
X1.15 Y189.703
X0.968 Y189.863
X0.749 Y189.965
X0.509 Y190
G3 X-0.055 Y189.535 I0.021 J-0.6 F800
G1 X-0.076 Y189.444 Z-1.493
X-0.096 Y189.355 Z-1.471
X-0.116 Y189.27 Z-1.435
X-0.134 Y189.192 Z-1.385
X-0.15 Y189.122 Z-1.324
X-0.164 Y189.062 Z-1.253
X-0.175 Y189.014 Z-1.172
X-0.183 Y188.979 Z-1.085
X-0.188 Y188.958 Z-0.994
X-0.19 Y188.951 Z-0.9
G0 Z5
X-1.24 Y0.528
Z-0.3
G1 Z-0.9 F600
X-1.234 Y0.524 Z-0.994
X-1.215 Y0.513 Z-1.085
X-1.184 Y0.495 Z-1.172
X-1.142 Y0.469 Z-1.253
X-1.089 Y0.438 Z-1.324
X-1.028 Y0.402 Z-1.385
X-0.959 Y0.361 Z-1.435
X-0.884 Y0.316 Z-1.471
X-0.805 Y0.269 Z-1.493
X-0.725 Y0.221 Z-1.5
G3 X0.029 Y0 I0.809 J1.36
G1 X1.237 F1000
X1.438 Y0.003
X1.538 Y0.021
X1.589 Y0.037
X1.639 Y0.059
X1.698 Y0.091
X1.757 Y0.13
X1.799 Y0.164
X1.84 Y0.205
X1.891 Y0.268
X1.93 Y0.331
X1.954 Y0.381
X1.972 Y0.432
X1.995 Y0.532
X2 Y0.734
Y189.266
X1.995 Y189.468
X1.988 Y189.498
X1.958 Y189.586 F800
X1.914 Y189.668
X1.864 Y189.722 Z-1.495
X1.815 Y189.775 Z-1.482
X1.767 Y189.827 Z-1.459
X1.696 Y189.862 Z-1.421
X1.631 Y189.895 Z-1.371
X1.573 Y189.924 Z-1.312
X1.517 Y189.932 Z-1.241
X1.471 Y189.938 Z-1.163
X1.438 Y189.943 Z-1.079
X1.418 Y189.946 Z-0.991
X1.412 Y189.947 Z-0.9
G0 Z5
X-6.838 Y0.619
Z-0.8
G1 Z-1.4 F600
X-6.831 Y0.617 Z-1.494
X-6.809 Y0.611 Z-1.585
X-6.775 Y0.602 Z-1.672
X-6.727 Y0.59 Z-1.753
X-6.668 Y0.575 Z-1.824
X-6.598 Y0.557 Z-1.885
X-6.521 Y0.537 Z-1.935
X-6.436 Y0.516 Z-1.971
X-6.348 Y0.493 Z-1.993
X-6.257 Y0.47 Z-2
G3 X-2.99 Y0 I3.801 J14.839
G1 X0.029 F1000
X0.179 Y0.007
X0.135 Y0.893
X0.104 Y1.778
X0.082 Y2.664
X0.067 Y3.55
X0.056 Y4.436
X0.048 Y5.322
X0.043 Y6.208
X0.039 Y7.094
X0.034 Y8.867
X0.032 Y11.525
X0.03 Y18.614
Y50.514
Y101.023
Y151.532
Y186.977
X0.045 Y187.198
X0.109 Y187.41
X0.327 Y187.796
X0.938 Y188.438
X1.126 Y188.591
X1.263 Y188.791
X1.337 Y189.021
X1.342 Y189.263
X1.278 Y189.497
X1.15 Y189.703
X0.968 Y189.863
X0.749 Y189.965
X0.509 Y190
G3 X-0.055 Y189.535 I0.021 J-0.6 F800
G1 X-0.076 Y189.444 Z-1.993
X-0.096 Y189.355 Z-1.971
X-0.116 Y189.27 Z-1.935
X-0.134 Y189.192 Z-1.885
X-0.15 Y189.122 Z-1.824
X-0.164 Y189.062 Z-1.753
X-0.175 Y189.014 Z-1.672
X-0.183 Y188.979 Z-1.585
X-0.188 Y188.958 Z-1.494
X-0.19 Y188.951 Z-1.4
G0 Z5
X-1.24 Y0.528
Z-0.8
G1 Z-1.4 F600
X-1.234 Y0.524 Z-1.494
X-1.215 Y0.513 Z-1.585
X-1.184 Y0.495 Z-1.672
X-1.142 Y0.469 Z-1.753
X-1.089 Y0.438 Z-1.824
X-1.028 Y0.402 Z-1.885
X-0.959 Y0.361 Z-1.935
X-0.884 Y0.316 Z-1.971
X-0.805 Y0.269 Z-1.993
X-0.725 Y0.221 Z-2
G3 X0.029 Y0 I0.809 J1.36
G1 X1.237 F1000
X1.438 Y0.003
X1.538 Y0.021
X1.589 Y0.037
X1.639 Y0.059
X1.698 Y0.091
X1.757 Y0.13
X1.799 Y0.164
X1.84 Y0.205
X1.891 Y0.268
X1.93 Y0.331
X1.954 Y0.381
X1.972 Y0.432
X1.995 Y0.532
X2 Y0.734
Y189.266
X1.995 Y189.468
X1.988 Y189.498
X1.958 Y189.586 F800
X1.914 Y189.668
X1.864 Y189.722 Z-1.995
X1.815 Y189.775 Z-1.982
X1.767 Y189.827 Z-1.959
X1.696 Y189.862 Z-1.921
X1.631 Y189.895 Z-1.871
X1.573 Y189.924 Z-1.812
X1.517 Y189.932 Z-1.741
X1.471 Y189.938 Z-1.663
X1.438 Y189.943 Z-1.579
X1.418 Y189.946 Z-1.491
X1.412 Y189.947 Z-1.4
G0 Z5
X-6.838 Y0.619
Z-1.3
G1 Z-1.9 F600
X-6.831 Y0.617 Z-1.994
X-6.809 Y0.611 Z-2.085
X-6.775 Y0.602 Z-2.172
X-6.727 Y0.59 Z-2.253
X-6.668 Y0.575 Z-2.324
X-6.598 Y0.557 Z-2.385
X-6.521 Y0.537 Z-2.435
X-6.436 Y0.516 Z-2.471
X-6.348 Y0.493 Z-2.493
X-6.257 Y0.47 Z-2.5
G3 X-2.99 Y0 I3.801 J14.839
G1 X0.029 F1000
X0.179 Y0.007
X0.135 Y0.893
X0.104 Y1.778
X0.082 Y2.664
X0.067 Y3.55
X0.056 Y4.436
X0.048 Y5.322
X0.043 Y6.208
X0.039 Y7.094
X0.034 Y8.867
X0.032 Y11.525
X0.03 Y18.614
Y50.514
Y101.023
Y151.532
Y186.977
X0.045 Y187.198
X0.109 Y187.41
X0.327 Y187.796
X0.938 Y188.438
X1.126 Y188.591
X1.263 Y188.791
X1.337 Y189.021
X1.342 Y189.263
X1.278 Y189.497
X1.15 Y189.703
X0.968 Y189.863
X0.749 Y189.965
X0.509 Y190
G3 X-0.055 Y189.535 I0.021 J-0.6 F800
G1 X-0.076 Y189.444 Z-2.493
X-0.096 Y189.355 Z-2.471
X-0.116 Y189.27 Z-2.435
X-0.134 Y189.192 Z-2.385
X-0.15 Y189.122 Z-2.324
X-0.164 Y189.062 Z-2.253
X-0.175 Y189.014 Z-2.172
X-0.183 Y188.979 Z-2.085
X-0.188 Y188.958 Z-1.994
X-0.19 Y188.951 Z-1.9
G0 Z5
X-1.24 Y0.528
Z-1.3
G1 Z-1.9 F600
X-1.234 Y0.524 Z-1.994
X-1.215 Y0.513 Z-2.085
X-1.184 Y0.495 Z-2.172
X-1.142 Y0.469 Z-2.253
X-1.089 Y0.438 Z-2.324
X-1.028 Y0.402 Z-2.385
X-0.959 Y0.361 Z-2.435
X-0.884 Y0.316 Z-2.471
X-0.805 Y0.269 Z-2.493
X-0.725 Y0.221 Z-2.5
G3 X0.029 Y0 I0.809 J1.36
G1 X1.237 F1000
X1.438 Y0.003
X1.538 Y0.021
X1.589 Y0.037
X1.639 Y0.059
X1.698 Y0.091
X1.757 Y0.13
X1.799 Y0.164
X1.84 Y0.205
X1.891 Y0.268
X1.93 Y0.331
X1.954 Y0.381
X1.972 Y0.432
X1.995 Y0.532
X2 Y0.734
Y189.266
X1.995 Y189.468
X1.988 Y189.498
X1.958 Y189.586 F800
X1.914 Y189.668
X1.864 Y189.722 Z-2.495
X1.815 Y189.775 Z-2.482
X1.767 Y189.827 Z-2.459
X1.696 Y189.862 Z-2.421
X1.631 Y189.895 Z-2.371
X1.573 Y189.924 Z-2.312
X1.517 Y189.932 Z-2.241
X1.471 Y189.938 Z-2.163
X1.438 Y189.943 Z-2.079
X1.418 Y189.946 Z-1.991
X1.412 Y189.947 Z-1.9
G0 Z5
X-6.838 Y0.619
Z-1.8
G1 Z-2.4 F600
X-6.831 Y0.617 Z-2.494
X-6.809 Y0.611 Z-2.585
X-6.775 Y0.602 Z-2.672
X-6.727 Y0.59 Z-2.753
X-6.668 Y0.575 Z-2.824
X-6.598 Y0.557 Z-2.885
X-6.521 Y0.537 Z-2.935
X-6.436 Y0.516 Z-2.971
X-6.348 Y0.493 Z-2.993
X-6.257 Y0.47 Z-3
G3 X-2.99 Y0 I3.801 J14.839
G1 X0.029 F1000
X0.179 Y0.007
X0.135 Y0.893
X0.104 Y1.778
X0.082 Y2.664
X0.067 Y3.55
X0.056 Y4.436
X0.048 Y5.322
X0.043 Y6.208
X0.039 Y7.094
X0.034 Y8.867
X0.032 Y11.525
X0.03 Y18.614
Y50.514
Y101.023
Y151.532
Y186.977
X0.045 Y187.198
X0.109 Y187.41
X0.327 Y187.796
X0.938 Y188.438
X1.126 Y188.591
X1.263 Y188.791
X1.337 Y189.021
X1.342 Y189.263
X1.278 Y189.497
X1.15 Y189.703
X0.968 Y189.863
X0.749 Y189.965
X0.509 Y190
G3 X-0.055 Y189.535 I0.021 J-0.6 F800
G1 X-0.076 Y189.444 Z-2.993
X-0.096 Y189.355 Z-2.971
X-0.116 Y189.27 Z-2.935
X-0.134 Y189.192 Z-2.885
X-0.15 Y189.122 Z-2.824
X-0.164 Y189.062 Z-2.753
X-0.175 Y189.014 Z-2.672
X-0.183 Y188.979 Z-2.585
X-0.188 Y188.958 Z-2.494
X-0.19 Y188.951 Z-2.4
G0 Z5
X-1.24 Y0.528
Z-1.8
G1 Z-2.4 F600
X-1.234 Y0.524 Z-2.494
X-1.215 Y0.513 Z-2.585
X-1.184 Y0.495 Z-2.672
X-1.142 Y0.469 Z-2.753
X-1.089 Y0.438 Z-2.824
X-1.028 Y0.402 Z-2.885
X-0.959 Y0.361 Z-2.935
X-0.884 Y0.316 Z-2.971
X-0.805 Y0.269 Z-2.993
X-0.725 Y0.221 Z-3
G3 X0.029 Y0 I0.809 J1.36
G1 X1.237 F1000
X1.438 Y0.003
X1.538 Y0.021
X1.589 Y0.037
X1.639 Y0.059
X1.698 Y0.091
X1.757 Y0.13
X1.799 Y0.164
X1.84 Y0.205
X1.891 Y0.268
X1.93 Y0.331
X1.954 Y0.381
X1.972 Y0.432
X1.995 Y0.532
X2 Y0.734
Y189.266
X1.995 Y189.468
X1.988 Y189.498
X1.958 Y189.586 F800
X1.914 Y189.668
X1.864 Y189.722 Z-2.995
X1.815 Y189.775 Z-2.982
X1.767 Y189.827 Z-2.959
X1.696 Y189.862 Z-2.921
X1.631 Y189.895 Z-2.871
X1.573 Y189.924 Z-2.812
X1.517 Y189.932 Z-2.741
X1.471 Y189.938 Z-2.663
X1.438 Y189.943 Z-2.579
X1.418 Y189.946 Z-2.491
X1.412 Y189.947 Z-2.4
G0 Z5
X-6.838 Y0.619
Z-2.3
G1 Z-2.9 F600
X-6.831 Y0.617 Z-2.994
X-6.809 Y0.611 Z-3.085
X-6.775 Y0.602 Z-3.172
X-6.727 Y0.59 Z-3.253
X-6.668 Y0.575 Z-3.324
X-6.598 Y0.557 Z-3.385
X-6.521 Y0.537 Z-3.435
X-6.436 Y0.516 Z-3.471
X-6.348 Y0.493 Z-3.493
X-6.257 Y0.47 Z-3.5
G3 X-2.99 Y0 I3.801 J14.839
G1 X0.029 F1000
X0.179 Y0.007
X0.135 Y0.893
X0.104 Y1.778
X0.082 Y2.664
X0.067 Y3.55
X0.056 Y4.436
X0.048 Y5.322
X0.043 Y6.208
X0.039 Y7.094
X0.034 Y8.867
X0.032 Y11.525
X0.03 Y18.614
Y50.514
Y101.023
Y151.532
Y186.977
X0.045 Y187.198
X0.109 Y187.41
X0.327 Y187.796
X0.938 Y188.438
X1.126 Y188.591
X1.263 Y188.791
X1.337 Y189.021
X1.342 Y189.263
X1.278 Y189.497
X1.15 Y189.703
X0.968 Y189.863
X0.749 Y189.965
X0.509 Y190
G3 X-0.055 Y189.535 I0.021 J-0.6 F800
G1 X-0.076 Y189.444 Z-3.493
X-0.096 Y189.355 Z-3.471
X-0.116 Y189.27 Z-3.435
X-0.134 Y189.192 Z-3.385
X-0.15 Y189.122 Z-3.324
X-0.164 Y189.062 Z-3.253
X-0.175 Y189.014 Z-3.172
X-0.183 Y188.979 Z-3.085
X-0.188 Y188.958 Z-2.994
X-0.19 Y188.951 Z-2.9
G0 Z5
X-1.24 Y0.528
Z-2.3
G1 Z-2.9 F600
X-1.234 Y0.524 Z-2.994
X-1.215 Y0.513 Z-3.085
X-1.184 Y0.495 Z-3.172
X-1.142 Y0.469 Z-3.253
X-1.089 Y0.438 Z-3.324
X-1.028 Y0.402 Z-3.385
X-0.959 Y0.361 Z-3.435
X-0.884 Y0.316 Z-3.471
X-0.805 Y0.269 Z-3.493
X-0.725 Y0.221 Z-3.5
G3 X0.029 Y0 I0.809 J1.36
G1 X1.237 F1000
X1.438 Y0.003
X1.538 Y0.021
X1.589 Y0.037
X1.639 Y0.059
X1.698 Y0.091
X1.757 Y0.13
X1.799 Y0.164
X1.84 Y0.205
X1.891 Y0.268
X1.93 Y0.331
X1.954 Y0.381
X1.972 Y0.432
X1.995 Y0.532
X2 Y0.734
Y189.266
X1.995 Y189.468
X1.988 Y189.498
X1.958 Y189.586 F800
X1.914 Y189.668
X1.864 Y189.722 Z-3.495
X1.815 Y189.775 Z-3.482
X1.767 Y189.827 Z-3.459
X1.696 Y189.862 Z-3.421
X1.631 Y189.895 Z-3.371
X1.573 Y189.924 Z-3.312
X1.517 Y189.932 Z-3.241
X1.471 Y189.938 Z-3.163
X1.438 Y189.943 Z-3.079
X1.418 Y189.946 Z-2.991
X1.412 Y189.947 Z-2.9
G0 Z5
X-6.838 Y0.619
Z-2.8
G1 Z-3.4 F600
X-6.831 Y0.617 Z-3.494
X-6.809 Y0.611 Z-3.585
X-6.775 Y0.602 Z-3.672
X-6.727 Y0.59 Z-3.753
X-6.668 Y0.575 Z-3.824
X-6.598 Y0.557 Z-3.885
X-6.521 Y0.537 Z-3.935
X-6.436 Y0.516 Z-3.971
X-6.348 Y0.493 Z-3.993
X-6.257 Y0.47 Z-4
G3 X-2.99 Y0 I3.801 J14.839
G1 X0.029 F1000
X0.179 Y0.007
X0.135 Y0.893
X0.104 Y1.778
X0.082 Y2.664
X0.067 Y3.55
X0.056 Y4.436
X0.048 Y5.322
X0.043 Y6.208
X0.039 Y7.094
X0.034 Y8.867
X0.032 Y11.525
X0.03 Y18.614
Y50.514
Y101.023
Y151.532
Y186.977
X0.045 Y187.198
X0.109 Y187.41
X0.327 Y187.796
X0.938 Y188.438
X1.126 Y188.591
X1.263 Y188.791
X1.337 Y189.021
X1.342 Y189.263
X1.278 Y189.497
X1.15 Y189.703
X0.968 Y189.863
X0.749 Y189.965
X0.509 Y190
G3 X-0.055 Y189.535 I0.021 J-0.6 F800
G1 X-0.076 Y189.444 Z-3.993
X-0.096 Y189.355 Z-3.971
X-0.116 Y189.27 Z-3.935
X-0.134 Y189.192 Z-3.885
X-0.15 Y189.122 Z-3.824
X-0.164 Y189.062 Z-3.753
X-0.175 Y189.014 Z-3.672
X-0.183 Y188.979 Z-3.585
X-0.188 Y188.958 Z-3.494
X-0.19 Y188.951 Z-3.4
G0 Z5
X-1.24 Y0.528
Z-2.8
G1 Z-3.4 F600
X-1.234 Y0.524 Z-3.494
X-1.215 Y0.513 Z-3.585
X-1.184 Y0.495 Z-3.672
X-1.142 Y0.469 Z-3.753
X-1.089 Y0.438 Z-3.824
X-1.028 Y0.402 Z-3.885
X-0.959 Y0.361 Z-3.935
X-0.884 Y0.316 Z-3.971
X-0.805 Y0.269 Z-3.993
X-0.725 Y0.221 Z-4
G3 X0.029 Y0 I0.809 J1.36
G1 X1.237 F1000
X1.438 Y0.003
X1.538 Y0.021
X1.589 Y0.037
X1.639 Y0.059
X1.698 Y0.091
X1.757 Y0.13
X1.799 Y0.164
X1.84 Y0.205
X1.891 Y0.268
X1.93 Y0.331
X1.954 Y0.381
X1.972 Y0.432
X1.995 Y0.532
X2 Y0.734
Y189.266
X1.995 Y189.468
X1.988 Y189.498
X1.958 Y189.586 F800
X1.914 Y189.668
X1.864 Y189.722 Z-3.995
X1.815 Y189.775 Z-3.982
X1.767 Y189.827 Z-3.959
X1.696 Y189.862 Z-3.921
X1.631 Y189.895 Z-3.871
X1.573 Y189.924 Z-3.812
X1.517 Y189.932 Z-3.741
X1.471 Y189.938 Z-3.663
X1.438 Y189.943 Z-3.579
X1.418 Y189.946 Z-3.491
X1.412 Y189.947 Z-3.4
G0 Z5
X-6.838 Y0.619
Z-3.3
G1 Z-3.9 F600
X-6.831 Y0.617 Z-3.994
X-6.809 Y0.611 Z-4.085
X-6.775 Y0.602 Z-4.172
X-6.727 Y0.59 Z-4.253
X-6.668 Y0.575 Z-4.324
X-6.598 Y0.557 Z-4.385
X-6.521 Y0.537 Z-4.435
X-6.436 Y0.516 Z-4.471
X-6.348 Y0.493 Z-4.493
X-6.257 Y0.47 Z-4.5
G3 X-2.99 Y0 I3.801 J14.839
G1 X0.029 F1000
X0.179 Y0.007
X0.135 Y0.893
X0.104 Y1.778
X0.082 Y2.664
X0.067 Y3.55
X0.056 Y4.436
X0.048 Y5.322
X0.043 Y6.208
X0.039 Y7.094
X0.034 Y8.867
X0.032 Y11.525
X0.03 Y18.614
Y50.514
Y101.023
Y151.532
Y186.977
X0.045 Y187.198
X0.109 Y187.41
X0.327 Y187.796
X0.938 Y188.438
X1.126 Y188.591
X1.263 Y188.791
X1.337 Y189.021
X1.342 Y189.263
X1.278 Y189.497
X1.15 Y189.703
X0.968 Y189.863
X0.749 Y189.965
X0.509 Y190
G3 X-0.055 Y189.535 I0.021 J-0.6 F800
G1 X-0.076 Y189.444 Z-4.493
X-0.096 Y189.355 Z-4.471
X-0.116 Y189.27 Z-4.435
X-0.134 Y189.192 Z-4.385
X-0.15 Y189.122 Z-4.324
X-0.164 Y189.062 Z-4.253
X-0.175 Y189.014 Z-4.172
X-0.183 Y188.979 Z-4.085
X-0.188 Y188.958 Z-3.994
X-0.19 Y188.951 Z-3.9
G0 Z5
X-1.24 Y0.528
Z-3.3
G1 Z-3.9 F600
X-1.234 Y0.524 Z-3.994
X-1.215 Y0.513 Z-4.085
X-1.184 Y0.495 Z-4.172
X-1.142 Y0.469 Z-4.253
X-1.089 Y0.438 Z-4.324
X-1.028 Y0.402 Z-4.385
X-0.959 Y0.361 Z-4.435
X-0.884 Y0.316 Z-4.471
X-0.805 Y0.269 Z-4.493
X-0.725 Y0.221 Z-4.5
G3 X0.029 Y0 I0.809 J1.36
G1 X1.237 F1000
X1.438 Y0.003
X1.538 Y0.021
X1.589 Y0.037
X1.639 Y0.059
X1.698 Y0.091
X1.757 Y0.13
X1.799 Y0.164
X1.84 Y0.205
X1.891 Y0.268
X1.93 Y0.331
X1.954 Y0.381
X1.972 Y0.432
X1.995 Y0.532
X2 Y0.734
Y189.266
X1.995 Y189.468
X1.988 Y189.498
X1.958 Y189.586 F800
X1.914 Y189.668
X1.864 Y189.722 Z-4.495
X1.815 Y189.775 Z-4.482
X1.767 Y189.827 Z-4.459
X1.696 Y189.862 Z-4.421
X1.631 Y189.895 Z-4.371
X1.573 Y189.924 Z-4.312
X1.517 Y189.932 Z-4.241
X1.471 Y189.938 Z-4.163
X1.438 Y189.943 Z-4.079
X1.418 Y189.946 Z-3.991
X1.412 Y189.947 Z-3.9
G0 Z5
X-6.838 Y0.619
Z-3.8
G1 Z-4.4 F600
X-6.831 Y0.617 Z-4.494
X-6.809 Y0.611 Z-4.585
X-6.775 Y0.602 Z-4.672
X-6.727 Y0.59 Z-4.753
X-6.668 Y0.575 Z-4.824
X-6.598 Y0.557 Z-4.885
X-6.521 Y0.537 Z-4.935
X-6.436 Y0.516 Z-4.971
X-6.348 Y0.493 Z-4.993
X-6.257 Y0.47 Z-5
G3 X-2.99 Y0 I3.801 J14.839
G1 X0.029 F1000
X0.179 Y0.007
X0.135 Y0.893
X0.104 Y1.778
X0.082 Y2.664
X0.067 Y3.55
X0.056 Y4.436
X0.048 Y5.322
X0.043 Y6.208
X0.039 Y7.094
X0.034 Y8.867
X0.032 Y11.525
X0.03 Y18.614
Y50.514
Y101.023
Y151.532
Y186.977
X0.045 Y187.198
X0.109 Y187.41
X0.327 Y187.796
X0.938 Y188.438
X1.126 Y188.591
X1.263 Y188.791
X1.337 Y189.021
X1.342 Y189.263
X1.278 Y189.497
X1.15 Y189.703
X0.968 Y189.863
X0.749 Y189.965
X0.509 Y190
G3 X-0.055 Y189.535 I0.021 J-0.6 F800
G1 X-0.076 Y189.444 Z-4.993
X-0.096 Y189.355 Z-4.971
X-0.116 Y189.27 Z-4.935
X-0.134 Y189.192 Z-4.885
X-0.15 Y189.122 Z-4.824
X-0.164 Y189.062 Z-4.753
X-0.175 Y189.014 Z-4.672
X-0.183 Y188.979 Z-4.585
X-0.188 Y188.958 Z-4.494
X-0.19 Y188.951 Z-4.4
G0 Z5
X-1.24 Y0.528
Z-3.8
G1 Z-4.4 F600
X-1.234 Y0.524 Z-4.494
X-1.215 Y0.513 Z-4.585
X-1.184 Y0.495 Z-4.672
X-1.142 Y0.469 Z-4.753
X-1.089 Y0.438 Z-4.824
X-1.028 Y0.402 Z-4.885
X-0.959 Y0.361 Z-4.935
X-0.884 Y0.316 Z-4.971
X-0.805 Y0.269 Z-4.993
X-0.725 Y0.221 Z-5
G3 X0.029 Y0 I0.809 J1.36
G1 X1.237 F1000
X1.438 Y0.003
X1.538 Y0.021
X1.589 Y0.037
X1.639 Y0.059
X1.698 Y0.091
X1.757 Y0.13
X1.799 Y0.164
X1.84 Y0.205
X1.891 Y0.268
X1.93 Y0.331
X1.954 Y0.381
X1.972 Y0.432
X1.995 Y0.532
X2 Y0.734
Y189.266
X1.995 Y189.468
X1.988 Y189.498
X1.958 Y189.586 F800
X1.914 Y189.668
X1.864 Y189.722 Z-4.995
X1.815 Y189.775 Z-4.982
X1.767 Y189.827 Z-4.959
X1.696 Y189.862 Z-4.921
X1.631 Y189.895 Z-4.871
X1.573 Y189.924 Z-4.812
X1.517 Y189.932 Z-4.741
X1.471 Y189.938 Z-4.663
X1.438 Y189.943 Z-4.579
X1.418 Y189.946 Z-4.491
X1.412 Y189.947 Z-4.4
G0 Z5
X-6.838 Y0.619
Z-4.3
G1 Z-4.9 F600
X-6.831 Y0.617 Z-4.994
X-6.809 Y0.611 Z-5.085
X-6.775 Y0.602 Z-5.172
X-6.727 Y0.59 Z-5.253
X-6.668 Y0.575 Z-5.324
X-6.598 Y0.557 Z-5.385
X-6.521 Y0.537 Z-5.435
X-6.436 Y0.516 Z-5.471
X-6.348 Y0.493 Z-5.493
X-6.257 Y0.47 Z-5.5
G3 X-2.99 Y0 I3.801 J14.839
G1 X0.029 F1000
X0.179 Y0.007
X0.135 Y0.893
X0.104 Y1.778
X0.082 Y2.664
X0.067 Y3.55
X0.056 Y4.436
X0.048 Y5.322
X0.043 Y6.208
X0.039 Y7.094
X0.034 Y8.867
X0.032 Y11.525
X0.03 Y18.614
Y50.514
Y101.023
Y151.532
Y186.977
X0.045 Y187.198
X0.109 Y187.41
X0.327 Y187.796
X0.938 Y188.438
X1.126 Y188.591
X1.263 Y188.791
X1.337 Y189.021
X1.342 Y189.263
X1.278 Y189.497
X1.15 Y189.703
X0.968 Y189.863
X0.749 Y189.965
X0.509 Y190
G3 X-0.055 Y189.535 I0.021 J-0.6 F800
G1 X-0.076 Y189.444 Z-5.493
X-0.096 Y189.355 Z-5.471
X-0.116 Y189.27 Z-5.435
X-0.134 Y189.192 Z-5.385
X-0.15 Y189.122 Z-5.324
X-0.164 Y189.062 Z-5.253
X-0.175 Y189.014 Z-5.172
X-0.183 Y188.979 Z-5.085
X-0.188 Y188.958 Z-4.994
X-0.19 Y188.951 Z-4.9
G0 Z5
X-1.24 Y0.528
Z-4.3
G1 Z-4.9 F600
X-1.234 Y0.524 Z-4.994
X-1.215 Y0.513 Z-5.085
X-1.184 Y0.495 Z-5.172
X-1.142 Y0.469 Z-5.253
X-1.089 Y0.438 Z-5.324
X-1.028 Y0.402 Z-5.385
X-0.959 Y0.361 Z-5.435
X-0.884 Y0.316 Z-5.471
X-0.805 Y0.269 Z-5.493
X-0.725 Y0.221 Z-5.5
G3 X0.029 Y0 I0.809 J1.36
G1 X1.237 F1000
X1.438 Y0.003
X1.538 Y0.021
X1.589 Y0.037
X1.639 Y0.059
X1.698 Y0.091
X1.757 Y0.13
X1.799 Y0.164
X1.84 Y0.205
X1.891 Y0.268
X1.93 Y0.331
X1.954 Y0.381
X1.972 Y0.432
X1.995 Y0.532
X2 Y0.734
Y189.266
X1.995 Y189.468
X1.988 Y189.498
X1.958 Y189.586 F800
X1.914 Y189.668
X1.864 Y189.722 Z-5.495
X1.815 Y189.775 Z-5.482
X1.767 Y189.827 Z-5.459
X1.696 Y189.862 Z-5.421
X1.631 Y189.895 Z-5.371
X1.573 Y189.924 Z-5.312
X1.517 Y189.932 Z-5.241
X1.471 Y189.938 Z-5.163
X1.438 Y189.943 Z-5.079
X1.418 Y189.946 Z-4.991
X1.412 Y189.947 Z-4.9
G0 Z5
X-6.838 Y0.619
Z-4.8
G1 Z-5.4 F600
X-6.831 Y0.617 Z-5.494
X-6.809 Y0.611 Z-5.585
X-6.775 Y0.602 Z-5.672
X-6.727 Y0.59 Z-5.753
X-6.668 Y0.575 Z-5.824
X-6.598 Y0.557 Z-5.885
X-6.521 Y0.537 Z-5.935
X-6.436 Y0.516 Z-5.971
X-6.348 Y0.493 Z-5.993
X-6.257 Y0.47 Z-6
G3 X-2.99 Y0 I3.801 J14.839
G1 X0.029 F1000
X0.179 Y0.007
X0.135 Y0.893
X0.104 Y1.778
X0.082 Y2.664
X0.067 Y3.55
X0.056 Y4.436
X0.048 Y5.322
X0.043 Y6.208
X0.039 Y7.094
X0.034 Y8.867
X0.032 Y11.525
X0.03 Y18.614
Y50.514
Y101.023
Y151.532
Y186.977
X0.045 Y187.198
X0.109 Y187.41
X0.327 Y187.796
X0.938 Y188.438
X1.126 Y188.591
X1.263 Y188.791
X1.337 Y189.021
X1.342 Y189.263
X1.278 Y189.497
X1.15 Y189.703
X0.968 Y189.863
X0.749 Y189.965
X0.509 Y190
G3 X-0.055 Y189.535 I0.021 J-0.6 F800
G1 X-0.076 Y189.444 Z-5.993
X-0.096 Y189.355 Z-5.971
X-0.116 Y189.27 Z-5.935
X-0.134 Y189.192 Z-5.885
X-0.15 Y189.122 Z-5.824
X-0.164 Y189.062 Z-5.753
X-0.175 Y189.014 Z-5.672
X-0.183 Y188.979 Z-5.585
X-0.188 Y188.958 Z-5.494
X-0.19 Y188.951 Z-5.4
G0 Z5
X-1.24 Y0.528
Z-4.8
G1 Z-5.4 F600
X-1.234 Y0.524 Z-5.494
X-1.215 Y0.513 Z-5.585
X-1.184 Y0.495 Z-5.672
X-1.142 Y0.469 Z-5.753
X-1.089 Y0.438 Z-5.824
X-1.028 Y0.402 Z-5.885
X-0.959 Y0.361 Z-5.935
X-0.884 Y0.316 Z-5.971
X-0.805 Y0.269 Z-5.993
X-0.725 Y0.221 Z-6
G3 X0.029 Y0 I0.809 J1.36
G1 X1.237 F1000
X1.438 Y0.003
X1.538 Y0.021
X1.589 Y0.037
X1.639 Y0.059
X1.698 Y0.091
X1.757 Y0.13
X1.799 Y0.164
X1.84 Y0.205
X1.891 Y0.268
X1.93 Y0.331
X1.954 Y0.381
X1.972 Y0.432
X1.995 Y0.532
X2 Y0.734
Y189.266
X1.995 Y189.468
X1.988 Y189.498
X1.958 Y189.586 F800
X1.914 Y189.668
X1.864 Y189.722 Z-5.995
X1.815 Y189.775 Z-5.982
X1.767 Y189.827 Z-5.959
X1.696 Y189.862 Z-5.921
X1.631 Y189.895 Z-5.871
X1.573 Y189.924 Z-5.812
X1.517 Y189.932 Z-5.741
X1.471 Y189.938 Z-5.663
X1.438 Y189.943 Z-5.579
X1.418 Y189.946 Z-5.491
X1.412 Y189.947 Z-5.4
G0 Z5
X-6.838 Y0.619
Z-5.3
G1 Z-5.9 F600
X-6.831 Y0.617 Z-5.994
X-6.809 Y0.611 Z-6.085
X-6.775 Y0.602 Z-6.172
X-6.727 Y0.59 Z-6.253
X-6.668 Y0.575 Z-6.324
X-6.598 Y0.557 Z-6.385
X-6.521 Y0.537 Z-6.435
X-6.436 Y0.516 Z-6.471
X-6.348 Y0.493 Z-6.493
X-6.257 Y0.47 Z-6.5
G3 X-2.99 Y0 I3.801 J14.839
G1 X0.029 F1000
X0.179 Y0.007
X0.135 Y0.893
X0.104 Y1.778
X0.082 Y2.664
X0.067 Y3.55
X0.056 Y4.436
X0.048 Y5.322
X0.043 Y6.208
X0.039 Y7.094
X0.034 Y8.867
X0.032 Y11.525
X0.03 Y18.614
Y50.514
Y101.023
Y151.532
Y186.977
X0.045 Y187.198
X0.109 Y187.41
X0.327 Y187.796
X0.938 Y188.438
X1.126 Y188.591
X1.263 Y188.791
X1.337 Y189.021
X1.342 Y189.263
X1.278 Y189.497
X1.15 Y189.703
X0.968 Y189.863
X0.749 Y189.965
X0.509 Y190
G3 X-0.055 Y189.535 I0.021 J-0.6 F800
G1 X-0.076 Y189.444 Z-6.493
X-0.096 Y189.355 Z-6.471
X-0.116 Y189.27 Z-6.435
X-0.134 Y189.192 Z-6.385
X-0.15 Y189.122 Z-6.324
X-0.164 Y189.062 Z-6.253
X-0.175 Y189.014 Z-6.172
X-0.183 Y188.979 Z-6.085
X-0.188 Y188.958 Z-5.994
X-0.19 Y188.951 Z-5.9
G0 Z5
X-1.24 Y0.528
Z-5.3
G1 Z-5.9 F600
X-1.234 Y0.524 Z-5.994
X-1.215 Y0.513 Z-6.085
X-1.184 Y0.495 Z-6.172
X-1.142 Y0.469 Z-6.253
X-1.089 Y0.438 Z-6.324
X-1.028 Y0.402 Z-6.385
X-0.959 Y0.361 Z-6.435
X-0.884 Y0.316 Z-6.471
X-0.805 Y0.269 Z-6.493
X-0.725 Y0.221 Z-6.5
G3 X0.029 Y0 I0.809 J1.36
G1 X1.237 F1000
X1.438 Y0.003
X1.538 Y0.021
X1.589 Y0.037
X1.639 Y0.059
X1.698 Y0.091
X1.757 Y0.13
X1.799 Y0.164
X1.84 Y0.205
X1.891 Y0.268
X1.93 Y0.331
X1.954 Y0.381
X1.972 Y0.432
X1.995 Y0.532
X2 Y0.734
Y189.266
X1.995 Y189.468
X1.988 Y189.498
X1.958 Y189.586 F800
X1.914 Y189.668
X1.864 Y189.722 Z-6.495
X1.815 Y189.775 Z-6.482
X1.767 Y189.827 Z-6.459
X1.696 Y189.862 Z-6.421
X1.631 Y189.895 Z-6.371
X1.573 Y189.924 Z-6.312
X1.517 Y189.932 Z-6.241
X1.471 Y189.938 Z-6.163
X1.438 Y189.943 Z-6.079
X1.418 Y189.946 Z-5.991
X1.412 Y189.947 Z-5.9
G0 Z5
X-6.838 Y0.619
Z-5.8
G1 Z-6.4 F600
X-6.831 Y0.617 Z-6.494
X-6.809 Y0.611 Z-6.585
X-6.775 Y0.602 Z-6.672
X-6.727 Y0.59 Z-6.753
X-6.668 Y0.575 Z-6.824
X-6.598 Y0.557 Z-6.885
X-6.521 Y0.537 Z-6.935
X-6.436 Y0.516 Z-6.971
X-6.348 Y0.493 Z-6.993
X-6.257 Y0.47 Z-7
G3 X-2.99 Y0 I3.801 J14.839
G1 X0.029 F1000
X0.179 Y0.007
X0.135 Y0.893
X0.104 Y1.778
X0.082 Y2.664
X0.067 Y3.55
X0.056 Y4.436
X0.048 Y5.322
X0.043 Y6.208
X0.039 Y7.094
X0.034 Y8.867
X0.032 Y11.525
X0.03 Y18.614
Y50.514
Y101.023
Y151.532
Y186.977
X0.045 Y187.198
X0.109 Y187.41
X0.327 Y187.796
X0.938 Y188.438
X1.126 Y188.591
X1.263 Y188.791
X1.337 Y189.021
X1.342 Y189.263
X1.278 Y189.497
X1.15 Y189.703
X0.968 Y189.863
X0.749 Y189.965
X0.509 Y190
G3 X-0.055 Y189.535 I0.021 J-0.6 F800
G1 X-0.076 Y189.444 Z-6.993
X-0.096 Y189.355 Z-6.971
X-0.116 Y189.27 Z-6.935
X-0.134 Y189.192 Z-6.885
X-0.15 Y189.122 Z-6.824
X-0.164 Y189.062 Z-6.753
X-0.175 Y189.014 Z-6.672
X-0.183 Y188.979 Z-6.585
X-0.188 Y188.958 Z-6.494
X-0.19 Y188.951 Z-6.4
G0 Z5
X-1.24 Y0.528
Z-5.8
G1 Z-6.4 F600
X-1.234 Y0.524 Z-6.494
X-1.215 Y0.513 Z-6.585
X-1.184 Y0.495 Z-6.672
X-1.142 Y0.469 Z-6.753
X-1.089 Y0.438 Z-6.824
X-1.028 Y0.402 Z-6.885
X-0.959 Y0.361 Z-6.935
X-0.884 Y0.316 Z-6.971
X-0.805 Y0.269 Z-6.993
X-0.725 Y0.221 Z-7
G3 X0.029 Y0 I0.809 J1.36
G1 X1.237 F1000
X1.438 Y0.003
X1.538 Y0.021
X1.589 Y0.037
X1.639 Y0.059
X1.698 Y0.091
X1.757 Y0.13
X1.799 Y0.164
X1.84 Y0.205
X1.891 Y0.268
X1.93 Y0.331
X1.954 Y0.381
X1.972 Y0.432
X1.995 Y0.532
X2 Y0.734
Y189.266
X1.995 Y189.468
X1.988 Y189.498
G3 X1.412 Y189.947 I-0.581 J-0.151 F800
G1 X1.318 Y189.948 Z-6.993
X1.226 Z-6.971
X1.139 Y189.949 Z-6.935
X1.059 Y189.95 Z-6.885
X0.987 Z-6.824
X0.926 Y189.951 Z-6.753
X0.877 Z-6.672
X0.841 Z-6.585
X0.819 Z-6.494
X0.812 Z-6.4
G0 Z15
G28 G91 Z0
G90
G28 G91 X0 Y0
G90
M5
M30
