(table_nutblock_bore2)
(T6  D=3.175 CR=0 - ZMIN=-12.5 - flat end mill)
G90 G94
G17
G21
G28 G91 Z0
G90

(Bore1 2)
T6
(1/8" Flat-45 degree helix)
S18000 M3
G54
G0 X10.219 Y-0.317
Z15
Z-5
G1 Z-6.682 F900
G18 G2 X10.536 Z-7 I0.318 K0
G1 X10.695
G17 G3 X11.012 Y0 I0 J0.317
X8.988 Y0 Z-7.1 I-1.012 J0
X11.012 Y0 Z-7.2 I1.012 J0
X8.988 Y0 Z-7.3 I-1.012 J0
X11.012 Y0 Z-7.4 I1.012 J0
X8.988 Y0 Z-7.5 I-1.012 J0
X11.012 Y0 Z-7.6 I1.012 J0
X8.988 Y0 Z-7.7 I-1.012 J0
X11.012 Y0 Z-7.8 I1.012 J0
X8.988 Y0 Z-7.9 I-1.012 J0
X11.012 Y0 Z-8 I1.012 J0
X8.988 Y0 Z-8.1 I-1.012 J0
X11.012 Y0 Z-8.2 I1.012 J0
X8.988 Y0 Z-8.3 I-1.012 J0
X11.012 Y0 Z-8.4 I1.012 J0
X8.988 Y0 Z-8.5 I-1.012 J0
X11.012 Y0 Z-8.6 I1.012 J0
X8.988 Y0 Z-8.7 I-1.012 J0
X11.012 Y0 Z-8.8 I1.012 J0
X8.988 Y0 Z-8.9 I-1.012 J0
X11.012 Y0 Z-9 I1.012 J0
X8.988 Y0 Z-9.1 I-1.012 J0
X11.012 Y0 Z-9.2 I1.012 J0
X8.988 Y0 Z-9.3 I-1.012 J0
X11.012 Y0 Z-9.4 I1.012 J0
X8.988 Y0 Z-9.5 I-1.012 J0
X11.012 Y0 Z-9.6 I1.012 J0
X8.988 Y0 Z-9.7 I-1.012 J0
X11.012 Y0 Z-9.8 I1.012 J0
X8.988 Y0 Z-9.9 I-1.012 J0
X11.012 Y0 Z-10 I1.012 J0
X8.988 Y0 Z-10.1 I-1.012 J0
X11.012 Y0 Z-10.2 I1.012 J0
X8.988 Y0 Z-10.3 I-1.012 J0
X11.012 Y0 Z-10.4 I1.012 J0
X8.988 Y0 Z-10.5 I-1.012 J0
X11.012 Y0 Z-10.6 I1.012 J0
X8.988 Y0 Z-10.7 I-1.012 J0
X11.012 Y0 Z-10.8 I1.012 J0
X8.988 Y0 Z-10.9 I-1.012 J0
X11.012 Y0 Z-11 I1.012 J0
X8.988 Y0 Z-11.1 I-1.012 J0
X11.012 Y0 Z-11.2 I1.012 J0
X8.988 Y0 Z-11.3 I-1.012 J0
X11.012 Y0 Z-11.4 I1.012 J0
X8.988 Y0 Z-11.5 I-1.012 J0
X11.012 Y0 Z-11.6 I1.012 J0
X8.988 Y0 Z-11.7 I-1.012 J0
X11.012 Y0 Z-11.8 I1.012 J0
X8.988 Y0 Z-11.9 I-1.012 J0
X11.012 Y0 Z-12 I1.012 J0
X8.988 Y0 Z-12.1 I-1.012 J0
X11.012 Y0 Z-12.2 I1.012 J0
X8.988 Y0 Z-12.3 I-1.012 J0
X11.012 Y0 Z-12.4 I1.012 J0
X8.988 Y0 Z-12.5 I-1.012 J0
X11.012 Y0 I1.012 J0
X8.988 Y0 I-1.012 J0
X9.305 Y-0.317 I0.318 J0
G1 X9.464
G18 G2 X9.781 Z-12.182 I0 K0.318
G0 Z5
X-9.781
Z-5
G1 Z-6.682 F900
G2 X-9.464 Z-7 I0.318 K0
G1 X-9.305
G17 G3 X-8.988 Y0 I0 J0.317
X-11.012 Y0 Z-7.1 I-1.012 J0
X-8.988 Y0 Z-7.2 I1.012 J0
X-11.012 Y0 Z-7.3 I-1.012 J0
X-8.988 Y0 Z-7.4 I1.012 J0
X-11.012 Y0 Z-7.5 I-1.012 J0
X-8.988 Y0 Z-7.6 I1.012 J0
X-11.012 Y0 Z-7.7 I-1.012 J0
X-8.988 Y0 Z-7.8 I1.012 J0
X-11.012 Y0 Z-7.9 I-1.012 J0
X-8.988 Y0 Z-8 I1.012 J0
X-11.012 Y0 Z-8.1 I-1.012 J0
X-8.988 Y0 Z-8.2 I1.012 J0
X-11.012 Y0 Z-8.3 I-1.012 J0
X-8.988 Y0 Z-8.4 I1.012 J0
X-11.012 Y0 Z-8.5 I-1.012 J0
X-8.988 Y0 Z-8.6 I1.012 J0
X-11.012 Y0 Z-8.7 I-1.012 J0
X-8.988 Y0 Z-8.8 I1.012 J0
X-11.012 Y0 Z-8.9 I-1.012 J0
X-8.988 Y0 Z-9 I1.012 J0
X-11.012 Y0 Z-9.1 I-1.012 J0
X-8.988 Y0 Z-9.2 I1.012 J0
X-11.012 Y0 Z-9.3 I-1.012 J0
X-8.988 Y0 Z-9.4 I1.012 J0
X-11.012 Y0 Z-9.5 I-1.012 J0
X-8.988 Y0 Z-9.6 I1.012 J0
X-11.012 Y0 Z-9.7 I-1.012 J0
X-8.988 Y0 Z-9.8 I1.012 J0
X-11.012 Y0 Z-9.9 I-1.012 J0
X-8.988 Y0 Z-10 I1.012 J0
X-11.012 Y0 Z-10.1 I-1.012 J0
X-8.988 Y0 Z-10.2 I1.012 J0
X-11.012 Y0 Z-10.3 I-1.012 J0
X-8.988 Y0 Z-10.4 I1.012 J0
X-11.012 Y0 Z-10.5 I-1.012 J0
X-8.988 Y0 Z-10.6 I1.012 J0
X-11.012 Y0 Z-10.7 I-1.012 J0
X-8.988 Y0 Z-10.8 I1.012 J0
X-11.012 Y0 Z-10.9 I-1.012 J0
X-8.988 Y0 Z-11 I1.012 J0
X-11.012 Y0 Z-11.1 I-1.012 J0
X-8.988 Y0 Z-11.2 I1.012 J0
X-11.012 Y0 Z-11.3 I-1.012 J0
X-8.988 Y0 Z-11.4 I1.012 J0
X-11.012 Y0 Z-11.5 I-1.012 J0
X-8.988 Y0 Z-11.6 I1.012 J0
X-11.012 Y0 Z-11.7 I-1.012 J0
X-8.988 Y0 Z-11.8 I1.012 J0
X-11.012 Y0 Z-11.9 I-1.012 J0
X-8.988 Y0 Z-12 I1.012 J0
X-11.012 Y0 Z-12.1 I-1.012 J0
X-8.988 Y0 Z-12.2 I1.012 J0
X-11.012 Y0 Z-12.3 I-1.012 J0
X-8.988 Y0 Z-12.4 I1.012 J0
X-11.012 Y0 Z-12.5 I-1.012 J0
X-8.988 Y0 I1.012 J0
X-11.012 Y0 I-1.012 J0
X-10.695 Y-0.317 I0.318 J0
G1 X-10.536
G18 G2 X-10.219 Z-12.182 I0 K0.318
G0 Z15
G17
G28 G91 Z0
G90
G28 G91 X0 Y0
G90
M5
M30
