(table_nutblockholse)
(T6  D=3.175 CR=0 - ZMIN=-7 - flat end mill)
G90 G94
G17
G21
G28 G91 Z0
G90

(Bore1)
T6
(1/8" Flat-45 degree helix)
S18000 M3
G54
G0 X10.531 Y-0.317
Z15
Z2
G1 Z0.317 F500
G18 G2 X10.849 Z0 I0.318 K0
G1 X11.007
G17 G3 X11.325 Y0 I0 J0.317
X8.675 Y0 Z-0.05 I-1.325 J0
X11.325 Y0 Z-0.1 I1.325 J0
X8.675 Y0 Z-0.15 I-1.325 J0
X11.325 Y0 Z-0.2 I1.325 J0
X8.675 Y0 Z-0.25 I-1.325 J0
X11.325 Y0 Z-0.3 I1.325 J0
X8.675 Y0 Z-0.35 I-1.325 J0
X11.325 Y0 Z-0.4 I1.325 J0
X8.675 Y0 Z-0.45 I-1.325 J0
X11.325 Y0 Z-0.5 I1.325 J0
X8.675 Y0 Z-0.55 I-1.325 J0
X11.325 Y0 Z-0.6 I1.325 J0
X8.675 Y0 Z-0.65 I-1.325 J0
X11.325 Y0 Z-0.7 I1.325 J0
X8.675 Y0 Z-0.75 I-1.325 J0
X11.325 Y0 Z-0.8 I1.325 J0
X8.675 Y0 Z-0.85 I-1.325 J0
X11.325 Y0 Z-0.9 I1.325 J0
X8.675 Y0 Z-0.95 I-1.325 J0
X11.325 Y0 Z-1 I1.325 J0
X8.675 Y0 Z-1.05 I-1.325 J0
X11.325 Y0 Z-1.1 I1.325 J0
X8.675 Y0 Z-1.15 I-1.325 J0
X11.325 Y0 Z-1.2 I1.325 J0
X8.675 Y0 Z-1.25 I-1.325 J0
X11.325 Y0 Z-1.3 I1.325 J0
X8.675 Y0 Z-1.35 I-1.325 J0
X11.325 Y0 Z-1.4 I1.325 J0
X8.675 Y0 Z-1.45 I-1.325 J0
X11.325 Y0 Z-1.5 I1.325 J0
X8.675 Y0 Z-1.55 I-1.325 J0
X11.325 Y0 Z-1.6 I1.325 J0
X8.675 Y0 Z-1.65 I-1.325 J0
X11.325 Y0 Z-1.7 I1.325 J0
X8.675 Y0 Z-1.75 I-1.325 J0
X11.325 Y0 Z-1.8 I1.325 J0
X8.675 Y0 Z-1.85 I-1.325 J0
X11.325 Y0 Z-1.9 I1.325 J0
X8.675 Y0 Z-1.95 I-1.325 J0
X11.325 Y0 Z-2 I1.325 J0
X8.675 Y0 Z-2.05 I-1.325 J0
X11.325 Y0 Z-2.1 I1.325 J0
X8.675 Y0 Z-2.15 I-1.325 J0
X11.325 Y0 Z-2.2 I1.325 J0
X8.675 Y0 Z-2.25 I-1.325 J0
X11.325 Y0 Z-2.3 I1.325 J0
X8.675 Y0 Z-2.35 I-1.325 J0
X11.325 Y0 Z-2.4 I1.325 J0
X8.675 Y0 Z-2.45 I-1.325 J0
X11.325 Y0 Z-2.5 I1.325 J0
X8.675 Y0 Z-2.55 I-1.325 J0
X11.325 Y0 Z-2.6 I1.325 J0
X8.675 Y0 Z-2.65 I-1.325 J0
X11.325 Y0 Z-2.7 I1.325 J0
X8.675 Y0 Z-2.75 I-1.325 J0
X11.325 Y0 Z-2.8 I1.325 J0
X8.675 Y0 Z-2.85 I-1.325 J0
X11.325 Y0 Z-2.9 I1.325 J0
X8.675 Y0 Z-2.95 I-1.325 J0
X11.325 Y0 Z-3 I1.325 J0
X8.675 Y0 Z-3.05 I-1.325 J0
X11.325 Y0 Z-3.1 I1.325 J0
X8.675 Y0 Z-3.15 I-1.325 J0
X11.325 Y0 Z-3.2 I1.325 J0
X8.675 Y0 Z-3.25 I-1.325 J0
X11.325 Y0 Z-3.3 I1.325 J0
X8.675 Y0 Z-3.35 I-1.325 J0
X11.325 Y0 Z-3.4 I1.325 J0
X8.675 Y0 Z-3.45 I-1.325 J0
X11.325 Y0 Z-3.5 I1.325 J0
X8.675 Y0 Z-3.55 I-1.325 J0
X11.325 Y0 Z-3.6 I1.325 J0
X8.675 Y0 Z-3.65 I-1.325 J0
X11.325 Y0 Z-3.7 I1.325 J0
X8.675 Y0 Z-3.75 I-1.325 J0
X11.325 Y0 Z-3.8 I1.325 J0
X8.675 Y0 Z-3.85 I-1.325 J0
X11.325 Y0 Z-3.9 I1.325 J0
X8.675 Y0 Z-3.95 I-1.325 J0
X11.325 Y0 Z-4 I1.325 J0
X8.675 Y0 Z-4.05 I-1.325 J0
X11.325 Y0 Z-4.1 I1.325 J0
X8.675 Y0 Z-4.15 I-1.325 J0
X11.325 Y0 Z-4.2 I1.325 J0
X8.675 Y0 Z-4.25 I-1.325 J0
X11.325 Y0 Z-4.3 I1.325 J0
X8.675 Y0 Z-4.35 I-1.325 J0
X11.325 Y0 Z-4.4 I1.325 J0
X8.675 Y0 Z-4.45 I-1.325 J0
X11.325 Y0 Z-4.5 I1.325 J0
X8.675 Y0 Z-4.55 I-1.325 J0
X11.325 Y0 Z-4.6 I1.325 J0
X8.675 Y0 Z-4.65 I-1.325 J0
X11.325 Y0 Z-4.7 I1.325 J0
X8.675 Y0 Z-4.75 I-1.325 J0
X11.325 Y0 Z-4.8 I1.325 J0
X8.675 Y0 Z-4.85 I-1.325 J0
X11.325 Y0 Z-4.9 I1.325 J0
X8.675 Y0 Z-4.95 I-1.325 J0
X11.325 Y0 Z-5 I1.325 J0
X8.675 Y0 Z-5.05 I-1.325 J0
X11.325 Y0 Z-5.1 I1.325 J0
X8.675 Y0 Z-5.15 I-1.325 J0
X11.325 Y0 Z-5.2 I1.325 J0
X8.675 Y0 Z-5.25 I-1.325 J0
X11.325 Y0 Z-5.3 I1.325 J0
X8.675 Y0 Z-5.35 I-1.325 J0
X11.325 Y0 Z-5.4 I1.325 J0
X8.675 Y0 Z-5.45 I-1.325 J0
X11.325 Y0 Z-5.5 I1.325 J0
X8.675 Y0 Z-5.55 I-1.325 J0
X11.325 Y0 Z-5.6 I1.325 J0
X8.675 Y0 Z-5.65 I-1.325 J0
X11.325 Y0 Z-5.7 I1.325 J0
X8.675 Y0 Z-5.75 I-1.325 J0
X11.325 Y0 Z-5.8 I1.325 J0
X8.675 Y0 Z-5.85 I-1.325 J0
X11.325 Y0 Z-5.9 I1.325 J0
X8.675 Y0 Z-5.95 I-1.325 J0
X11.325 Y0 Z-6 I1.325 J0
X8.675 Y0 Z-6.05 I-1.325 J0
X11.325 Y0 Z-6.1 I1.325 J0
X8.675 Y0 Z-6.15 I-1.325 J0
X11.325 Y0 Z-6.2 I1.325 J0
X8.675 Y0 Z-6.25 I-1.325 J0
X11.325 Y0 Z-6.3 I1.325 J0
X8.675 Y0 Z-6.35 I-1.325 J0
X11.325 Y0 Z-6.4 I1.325 J0
X8.675 Y0 Z-6.45 I-1.325 J0
X11.325 Y0 Z-6.5 I1.325 J0
X8.675 Y0 Z-6.55 I-1.325 J0
X11.325 Y0 Z-6.6 I1.325 J0
X8.675 Y0 Z-6.65 I-1.325 J0
X11.325 Y0 Z-6.7 I1.325 J0
X8.675 Y0 Z-6.75 I-1.325 J0
X11.325 Y0 Z-6.8 I1.325 J0
X8.675 Y0 Z-6.85 I-1.325 J0
X11.325 Y0 Z-6.9 I1.325 J0
X8.675 Y0 Z-6.95 I-1.325 J0
X11.325 Y0 Z-7 I1.325 J0
X8.675 Y0 I-1.325 J0
X11.325 Y0 I1.325 J0
X11.007 Y0.317 I-0.318 J0
G1 X10.849
G18 G3 X10.531 Z-6.682 I0 K0.318
G0 Z5
Z15
X12.119 Y-0.317
Z2
G1 Z0.317 F500
G2 X12.436 Z0 I0.317 K0
G1 X12.595
G17 G3 X12.913 Y0 I0 J0.317
X7.087 Y0 Z-0.05 I-2.913 J0
X12.913 Y0 Z-0.1 I2.913 J0
X7.087 Y0 Z-0.15 I-2.913 J0
X12.913 Y0 Z-0.2 I2.913 J0
X7.087 Y0 Z-0.25 I-2.913 J0
X12.913 Y0 Z-0.3 I2.913 J0
X7.087 Y0 Z-0.35 I-2.913 J0
X12.913 Y0 Z-0.4 I2.913 J0
X7.087 Y0 Z-0.45 I-2.913 J0
X12.913 Y0 Z-0.5 I2.913 J0
X7.087 Y0 Z-0.55 I-2.913 J0
X12.913 Y0 Z-0.6 I2.913 J0
X7.087 Y0 Z-0.65 I-2.913 J0
X12.913 Y0 Z-0.7 I2.913 J0
X7.087 Y0 Z-0.75 I-2.913 J0
X12.913 Y0 Z-0.8 I2.913 J0
X7.087 Y0 Z-0.85 I-2.913 J0
X12.913 Y0 Z-0.9 I2.913 J0
X7.087 Y0 Z-0.95 I-2.913 J0
X12.913 Y0 Z-1 I2.913 J0
X7.087 Y0 Z-1.05 I-2.913 J0
X12.913 Y0 Z-1.1 I2.913 J0
X7.087 Y0 Z-1.15 I-2.913 J0
X12.913 Y0 Z-1.2 I2.913 J0
X7.087 Y0 Z-1.25 I-2.913 J0
X12.913 Y0 Z-1.3 I2.913 J0
X7.087 Y0 Z-1.35 I-2.913 J0
X12.913 Y0 Z-1.4 I2.913 J0
X7.087 Y0 Z-1.45 I-2.913 J0
X12.913 Y0 Z-1.5 I2.913 J0
X7.087 Y0 Z-1.55 I-2.913 J0
X12.913 Y0 Z-1.6 I2.913 J0
X7.087 Y0 Z-1.65 I-2.913 J0
X12.913 Y0 Z-1.7 I2.913 J0
X7.087 Y0 Z-1.75 I-2.913 J0
X12.913 Y0 Z-1.8 I2.913 J0
X7.087 Y0 Z-1.85 I-2.913 J0
X12.913 Y0 Z-1.9 I2.913 J0
X7.087 Y0 Z-1.95 I-2.913 J0
X12.913 Y0 Z-2 I2.913 J0
X7.087 Y0 Z-2.05 I-2.913 J0
X12.913 Y0 Z-2.1 I2.913 J0
X7.087 Y0 Z-2.15 I-2.913 J0
X12.913 Y0 Z-2.2 I2.913 J0
X7.087 Y0 Z-2.25 I-2.913 J0
X12.913 Y0 Z-2.3 I2.913 J0
X7.087 Y0 Z-2.35 I-2.913 J0
X12.913 Y0 Z-2.4 I2.913 J0
X7.087 Y0 Z-2.45 I-2.913 J0
X12.913 Y0 Z-2.5 I2.913 J0
X7.087 Y0 Z-2.55 I-2.913 J0
X12.913 Y0 Z-2.6 I2.913 J0
X7.087 Y0 Z-2.65 I-2.913 J0
X12.913 Y0 Z-2.7 I2.913 J0
X7.087 Y0 Z-2.75 I-2.913 J0
X12.913 Y0 Z-2.8 I2.913 J0
X7.087 Y0 Z-2.85 I-2.913 J0
X12.913 Y0 Z-2.9 I2.913 J0
X7.087 Y0 Z-2.95 I-2.913 J0
X12.913 Y0 Z-3 I2.913 J0
X7.087 Y0 Z-3.05 I-2.913 J0
X12.913 Y0 Z-3.1 I2.913 J0
X7.087 Y0 Z-3.15 I-2.913 J0
X12.913 Y0 Z-3.2 I2.913 J0
X7.087 Y0 Z-3.25 I-2.913 J0
X12.913 Y0 Z-3.3 I2.913 J0
X7.087 Y0 Z-3.35 I-2.913 J0
X12.913 Y0 Z-3.4 I2.913 J0
X7.087 Y0 Z-3.45 I-2.913 J0
X12.913 Y0 Z-3.5 I2.913 J0
X7.087 Y0 Z-3.55 I-2.913 J0
X12.913 Y0 Z-3.6 I2.913 J0
X7.087 Y0 Z-3.65 I-2.913 J0
X12.913 Y0 Z-3.7 I2.913 J0
X7.087 Y0 Z-3.75 I-2.913 J0
X12.913 Y0 Z-3.8 I2.913 J0
X7.087 Y0 Z-3.85 I-2.913 J0
X12.913 Y0 Z-3.9 I2.913 J0
X7.087 Y0 Z-3.95 I-2.913 J0
X12.913 Y0 Z-4 I2.913 J0
X7.087 Y0 Z-4.05 I-2.913 J0
X12.913 Y0 Z-4.1 I2.913 J0
X7.087 Y0 Z-4.15 I-2.913 J0
X12.913 Y0 Z-4.2 I2.913 J0
X7.087 Y0 Z-4.25 I-2.913 J0
X12.913 Y0 Z-4.3 I2.913 J0
X7.087 Y0 Z-4.35 I-2.913 J0
X12.913 Y0 Z-4.4 I2.913 J0
X7.087 Y0 Z-4.45 I-2.913 J0
X12.913 Y0 Z-4.5 I2.913 J0
X7.087 Y0 Z-4.55 I-2.913 J0
X12.913 Y0 Z-4.6 I2.913 J0
X7.087 Y0 Z-4.65 I-2.913 J0
X12.913 Y0 Z-4.7 I2.913 J0
X7.087 Y0 Z-4.75 I-2.913 J0
X12.913 Y0 Z-4.8 I2.913 J0
X7.087 Y0 Z-4.85 I-2.913 J0
X12.913 Y0 Z-4.9 I2.913 J0
X7.087 Y0 Z-4.95 I-2.913 J0
X12.913 Y0 Z-5 I2.913 J0
X7.087 Y0 Z-5.05 I-2.913 J0
X12.913 Y0 Z-5.1 I2.913 J0
X7.087 Y0 Z-5.15 I-2.913 J0
X12.913 Y0 Z-5.2 I2.913 J0
X7.087 Y0 Z-5.25 I-2.913 J0
X12.913 Y0 Z-5.3 I2.913 J0
X7.087 Y0 Z-5.35 I-2.913 J0
X12.913 Y0 Z-5.4 I2.913 J0
X7.087 Y0 Z-5.45 I-2.913 J0
X12.913 Y0 Z-5.5 I2.913 J0
X7.087 Y0 Z-5.55 I-2.913 J0
X12.913 Y0 Z-5.6 I2.913 J0
X7.087 Y0 Z-5.65 I-2.913 J0
X12.913 Y0 Z-5.7 I2.913 J0
X7.087 Y0 Z-5.75 I-2.913 J0
X12.913 Y0 Z-5.8 I2.913 J0
X7.087 Y0 Z-5.85 I-2.913 J0
X12.913 Y0 Z-5.9 I2.913 J0
X7.087 Y0 Z-5.95 I-2.913 J0
X12.913 Y0 Z-6 I2.913 J0
X7.087 Y0 Z-6.05 I-2.913 J0
X12.913 Y0 Z-6.1 I2.913 J0
X7.087 Y0 Z-6.15 I-2.913 J0
X12.913 Y0 Z-6.2 I2.913 J0
X7.087 Y0 Z-6.25 I-2.913 J0
X12.913 Y0 Z-6.3 I2.913 J0
X7.087 Y0 Z-6.35 I-2.913 J0
X12.913 Y0 Z-6.4 I2.913 J0
X7.087 Y0 Z-6.45 I-2.913 J0
X12.913 Y0 Z-6.5 I2.913 J0
X7.087 Y0 Z-6.55 I-2.913 J0
X12.913 Y0 Z-6.6 I2.913 J0
X7.087 Y0 Z-6.65 I-2.913 J0
X12.913 Y0 Z-6.7 I2.913 J0
X7.087 Y0 Z-6.75 I-2.913 J0
X12.913 Y0 Z-6.8 I2.913 J0
X7.087 Y0 Z-6.85 I-2.913 J0
X12.913 Y0 Z-6.9 I2.913 J0
X7.087 Y0 Z-6.95 I-2.913 J0
X12.913 Y0 Z-7 I2.913 J0
X7.087 Y0 I-2.913 J0
X12.913 Y0 I2.913 J0
X12.595 Y0.317 I-0.318 J0
G1 X12.436
G18 G3 X12.119 Z-6.682 I0 K0.318
G0 Z5
X-9.469 Y-0.317
Z2
G1 Z0.317 F500
G2 X-9.151 Z0 I0.318 K0
G1 X-8.993
G17 G3 X-8.675 Y0 I0 J0.317
X-11.325 Y0 Z-0.05 I-1.325 J0
X-8.675 Y0 Z-0.1 I1.325 J0
X-11.325 Y0 Z-0.15 I-1.325 J0
X-8.675 Y0 Z-0.2 I1.325 J0
X-11.325 Y0 Z-0.25 I-1.325 J0
X-8.675 Y0 Z-0.3 I1.325 J0
X-11.325 Y0 Z-0.35 I-1.325 J0
X-8.675 Y0 Z-0.4 I1.325 J0
X-11.325 Y0 Z-0.45 I-1.325 J0
X-8.675 Y0 Z-0.5 I1.325 J0
X-11.325 Y0 Z-0.55 I-1.325 J0
X-8.675 Y0 Z-0.6 I1.325 J0
X-11.325 Y0 Z-0.65 I-1.325 J0
X-8.675 Y0 Z-0.7 I1.325 J0
X-11.325 Y0 Z-0.75 I-1.325 J0
X-8.675 Y0 Z-0.8 I1.325 J0
X-11.325 Y0 Z-0.85 I-1.325 J0
X-8.675 Y0 Z-0.9 I1.325 J0
X-11.325 Y0 Z-0.95 I-1.325 J0
X-8.675 Y0 Z-1 I1.325 J0
X-11.325 Y0 Z-1.05 I-1.325 J0
X-8.675 Y0 Z-1.1 I1.325 J0
X-11.325 Y0 Z-1.15 I-1.325 J0
X-8.675 Y0 Z-1.2 I1.325 J0
X-11.325 Y0 Z-1.25 I-1.325 J0
X-8.675 Y0 Z-1.3 I1.325 J0
X-11.325 Y0 Z-1.35 I-1.325 J0
X-8.675 Y0 Z-1.4 I1.325 J0
X-11.325 Y0 Z-1.45 I-1.325 J0
X-8.675 Y0 Z-1.5 I1.325 J0
X-11.325 Y0 Z-1.55 I-1.325 J0
X-8.675 Y0 Z-1.6 I1.325 J0
X-11.325 Y0 Z-1.65 I-1.325 J0
X-8.675 Y0 Z-1.7 I1.325 J0
X-11.325 Y0 Z-1.75 I-1.325 J0
X-8.675 Y0 Z-1.8 I1.325 J0
X-11.325 Y0 Z-1.85 I-1.325 J0
X-8.675 Y0 Z-1.9 I1.325 J0
X-11.325 Y0 Z-1.95 I-1.325 J0
X-8.675 Y0 Z-2 I1.325 J0
X-11.325 Y0 Z-2.05 I-1.325 J0
X-8.675 Y0 Z-2.1 I1.325 J0
X-11.325 Y0 Z-2.15 I-1.325 J0
X-8.675 Y0 Z-2.2 I1.325 J0
X-11.325 Y0 Z-2.25 I-1.325 J0
X-8.675 Y0 Z-2.3 I1.325 J0
X-11.325 Y0 Z-2.35 I-1.325 J0
X-8.675 Y0 Z-2.4 I1.325 J0
X-11.325 Y0 Z-2.45 I-1.325 J0
X-8.675 Y0 Z-2.5 I1.325 J0
X-11.325 Y0 Z-2.55 I-1.325 J0
X-8.675 Y0 Z-2.6 I1.325 J0
X-11.325 Y0 Z-2.65 I-1.325 J0
X-8.675 Y0 Z-2.7 I1.325 J0
X-11.325 Y0 Z-2.75 I-1.325 J0
X-8.675 Y0 Z-2.8 I1.325 J0
X-11.325 Y0 Z-2.85 I-1.325 J0
X-8.675 Y0 Z-2.9 I1.325 J0
X-11.325 Y0 Z-2.95 I-1.325 J0
X-8.675 Y0 Z-3 I1.325 J0
X-11.325 Y0 Z-3.05 I-1.325 J0
X-8.675 Y0 Z-3.1 I1.325 J0
X-11.325 Y0 Z-3.15 I-1.325 J0
X-8.675 Y0 Z-3.2 I1.325 J0
X-11.325 Y0 Z-3.25 I-1.325 J0
X-8.675 Y0 Z-3.3 I1.325 J0
X-11.325 Y0 Z-3.35 I-1.325 J0
X-8.675 Y0 Z-3.4 I1.325 J0
X-11.325 Y0 Z-3.45 I-1.325 J0
X-8.675 Y0 Z-3.5 I1.325 J0
X-11.325 Y0 Z-3.55 I-1.325 J0
X-8.675 Y0 Z-3.6 I1.325 J0
X-11.325 Y0 Z-3.65 I-1.325 J0
X-8.675 Y0 Z-3.7 I1.325 J0
X-11.325 Y0 Z-3.75 I-1.325 J0
X-8.675 Y0 Z-3.8 I1.325 J0
X-11.325 Y0 Z-3.85 I-1.325 J0
X-8.675 Y0 Z-3.9 I1.325 J0
X-11.325 Y0 Z-3.95 I-1.325 J0
X-8.675 Y0 Z-4 I1.325 J0
X-11.325 Y0 Z-4.05 I-1.325 J0
X-8.675 Y0 Z-4.1 I1.325 J0
X-11.325 Y0 Z-4.15 I-1.325 J0
X-8.675 Y0 Z-4.2 I1.325 J0
X-11.325 Y0 Z-4.25 I-1.325 J0
X-8.675 Y0 Z-4.3 I1.325 J0
X-11.325 Y0 Z-4.35 I-1.325 J0
X-8.675 Y0 Z-4.4 I1.325 J0
X-11.325 Y0 Z-4.45 I-1.325 J0
X-8.675 Y0 Z-4.5 I1.325 J0
X-11.325 Y0 Z-4.55 I-1.325 J0
X-8.675 Y0 Z-4.6 I1.325 J0
X-11.325 Y0 Z-4.65 I-1.325 J0
X-8.675 Y0 Z-4.7 I1.325 J0
X-11.325 Y0 Z-4.75 I-1.325 J0
X-8.675 Y0 Z-4.8 I1.325 J0
X-11.325 Y0 Z-4.85 I-1.325 J0
X-8.675 Y0 Z-4.9 I1.325 J0
X-11.325 Y0 Z-4.95 I-1.325 J0
X-8.675 Y0 Z-5 I1.325 J0
X-11.325 Y0 Z-5.05 I-1.325 J0
X-8.675 Y0 Z-5.1 I1.325 J0
X-11.325 Y0 Z-5.15 I-1.325 J0
X-8.675 Y0 Z-5.2 I1.325 J0
X-11.325 Y0 Z-5.25 I-1.325 J0
X-8.675 Y0 Z-5.3 I1.325 J0
X-11.325 Y0 Z-5.35 I-1.325 J0
X-8.675 Y0 Z-5.4 I1.325 J0
X-11.325 Y0 Z-5.45 I-1.325 J0
X-8.675 Y0 Z-5.5 I1.325 J0
X-11.325 Y0 Z-5.55 I-1.325 J0
X-8.675 Y0 Z-5.6 I1.325 J0
X-11.325 Y0 Z-5.65 I-1.325 J0
X-8.675 Y0 Z-5.7 I1.325 J0
X-11.325 Y0 Z-5.75 I-1.325 J0
X-8.675 Y0 Z-5.8 I1.325 J0
X-11.325 Y0 Z-5.85 I-1.325 J0
X-8.675 Y0 Z-5.9 I1.325 J0
X-11.325 Y0 Z-5.95 I-1.325 J0
X-8.675 Y0 Z-6 I1.325 J0
X-11.325 Y0 Z-6.05 I-1.325 J0
X-8.675 Y0 Z-6.1 I1.325 J0
X-11.325 Y0 Z-6.15 I-1.325 J0
X-8.675 Y0 Z-6.2 I1.325 J0
X-11.325 Y0 Z-6.25 I-1.325 J0
X-8.675 Y0 Z-6.3 I1.325 J0
X-11.325 Y0 Z-6.35 I-1.325 J0
X-8.675 Y0 Z-6.4 I1.325 J0
X-11.325 Y0 Z-6.45 I-1.325 J0
X-8.675 Y0 Z-6.5 I1.325 J0
X-11.325 Y0 Z-6.55 I-1.325 J0
X-8.675 Y0 Z-6.6 I1.325 J0
X-11.325 Y0 Z-6.65 I-1.325 J0
X-8.675 Y0 Z-6.7 I1.325 J0
X-11.325 Y0 Z-6.75 I-1.325 J0
X-8.675 Y0 Z-6.8 I1.325 J0
X-11.325 Y0 Z-6.85 I-1.325 J0
X-8.675 Y0 Z-6.9 I1.325 J0
X-11.325 Y0 Z-6.95 I-1.325 J0
X-8.675 Y0 Z-7 I1.325 J0
X-11.325 Y0 I-1.325 J0
X-8.675 Y0 I1.325 J0
X-8.993 Y0.317 I-0.318 J0
G1 X-9.151
G18 G3 X-9.469 Z-6.682 I0 K0.318
G0 Z5
X-7.881 Y-0.317
Z2
G1 Z0.317 F500
G2 X-7.564 Z0 I0.318 K0
G1 X-7.405
G17 G3 X-7.088 Y0 I0 J0.317
X-12.912 Y0 Z-0.05 I-2.912 J0
X-7.088 Y0 Z-0.1 I2.912 J0
X-12.912 Y0 Z-0.15 I-2.912 J0
X-7.088 Y0 Z-0.2 I2.912 J0
X-12.912 Y0 Z-0.25 I-2.912 J0
X-7.088 Y0 Z-0.3 I2.912 J0
X-12.912 Y0 Z-0.35 I-2.912 J0
X-7.088 Y0 Z-0.4 I2.912 J0
X-12.912 Y0 Z-0.45 I-2.912 J0
X-7.088 Y0 Z-0.5 I2.912 J0
X-12.912 Y0 Z-0.55 I-2.912 J0
X-7.088 Y0 Z-0.6 I2.912 J0
X-12.912 Y0 Z-0.65 I-2.912 J0
X-7.088 Y0 Z-0.7 I2.912 J0
X-12.912 Y0 Z-0.75 I-2.912 J0
X-7.088 Y0 Z-0.8 I2.912 J0
X-12.912 Y0 Z-0.85 I-2.912 J0
X-7.088 Y0 Z-0.9 I2.912 J0
X-12.912 Y0 Z-0.95 I-2.912 J0
X-7.088 Y0 Z-1 I2.912 J0
X-12.912 Y0 Z-1.05 I-2.912 J0
X-7.088 Y0 Z-1.1 I2.912 J0
X-12.912 Y0 Z-1.15 I-2.912 J0
X-7.088 Y0 Z-1.2 I2.912 J0
X-12.912 Y0 Z-1.25 I-2.912 J0
X-7.088 Y0 Z-1.3 I2.912 J0
X-12.912 Y0 Z-1.35 I-2.912 J0
X-7.088 Y0 Z-1.4 I2.912 J0
X-12.912 Y0 Z-1.45 I-2.912 J0
X-7.088 Y0 Z-1.5 I2.912 J0
X-12.912 Y0 Z-1.55 I-2.912 J0
X-7.088 Y0 Z-1.6 I2.912 J0
X-12.912 Y0 Z-1.65 I-2.912 J0
X-7.088 Y0 Z-1.7 I2.912 J0
X-12.912 Y0 Z-1.75 I-2.912 J0
X-7.088 Y0 Z-1.8 I2.912 J0
X-12.912 Y0 Z-1.85 I-2.912 J0
X-7.088 Y0 Z-1.9 I2.912 J0
X-12.912 Y0 Z-1.95 I-2.912 J0
X-7.088 Y0 Z-2 I2.912 J0
X-12.912 Y0 Z-2.05 I-2.912 J0
X-7.088 Y0 Z-2.1 I2.912 J0
X-12.912 Y0 Z-2.15 I-2.912 J0
X-7.088 Y0 Z-2.2 I2.912 J0
X-12.912 Y0 Z-2.25 I-2.912 J0
X-7.088 Y0 Z-2.3 I2.912 J0
X-12.912 Y0 Z-2.35 I-2.912 J0
X-7.088 Y0 Z-2.4 I2.912 J0
X-12.912 Y0 Z-2.45 I-2.912 J0
X-7.088 Y0 Z-2.5 I2.912 J0
X-12.912 Y0 Z-2.55 I-2.912 J0
X-7.088 Y0 Z-2.6 I2.912 J0
X-12.912 Y0 Z-2.65 I-2.912 J0
X-7.088 Y0 Z-2.7 I2.912 J0
X-12.912 Y0 Z-2.75 I-2.912 J0
X-7.088 Y0 Z-2.8 I2.912 J0
X-12.912 Y0 Z-2.85 I-2.912 J0
X-7.088 Y0 Z-2.9 I2.912 J0
X-12.912 Y0 Z-2.95 I-2.912 J0
X-7.088 Y0 Z-3 I2.912 J0
X-12.912 Y0 Z-3.05 I-2.912 J0
X-7.088 Y0 Z-3.1 I2.912 J0
X-12.912 Y0 Z-3.15 I-2.912 J0
X-7.088 Y0 Z-3.2 I2.912 J0
X-12.912 Y0 Z-3.25 I-2.912 J0
X-7.088 Y0 Z-3.3 I2.912 J0
X-12.912 Y0 Z-3.35 I-2.912 J0
X-7.088 Y0 Z-3.4 I2.912 J0
X-12.912 Y0 Z-3.45 I-2.912 J0
X-7.088 Y0 Z-3.5 I2.912 J0
X-12.912 Y0 Z-3.55 I-2.912 J0
X-7.088 Y0 Z-3.6 I2.912 J0
X-12.912 Y0 Z-3.65 I-2.912 J0
X-7.088 Y0 Z-3.7 I2.912 J0
X-12.912 Y0 Z-3.75 I-2.912 J0
X-7.088 Y0 Z-3.8 I2.912 J0
X-12.912 Y0 Z-3.85 I-2.912 J0
X-7.088 Y0 Z-3.9 I2.912 J0
X-12.912 Y0 Z-3.95 I-2.912 J0
X-7.088 Y0 Z-4 I2.912 J0
X-12.912 Y0 Z-4.05 I-2.912 J0
X-7.088 Y0 Z-4.1 I2.912 J0
X-12.912 Y0 Z-4.15 I-2.912 J0
X-7.088 Y0 Z-4.2 I2.912 J0
X-12.912 Y0 Z-4.25 I-2.912 J0
X-7.088 Y0 Z-4.3 I2.912 J0
X-12.912 Y0 Z-4.35 I-2.912 J0
X-7.088 Y0 Z-4.4 I2.912 J0
X-12.912 Y0 Z-4.45 I-2.912 J0
X-7.088 Y0 Z-4.5 I2.912 J0
X-12.912 Y0 Z-4.55 I-2.912 J0
X-7.088 Y0 Z-4.6 I2.912 J0
X-12.912 Y0 Z-4.65 I-2.912 J0
X-7.088 Y0 Z-4.7 I2.912 J0
X-12.912 Y0 Z-4.75 I-2.912 J0
X-7.088 Y0 Z-4.8 I2.912 J0
X-12.912 Y0 Z-4.85 I-2.912 J0
X-7.088 Y0 Z-4.9 I2.912 J0
X-12.912 Y0 Z-4.95 I-2.912 J0
X-7.088 Y0 Z-5 I2.912 J0
X-12.912 Y0 Z-5.05 I-2.912 J0
X-7.088 Y0 Z-5.1 I2.912 J0
X-12.912 Y0 Z-5.15 I-2.912 J0
X-7.088 Y0 Z-5.2 I2.912 J0
X-12.912 Y0 Z-5.25 I-2.912 J0
X-7.088 Y0 Z-5.3 I2.912 J0
X-12.912 Y0 Z-5.35 I-2.912 J0
X-7.088 Y0 Z-5.4 I2.912 J0
X-12.912 Y0 Z-5.45 I-2.912 J0
X-7.088 Y0 Z-5.5 I2.912 J0
X-12.912 Y0 Z-5.55 I-2.912 J0
X-7.088 Y0 Z-5.6 I2.912 J0
X-12.912 Y0 Z-5.65 I-2.912 J0
X-7.088 Y0 Z-5.7 I2.912 J0
X-12.912 Y0 Z-5.75 I-2.912 J0
X-7.088 Y0 Z-5.8 I2.912 J0
X-12.912 Y0 Z-5.85 I-2.912 J0
X-7.088 Y0 Z-5.9 I2.912 J0
X-12.912 Y0 Z-5.95 I-2.912 J0
X-7.088 Y0 Z-6 I2.912 J0
X-12.912 Y0 Z-6.05 I-2.912 J0
X-7.088 Y0 Z-6.1 I2.912 J0
X-12.912 Y0 Z-6.15 I-2.912 J0
X-7.088 Y0 Z-6.2 I2.912 J0
X-12.912 Y0 Z-6.25 I-2.912 J0
X-7.088 Y0 Z-6.3 I2.912 J0
X-12.912 Y0 Z-6.35 I-2.912 J0
X-7.088 Y0 Z-6.4 I2.912 J0
X-12.912 Y0 Z-6.45 I-2.912 J0
X-7.088 Y0 Z-6.5 I2.912 J0
X-12.912 Y0 Z-6.55 I-2.912 J0
X-7.088 Y0 Z-6.6 I2.912 J0
X-12.912 Y0 Z-6.65 I-2.912 J0
X-7.088 Y0 Z-6.7 I2.912 J0
X-12.912 Y0 Z-6.75 I-2.912 J0
X-7.088 Y0 Z-6.8 I2.912 J0
X-12.912 Y0 Z-6.85 I-2.912 J0
X-7.088 Y0 Z-6.9 I2.912 J0
X-12.912 Y0 Z-6.95 I-2.912 J0
X-7.088 Y0 Z-7 I2.912 J0
X-12.912 Y0 I-2.912 J0
X-7.088 Y0 I2.912 J0
X-7.405 Y0.317 I-0.318 J0
G1 X-7.564
G18 G3 X-7.881 Z-6.682 I0 K0.318
G0 Z15
G17
G28 G91 Z0
G90
G28 G91 X0 Y0
G90
M5
M30
