(table_flat_n500um)
(T1  D=6 CR=0 - ZMIN=-0.5 - flat end mill)
G90 G94
G17
G21
G28 G91 Z0
G90

(Face3)
T1
S18000 M3
G54
G0 X131.1 Y-98.58
Z15
Z5
G1 Z0.1 F600
G18 G3 X130.5 Z-0.5 I-0.6 K0
G1 X-130.5 F1000
G3 X-131.1 Z0.1 I0 K0.6 F800
G0 Z5
X131.1 Y-93.711
G1 Z0.1 F600
G3 X130.5 Z-0.5 I-0.6 K0
G1 X-130.5 F1000
G3 X-131.1 Z0.1 I0 K0.6 F800
G0 Z5
X131.1 Y-88.841
G1 Z0.1 F600
G3 X130.5 Z-0.5 I-0.6 K0
G1 X-130.5 F1000
G3 X-131.1 Z0.1 I0 K0.6 F800
G0 Z5
X131.1 Y-83.971
G1 Z0.1 F600
G3 X130.5 Z-0.5 I-0.6 K0
G1 X-130.5 F1000
G3 X-131.1 Z0.1 I0 K0.6 F800
G0 Z5
X131.1 Y-79.101
G1 Z0.1 F600
G3 X130.5 Z-0.5 I-0.6 K0
G1 X-130.5 F1000
G3 X-131.1 Z0.1 I0 K0.6 F800
G0 Z5
X131.1 Y-74.232
G1 Z0.1 F600
G3 X130.5 Z-0.5 I-0.6 K0
G1 X-130.5 F1000
G3 X-131.1 Z0.1 I0 K0.6 F800
G0 Z5
X131.1 Y-69.362
G1 Z0.1 F600
G3 X130.5 Z-0.5 I-0.6 K0
G1 X-130.5 F1000
G3 X-131.1 Z0.1 I0 K0.6 F800
G0 Z5
X131.1 Y-64.492
G1 Z0.1 F600
G3 X130.5 Z-0.5 I-0.6 K0
G1 X-130.5 F1000
G3 X-131.1 Z0.1 I0 K0.6 F800
G0 Z5
X131.1 Y-59.622
G1 Z0.1 F600
G3 X130.5 Z-0.5 I-0.6 K0
G1 X-130.5 F1000
G3 X-131.1 Z0.1 I0 K0.6 F800
G0 Z5
X131.1 Y-54.753
G1 Z0.1 F600
G3 X130.5 Z-0.5 I-0.6 K0
G1 X-130.5 F1000
G3 X-131.1 Z0.1 I0 K0.6 F800
G0 Z5
X131.1 Y-49.883
G1 Z0.1 F600
G3 X130.5 Z-0.5 I-0.6 K0
G1 X-130.5 F1000
G3 X-131.1 Z0.1 I0 K0.6 F800
G0 Z5
X131.1 Y-45.013
G1 Z0.1 F600
G3 X130.5 Z-0.5 I-0.6 K0
G1 X-130.5 F1000
G3 X-131.1 Z0.1 I0 K0.6 F800
G0 Z5
X131.1 Y-40.143
G1 Z0.1 F600
G3 X130.5 Z-0.5 I-0.6 K0
G1 X-130.5 F1000
G3 X-131.1 Z0.1 I0 K0.6 F800
G0 Z5
X131.1 Y-35.274
G1 Z0.1 F600
G3 X130.5 Z-0.5 I-0.6 K0
G1 X-130.5 F1000
G3 X-131.1 Z0.1 I0 K0.6 F800
G0 Z5
X131.1 Y-30.404
G1 Z0.1 F600
G3 X130.5 Z-0.5 I-0.6 K0
G1 X-130.5 F1000
G3 X-131.1 Z0.1 I0 K0.6 F800
G0 Z5
X131.1 Y-25.534
G1 Z0.1 F600
G3 X130.5 Z-0.5 I-0.6 K0
G1 X-130.5 F1000
G3 X-131.1 Z0.1 I0 K0.6 F800
G0 Z5
X131.1 Y-20.664
G1 Z0.1 F600
G3 X130.5 Z-0.5 I-0.6 K0
G1 X-130.5 F1000
G3 X-131.1 Z0.1 I0 K0.6 F800
G0 Z5
X131.1 Y-15.795
G1 Z0.1 F600
G3 X130.5 Z-0.5 I-0.6 K0
G1 X-130.5 F1000
G3 X-131.1 Z0.1 I0 K0.6 F800
G0 Z5
X131.1 Y-10.925
G1 Z0.1 F600
G3 X130.5 Z-0.5 I-0.6 K0
G1 X-130.5 F1000
G3 X-131.1 Z0.1 I0 K0.6 F800
G0 Z5
X131.1 Y-6.055
G1 Z0.1 F600
G3 X130.5 Z-0.5 I-0.6 K0
G1 X-130.5 F1000
G3 X-131.1 Z0.1 I0 K0.6 F800
G0 Z5
X131.1 Y-1.186
G1 Z0.1 F600
G3 X130.5 Z-0.5 I-0.6 K0
G1 X-130.5 F1000
G3 X-131.1 Z0.1 I0 K0.6 F800
G0 Z5
X131.1 Y3.684
G1 Z0.1 F600
G3 X130.5 Z-0.5 I-0.6 K0
G1 X-130.5 F1000
G3 X-131.1 Z0.1 I0 K0.6 F800
G0 Z5
X131.1 Y8.554
G1 Z0.1 F600
G3 X130.5 Z-0.5 I-0.6 K0
G1 X-130.5 F1000
G3 X-131.1 Z0.1 I0 K0.6 F800
G0 Z5
X131.1 Y13.424
G1 Z0.1 F600
G3 X130.5 Z-0.5 I-0.6 K0
G1 X-130.5 F1000
G3 X-131.1 Z0.1 I0 K0.6 F800
G0 Z5
X131.1 Y18.293
G1 Z0.1 F600
G3 X130.5 Z-0.5 I-0.6 K0
G1 X-130.5 F1000
G3 X-131.1 Z0.1 I0 K0.6 F800
G0 Z5
X131.1 Y23.163
G1 Z0.1 F600
G3 X130.5 Z-0.5 I-0.6 K0
G1 X-130.5 F1000
G3 X-131.1 Z0.1 I0 K0.6 F800
G0 Z5
X131.1 Y28.033
G1 Z0.1 F600
G3 X130.5 Z-0.5 I-0.6 K0
G1 X-130.5 F1000
G3 X-131.1 Z0.1 I0 K0.6 F800
G0 Z5
X131.1 Y32.903
G1 Z0.1 F600
G3 X130.5 Z-0.5 I-0.6 K0
G1 X-130.5 F1000
G3 X-131.1 Z0.1 I0 K0.6 F800
G0 Z5
X131.1 Y37.772
G1 Z0.1 F600
G3 X130.5 Z-0.5 I-0.6 K0
G1 X-130.5 F1000
G3 X-131.1 Z0.1 I0 K0.6 F800
G0 Z5
X131.1 Y42.642
G1 Z0.1 F600
G3 X130.5 Z-0.5 I-0.6 K0
G1 X-130.5 F1000
G3 X-131.1 Z0.1 I0 K0.6 F800
G0 Z5
X131.1 Y47.512
G1 Z0.1 F600
G3 X130.5 Z-0.5 I-0.6 K0
G1 X-130.5 F1000
G3 X-131.1 Z0.1 I0 K0.6 F800
G0 Z5
X131.1 Y52.382
G1 Z0.1 F600
G3 X130.5 Z-0.5 I-0.6 K0
G1 X-130.5 F1000
G3 X-131.1 Z0.1 I0 K0.6 F800
G0 Z5
X131.1 Y57.251
G1 Z0.1 F600
G3 X130.5 Z-0.5 I-0.6 K0
G1 X-130.5 F1000
G3 X-131.1 Z0.1 I0 K0.6 F800
G0 Z5
X131.1 Y62.121
G1 Z0.1 F600
G3 X130.5 Z-0.5 I-0.6 K0
G1 X-130.5 F1000
G3 X-131.1 Z0.1 I0 K0.6 F800
G0 Z5
X131.1 Y66.991
G1 Z0.1 F600
G3 X130.5 Z-0.5 I-0.6 K0
G1 X-130.5 F1000
G3 X-131.1 Z0.1 I0 K0.6 F800
G0 Z5
X131.1 Y71.861
G1 Z0.1 F600
G3 X130.5 Z-0.5 I-0.6 K0
G1 X-130.5 F1000
G3 X-131.1 Z0.1 I0 K0.6 F800
G0 Z5
X131.1 Y76.73
G1 Z0.1 F600
G3 X130.5 Z-0.5 I-0.6 K0
G1 X-130.5 F1000
G3 X-131.1 Z0.1 I0 K0.6 F800
G0 Z5
X131.1 Y81.6
G1 Z0.1 F600
G3 X130.5 Z-0.5 I-0.6 K0
G1 X-130.5 F1000
G3 X-131.1 Z0.1 I0 K0.6 F800
G0 Z15
G17
G28 G91 Z0
G90
G28 G91 X0 Y0
G90
M5
M30
