(wb_6mm_n500um)
(T1  D=6 CR=0 - ZMIN=-0.5 - flat end mill)
G90 G94
G17
G21
G28 G91 Z0
G90

(Face1)
T1
S18000 M3
G54
G0 X197.254 Y-2.999
Z15
Z4.5
G1 Z0.1 F600
G18 G3 X196.654 Z-0.5 I-0.6 K0
G1 X194
X-4 F1000
G17 G2 X-4 Y0.963 I0 J1.981
G1 X194
G3 X194 Y4.924 I0 J1.981
G1 X-4
G2 X-4 Y8.886 I0 J1.981
G1 X194
G3 X194 Y12.847 I0 J1.981
G1 X-4
G2 X-4 Y16.808 I0 J1.981
G1 X194
G3 X194 Y20.77 I0 J1.981
G1 X-4
G2 X-4 Y24.731 I0 J1.981
G1 X194
G3 X194 Y28.693 I0 J1.981
G1 X-4
G2 X-4 Y32.654 I0 J1.981
G1 X194
G3 X194 Y36.615 I0 J1.981
G1 X-4
G2 X-4 Y40.577 I0 J1.981
G1 X194
G3 X194 Y44.538 I0 J1.981
G1 X-4
G2 X-4 Y48.5 I0 J1.981
G1 X194
G3 X194 Y52.461 I0 J1.981
G1 X-4
G2 X-4 Y56.422 I0 J1.981
G1 X194
G3 X194 Y60.384 I0 J1.981
G1 X-4
G2 X-4 Y64.345 I0 J1.981
G1 X194
G3 X194 Y68.307 I0 J1.981
G1 X-4
G2 X-4 Y72.268 I0 J1.981
G1 X194
G3 X194 Y76.229 I0 J1.981
G1 X-4
G2 X-4 Y80.191 I0 J1.981
G1 X194
G3 X194 Y84.152 I0 J1.981
G1 X-4
G2 X-4 Y88.114 I0 J1.981
G1 X194
G3 X194 Y92.075 I0 J1.981
G1 X-4
G2 X-4 Y96.036 I0 J1.981
G1 X194
G3 X194 Y99.998 I0 J1.981
G1 X-4
G2 X-4 Y103.959 I0 J1.981
G1 X194
G3 X194 Y107.921 I0 J1.981
G1 X-4
G2 X-4 Y111.882 I0 J1.981
G1 X194
G3 X194 Y115.843 I0 J1.981
G1 X-4
G2 X-4 Y119.805 I0 J1.981
G1 X194
G3 X194 Y123.766 I0 J1.981
G1 X-4
G2 X-4 Y127.728 I0 J1.981
G1 X194
G3 X194 Y131.689 I0 J1.981
G1 X-4
G2 X-4 Y135.65 I0 J1.981
G1 X194
G3 X194 Y139.612 I0 J1.981
G1 X-4
G2 X-4 Y143.573 I0 J1.981
G1 X194
G3 X194 Y147.535 I0 J1.981
G1 X-4
G2 X-4 Y151.496 I0 J1.981
G1 X194
G3 X194 Y155.457 I0 J1.981
G1 X-4
G2 X-4 Y159.419 I0 J1.981
G1 X194
G3 X194 Y163.38 I0 J1.981
G1 X-4
G2 X-4 Y167.342 I0 J1.981
G1 X194
G3 X194 Y171.303 I0 J1.981
G1 X-4
G2 X-4 Y175.264 I0 J1.981
G1 X194
G3 X194 Y179.226 I0 J1.981
G1 X-4
G2 X-4 Y183.187 I0 J1.981
G1 X194
G3 X194 Y187.149 I0 J1.981
G1 X-4
G2 X-4 Y191.11 I0 J1.981
G1 X194
G18 G2 X194.6 Z0.1 I0 K0.6 F800
G0 Z15
G17
G28 G91 Z0
G90
G28 G91 X0 Y0
G90
M5
M30
