(xcar_bore_3)
(T6  D=3.175 CR=0 - ZMIN=0 - flat end mill)
G90 G94
G17
G21
G28 G91 Z0
G90

(Bore1 8)
T6
(1/8" Flat-45 degree helix)
S18000 M3
G54
G0 X27.419 Y57.682
Z25.2
Z7.3
G1 Z5.617 F350
G18 G2 X27.736 Z5.3 I0.317 K0
G1 X27.895
G17 G3 X28.212 Y58 I0 J0.318
X26.387 Y58 Z5.2 I-0.913 J0
X28.212 Y58 Z5.1 I0.913 J0
X26.387 Y58 Z5 I-0.913 J0
X28.212 Y58 Z4.9 I0.913 J0
X26.387 Y58 Z4.8 I-0.913 J0
X28.212 Y58 Z4.7 I0.913 J0
X26.387 Y58 Z4.6 I-0.913 J0
X28.212 Y58 Z4.5 I0.913 J0
X26.387 Y58 Z4.4 I-0.913 J0
X28.212 Y58 Z4.3 I0.913 J0
X26.387 Y58 Z4.2 I-0.913 J0
X28.212 Y58 Z4.1 I0.912 J0
X26.387 Y58 Z4 I-0.912 J0
X28.212 Y58 Z3.9 I0.912 J0
X26.387 Y58 Z3.8 I-0.912 J0
X28.212 Y58 Z3.7 I0.912 J0
X26.387 Y58 Z3.6 I-0.912 J0
X28.212 Y58 Z3.5 I0.912 J0
X26.387 Y58 Z3.4 I-0.912 J0
X28.212 Y58 Z3.3 I0.912 J0
X26.387 Y58 Z3.2 I-0.912 J0
X28.212 Y58 Z3.1 I0.912 J0
X26.387 Y58 Z3 I-0.912 J0
X28.212 Y58 Z2.9 I0.912 J0
X26.387 Y58 Z2.8 I-0.912 J0
X28.212 Y58 Z2.7 I0.912 J0
X26.387 Y58 Z2.6 I-0.912 J0
X28.212 Y58 Z2.5 I0.912 J0
X26.387 Y58 Z2.4 I-0.912 J0
X28.212 Y58 Z2.3 I0.912 J0
X26.387 Y58 Z2.2 I-0.912 J0
X28.212 Y58 Z2.1 I0.912 J0
X26.388 Y58 Z2 I-0.912 J0
X28.212 Y58 Z1.9 I0.912 J0
X26.388 Y58 Z1.8 I-0.912 J0
X28.212 Y58 Z1.7 I0.912 J0
X26.388 Y58 Z1.6 I-0.912 J0
X28.212 Y58 Z1.5 I0.912 J0
X26.388 Y58 Z1.4 I-0.912 J0
X28.212 Y58 Z1.3 I0.912 J0
X26.388 Y58 Z1.2 I-0.912 J0
X28.212 Y58 Z1.1 I0.912 J0
X26.388 Y58 Z1 I-0.912 J0
X28.212 Y58 Z0.9 I0.912 J0
X26.388 Y58 Z0.8 I-0.912 J0
X28.212 Y58 Z0.7 I0.912 J0
X26.388 Y58 Z0.6 I-0.912 J0
X28.212 Y58 Z0.5 I0.912 J0
X26.388 Y58 Z0.4 I-0.912 J0
X28.212 Y58 Z0.3 I0.912 J0
X26.388 Y58 Z0.2 I-0.912 J0
X28.212 Y58 Z0.1 I0.912 J0
X26.388 Y58 Z0 I-0.912 J0
X28.212 Y58 I0.912 J0
X26.388 Y58 I-0.912 J0
X26.705 Y57.682 I0.317 J0
G1 X26.864
G18 G2 X27.181 Z0.317 I0 K0.317
G0 Z19.2
X1.419
Z7.3
G1 Z5.617 F350
G2 X1.736 Z5.3 I0.317 K0
G1 X1.895
G17 G3 X2.213 Y58 I0 J0.318
X0.387 Y58 Z5.2 I-0.913 J0
X2.213 Y58 Z5.1 I0.913 J0
X0.387 Y58 Z5 I-0.913 J0
X2.213 Y58 Z4.9 I0.913 J0
X0.387 Y58 Z4.8 I-0.913 J0
X2.213 Y58 Z4.7 I0.913 J0
X0.387 Y58 Z4.6 I-0.913 J0
X2.213 Y58 Z4.5 I0.913 J0
X0.387 Y58 Z4.4 I-0.913 J0
X2.213 Y58 Z4.3 I0.913 J0
X0.387 Y58 Z4.2 I-0.913 J0
X2.213 Y58 Z4.1 I0.913 J0
X0.387 Y58 Z4 I-0.913 J0
X2.213 Y58 Z3.9 I0.913 J0
X0.387 Y58 Z3.8 I-0.913 J0
X2.213 Y58 Z3.7 I0.913 J0
X0.387 Y58 Z3.6 I-0.913 J0
X2.213 Y58 Z3.5 I0.913 J0
X0.387 Y58 Z3.4 I-0.913 J0
X2.213 Y58 Z3.3 I0.913 J0
X0.387 Y58 Z3.2 I-0.913 J0
X2.213 Y58 Z3.1 I0.913 J0
X0.387 Y58 Z3 I-0.913 J0
X2.213 Y58 Z2.9 I0.913 J0
X0.387 Y58 Z2.8 I-0.913 J0
X2.213 Y58 Z2.7 I0.913 J0
X0.387 Y58 Z2.6 I-0.913 J0
X2.213 Y58 Z2.5 I0.913 J0
X0.387 Y58 Z2.4 I-0.913 J0
X2.212 Y58 Z2.3 I0.913 J0
X0.387 Y58 Z2.2 I-0.913 J0
X2.212 Y58 Z2.1 I0.913 J0
X0.387 Y58 Z2 I-0.913 J0
X2.212 Y58 Z1.9 I0.913 J0
X0.387 Y58 Z1.8 I-0.913 J0
X2.212 Y58 Z1.7 I0.913 J0
X0.387 Y58 Z1.6 I-0.913 J0
X2.212 Y58 Z1.5 I0.913 J0
X0.387 Y58 Z1.4 I-0.913 J0
X2.212 Y58 Z1.3 I0.913 J0
X0.387 Y58 Z1.2 I-0.913 J0
X2.212 Y58 Z1.1 I0.913 J0
X0.387 Y58 Z1 I-0.913 J0
X2.212 Y58 Z0.9 I0.912 J0
X0.387 Y58 Z0.8 I-0.912 J0
X2.212 Y58 Z0.7 I0.912 J0
X0.387 Y58 Z0.6 I-0.912 J0
X2.212 Y58 Z0.5 I0.912 J0
X0.387 Y58 Z0.4 I-0.912 J0
X2.212 Y58 Z0.3 I0.912 J0
X0.387 Y58 Z0.2 I-0.912 J0
X2.212 Y58 Z0.1 I0.912 J0
X0.387 Y58 Z0 I-0.912 J0
X2.212 Y58 I0.912 J0
X0.387 Y58 I-0.912 J0
X0.705 Y57.682 I0.317 J0
G1 X0.864
G18 G2 X1.181 Z0.317 I0 K0.317
G0 Z19.2
X1.419 Y31.683
Z7.3
G1 Z5.617 F350
G2 X1.736 Z5.3 I0.317 K0
G1 X1.895
G17 G3 X2.213 Y32 I0 J0.317
X0.387 Y32 Z5.2 I-0.913 J0
X2.213 Y32 Z5.1 I0.913 J0
X0.387 Y32 Z5 I-0.913 J0
X2.213 Y32 Z4.9 I0.913 J0
X0.387 Y32 Z4.8 I-0.913 J0
X2.213 Y32 Z4.7 I0.913 J0
X0.387 Y32 Z4.6 I-0.913 J0
X2.213 Y32 Z4.5 I0.913 J0
X0.387 Y32 Z4.4 I-0.913 J0
X2.213 Y32 Z4.3 I0.913 J0
X0.387 Y32 Z4.2 I-0.913 J0
X2.213 Y32 Z4.1 I0.913 J0
X0.387 Y32 Z4 I-0.913 J0
X2.213 Y32 Z3.9 I0.913 J0
X0.387 Y32 Z3.8 I-0.913 J0
X2.213 Y32 Z3.7 I0.913 J0
X0.387 Y32 Z3.6 I-0.913 J0
X2.213 Y32 Z3.5 I0.913 J0
X0.387 Y32 Z3.4 I-0.913 J0
X2.213 Y32 Z3.3 I0.913 J0
X0.387 Y32 Z3.2 I-0.913 J0
X2.213 Y32 Z3.1 I0.913 J0
X0.387 Y32 Z3 I-0.913 J0
X2.213 Y32 Z2.9 I0.913 J0
X0.387 Y32 Z2.8 I-0.913 J0
X2.213 Y32 Z2.7 I0.913 J0
X0.387 Y32 Z2.6 I-0.913 J0
X2.213 Y32 Z2.5 I0.913 J0
X0.387 Y32 Z2.4 I-0.913 J0
X2.212 Y32 Z2.3 I0.913 J0
X0.387 Y32 Z2.2 I-0.913 J0
X2.212 Y32 Z2.1 I0.913 J0
X0.387 Y32 Z2 I-0.913 J0
X2.212 Y32 Z1.9 I0.913 J0
X0.387 Y32 Z1.8 I-0.913 J0
X2.212 Y32 Z1.7 I0.913 J0
X0.387 Y32 Z1.6 I-0.913 J0
X2.212 Y32 Z1.5 I0.913 J0
X0.387 Y32 Z1.4 I-0.913 J0
X2.212 Y32 Z1.3 I0.913 J0
X0.387 Y32 Z1.2 I-0.913 J0
X2.212 Y32 Z1.1 I0.913 J0
X0.387 Y32 Z1 I-0.913 J0
X2.212 Y32 Z0.9 I0.912 J0
X0.387 Y32 Z0.8 I-0.912 J0
X2.212 Y32 Z0.7 I0.912 J0
X0.387 Y32 Z0.6 I-0.912 J0
X2.212 Y32 Z0.5 I0.912 J0
X0.387 Y32 Z0.4 I-0.912 J0
X2.212 Y32 Z0.3 I0.912 J0
X0.387 Y32 Z0.2 I-0.912 J0
X2.212 Y32 Z0.1 I0.912 J0
X0.387 Y32 Z0 I-0.912 J0
X2.212 Y32 I0.912 J0
X0.387 Y32 I-0.912 J0
X0.705 Y31.683 I0.317 J0
G1 X0.864
G18 G2 X1.181 Z0.317 I0 K0.317
G0 Z19.2
X27.419
Z7.3
G1 Z5.617 F350
G2 X27.736 Z5.3 I0.317 K0
G1 X27.895
G17 G3 X28.212 Y32 I0 J0.317
X26.387 Y32 Z5.2 I-0.913 J0
X28.212 Y32 Z5.1 I0.913 J0
X26.387 Y32 Z5 I-0.913 J0
X28.212 Y32 Z4.9 I0.913 J0
X26.387 Y32 Z4.8 I-0.913 J0
X28.212 Y32 Z4.7 I0.913 J0
X26.387 Y32 Z4.6 I-0.913 J0
X28.212 Y32 Z4.5 I0.913 J0
X26.387 Y32 Z4.4 I-0.913 J0
X28.212 Y32 Z4.3 I0.913 J0
X26.387 Y32 Z4.2 I-0.913 J0
X28.212 Y32 Z4.1 I0.912 J0
X26.387 Y32 Z4 I-0.912 J0
X28.212 Y32 Z3.9 I0.912 J0
X26.387 Y32 Z3.8 I-0.912 J0
X28.212 Y32 Z3.7 I0.912 J0
X26.387 Y32 Z3.6 I-0.912 J0
X28.212 Y32 Z3.5 I0.912 J0
X26.387 Y32 Z3.4 I-0.912 J0
X28.212 Y32 Z3.3 I0.912 J0
X26.387 Y32 Z3.2 I-0.912 J0
X28.212 Y32 Z3.1 I0.912 J0
X26.387 Y32 Z3 I-0.912 J0
X28.212 Y32 Z2.9 I0.912 J0
X26.387 Y32 Z2.8 I-0.912 J0
X28.212 Y32 Z2.7 I0.912 J0
X26.387 Y32 Z2.6 I-0.912 J0
X28.212 Y32 Z2.5 I0.912 J0
X26.387 Y32 Z2.4 I-0.912 J0
X28.212 Y32 Z2.3 I0.912 J0
X26.387 Y32 Z2.2 I-0.912 J0
X28.212 Y32 Z2.1 I0.912 J0
X26.388 Y32 Z2 I-0.912 J0
X28.212 Y32 Z1.9 I0.912 J0
X26.388 Y32 Z1.8 I-0.912 J0
X28.212 Y32 Z1.7 I0.912 J0
X26.388 Y32 Z1.6 I-0.912 J0
X28.212 Y32 Z1.5 I0.912 J0
X26.388 Y32 Z1.4 I-0.912 J0
X28.212 Y32 Z1.3 I0.912 J0
X26.388 Y32 Z1.2 I-0.912 J0
X28.212 Y32 Z1.1 I0.912 J0
X26.388 Y32 Z1 I-0.912 J0
X28.212 Y32 Z0.9 I0.912 J0
X26.388 Y32 Z0.8 I-0.912 J0
X28.212 Y32 Z0.7 I0.912 J0
X26.388 Y32 Z0.6 I-0.912 J0
X28.212 Y32 Z0.5 I0.912 J0
X26.388 Y32 Z0.4 I-0.912 J0
X28.212 Y32 Z0.3 I0.912 J0
X26.388 Y32 Z0.2 I-0.912 J0
X28.212 Y32 Z0.1 I0.912 J0
X26.388 Y32 Z0 I-0.912 J0
X28.212 Y32 I0.912 J0
X26.388 Y32 I-0.912 J0
X26.705 Y31.683 I0.317 J0
G1 X26.864
G18 G2 X27.181 Z0.317 I0 K0.317
G0 Z19.2
X34.869 Y9.682
Z7.3
G1 Z5.617 F350
G2 X35.186 Z5.3 I0.317 K0
G1 X35.345
G17 G3 X35.662 Y10 I0 J0.318
X33.338 Y10 Z5.2 I-1.162 J0
X35.662 Y10 Z5.1 I1.162 J0
X33.338 Y10 Z5 I-1.162 J0
X35.662 Y10 Z4.9 I1.162 J0
X33.338 Y10 Z4.8 I-1.162 J0
X35.662 Y10 Z4.7 I1.162 J0
X33.338 Y10 Z4.6 I-1.162 J0
X35.662 Y10 Z4.5 I1.162 J0
X33.338 Y10 Z4.4 I-1.162 J0
X35.662 Y10 Z4.3 I1.162 J0
X33.338 Y10 Z4.2 I-1.162 J0
X35.662 Y10 Z4.1 I1.162 J0
X33.338 Y10 Z4 I-1.162 J0
X35.662 Y10 Z3.9 I1.162 J0
X33.338 Y10 Z3.8 I-1.162 J0
X35.662 Y10 Z3.7 I1.162 J0
X33.338 Y10 Z3.6 I-1.162 J0
X35.662 Y10 Z3.5 I1.162 J0
X33.338 Y10 Z3.4 I-1.162 J0
X35.662 Y10 Z3.3 I1.162 J0
X33.338 Y10 Z3.2 I-1.162 J0
X35.662 Y10 Z3.1 I1.162 J0
X33.338 Y10 Z3 I-1.162 J0
X35.662 Y10 Z2.9 I1.162 J0
X33.338 Y10 Z2.8 I-1.162 J0
X35.662 Y10 Z2.7 I1.162 J0
X33.338 Y10 Z2.6 I-1.162 J0
X35.662 Y10 Z2.5 I1.162 J0
X33.338 Y10 Z2.4 I-1.162 J0
X35.662 Y10 Z2.3 I1.162 J0
X33.338 Y10 Z2.2 I-1.162 J0
X35.662 Y10 Z2.1 I1.162 J0
X33.338 Y10 Z2 I-1.162 J0
X35.662 Y10 Z1.9 I1.162 J0
X33.338 Y10 Z1.8 I-1.162 J0
X35.662 Y10 Z1.7 I1.162 J0
X33.338 Y10 Z1.6 I-1.162 J0
X35.662 Y10 Z1.5 I1.162 J0
X33.338 Y10 Z1.4 I-1.162 J0
X35.662 Y10 Z1.3 I1.162 J0
X33.338 Y10 Z1.2 I-1.162 J0
X35.662 Y10 Z1.1 I1.162 J0
X33.338 Y10 Z1 I-1.162 J0
X35.662 Y10 Z0.9 I1.162 J0
X33.338 Y10 Z0.8 I-1.162 J0
X35.662 Y10 Z0.7 I1.162 J0
X33.338 Y10 Z0.6 I-1.162 J0
X35.662 Y10 Z0.5 I1.162 J0
X33.338 Y10 Z0.4 I-1.162 J0
X35.662 Y10 Z0.3 I1.162 J0
X33.338 Y10 Z0.2 I-1.162 J0
X35.662 Y10 Z0.1 I1.162 J0
X33.338 Y10 Z0 I-1.162 J0
X35.662 Y10 I1.162 J0
X33.338 Y10 I-1.162 J0
X33.655 Y9.682 I0.317 J0
G1 X33.814
G18 G2 X34.131 Z0.317 I0 K0.317
G0 Z19.2
X34.869 Y-10.318
Z7.3
G1 Z5.617 F350
G2 X35.186 Z5.3 I0.317 K0
G1 X35.345
G17 G3 X35.662 Y-10 I0 J0.318
X33.338 Y-10 Z5.2 I-1.162 J0
X35.662 Y-10 Z5.1 I1.162 J0
X33.338 Y-10 Z5 I-1.162 J0
X35.662 Y-10 Z4.9 I1.162 J0
X33.338 Y-10 Z4.8 I-1.162 J0
X35.662 Y-10 Z4.7 I1.162 J0
X33.338 Y-10 Z4.6 I-1.162 J0
X35.662 Y-10 Z4.5 I1.162 J0
X33.338 Y-10 Z4.4 I-1.162 J0
X35.662 Y-10 Z4.3 I1.162 J0
X33.338 Y-10 Z4.2 I-1.162 J0
X35.662 Y-10 Z4.1 I1.162 J0
X33.338 Y-10 Z4 I-1.162 J0
X35.662 Y-10 Z3.9 I1.162 J0
X33.338 Y-10 Z3.8 I-1.162 J0
X35.662 Y-10 Z3.7 I1.162 J0
X33.338 Y-10 Z3.6 I-1.162 J0
X35.662 Y-10 Z3.5 I1.162 J0
X33.338 Y-10 Z3.4 I-1.162 J0
X35.662 Y-10 Z3.3 I1.162 J0
X33.338 Y-10 Z3.2 I-1.162 J0
X35.662 Y-10 Z3.1 I1.162 J0
X33.338 Y-10 Z3 I-1.162 J0
X35.662 Y-10 Z2.9 I1.162 J0
X33.338 Y-10 Z2.8 I-1.162 J0
X35.662 Y-10 Z2.7 I1.162 J0
X33.338 Y-10 Z2.6 I-1.162 J0
X35.662 Y-10 Z2.5 I1.162 J0
X33.338 Y-10 Z2.4 I-1.162 J0
X35.662 Y-10 Z2.3 I1.162 J0
X33.338 Y-10 Z2.2 I-1.162 J0
X35.662 Y-10 Z2.1 I1.162 J0
X33.338 Y-10 Z2 I-1.162 J0
X35.662 Y-10 Z1.9 I1.162 J0
X33.338 Y-10 Z1.8 I-1.162 J0
X35.662 Y-10 Z1.7 I1.162 J0
X33.338 Y-10 Z1.6 I-1.162 J0
X35.662 Y-10 Z1.5 I1.162 J0
X33.338 Y-10 Z1.4 I-1.162 J0
X35.662 Y-10 Z1.3 I1.162 J0
X33.338 Y-10 Z1.2 I-1.162 J0
X35.662 Y-10 Z1.1 I1.162 J0
X33.338 Y-10 Z1 I-1.162 J0
X35.662 Y-10 Z0.9 I1.162 J0
X33.338 Y-10 Z0.8 I-1.162 J0
X35.662 Y-10 Z0.7 I1.162 J0
X33.338 Y-10 Z0.6 I-1.162 J0
X35.662 Y-10 Z0.5 I1.162 J0
X33.338 Y-10 Z0.4 I-1.162 J0
X35.662 Y-10 Z0.3 I1.162 J0
X33.338 Y-10 Z0.2 I-1.162 J0
X35.662 Y-10 Z0.1 I1.162 J0
X33.338 Y-10 Z0 I-1.162 J0
X35.662 Y-10 I1.162 J0
X33.338 Y-10 I-1.162 J0
X33.655 Y-10.318 I0.317 J0
G1 X33.814
G18 G2 X34.131 Z0.317 I0 K0.317
G0 Z19.2
X27.419 Y-32.318
Z7.3
G1 Z5.617 F350
G2 X27.736 Z5.3 I0.317 K0
G1 X27.895
G17 G3 X28.212 Y-32 I0 J0.318
X26.387 Y-32 Z5.2 I-0.913 J0
X28.212 Y-32 Z5.1 I0.913 J0
X26.387 Y-32 Z5 I-0.913 J0
X28.212 Y-32 Z4.9 I0.913 J0
X26.387 Y-32 Z4.8 I-0.913 J0
X28.212 Y-32 Z4.7 I0.913 J0
X26.387 Y-32 Z4.6 I-0.913 J0
X28.212 Y-32 Z4.5 I0.913 J0
X26.387 Y-32 Z4.4 I-0.913 J0
X28.212 Y-32 Z4.3 I0.913 J0
X26.387 Y-32 Z4.2 I-0.913 J0
X28.212 Y-32 Z4.1 I0.912 J0
X26.387 Y-32 Z4 I-0.912 J0
X28.212 Y-32 Z3.9 I0.912 J0
X26.387 Y-32 Z3.8 I-0.912 J0
X28.212 Y-32 Z3.7 I0.912 J0
X26.387 Y-32 Z3.6 I-0.912 J0
X28.212 Y-32 Z3.5 I0.912 J0
X26.387 Y-32 Z3.4 I-0.912 J0
X28.212 Y-32 Z3.3 I0.912 J0
X26.387 Y-32 Z3.2 I-0.912 J0
X28.212 Y-32 Z3.1 I0.912 J0
X26.387 Y-32 Z3 I-0.912 J0
X28.212 Y-32 Z2.9 I0.912 J0
X26.387 Y-32 Z2.8 I-0.912 J0
X28.212 Y-32 Z2.7 I0.912 J0
X26.387 Y-32 Z2.6 I-0.912 J0
X28.212 Y-32 Z2.5 I0.912 J0
X26.387 Y-32 Z2.4 I-0.912 J0
X28.212 Y-32 Z2.3 I0.912 J0
X26.387 Y-32 Z2.2 I-0.912 J0
X28.212 Y-32 Z2.1 I0.912 J0
X26.388 Y-32 Z2 I-0.912 J0
X28.212 Y-32 Z1.9 I0.912 J0
X26.388 Y-32 Z1.8 I-0.912 J0
X28.212 Y-32 Z1.7 I0.912 J0
X26.388 Y-32 Z1.6 I-0.912 J0
X28.212 Y-32 Z1.5 I0.912 J0
X26.388 Y-32 Z1.4 I-0.912 J0
X28.212 Y-32 Z1.3 I0.912 J0
X26.388 Y-32 Z1.2 I-0.912 J0
X28.212 Y-32 Z1.1 I0.912 J0
X26.388 Y-32 Z1 I-0.912 J0
X28.212 Y-32 Z0.9 I0.912 J0
X26.388 Y-32 Z0.8 I-0.912 J0
X28.212 Y-32 Z0.7 I0.912 J0
X26.388 Y-32 Z0.6 I-0.912 J0
X28.212 Y-32 Z0.5 I0.912 J0
X26.388 Y-32 Z0.4 I-0.912 J0
X28.212 Y-32 Z0.3 I0.912 J0
X26.388 Y-32 Z0.2 I-0.912 J0
X28.212 Y-32 Z0.1 I0.912 J0
X26.388 Y-32 Z0 I-0.912 J0
X28.212 Y-32 I0.912 J0
X26.388 Y-32 I-0.912 J0
X26.705 Y-32.318 I0.317 J0
G1 X26.864
G18 G2 X27.181 Z0.317 I0 K0.317
G0 Z19.2
X1.419
Z7.3
G1 Z5.617 F350
G2 X1.736 Z5.3 I0.317 K0
G1 X1.895
G17 G3 X2.213 Y-32 I0 J0.318
X0.387 Y-32 Z5.2 I-0.913 J0
X2.213 Y-32 Z5.1 I0.913 J0
X0.387 Y-32 Z5 I-0.913 J0
X2.213 Y-32 Z4.9 I0.913 J0
X0.387 Y-32 Z4.8 I-0.913 J0
X2.213 Y-32 Z4.7 I0.913 J0
X0.387 Y-32 Z4.6 I-0.913 J0
X2.213 Y-32 Z4.5 I0.913 J0
X0.387 Y-32 Z4.4 I-0.913 J0
X2.213 Y-32 Z4.3 I0.913 J0
X0.387 Y-32 Z4.2 I-0.913 J0
X2.213 Y-32 Z4.1 I0.913 J0
X0.387 Y-32 Z4 I-0.913 J0
X2.213 Y-32 Z3.9 I0.913 J0
X0.387 Y-32 Z3.8 I-0.913 J0
X2.213 Y-32 Z3.7 I0.913 J0
X0.387 Y-32 Z3.6 I-0.913 J0
X2.213 Y-32 Z3.5 I0.913 J0
X0.387 Y-32 Z3.4 I-0.913 J0
X2.213 Y-32 Z3.3 I0.913 J0
X0.387 Y-32 Z3.2 I-0.913 J0
X2.213 Y-32 Z3.1 I0.913 J0
X0.387 Y-32 Z3 I-0.913 J0
X2.213 Y-32 Z2.9 I0.913 J0
X0.387 Y-32 Z2.8 I-0.913 J0
X2.213 Y-32 Z2.7 I0.913 J0
X0.387 Y-32 Z2.6 I-0.913 J0
X2.213 Y-32 Z2.5 I0.913 J0
X0.387 Y-32 Z2.4 I-0.913 J0
X2.212 Y-32 Z2.3 I0.913 J0
X0.387 Y-32 Z2.2 I-0.913 J0
X2.212 Y-32 Z2.1 I0.913 J0
X0.387 Y-32 Z2 I-0.913 J0
X2.212 Y-32 Z1.9 I0.913 J0
X0.387 Y-32 Z1.8 I-0.913 J0
X2.212 Y-32 Z1.7 I0.913 J0
X0.387 Y-32 Z1.6 I-0.913 J0
X2.212 Y-32 Z1.5 I0.913 J0
X0.387 Y-32 Z1.4 I-0.913 J0
X2.212 Y-32 Z1.3 I0.913 J0
X0.387 Y-32 Z1.2 I-0.913 J0
X2.212 Y-32 Z1.1 I0.913 J0
X0.387 Y-32 Z1 I-0.913 J0
X2.212 Y-32 Z0.9 I0.912 J0
X0.387 Y-32 Z0.8 I-0.912 J0
X2.212 Y-32 Z0.7 I0.912 J0
X0.387 Y-32 Z0.6 I-0.912 J0
X2.212 Y-32 Z0.5 I0.912 J0
X0.387 Y-32 Z0.4 I-0.912 J0
X2.212 Y-32 Z0.3 I0.912 J0
X0.387 Y-32 Z0.2 I-0.912 J0
X2.212 Y-32 Z0.1 I0.912 J0
X0.387 Y-32 Z0 I-0.912 J0
X2.212 Y-32 I0.912 J0
X0.387 Y-32 I-0.912 J0
X0.705 Y-32.318 I0.317 J0
G1 X0.864
G18 G2 X1.181 Z0.317 I0 K0.317
G0 Z19.2
X1.419 Y-58.318
Z7.3
G1 Z5.617 F350
G2 X1.736 Z5.3 I0.317 K0
G1 X1.895
G17 G3 X2.213 Y-58 I0 J0.318
X0.387 Y-58 Z5.2 I-0.913 J0
X2.213 Y-58 Z5.1 I0.913 J0
X0.387 Y-58 Z5 I-0.913 J0
X2.213 Y-58 Z4.9 I0.913 J0
X0.387 Y-58 Z4.8 I-0.913 J0
X2.213 Y-58 Z4.7 I0.913 J0
X0.387 Y-58 Z4.6 I-0.913 J0
X2.213 Y-58 Z4.5 I0.913 J0
X0.387 Y-58 Z4.4 I-0.913 J0
X2.213 Y-58 Z4.3 I0.913 J0
X0.387 Y-58 Z4.2 I-0.913 J0
X2.213 Y-58 Z4.1 I0.913 J0
X0.387 Y-58 Z4 I-0.913 J0
X2.213 Y-58 Z3.9 I0.913 J0
X0.387 Y-58 Z3.8 I-0.913 J0
X2.213 Y-58 Z3.7 I0.913 J0
X0.387 Y-58 Z3.6 I-0.913 J0
X2.213 Y-58 Z3.5 I0.913 J0
X0.387 Y-58 Z3.4 I-0.913 J0
X2.213 Y-58 Z3.3 I0.913 J0
X0.387 Y-58 Z3.2 I-0.913 J0
X2.213 Y-58 Z3.1 I0.913 J0
X0.387 Y-58 Z3 I-0.913 J0
X2.213 Y-58 Z2.9 I0.913 J0
X0.387 Y-58 Z2.8 I-0.913 J0
X2.213 Y-58 Z2.7 I0.913 J0
X0.387 Y-58 Z2.6 I-0.913 J0
X2.213 Y-58 Z2.5 I0.913 J0
X0.387 Y-58 Z2.4 I-0.913 J0
X2.212 Y-58 Z2.3 I0.913 J0
X0.387 Y-58 Z2.2 I-0.913 J0
X2.212 Y-58 Z2.1 I0.913 J0
X0.387 Y-58 Z2 I-0.913 J0
X2.212 Y-58 Z1.9 I0.913 J0
X0.387 Y-58 Z1.8 I-0.913 J0
X2.212 Y-58 Z1.7 I0.913 J0
X0.387 Y-58 Z1.6 I-0.913 J0
X2.212 Y-58 Z1.5 I0.913 J0
X0.387 Y-58 Z1.4 I-0.913 J0
X2.212 Y-58 Z1.3 I0.913 J0
X0.387 Y-58 Z1.2 I-0.913 J0
X2.212 Y-58 Z1.1 I0.913 J0
X0.387 Y-58 Z1 I-0.913 J0
X2.212 Y-58 Z0.9 I0.912 J0
X0.387 Y-58 Z0.8 I-0.912 J0
X2.212 Y-58 Z0.7 I0.912 J0
X0.387 Y-58 Z0.6 I-0.912 J0
X2.212 Y-58 Z0.5 I0.912 J0
X0.387 Y-58 Z0.4 I-0.912 J0
X2.212 Y-58 Z0.3 I0.912 J0
X0.387 Y-58 Z0.2 I-0.912 J0
X2.212 Y-58 Z0.1 I0.912 J0
X0.387 Y-58 Z0 I-0.912 J0
X2.212 Y-58 I0.912 J0
X0.387 Y-58 I-0.912 J0
X0.705 Y-58.318 I0.317 J0
G1 X0.864
G18 G2 X1.181 Z0.317 I0 K0.317
G0 Z19.2
X27.419
Z7.3
G1 Z5.617 F350
G2 X27.736 Z5.3 I0.317 K0
G1 X27.895
G17 G3 X28.212 Y-58 I0 J0.318
X26.387 Y-58 Z5.2 I-0.913 J0
X28.212 Y-58 Z5.1 I0.913 J0
X26.387 Y-58 Z5 I-0.913 J0
X28.212 Y-58 Z4.9 I0.913 J0
X26.387 Y-58 Z4.8 I-0.913 J0
X28.212 Y-58 Z4.7 I0.913 J0
X26.387 Y-58 Z4.6 I-0.913 J0
X28.212 Y-58 Z4.5 I0.913 J0
X26.387 Y-58 Z4.4 I-0.913 J0
X28.212 Y-58 Z4.3 I0.913 J0
X26.387 Y-58 Z4.2 I-0.913 J0
X28.212 Y-58 Z4.1 I0.912 J0
X26.387 Y-58 Z4 I-0.912 J0
X28.212 Y-58 Z3.9 I0.912 J0
X26.387 Y-58 Z3.8 I-0.912 J0
X28.212 Y-58 Z3.7 I0.912 J0
X26.387 Y-58 Z3.6 I-0.912 J0
X28.212 Y-58 Z3.5 I0.912 J0
X26.387 Y-58 Z3.4 I-0.912 J0
X28.212 Y-58 Z3.3 I0.912 J0
X26.387 Y-58 Z3.2 I-0.912 J0
X28.212 Y-58 Z3.1 I0.912 J0
X26.387 Y-58 Z3 I-0.912 J0
X28.212 Y-58 Z2.9 I0.912 J0
X26.387 Y-58 Z2.8 I-0.912 J0
X28.212 Y-58 Z2.7 I0.912 J0
X26.387 Y-58 Z2.6 I-0.912 J0
X28.212 Y-58 Z2.5 I0.912 J0
X26.387 Y-58 Z2.4 I-0.912 J0
X28.212 Y-58 Z2.3 I0.912 J0
X26.387 Y-58 Z2.2 I-0.912 J0
X28.212 Y-58 Z2.1 I0.912 J0
X26.388 Y-58 Z2 I-0.912 J0
X28.212 Y-58 Z1.9 I0.912 J0
X26.388 Y-58 Z1.8 I-0.912 J0
X28.212 Y-58 Z1.7 I0.912 J0
X26.388 Y-58 Z1.6 I-0.912 J0
X28.212 Y-58 Z1.5 I0.912 J0
X26.388 Y-58 Z1.4 I-0.912 J0
X28.212 Y-58 Z1.3 I0.912 J0
X26.388 Y-58 Z1.2 I-0.912 J0
X28.212 Y-58 Z1.1 I0.912 J0
X26.388 Y-58 Z1 I-0.912 J0
X28.212 Y-58 Z0.9 I0.912 J0
X26.388 Y-58 Z0.8 I-0.912 J0
X28.212 Y-58 Z0.7 I0.912 J0
X26.388 Y-58 Z0.6 I-0.912 J0
X28.212 Y-58 Z0.5 I0.912 J0
X26.388 Y-58 Z0.4 I-0.912 J0
X28.212 Y-58 Z0.3 I0.912 J0
X26.388 Y-58 Z0.2 I-0.912 J0
X28.212 Y-58 Z0.1 I0.912 J0
X26.388 Y-58 Z0 I-0.912 J0
X28.212 Y-58 I0.912 J0
X26.388 Y-58 I-0.912 J0
X26.705 Y-58.318 I0.317 J0
G1 X26.864
G18 G2 X27.181 Z0.317 I0 K0.317
G0 Z25.2
G17
G28 G91 Z0
G90
G28 G91 X0 Y0
G90
M5
M30
