(xcar_bore_1)
(T1  D=6 CR=0 - ZMIN=0 - flat end mill)
G90 G94
G17
G21
G28 G91 Z0
G90

(Bore1 6)
T1
S18000 M3
G54
G0 X-27.9 Y44.5
Z25.2
Z12.5
G1 Z11.1 F300
G18 G2 X-27.3 Z10.5 I0.6 K0
G1 X-27
G17 G3 X-26.5 Y45 I0 J0.5
X-28.5 Y45 Z10.4 I-1 J0 F350
X-26.5 Y45 Z10.3 I1 J0
X-28.5 Y45 Z10.2 I-1 J0
X-26.5 Y45 Z10.1 I1 J0
X-28.5 Y45 Z10 I-1 J0
X-26.5 Y45 Z9.9 I1 J0
X-28.5 Y45 Z9.8 I-1 J0
X-26.5 Y45 Z9.7 I1 J0
X-28.5 Y45 Z9.6 I-1 J0
X-26.5 Y45 Z9.5 I1 J0
X-28.5 Y45 Z9.4 I-1 J0
X-26.5 Y45 Z9.3 I1 J0
X-28.5 Y45 Z9.2 I-1 J0
X-26.5 Y45 Z9.1 I1 J0
X-28.5 Y45 Z9 I-1 J0
X-26.5 Y45 Z8.9 I1 J0
X-28.5 Y45 Z8.8 I-1 J0
X-26.5 Y45 Z8.7 I1 J0
X-28.5 Y45 Z8.6 I-1 J0
X-26.5 Y45 Z8.5 I1 J0
X-28.5 Y45 Z8.4 I-1 J0
X-26.5 Y45 Z8.3 I1 J0
X-28.5 Y45 Z8.2 I-1 J0
X-26.5 Y45 Z8.1 I1 J0
X-28.5 Y45 Z8 I-1 J0
X-26.5 Y45 Z7.9 I1 J0
X-28.5 Y45 Z7.8 I-1 J0
X-26.5 Y45 Z7.7 I1 J0
X-28.5 Y45 Z7.6 I-1 J0
X-26.5 Y45 Z7.5 I1 J0
X-28.5 Y45 Z7.4 I-1 J0
X-26.5 Y45 Z7.3 I1 J0
X-28.5 Y45 Z7.2 I-1 J0
X-26.5 Y45 Z7.1 I1 J0
X-28.5 Y45 Z7 I-1 J0
X-26.5 Y45 Z6.9 I1 J0
X-28.5 Y45 Z6.8 I-1 J0
X-26.5 Y45 Z6.7 I1 J0
X-28.5 Y45 Z6.6 I-1 J0
X-26.5 Y45 Z6.5 I1 J0
X-28.5 Y45 Z6.4 I-1 J0
X-26.5 Y45 Z6.3 I1 J0
X-28.5 Y45 Z6.2 I-1 J0
X-26.5 Y45 Z6.1 I1 J0
X-28.5 Y45 Z6 I-1 J0
X-26.5 Y45 Z5.9 I1 J0
X-28.5 Y45 Z5.8 I-1 J0
X-26.5 Y45 Z5.7 I1 J0
X-28.5 Y45 Z5.6 I-1 J0
X-26.5 Y45 Z5.5 I1 J0
X-28.5 Y45 Z5.4 I-1 J0
X-26.5 Y45 Z5.3 I1 J0
X-28.5 Y45 Z5.2 I-1 J0
X-26.5 Y45 Z5.1 I1 J0
X-28.5 Y45 Z5 I-1 J0
X-26.5 Y45 Z4.9 I1 J0
X-28.5 Y45 Z4.8 I-1 J0
X-26.5 Y45 Z4.7 I1 J0
X-28.5 Y45 Z4.6 I-1 J0
X-26.5 Y45 Z4.5 I1 J0
X-28.5 Y45 Z4.4 I-1 J0
X-26.5 Y45 Z4.3 I1 J0
X-28.5 Y45 Z4.2 I-1 J0
X-26.5 Y45 Z4.1 I1 J0
X-28.5 Y45 Z4 I-1 J0
X-26.5 Y45 Z3.9 I1 J0
X-28.5 Y45 Z3.8 I-1 J0
X-26.5 Y45 Z3.7 I1 J0
X-28.5 Y45 Z3.6 I-1 J0
X-26.5 Y45 Z3.5 I1 J0
X-28.5 Y45 Z3.4 I-1 J0
X-26.5 Y45 Z3.3 I1 J0
X-28.5 Y45 Z3.2 I-1 J0
X-26.5 Y45 Z3.1 I1 J0
X-28.5 Y45 Z3 I-1 J0
X-26.5 Y45 Z2.9 I1 J0
X-28.5 Y45 Z2.8 I-1 J0
X-26.5 Y45 Z2.7 I1 J0
X-28.5 Y45 Z2.6 I-1 J0
X-26.5 Y45 Z2.5 I1 J0
X-28.5 Y45 Z2.4 I-1 J0
X-26.5 Y45 Z2.3 I1 J0
X-28.5 Y45 Z2.2 I-1 J0
X-26.5 Y45 Z2.1 I1 J0
X-28.5 Y45 Z2 I-1 J0
X-26.5 Y45 Z1.9 I1 J0
X-28.5 Y45 Z1.8 I-1 J0
X-26.5 Y45 Z1.7 I1 J0
X-28.5 Y45 Z1.6 I-1 J0
X-26.5 Y45 Z1.5 I1 J0
X-28.5 Y45 Z1.4 I-1 J0
X-26.5 Y45 Z1.3 I1 J0
X-28.5 Y45 Z1.2 I-1 J0
X-26.5 Y45 Z1.1 I1 J0
X-28.5 Y45 Z1 I-1 J0
X-26.5 Y45 Z0.9 I1 J0
X-28.5 Y45 Z0.8 I-1 J0
X-26.5 Y45 Z0.7 I1 J0
X-28.5 Y45 Z0.6 I-1 J0
X-26.5 Y45 Z0.5 I1 J0
X-28.5 Y45 Z0.4 I-1 J0
X-26.5 Y45 Z0.3 I1 J0
X-28.5 Y45 Z0.2 I-1 J0
X-26.5 Y45 Z0.1 I1 J0
X-28.5 Y45 Z0 I-1 J0
X-26.5 Y45 I1 J0
X-28.5 Y45 I-1 J0
X-28 Y44.5 I0.5 J0 F300
G1 X-27.7
G18 G2 X-27.1 Z0.6 I0 K0.6
G0 Z19.2
Z25.2
X-26 Y44.4
Z12.5
G1 Z11.1 F300
G2 X-25.4 Z10.5 I0.6 K0
G1 X-25.1
G17 G3 X-24.5 Y45 I0 J0.6
X-30.5 Y45 Z10.4 I-3 J0 F350
X-24.5 Y45 Z10.3 I3 J0
X-30.5 Y45 Z10.2 I-3 J0
X-24.5 Y45 Z10.1 I3 J0
X-30.5 Y45 Z10 I-3 J0
X-24.5 Y45 Z9.9 I3 J0
X-30.5 Y45 Z9.8 I-3 J0
X-24.5 Y45 Z9.7 I3 J0
X-30.5 Y45 Z9.6 I-3 J0
X-24.5 Y45 Z9.5 I3 J0
X-30.5 Y45 Z9.4 I-3 J0
X-24.5 Y45 Z9.3 I3 J0
X-30.5 Y45 Z9.2 I-3 J0
X-24.5 Y45 Z9.1 I3 J0
X-30.5 Y45 Z9 I-3 J0
X-24.5 Y45 Z8.9 I3 J0
X-30.5 Y45 Z8.8 I-3 J0
X-24.5 Y45 Z8.7 I3 J0
X-30.5 Y45 Z8.6 I-3 J0
X-24.5 Y45 Z8.5 I3 J0
X-30.5 Y45 Z8.4 I-3 J0
X-24.5 Y45 Z8.3 I3 J0
X-30.5 Y45 Z8.2 I-3 J0
X-24.5 Y45 Z8.1 I3 J0
X-30.5 Y45 Z8 I-3 J0
X-24.5 Y45 Z7.9 I3 J0
X-30.5 Y45 Z7.8 I-3 J0
X-24.5 Y45 Z7.7 I3 J0
X-30.5 Y45 Z7.6 I-3 J0
X-24.5 Y45 Z7.5 I3 J0
X-30.5 Y45 Z7.4 I-3 J0
X-24.5 Y45 Z7.3 I3 J0
X-30.5 Y45 Z7.2 I-3 J0
X-24.5 Y45 Z7.1 I3 J0
X-30.5 Y45 Z7 I-3 J0
X-24.5 Y45 Z6.9 I3 J0
X-30.5 Y45 Z6.8 I-3 J0
X-24.5 Y45 Z6.7 I3 J0
X-30.5 Y45 Z6.6 I-3 J0
X-24.5 Y45 Z6.5 I3 J0
X-30.5 Y45 Z6.4 I-3 J0
X-24.5 Y45 Z6.3 I3 J0
X-30.5 Y45 Z6.2 I-3 J0
X-24.5 Y45 Z6.1 I3 J0
X-30.5 Y45 Z6 I-3 J0
X-24.5 Y45 Z5.9 I3 J0
X-30.5 Y45 Z5.8 I-3 J0
X-24.5 Y45 Z5.7 I3 J0
X-30.5 Y45 Z5.6 I-3 J0
X-24.5 Y45 Z5.5 I3 J0
X-30.5 Y45 Z5.4 I-3 J0
X-24.5 Y45 Z5.3 I3 J0
X-30.5 Y45 Z5.2 I-3 J0
X-24.5 Y45 Z5.1 I3 J0
X-30.5 Y45 Z5 I-3 J0
X-24.5 Y45 Z4.9 I3 J0
X-30.5 Y45 Z4.8 I-3 J0
X-24.5 Y45 Z4.7 I3 J0
X-30.5 Y45 Z4.6 I-3 J0
X-24.5 Y45 Z4.5 I3 J0
X-30.5 Y45 Z4.4 I-3 J0
X-24.5 Y45 Z4.3 I3 J0
X-30.5 Y45 Z4.2 I-3 J0
X-24.5 Y45 Z4.1 I3 J0
X-30.5 Y45 Z4 I-3 J0
X-24.5 Y45 Z3.9 I3 J0
X-30.5 Y45 Z3.8 I-3 J0
X-24.5 Y45 Z3.7 I3 J0
X-30.5 Y45 Z3.6 I-3 J0
X-24.5 Y45 Z3.5 I3 J0
X-30.5 Y45 Z3.4 I-3 J0
X-24.5 Y45 Z3.3 I3 J0
X-30.5 Y45 Z3.2 I-3 J0
X-24.5 Y45 Z3.1 I3 J0
X-30.5 Y45 Z3 I-3 J0
X-24.5 Y45 Z2.9 I3 J0
X-30.5 Y45 Z2.8 I-3 J0
X-24.5 Y45 Z2.7 I3 J0
X-30.5 Y45 Z2.6 I-3 J0
X-24.5 Y45 Z2.5 I3 J0
X-30.5 Y45 Z2.4 I-3 J0
X-24.5 Y45 Z2.3 I3 J0
X-30.5 Y45 Z2.2 I-3 J0
X-24.5 Y45 Z2.1 I3 J0
X-30.5 Y45 Z2 I-3 J0
X-24.5 Y45 Z1.9 I3 J0
X-30.5 Y45 Z1.8 I-3 J0
X-24.5 Y45 Z1.7 I3 J0
X-30.5 Y45 Z1.6 I-3 J0
X-24.5 Y45 Z1.5 I3 J0
X-30.5 Y45 Z1.4 I-3 J0
X-24.5 Y45 Z1.3 I3 J0
X-30.5 Y45 Z1.2 I-3 J0
X-24.5 Y45 Z1.1 I3 J0
X-30.5 Y45 Z1 I-3 J0
X-24.5 Y45 Z0.9 I3 J0
X-30.5 Y45 Z0.8 I-3 J0
X-24.5 Y45 Z0.7 I3 J0
X-30.5 Y45 Z0.6 I-3 J0
X-24.5 Y45 Z0.5 I3 J0
X-30.5 Y45 Z0.4 I-3 J0
X-24.5 Y45 Z0.3 I3 J0
X-30.5 Y45 Z0.2 I-3 J0
X-24.5 Y45 Z0.1 I3 J0
X-30.5 Y45 Z0 I-3 J0
X-24.5 Y45 I3 J0
X-30.5 Y45 I-3 J0
X-29.9 Y44.4 I0.6 J0 F300
G1 X-29.6
G18 G2 X-29 Z0.6 I0 K0.6
G0 Z19.2
X-27.9 Y14.5
Z12.5
G1 Z11.1 F300
G2 X-27.3 Z10.5 I0.6 K0
G1 X-27
G17 G3 X-26.5 Y15 I0 J0.5
X-28.5 Y15 Z10.4 I-1 J0 F350
X-26.5 Y15 Z10.3 I1 J0
X-28.5 Y15 Z10.2 I-1 J0
X-26.5 Y15 Z10.1 I1 J0
X-28.5 Y15 Z10 I-1 J0
X-26.5 Y15 Z9.9 I1 J0
X-28.5 Y15 Z9.8 I-1 J0
X-26.5 Y15 Z9.7 I1 J0
X-28.5 Y15 Z9.6 I-1 J0
X-26.5 Y15 Z9.5 I1 J0
X-28.5 Y15 Z9.4 I-1 J0
X-26.5 Y15 Z9.3 I1 J0
X-28.5 Y15 Z9.2 I-1 J0
X-26.5 Y15 Z9.1 I1 J0
X-28.5 Y15 Z9 I-1 J0
X-26.5 Y15 Z8.9 I1 J0
X-28.5 Y15 Z8.8 I-1 J0
X-26.5 Y15 Z8.7 I1 J0
X-28.5 Y15 Z8.6 I-1 J0
X-26.5 Y15 Z8.5 I1 J0
X-28.5 Y15 Z8.4 I-1 J0
X-26.5 Y15 Z8.3 I1 J0
X-28.5 Y15 Z8.2 I-1 J0
X-26.5 Y15 Z8.1 I1 J0
X-28.5 Y15 Z8 I-1 J0
X-26.5 Y15 Z7.9 I1 J0
X-28.5 Y15 Z7.8 I-1 J0
X-26.5 Y15 Z7.7 I1 J0
X-28.5 Y15 Z7.6 I-1 J0
X-26.5 Y15 Z7.5 I1 J0
X-28.5 Y15 Z7.4 I-1 J0
X-26.5 Y15 Z7.3 I1 J0
X-28.5 Y15 Z7.2 I-1 J0
X-26.5 Y15 Z7.1 I1 J0
X-28.5 Y15 Z7 I-1 J0
X-26.5 Y15 Z6.9 I1 J0
X-28.5 Y15 Z6.8 I-1 J0
X-26.5 Y15 Z6.7 I1 J0
X-28.5 Y15 Z6.6 I-1 J0
X-26.5 Y15 Z6.5 I1 J0
X-28.5 Y15 Z6.4 I-1 J0
X-26.5 Y15 Z6.3 I1 J0
X-28.5 Y15 Z6.2 I-1 J0
X-26.5 Y15 Z6.1 I1 J0
X-28.5 Y15 Z6 I-1 J0
X-26.5 Y15 Z5.9 I1 J0
X-28.5 Y15 Z5.8 I-1 J0
X-26.5 Y15 Z5.7 I1 J0
X-28.5 Y15 Z5.6 I-1 J0
X-26.5 Y15 Z5.5 I1 J0
X-28.5 Y15 Z5.4 I-1 J0
X-26.5 Y15 Z5.3 I1 J0
X-28.5 Y15 Z5.2 I-1 J0
X-26.5 Y15 Z5.1 I1 J0
X-28.5 Y15 Z5 I-1 J0
X-26.5 Y15 Z4.9 I1 J0
X-28.5 Y15 Z4.8 I-1 J0
X-26.5 Y15 Z4.7 I1 J0
X-28.5 Y15 Z4.6 I-1 J0
X-26.5 Y15 Z4.5 I1 J0
X-28.5 Y15 Z4.4 I-1 J0
X-26.5 Y15 Z4.3 I1 J0
X-28.5 Y15 Z4.2 I-1 J0
X-26.5 Y15 Z4.1 I1 J0
X-28.5 Y15 Z4 I-1 J0
X-26.5 Y15 Z3.9 I1 J0
X-28.5 Y15 Z3.8 I-1 J0
X-26.5 Y15 Z3.7 I1 J0
X-28.5 Y15 Z3.6 I-1 J0
X-26.5 Y15 Z3.5 I1 J0
X-28.5 Y15 Z3.4 I-1 J0
X-26.5 Y15 Z3.3 I1 J0
X-28.5 Y15 Z3.2 I-1 J0
X-26.5 Y15 Z3.1 I1 J0
X-28.5 Y15 Z3 I-1 J0
X-26.5 Y15 Z2.9 I1 J0
X-28.5 Y15 Z2.8 I-1 J0
X-26.5 Y15 Z2.7 I1 J0
X-28.5 Y15 Z2.6 I-1 J0
X-26.5 Y15 Z2.5 I1 J0
X-28.5 Y15 Z2.4 I-1 J0
X-26.5 Y15 Z2.3 I1 J0
X-28.5 Y15 Z2.2 I-1 J0
X-26.5 Y15 Z2.1 I1 J0
X-28.5 Y15 Z2 I-1 J0
X-26.5 Y15 Z1.9 I1 J0
X-28.5 Y15 Z1.8 I-1 J0
X-26.5 Y15 Z1.7 I1 J0
X-28.5 Y15 Z1.6 I-1 J0
X-26.5 Y15 Z1.5 I1 J0
X-28.5 Y15 Z1.4 I-1 J0
X-26.5 Y15 Z1.3 I1 J0
X-28.5 Y15 Z1.2 I-1 J0
X-26.5 Y15 Z1.1 I1 J0
X-28.5 Y15 Z1 I-1 J0
X-26.5 Y15 Z0.9 I1 J0
X-28.5 Y15 Z0.8 I-1 J0
X-26.5 Y15 Z0.7 I1 J0
X-28.5 Y15 Z0.6 I-1 J0
X-26.5 Y15 Z0.5 I1 J0
X-28.5 Y15 Z0.4 I-1 J0
X-26.5 Y15 Z0.3 I1 J0
X-28.5 Y15 Z0.2 I-1 J0
X-26.5 Y15 Z0.1 I1 J0
X-28.5 Y15 Z0 I-1 J0
X-26.5 Y15 I1 J0
X-28.5 Y15 I-1 J0
X-28 Y14.5 I0.5 J0 F300
G1 X-27.7
G18 G2 X-27.1 Z0.6 I0 K0.6
G0 Z19.2
X-26 Y14.4
Z12.5
G1 Z11.1 F300
G2 X-25.4 Z10.5 I0.6 K0
G1 X-25.1
G17 G3 X-24.5 Y15 I0 J0.6
X-30.5 Y15 Z10.4 I-3 J0 F350
X-24.5 Y15 Z10.3 I3 J0
X-30.5 Y15 Z10.2 I-3 J0
X-24.5 Y15 Z10.1 I3 J0
X-30.5 Y15 Z10 I-3 J0
X-24.5 Y15 Z9.9 I3 J0
X-30.5 Y15 Z9.8 I-3 J0
X-24.5 Y15 Z9.7 I3 J0
X-30.5 Y15 Z9.6 I-3 J0
X-24.5 Y15 Z9.5 I3 J0
X-30.5 Y15 Z9.4 I-3 J0
X-24.5 Y15 Z9.3 I3 J0
X-30.5 Y15 Z9.2 I-3 J0
X-24.5 Y15 Z9.1 I3 J0
X-30.5 Y15 Z9 I-3 J0
X-24.5 Y15 Z8.9 I3 J0
X-30.5 Y15 Z8.8 I-3 J0
X-24.5 Y15 Z8.7 I3 J0
X-30.5 Y15 Z8.6 I-3 J0
X-24.5 Y15 Z8.5 I3 J0
X-30.5 Y15 Z8.4 I-3 J0
X-24.5 Y15 Z8.3 I3 J0
X-30.5 Y15 Z8.2 I-3 J0
X-24.5 Y15 Z8.1 I3 J0
X-30.5 Y15 Z8 I-3 J0
X-24.5 Y15 Z7.9 I3 J0
X-30.5 Y15 Z7.8 I-3 J0
X-24.5 Y15 Z7.7 I3 J0
X-30.5 Y15 Z7.6 I-3 J0
X-24.5 Y15 Z7.5 I3 J0
X-30.5 Y15 Z7.4 I-3 J0
X-24.5 Y15 Z7.3 I3 J0
X-30.5 Y15 Z7.2 I-3 J0
X-24.5 Y15 Z7.1 I3 J0
X-30.5 Y15 Z7 I-3 J0
X-24.5 Y15 Z6.9 I3 J0
X-30.5 Y15 Z6.8 I-3 J0
X-24.5 Y15 Z6.7 I3 J0
X-30.5 Y15 Z6.6 I-3 J0
X-24.5 Y15 Z6.5 I3 J0
X-30.5 Y15 Z6.4 I-3 J0
X-24.5 Y15 Z6.3 I3 J0
X-30.5 Y15 Z6.2 I-3 J0
X-24.5 Y15 Z6.1 I3 J0
X-30.5 Y15 Z6 I-3 J0
X-24.5 Y15 Z5.9 I3 J0
X-30.5 Y15 Z5.8 I-3 J0
X-24.5 Y15 Z5.7 I3 J0
X-30.5 Y15 Z5.6 I-3 J0
X-24.5 Y15 Z5.5 I3 J0
X-30.5 Y15 Z5.4 I-3 J0
X-24.5 Y15 Z5.3 I3 J0
X-30.5 Y15 Z5.2 I-3 J0
X-24.5 Y15 Z5.1 I3 J0
X-30.5 Y15 Z5 I-3 J0
X-24.5 Y15 Z4.9 I3 J0
X-30.5 Y15 Z4.8 I-3 J0
X-24.5 Y15 Z4.7 I3 J0
X-30.5 Y15 Z4.6 I-3 J0
X-24.5 Y15 Z4.5 I3 J0
X-30.5 Y15 Z4.4 I-3 J0
X-24.5 Y15 Z4.3 I3 J0
X-30.5 Y15 Z4.2 I-3 J0
X-24.5 Y15 Z4.1 I3 J0
X-30.5 Y15 Z4 I-3 J0
X-24.5 Y15 Z3.9 I3 J0
X-30.5 Y15 Z3.8 I-3 J0
X-24.5 Y15 Z3.7 I3 J0
X-30.5 Y15 Z3.6 I-3 J0
X-24.5 Y15 Z3.5 I3 J0
X-30.5 Y15 Z3.4 I-3 J0
X-24.5 Y15 Z3.3 I3 J0
X-30.5 Y15 Z3.2 I-3 J0
X-24.5 Y15 Z3.1 I3 J0
X-30.5 Y15 Z3 I-3 J0
X-24.5 Y15 Z2.9 I3 J0
X-30.5 Y15 Z2.8 I-3 J0
X-24.5 Y15 Z2.7 I3 J0
X-30.5 Y15 Z2.6 I-3 J0
X-24.5 Y15 Z2.5 I3 J0
X-30.5 Y15 Z2.4 I-3 J0
X-24.5 Y15 Z2.3 I3 J0
X-30.5 Y15 Z2.2 I-3 J0
X-24.5 Y15 Z2.1 I3 J0
X-30.5 Y15 Z2 I-3 J0
X-24.5 Y15 Z1.9 I3 J0
X-30.5 Y15 Z1.8 I-3 J0
X-24.5 Y15 Z1.7 I3 J0
X-30.5 Y15 Z1.6 I-3 J0
X-24.5 Y15 Z1.5 I3 J0
X-30.5 Y15 Z1.4 I-3 J0
X-24.5 Y15 Z1.3 I3 J0
X-30.5 Y15 Z1.2 I-3 J0
X-24.5 Y15 Z1.1 I3 J0
X-30.5 Y15 Z1 I-3 J0
X-24.5 Y15 Z0.9 I3 J0
X-30.5 Y15 Z0.8 I-3 J0
X-24.5 Y15 Z0.7 I3 J0
X-30.5 Y15 Z0.6 I-3 J0
X-24.5 Y15 Z0.5 I3 J0
X-30.5 Y15 Z0.4 I-3 J0
X-24.5 Y15 Z0.3 I3 J0
X-30.5 Y15 Z0.2 I-3 J0
X-24.5 Y15 Z0.1 I3 J0
X-30.5 Y15 Z0 I-3 J0
X-24.5 Y15 I3 J0
X-30.5 Y15 I-3 J0
X-29.9 Y14.4 I0.6 J0 F300
G1 X-29.6
G18 G2 X-29 Z0.6 I0 K0.6
G0 Z19.2
X-27.9 Y-15.5
Z12.5
G1 Z11.1 F300
G2 X-27.3 Z10.5 I0.6 K0
G1 X-27
G17 G3 X-26.5 Y-15 I0 J0.5
X-28.5 Y-15 Z10.4 I-1 J0 F350
X-26.5 Y-15 Z10.3 I1 J0
X-28.5 Y-15 Z10.2 I-1 J0
X-26.5 Y-15 Z10.1 I1 J0
X-28.5 Y-15 Z10 I-1 J0
X-26.5 Y-15 Z9.9 I1 J0
X-28.5 Y-15 Z9.8 I-1 J0
X-26.5 Y-15 Z9.7 I1 J0
X-28.5 Y-15 Z9.6 I-1 J0
X-26.5 Y-15 Z9.5 I1 J0
X-28.5 Y-15 Z9.4 I-1 J0
X-26.5 Y-15 Z9.3 I1 J0
X-28.5 Y-15 Z9.2 I-1 J0
X-26.5 Y-15 Z9.1 I1 J0
X-28.5 Y-15 Z9 I-1 J0
X-26.5 Y-15 Z8.9 I1 J0
X-28.5 Y-15 Z8.8 I-1 J0
X-26.5 Y-15 Z8.7 I1 J0
X-28.5 Y-15 Z8.6 I-1 J0
X-26.5 Y-15 Z8.5 I1 J0
X-28.5 Y-15 Z8.4 I-1 J0
X-26.5 Y-15 Z8.3 I1 J0
X-28.5 Y-15 Z8.2 I-1 J0
X-26.5 Y-15 Z8.1 I1 J0
X-28.5 Y-15 Z8 I-1 J0
X-26.5 Y-15 Z7.9 I1 J0
X-28.5 Y-15 Z7.8 I-1 J0
X-26.5 Y-15 Z7.7 I1 J0
X-28.5 Y-15 Z7.6 I-1 J0
X-26.5 Y-15 Z7.5 I1 J0
X-28.5 Y-15 Z7.4 I-1 J0
X-26.5 Y-15 Z7.3 I1 J0
X-28.5 Y-15 Z7.2 I-1 J0
X-26.5 Y-15 Z7.1 I1 J0
X-28.5 Y-15 Z7 I-1 J0
X-26.5 Y-15 Z6.9 I1 J0
X-28.5 Y-15 Z6.8 I-1 J0
X-26.5 Y-15 Z6.7 I1 J0
X-28.5 Y-15 Z6.6 I-1 J0
X-26.5 Y-15 Z6.5 I1 J0
X-28.5 Y-15 Z6.4 I-1 J0
X-26.5 Y-15 Z6.3 I1 J0
X-28.5 Y-15 Z6.2 I-1 J0
X-26.5 Y-15 Z6.1 I1 J0
X-28.5 Y-15 Z6 I-1 J0
X-26.5 Y-15 Z5.9 I1 J0
X-28.5 Y-15 Z5.8 I-1 J0
X-26.5 Y-15 Z5.7 I1 J0
X-28.5 Y-15 Z5.6 I-1 J0
X-26.5 Y-15 Z5.5 I1 J0
X-28.5 Y-15 Z5.4 I-1 J0
X-26.5 Y-15 Z5.3 I1 J0
X-28.5 Y-15 Z5.2 I-1 J0
X-26.5 Y-15 Z5.1 I1 J0
X-28.5 Y-15 Z5 I-1 J0
X-26.5 Y-15 Z4.9 I1 J0
X-28.5 Y-15 Z4.8 I-1 J0
X-26.5 Y-15 Z4.7 I1 J0
X-28.5 Y-15 Z4.6 I-1 J0
X-26.5 Y-15 Z4.5 I1 J0
X-28.5 Y-15 Z4.4 I-1 J0
X-26.5 Y-15 Z4.3 I1 J0
X-28.5 Y-15 Z4.2 I-1 J0
X-26.5 Y-15 Z4.1 I1 J0
X-28.5 Y-15 Z4 I-1 J0
X-26.5 Y-15 Z3.9 I1 J0
X-28.5 Y-15 Z3.8 I-1 J0
X-26.5 Y-15 Z3.7 I1 J0
X-28.5 Y-15 Z3.6 I-1 J0
X-26.5 Y-15 Z3.5 I1 J0
X-28.5 Y-15 Z3.4 I-1 J0
X-26.5 Y-15 Z3.3 I1 J0
X-28.5 Y-15 Z3.2 I-1 J0
X-26.5 Y-15 Z3.1 I1 J0
X-28.5 Y-15 Z3 I-1 J0
X-26.5 Y-15 Z2.9 I1 J0
X-28.5 Y-15 Z2.8 I-1 J0
X-26.5 Y-15 Z2.7 I1 J0
X-28.5 Y-15 Z2.6 I-1 J0
X-26.5 Y-15 Z2.5 I1 J0
X-28.5 Y-15 Z2.4 I-1 J0
X-26.5 Y-15 Z2.3 I1 J0
X-28.5 Y-15 Z2.2 I-1 J0
X-26.5 Y-15 Z2.1 I1 J0
X-28.5 Y-15 Z2 I-1 J0
X-26.5 Y-15 Z1.9 I1 J0
X-28.5 Y-15 Z1.8 I-1 J0
X-26.5 Y-15 Z1.7 I1 J0
X-28.5 Y-15 Z1.6 I-1 J0
X-26.5 Y-15 Z1.5 I1 J0
X-28.5 Y-15 Z1.4 I-1 J0
X-26.5 Y-15 Z1.3 I1 J0
X-28.5 Y-15 Z1.2 I-1 J0
X-26.5 Y-15 Z1.1 I1 J0
X-28.5 Y-15 Z1 I-1 J0
X-26.5 Y-15 Z0.9 I1 J0
X-28.5 Y-15 Z0.8 I-1 J0
X-26.5 Y-15 Z0.7 I1 J0
X-28.5 Y-15 Z0.6 I-1 J0
X-26.5 Y-15 Z0.5 I1 J0
X-28.5 Y-15 Z0.4 I-1 J0
X-26.5 Y-15 Z0.3 I1 J0
X-28.5 Y-15 Z0.2 I-1 J0
X-26.5 Y-15 Z0.1 I1 J0
X-28.5 Y-15 Z0 I-1 J0
X-26.5 Y-15 I1 J0
X-28.5 Y-15 I-1 J0
X-28 Y-15.5 I0.5 J0 F300
G1 X-27.7
G18 G2 X-27.1 Z0.6 I0 K0.6
G0 Z19.2
X-26 Y-15.6
Z12.5
G1 Z11.1 F300
G2 X-25.4 Z10.5 I0.6 K0
G1 X-25.1
G17 G3 X-24.5 Y-15 I0 J0.6
X-30.5 Y-15 Z10.4 I-3 J0 F350
X-24.5 Y-15 Z10.3 I3 J0
X-30.5 Y-15 Z10.2 I-3 J0
X-24.5 Y-15 Z10.1 I3 J0
X-30.5 Y-15 Z10 I-3 J0
X-24.5 Y-15 Z9.9 I3 J0
X-30.5 Y-15 Z9.8 I-3 J0
X-24.5 Y-15 Z9.7 I3 J0
X-30.5 Y-15 Z9.6 I-3 J0
X-24.5 Y-15 Z9.5 I3 J0
X-30.5 Y-15 Z9.4 I-3 J0
X-24.5 Y-15 Z9.3 I3 J0
X-30.5 Y-15 Z9.2 I-3 J0
X-24.5 Y-15 Z9.1 I3 J0
X-30.5 Y-15 Z9 I-3 J0
X-24.5 Y-15 Z8.9 I3 J0
X-30.5 Y-15 Z8.8 I-3 J0
X-24.5 Y-15 Z8.7 I3 J0
X-30.5 Y-15 Z8.6 I-3 J0
X-24.5 Y-15 Z8.5 I3 J0
X-30.5 Y-15 Z8.4 I-3 J0
X-24.5 Y-15 Z8.3 I3 J0
X-30.5 Y-15 Z8.2 I-3 J0
X-24.5 Y-15 Z8.1 I3 J0
X-30.5 Y-15 Z8 I-3 J0
X-24.5 Y-15 Z7.9 I3 J0
X-30.5 Y-15 Z7.8 I-3 J0
X-24.5 Y-15 Z7.7 I3 J0
X-30.5 Y-15 Z7.6 I-3 J0
X-24.5 Y-15 Z7.5 I3 J0
X-30.5 Y-15 Z7.4 I-3 J0
X-24.5 Y-15 Z7.3 I3 J0
X-30.5 Y-15 Z7.2 I-3 J0
X-24.5 Y-15 Z7.1 I3 J0
X-30.5 Y-15 Z7 I-3 J0
X-24.5 Y-15 Z6.9 I3 J0
X-30.5 Y-15 Z6.8 I-3 J0
X-24.5 Y-15 Z6.7 I3 J0
X-30.5 Y-15 Z6.6 I-3 J0
X-24.5 Y-15 Z6.5 I3 J0
X-30.5 Y-15 Z6.4 I-3 J0
X-24.5 Y-15 Z6.3 I3 J0
X-30.5 Y-15 Z6.2 I-3 J0
X-24.5 Y-15 Z6.1 I3 J0
X-30.5 Y-15 Z6 I-3 J0
X-24.5 Y-15 Z5.9 I3 J0
X-30.5 Y-15 Z5.8 I-3 J0
X-24.5 Y-15 Z5.7 I3 J0
X-30.5 Y-15 Z5.6 I-3 J0
X-24.5 Y-15 Z5.5 I3 J0
X-30.5 Y-15 Z5.4 I-3 J0
X-24.5 Y-15 Z5.3 I3 J0
X-30.5 Y-15 Z5.2 I-3 J0
X-24.5 Y-15 Z5.1 I3 J0
X-30.5 Y-15 Z5 I-3 J0
X-24.5 Y-15 Z4.9 I3 J0
X-30.5 Y-15 Z4.8 I-3 J0
X-24.5 Y-15 Z4.7 I3 J0
X-30.5 Y-15 Z4.6 I-3 J0
X-24.5 Y-15 Z4.5 I3 J0
X-30.5 Y-15 Z4.4 I-3 J0
X-24.5 Y-15 Z4.3 I3 J0
X-30.5 Y-15 Z4.2 I-3 J0
X-24.5 Y-15 Z4.1 I3 J0
X-30.5 Y-15 Z4 I-3 J0
X-24.5 Y-15 Z3.9 I3 J0
X-30.5 Y-15 Z3.8 I-3 J0
X-24.5 Y-15 Z3.7 I3 J0
X-30.5 Y-15 Z3.6 I-3 J0
X-24.5 Y-15 Z3.5 I3 J0
X-30.5 Y-15 Z3.4 I-3 J0
X-24.5 Y-15 Z3.3 I3 J0
X-30.5 Y-15 Z3.2 I-3 J0
X-24.5 Y-15 Z3.1 I3 J0
X-30.5 Y-15 Z3 I-3 J0
X-24.5 Y-15 Z2.9 I3 J0
X-30.5 Y-15 Z2.8 I-3 J0
X-24.5 Y-15 Z2.7 I3 J0
X-30.5 Y-15 Z2.6 I-3 J0
X-24.5 Y-15 Z2.5 I3 J0
X-30.5 Y-15 Z2.4 I-3 J0
X-24.5 Y-15 Z2.3 I3 J0
X-30.5 Y-15 Z2.2 I-3 J0
X-24.5 Y-15 Z2.1 I3 J0
X-30.5 Y-15 Z2 I-3 J0
X-24.5 Y-15 Z1.9 I3 J0
X-30.5 Y-15 Z1.8 I-3 J0
X-24.5 Y-15 Z1.7 I3 J0
X-30.5 Y-15 Z1.6 I-3 J0
X-24.5 Y-15 Z1.5 I3 J0
X-30.5 Y-15 Z1.4 I-3 J0
X-24.5 Y-15 Z1.3 I3 J0
X-30.5 Y-15 Z1.2 I-3 J0
X-24.5 Y-15 Z1.1 I3 J0
X-30.5 Y-15 Z1 I-3 J0
X-24.5 Y-15 Z0.9 I3 J0
X-30.5 Y-15 Z0.8 I-3 J0
X-24.5 Y-15 Z0.7 I3 J0
X-30.5 Y-15 Z0.6 I-3 J0
X-24.5 Y-15 Z0.5 I3 J0
X-30.5 Y-15 Z0.4 I-3 J0
X-24.5 Y-15 Z0.3 I3 J0
X-30.5 Y-15 Z0.2 I-3 J0
X-24.5 Y-15 Z0.1 I3 J0
X-30.5 Y-15 Z0 I-3 J0
X-24.5 Y-15 I3 J0
X-30.5 Y-15 I-3 J0
X-29.9 Y-15.6 I0.6 J0 F300
G1 X-29.6
G18 G2 X-29 Z0.6 I0 K0.6
G0 Z19.2
X-27.9 Y-45.5
Z12.5
G1 Z11.1 F300
G2 X-27.3 Z10.5 I0.6 K0
G1 X-27
G17 G3 X-26.5 Y-45 I0 J0.5
X-28.5 Y-45 Z10.4 I-1 J0 F350
X-26.5 Y-45 Z10.3 I1 J0
X-28.5 Y-45 Z10.2 I-1 J0
X-26.5 Y-45 Z10.1 I1 J0
X-28.5 Y-45 Z10 I-1 J0
X-26.5 Y-45 Z9.9 I1 J0
X-28.5 Y-45 Z9.8 I-1 J0
X-26.5 Y-45 Z9.7 I1 J0
X-28.5 Y-45 Z9.6 I-1 J0
X-26.5 Y-45 Z9.5 I1 J0
X-28.5 Y-45 Z9.4 I-1 J0
X-26.5 Y-45 Z9.3 I1 J0
X-28.5 Y-45 Z9.2 I-1 J0
X-26.5 Y-45 Z9.1 I1 J0
X-28.5 Y-45 Z9 I-1 J0
X-26.5 Y-45 Z8.9 I1 J0
X-28.5 Y-45 Z8.8 I-1 J0
X-26.5 Y-45 Z8.7 I1 J0
X-28.5 Y-45 Z8.6 I-1 J0
X-26.5 Y-45 Z8.5 I1 J0
X-28.5 Y-45 Z8.4 I-1 J0
X-26.5 Y-45 Z8.3 I1 J0
X-28.5 Y-45 Z8.2 I-1 J0
X-26.5 Y-45 Z8.1 I1 J0
X-28.5 Y-45 Z8 I-1 J0
X-26.5 Y-45 Z7.9 I1 J0
X-28.5 Y-45 Z7.8 I-1 J0
X-26.5 Y-45 Z7.7 I1 J0
X-28.5 Y-45 Z7.6 I-1 J0
X-26.5 Y-45 Z7.5 I1 J0
X-28.5 Y-45 Z7.4 I-1 J0
X-26.5 Y-45 Z7.3 I1 J0
X-28.5 Y-45 Z7.2 I-1 J0
X-26.5 Y-45 Z7.1 I1 J0
X-28.5 Y-45 Z7 I-1 J0
X-26.5 Y-45 Z6.9 I1 J0
X-28.5 Y-45 Z6.8 I-1 J0
X-26.5 Y-45 Z6.7 I1 J0
X-28.5 Y-45 Z6.6 I-1 J0
X-26.5 Y-45 Z6.5 I1 J0
X-28.5 Y-45 Z6.4 I-1 J0
X-26.5 Y-45 Z6.3 I1 J0
X-28.5 Y-45 Z6.2 I-1 J0
X-26.5 Y-45 Z6.1 I1 J0
X-28.5 Y-45 Z6 I-1 J0
X-26.5 Y-45 Z5.9 I1 J0
X-28.5 Y-45 Z5.8 I-1 J0
X-26.5 Y-45 Z5.7 I1 J0
X-28.5 Y-45 Z5.6 I-1 J0
X-26.5 Y-45 Z5.5 I1 J0
X-28.5 Y-45 Z5.4 I-1 J0
X-26.5 Y-45 Z5.3 I1 J0
X-28.5 Y-45 Z5.2 I-1 J0
X-26.5 Y-45 Z5.1 I1 J0
X-28.5 Y-45 Z5 I-1 J0
X-26.5 Y-45 Z4.9 I1 J0
X-28.5 Y-45 Z4.8 I-1 J0
X-26.5 Y-45 Z4.7 I1 J0
X-28.5 Y-45 Z4.6 I-1 J0
X-26.5 Y-45 Z4.5 I1 J0
X-28.5 Y-45 Z4.4 I-1 J0
X-26.5 Y-45 Z4.3 I1 J0
X-28.5 Y-45 Z4.2 I-1 J0
X-26.5 Y-45 Z4.1 I1 J0
X-28.5 Y-45 Z4 I-1 J0
X-26.5 Y-45 Z3.9 I1 J0
X-28.5 Y-45 Z3.8 I-1 J0
X-26.5 Y-45 Z3.7 I1 J0
X-28.5 Y-45 Z3.6 I-1 J0
X-26.5 Y-45 Z3.5 I1 J0
X-28.5 Y-45 Z3.4 I-1 J0
X-26.5 Y-45 Z3.3 I1 J0
X-28.5 Y-45 Z3.2 I-1 J0
X-26.5 Y-45 Z3.1 I1 J0
X-28.5 Y-45 Z3 I-1 J0
X-26.5 Y-45 Z2.9 I1 J0
X-28.5 Y-45 Z2.8 I-1 J0
X-26.5 Y-45 Z2.7 I1 J0
X-28.5 Y-45 Z2.6 I-1 J0
X-26.5 Y-45 Z2.5 I1 J0
X-28.5 Y-45 Z2.4 I-1 J0
X-26.5 Y-45 Z2.3 I1 J0
X-28.5 Y-45 Z2.2 I-1 J0
X-26.5 Y-45 Z2.1 I1 J0
X-28.5 Y-45 Z2 I-1 J0
X-26.5 Y-45 Z1.9 I1 J0
X-28.5 Y-45 Z1.8 I-1 J0
X-26.5 Y-45 Z1.7 I1 J0
X-28.5 Y-45 Z1.6 I-1 J0
X-26.5 Y-45 Z1.5 I1 J0
X-28.5 Y-45 Z1.4 I-1 J0
X-26.5 Y-45 Z1.3 I1 J0
X-28.5 Y-45 Z1.2 I-1 J0
X-26.5 Y-45 Z1.1 I1 J0
X-28.5 Y-45 Z1 I-1 J0
X-26.5 Y-45 Z0.9 I1 J0
X-28.5 Y-45 Z0.8 I-1 J0
X-26.5 Y-45 Z0.7 I1 J0
X-28.5 Y-45 Z0.6 I-1 J0
X-26.5 Y-45 Z0.5 I1 J0
X-28.5 Y-45 Z0.4 I-1 J0
X-26.5 Y-45 Z0.3 I1 J0
X-28.5 Y-45 Z0.2 I-1 J0
X-26.5 Y-45 Z0.1 I1 J0
X-28.5 Y-45 Z0 I-1 J0
X-26.5 Y-45 I1 J0
X-28.5 Y-45 I-1 J0
X-28 Y-45.5 I0.5 J0 F300
G1 X-27.7
G18 G2 X-27.1 Z0.6 I0 K0.6
G0 Z19.2
X-26 Y-45.6
Z12.5
G1 Z11.1 F300
G2 X-25.4 Z10.5 I0.6 K0
G1 X-25.1
G17 G3 X-24.5 Y-45 I0 J0.6
X-30.5 Y-45 Z10.4 I-3 J0 F350
X-24.5 Y-45 Z10.3 I3 J0
X-30.5 Y-45 Z10.2 I-3 J0
X-24.5 Y-45 Z10.1 I3 J0
X-30.5 Y-45 Z10 I-3 J0
X-24.5 Y-45 Z9.9 I3 J0
X-30.5 Y-45 Z9.8 I-3 J0
X-24.5 Y-45 Z9.7 I3 J0
X-30.5 Y-45 Z9.6 I-3 J0
X-24.5 Y-45 Z9.5 I3 J0
X-30.5 Y-45 Z9.4 I-3 J0
X-24.5 Y-45 Z9.3 I3 J0
X-30.5 Y-45 Z9.2 I-3 J0
X-24.5 Y-45 Z9.1 I3 J0
X-30.5 Y-45 Z9 I-3 J0
X-24.5 Y-45 Z8.9 I3 J0
X-30.5 Y-45 Z8.8 I-3 J0
X-24.5 Y-45 Z8.7 I3 J0
X-30.5 Y-45 Z8.6 I-3 J0
X-24.5 Y-45 Z8.5 I3 J0
X-30.5 Y-45 Z8.4 I-3 J0
X-24.5 Y-45 Z8.3 I3 J0
X-30.5 Y-45 Z8.2 I-3 J0
X-24.5 Y-45 Z8.1 I3 J0
X-30.5 Y-45 Z8 I-3 J0
X-24.5 Y-45 Z7.9 I3 J0
X-30.5 Y-45 Z7.8 I-3 J0
X-24.5 Y-45 Z7.7 I3 J0
X-30.5 Y-45 Z7.6 I-3 J0
X-24.5 Y-45 Z7.5 I3 J0
X-30.5 Y-45 Z7.4 I-3 J0
X-24.5 Y-45 Z7.3 I3 J0
X-30.5 Y-45 Z7.2 I-3 J0
X-24.5 Y-45 Z7.1 I3 J0
X-30.5 Y-45 Z7 I-3 J0
X-24.5 Y-45 Z6.9 I3 J0
X-30.5 Y-45 Z6.8 I-3 J0
X-24.5 Y-45 Z6.7 I3 J0
X-30.5 Y-45 Z6.6 I-3 J0
X-24.5 Y-45 Z6.5 I3 J0
X-30.5 Y-45 Z6.4 I-3 J0
X-24.5 Y-45 Z6.3 I3 J0
X-30.5 Y-45 Z6.2 I-3 J0
X-24.5 Y-45 Z6.1 I3 J0
X-30.5 Y-45 Z6 I-3 J0
X-24.5 Y-45 Z5.9 I3 J0
X-30.5 Y-45 Z5.8 I-3 J0
X-24.5 Y-45 Z5.7 I3 J0
X-30.5 Y-45 Z5.6 I-3 J0
X-24.5 Y-45 Z5.5 I3 J0
X-30.5 Y-45 Z5.4 I-3 J0
X-24.5 Y-45 Z5.3 I3 J0
X-30.5 Y-45 Z5.2 I-3 J0
X-24.5 Y-45 Z5.1 I3 J0
X-30.5 Y-45 Z5 I-3 J0
X-24.5 Y-45 Z4.9 I3 J0
X-30.5 Y-45 Z4.8 I-3 J0
X-24.5 Y-45 Z4.7 I3 J0
X-30.5 Y-45 Z4.6 I-3 J0
X-24.5 Y-45 Z4.5 I3 J0
X-30.5 Y-45 Z4.4 I-3 J0
X-24.5 Y-45 Z4.3 I3 J0
X-30.5 Y-45 Z4.2 I-3 J0
X-24.5 Y-45 Z4.1 I3 J0
X-30.5 Y-45 Z4 I-3 J0
X-24.5 Y-45 Z3.9 I3 J0
X-30.5 Y-45 Z3.8 I-3 J0
X-24.5 Y-45 Z3.7 I3 J0
X-30.5 Y-45 Z3.6 I-3 J0
X-24.5 Y-45 Z3.5 I3 J0
X-30.5 Y-45 Z3.4 I-3 J0
X-24.5 Y-45 Z3.3 I3 J0
X-30.5 Y-45 Z3.2 I-3 J0
X-24.5 Y-45 Z3.1 I3 J0
X-30.5 Y-45 Z3 I-3 J0
X-24.5 Y-45 Z2.9 I3 J0
X-30.5 Y-45 Z2.8 I-3 J0
X-24.5 Y-45 Z2.7 I3 J0
X-30.5 Y-45 Z2.6 I-3 J0
X-24.5 Y-45 Z2.5 I3 J0
X-30.5 Y-45 Z2.4 I-3 J0
X-24.5 Y-45 Z2.3 I3 J0
X-30.5 Y-45 Z2.2 I-3 J0
X-24.5 Y-45 Z2.1 I3 J0
X-30.5 Y-45 Z2 I-3 J0
X-24.5 Y-45 Z1.9 I3 J0
X-30.5 Y-45 Z1.8 I-3 J0
X-24.5 Y-45 Z1.7 I3 J0
X-30.5 Y-45 Z1.6 I-3 J0
X-24.5 Y-45 Z1.5 I3 J0
X-30.5 Y-45 Z1.4 I-3 J0
X-24.5 Y-45 Z1.3 I3 J0
X-30.5 Y-45 Z1.2 I-3 J0
X-24.5 Y-45 Z1.1 I3 J0
X-30.5 Y-45 Z1 I-3 J0
X-24.5 Y-45 Z0.9 I3 J0
X-30.5 Y-45 Z0.8 I-3 J0
X-24.5 Y-45 Z0.7 I3 J0
X-30.5 Y-45 Z0.6 I-3 J0
X-24.5 Y-45 Z0.5 I3 J0
X-30.5 Y-45 Z0.4 I-3 J0
X-24.5 Y-45 Z0.3 I3 J0
X-30.5 Y-45 Z0.2 I-3 J0
X-24.5 Y-45 Z0.1 I3 J0
X-30.5 Y-45 Z0 I-3 J0
X-24.5 Y-45 I3 J0
X-30.5 Y-45 I-3 J0
X-29.9 Y-45.6 I0.6 J0 F300
G1 X-29.6
G18 G2 X-29 Z0.6 I0 K0.6
G0 Z25.2
G17
G28 G91 Z0
G90
G28 G91 X0 Y0
G90
M5
M30
