(xcar_contour_1)
(T1  D=6 CR=0 - ZMIN=0 - flat end mill)
G90 G94
G17
G21
G28 G91 Z0
G90

(2D Contour1 3)
T1
S18000 M3
G54
G0 X53.7 Y66.6
Z25.2
Z15.2
G1 Z9.8 F500
G18 G3 X53.1 Z9.2 I-0.6 K0 F600
G1 X46.1
G17 G3 X45.5 Y66 I0 J-0.6
G1 Y-66 F1300
G2 X40.5 Y-71 I-5 J0
G1 X-10.5
G2 X-15.5 Y-66 I0 J5
G1 Y-64
G3 X-16.5 Y-63 I-1 J0
G1 X-40.5
G2 X-45.5 Y-58 I0 J5
G1 Y58
G2 X-40.5 Y63 I5 J0
G1 X-16.5
G3 X-15.5 Y64 I0 J1
G1 Y66
G2 X-10.5 Y71 I5 J0
G1 X40.5
G2 X45.5 Y66 I0 J-5
G3 X46.1 Y65.4 I0.6 J0 F800
G1 X53.1
G18 G2 X53.7 Z9.8 I0 K0.6
G1 Y66.6 F1300
Z8.8 F500
G3 X53.1 Z8.2 I-0.6 K0 F600
G1 X46.1
G17 G3 X45.5 Y66 I0 J-0.6
G1 Y-66 F1300
G2 X40.5 Y-71 I-5 J0
G1 X-10.5
G2 X-15.5 Y-66 I0 J5
G1 Y-64
G3 X-16.5 Y-63 I-1 J0
G1 X-40.5
G2 X-45.5 Y-58 I0 J5
G1 Y58
G2 X-40.5 Y63 I5 J0
G1 X-16.5
G3 X-15.5 Y64 I0 J1
G1 Y66
G2 X-10.5 Y71 I5 J0
G1 X40.5
G2 X45.5 Y66 I0 J-5
G3 X46.1 Y65.4 I0.6 J0 F800
G1 X53.1
G18 G2 X53.7 Z8.8 I0 K0.6
G1 Y66.6 F1300
Z7.8 F500
G3 X53.1 Z7.2 I-0.6 K0 F600
G1 X46.1
G17 G3 X45.5 Y66 I0 J-0.6
G1 Y-66 F1300
G2 X40.5 Y-71 I-5 J0
G1 X-10.5
G2 X-15.5 Y-66 I0 J5
G1 Y-64
G3 X-16.5 Y-63 I-1 J0
G1 X-40.5
G2 X-45.5 Y-58 I0 J5
G1 Y58
G2 X-40.5 Y63 I5 J0
G1 X-16.5
G3 X-15.5 Y64 I0 J1
G1 Y66
G2 X-10.5 Y71 I5 J0
G1 X40.5
G2 X45.5 Y66 I0 J-5
G3 X46.1 Y65.4 I0.6 J0 F800
G1 X53.1
G18 G2 X53.7 Z7.8 I0 K0.6
G1 Y66.6 F1300
Z6.8 F500
G3 X53.1 Z6.2 I-0.6 K0 F600
G1 X46.1
G17 G3 X45.5 Y66 I0 J-0.6
G1 Y-66 F1300
G2 X40.5 Y-71 I-5 J0
G1 X-10.5
G2 X-15.5 Y-66 I0 J5
G1 Y-64
G3 X-16.5 Y-63 I-1 J0
G1 X-40.5
G2 X-45.5 Y-58 I0 J5
G1 Y58
G2 X-40.5 Y63 I5 J0
G1 X-16.5
G3 X-15.5 Y64 I0 J1
G1 Y66
G2 X-10.5 Y71 I5 J0
G1 X40.5
G2 X45.5 Y66 I0 J-5
G3 X46.1 Y65.4 I0.6 J0 F800
G1 X53.1
G18 G2 X53.7 Z6.8 I0 K0.6
G1 Y66.6 F1300
Z5.8 F500
G3 X53.1 Z5.2 I-0.6 K0 F600
G1 X46.1
G17 G3 X45.5 Y66 I0 J-0.6
G1 Y-66 F1300
G2 X40.5 Y-71 I-5 J0
G1 X-10.5
G2 X-15.5 Y-66 I0 J5
G1 Y-64
G3 X-16.5 Y-63 I-1 J0
G1 X-40.5
G2 X-45.5 Y-58 I0 J5
G1 Y58
G2 X-40.5 Y63 I5 J0
G1 X-16.5
G3 X-15.5 Y64 I0 J1
G1 Y66
G2 X-10.5 Y71 I5 J0
G1 X40.5
G2 X45.5 Y66 I0 J-5
G3 X46.1 Y65.4 I0.6 J0 F800
G1 X53.1
G18 G2 X53.7 Z5.8 I0 K0.6
G1 Y66.6 F1300
Z4.8 F500
G3 X53.1 Z4.2 I-0.6 K0 F600
G1 X46.1
G17 G3 X45.5 Y66 I0 J-0.6
G1 Y-66 F1300
G2 X40.5 Y-71 I-5 J0
G1 X-10.5
G2 X-15.5 Y-66 I0 J5
G1 Y-64
G3 X-16.5 Y-63 I-1 J0
G1 X-40.5
G2 X-45.5 Y-58 I0 J5
G1 Y58
G2 X-40.5 Y63 I5 J0
G1 X-16.5
G3 X-15.5 Y64 I0 J1
G1 Y66
G2 X-10.5 Y71 I5 J0
G1 X40.5
G2 X45.5 Y66 I0 J-5
G3 X46.1 Y65.4 I0.6 J0 F800
G1 X53.1
G18 G2 X53.7 Z4.8 I0 K0.6
G1 Y66.6 F1300
Z3.8 F500
G3 X53.1 Z3.2 I-0.6 K0 F600
G1 X46.1
G17 G3 X45.5 Y66 I0 J-0.6
G1 Y-66 F1300
G2 X40.5 Y-71 I-5 J0
G1 X-10.5
G2 X-15.5 Y-66 I0 J5
G1 Y-64
G3 X-16.5 Y-63 I-1 J0
G1 X-40.5
G2 X-45.5 Y-58 I0 J5
G1 Y58
G2 X-40.5 Y63 I5 J0
G1 X-16.5
G3 X-15.5 Y64 I0 J1
G1 Y66
G2 X-10.5 Y71 I5 J0
G1 X40.5
G2 X45.5 Y66 I0 J-5
G3 X46.1 Y65.4 I0.6 J0 F800
G1 X53.1
G18 G2 X53.7 Z3.8 I0 K0.6
G1 Y66.6 F1300
Z2.8 F500
G3 X53.1 Z2.2 I-0.6 K0 F600
G1 X46.1
G17 G3 X45.5 Y66 I0 J-0.6
G1 Y-66 F1300
G2 X40.5 Y-71 I-5 J0
G1 X-10.5
G2 X-15.5 Y-66 I0 J5
G1 Y-64
G3 X-16.5 Y-63 I-1 J0
G1 X-40.5
G2 X-45.5 Y-58 I0 J5
G1 Y58
G2 X-40.5 Y63 I5 J0
G1 X-16.5
G3 X-15.5 Y64 I0 J1
G1 Y66
G2 X-10.5 Y71 I5 J0
G1 X40.5
G2 X45.5 Y66 I0 J-5
G3 X46.1 Y65.4 I0.6 J0 F800
G1 X53.1
G18 G2 X53.7 Z2.8 I0 K0.6
G1 Y66.6 F1300
Z1.8 F500
G3 X53.1 Z1.2 I-0.6 K0 F600
G1 X46.1
G17 G3 X45.5 Y66 I0 J-0.6
G1 Y-66 F1300
G2 X40.5 Y-71 I-5 J0
G1 X-10.5
G2 X-15.5 Y-66 I0 J5
G1 Y-64
G3 X-16.5 Y-63 I-1 J0
G1 X-40.5
G2 X-45.5 Y-58 I0 J5
G1 Y58
G2 X-40.5 Y63 I5 J0
G1 X-16.5
G3 X-15.5 Y64 I0 J1
G1 Y66
G2 X-10.5 Y71 I5 J0
G1 X40.5
G2 X45.5 Y66 I0 J-5
G3 X46.1 Y65.4 I0.6 J0 F800
G1 X53.1
G18 G2 X53.7 Z1.8 I0 K0.6
G1 Y66.6 F1300
Z1.2 F500
G3 X53.1 Z0.6 I-0.6 K0 F600
G1 X46.1
G17 G3 X45.5 Y66 I0 J-0.6
G1 Y-66 F1300
G2 X40.5 Y-71 I-5 J0
G1 X-10.5
G2 X-15.5 Y-66 I0 J5
G1 Y-64
G3 X-16.5 Y-63 I-1 J0
G1 X-40.5
G2 X-45.5 Y-58 I0 J5
G1 Y58
G2 X-40.5 Y63 I5 J0
G1 X-16.5
G3 X-15.5 Y64 I0 J1
G1 Y66
G2 X-10.5 Y71 I5 J0
G1 X40.5
G2 X45.5 Y66 I0 J-5
G3 X46.1 Y65.4 I0.6 J0 F800
G1 X53.1
G18 G2 X53.7 Z1.2 I0 K0.6
G1 Y66.6 F1300
Z0.6 F500
G3 X53.1 Z0 I-0.6 K0 F600
G1 X46.1
G17 G3 X45.5 Y66 I0 J-0.6
G1 Y-66 F1300
G2 X40.5 Y-71 I-5 J0
G1 X-10.5
G2 X-15.5 Y-66 I0 J5
G1 Y-64
G3 X-16.5 Y-63 I-1 J0
G1 X-40.5
G2 X-45.5 Y-58 I0 J5
G1 Y58
G2 X-40.5 Y63 I5 J0
G1 X-16.5
G3 X-15.5 Y64 I0 J1
G1 Y66
G2 X-10.5 Y71 I5 J0
G1 X40.5
G2 X45.5 Y66 I0 J-5
G3 X46.1 Y65.4 I0.6 J0 F800
G1 X53.1
G18 G2 X53.7 Z0.6 I0 K0.6
G0 Z25.2
G17
G28 G91 Z0
G90
G28 G91 X0 Y0
G90
M5
M30
