(xcar_bore_2)
(T6  D=3.175 CR=0 - ZMIN=5 - flat end mill)
G90 G94
G17
G21
G28 G91 Z0
G90

(Bore1 7)
T6
(1/8" Flat-45 degree helix)
S18000 M3
G54
G0 X27.331 Y57.682
Z25.2
Z12.5
G1 Z10.818 F350
G18 G2 X27.649 Z10.5 I0.318 K0
G1 X27.808
G17 G3 X28.125 Y58 I0 J0.318
X26.475 Y58 Z10.4 I-0.825 J0
X28.125 Y58 Z10.3 I0.825 J0
X26.475 Y58 Z10.2 I-0.825 J0
X28.125 Y58 Z10.1 I0.825 J0
X26.475 Y58 Z10 I-0.825 J0
X28.125 Y58 Z9.9 I0.825 J0
X26.475 Y58 Z9.8 I-0.825 J0
X28.125 Y58 Z9.7 I0.825 J0
X26.475 Y58 Z9.6 I-0.825 J0
X28.125 Y58 Z9.5 I0.825 J0
X26.475 Y58 Z9.4 I-0.825 J0
X28.125 Y58 Z9.3 I0.825 J0
X26.475 Y58 Z9.2 I-0.825 J0
X28.125 Y58 Z9.1 I0.825 J0
X26.475 Y58 Z9 I-0.825 J0
X28.125 Y58 Z8.9 I0.825 J0
X26.475 Y58 Z8.8 I-0.825 J0
X28.125 Y58 Z8.7 I0.825 J0
X26.475 Y58 Z8.6 I-0.825 J0
X28.125 Y58 Z8.5 I0.825 J0
X26.475 Y58 Z8.4 I-0.825 J0
X28.125 Y58 Z8.3 I0.825 J0
X26.475 Y58 Z8.2 I-0.825 J0
X28.125 Y58 Z8.1 I0.825 J0
X26.475 Y58 Z8 I-0.825 J0
X28.125 Y58 Z7.9 I0.825 J0
X26.475 Y58 Z7.8 I-0.825 J0
X28.125 Y58 Z7.7 I0.825 J0
X26.475 Y58 Z7.6 I-0.825 J0
X28.125 Y58 Z7.5 I0.825 J0
X26.475 Y58 Z7.4 I-0.825 J0
X28.125 Y58 Z7.3 I0.825 J0
X26.475 Y58 Z7.2 I-0.825 J0
X28.125 Y58 Z7.1 I0.825 J0
X26.475 Y58 Z7 I-0.825 J0
X28.125 Y58 Z6.9 I0.825 J0
X26.475 Y58 Z6.8 I-0.825 J0
X28.125 Y58 Z6.7 I0.825 J0
X26.475 Y58 Z6.6 I-0.825 J0
X28.125 Y58 Z6.5 I0.825 J0
X26.475 Y58 Z6.4 I-0.825 J0
X28.125 Y58 Z6.3 I0.825 J0
X26.475 Y58 Z6.2 I-0.825 J0
X28.125 Y58 Z6.1 I0.825 J0
X26.475 Y58 Z6 I-0.825 J0
X28.125 Y58 Z5.9 I0.825 J0
X26.475 Y58 Z5.8 I-0.825 J0
X28.125 Y58 Z5.7 I0.825 J0
X26.475 Y58 Z5.6 I-0.825 J0
X28.125 Y58 Z5.5 I0.825 J0
X26.475 Y58 Z5.4 I-0.825 J0
X28.125 Y58 Z5.3 I0.825 J0
X26.475 Y58 Z5.2 I-0.825 J0
X28.125 Y58 Z5.1 I0.825 J0
X26.475 Y58 Z5 I-0.825 J0
X28.125 Y58 I0.825 J0
X26.475 Y58 I-0.825 J0
X26.792 Y57.682 I0.317 J0
G1 X26.951
G18 G2 X27.269 Z5.318 I0 K0.318
G0 Z19.2
Z25.2
X28.919
Z12.5
G1 Z10.818 F350
G2 X29.236 Z10.5 I0.317 K0
G1 X29.395
G17 G3 X29.712 Y58 I0 J0.318
X24.887 Y58 Z10.4 I-2.413 J0
X29.712 Y58 Z10.3 I2.413 J0
X24.887 Y58 Z10.2 I-2.413 J0
X29.712 Y58 Z10.1 I2.413 J0
X24.887 Y58 Z10 I-2.413 J0
X29.712 Y58 Z9.9 I2.413 J0
X24.887 Y58 Z9.8 I-2.413 J0
X29.712 Y58 Z9.7 I2.413 J0
X24.887 Y58 Z9.6 I-2.413 J0
X29.712 Y58 Z9.5 I2.413 J0
X24.887 Y58 Z9.4 I-2.413 J0
X29.712 Y58 Z9.3 I2.413 J0
X24.887 Y58 Z9.2 I-2.412 J0
X29.712 Y58 Z9.1 I2.412 J0
X24.887 Y58 Z9 I-2.412 J0
X29.712 Y58 Z8.9 I2.412 J0
X24.887 Y58 Z8.8 I-2.412 J0
X29.712 Y58 Z8.7 I2.412 J0
X24.887 Y58 Z8.6 I-2.412 J0
X29.712 Y58 Z8.5 I2.412 J0
X24.887 Y58 Z8.4 I-2.412 J0
X29.712 Y58 Z8.3 I2.412 J0
X24.887 Y58 Z8.2 I-2.412 J0
X29.712 Y58 Z8.1 I2.412 J0
X24.887 Y58 Z8 I-2.412 J0
X29.712 Y58 Z7.9 I2.412 J0
X24.887 Y58 Z7.8 I-2.412 J0
X29.712 Y58 Z7.7 I2.412 J0
X24.887 Y58 Z7.6 I-2.412 J0
X29.712 Y58 Z7.5 I2.412 J0
X24.887 Y58 Z7.4 I-2.412 J0
X29.712 Y58 Z7.3 I2.412 J0
X24.887 Y58 Z7.2 I-2.412 J0
X29.712 Y58 Z7.1 I2.412 J0
X24.888 Y58 Z7 I-2.412 J0
X29.712 Y58 Z6.9 I2.412 J0
X24.888 Y58 Z6.8 I-2.412 J0
X29.712 Y58 Z6.7 I2.412 J0
X24.888 Y58 Z6.6 I-2.412 J0
X29.712 Y58 Z6.5 I2.412 J0
X24.888 Y58 Z6.4 I-2.412 J0
X29.712 Y58 Z6.3 I2.412 J0
X24.888 Y58 Z6.2 I-2.412 J0
X29.712 Y58 Z6.1 I2.412 J0
X24.888 Y58 Z6 I-2.412 J0
X29.712 Y58 Z5.9 I2.412 J0
X24.888 Y58 Z5.8 I-2.412 J0
X29.712 Y58 Z5.7 I2.412 J0
X24.888 Y58 Z5.6 I-2.412 J0
X29.712 Y58 Z5.5 I2.412 J0
X24.888 Y58 Z5.4 I-2.412 J0
X29.712 Y58 Z5.3 I2.412 J0
X24.888 Y58 Z5.2 I-2.412 J0
X29.712 Y58 Z5.1 I2.412 J0
X24.888 Y58 Z5 I-2.412 J0
X29.712 Y58 I2.412 J0
X24.888 Y58 I-2.412 J0
X25.205 Y57.682 I0.317 J0
G1 X25.364
G18 G2 X25.681 Z5.318 I0 K0.318
G0 Z19.2
X1.331
Z12.5
G1 Z10.818 F350
G2 X1.649 Z10.5 I0.317 K0
G1 X1.808
G17 G3 X2.125 Y58 I0 J0.318
X0.475 Y58 Z10.4 I-0.825 J0
X2.125 Y58 Z10.3 I0.825 J0
X0.475 Y58 Z10.2 I-0.825 J0
X2.125 Y58 Z10.1 I0.825 J0
X0.475 Y58 Z10 I-0.825 J0
X2.125 Y58 Z9.9 I0.825 J0
X0.475 Y58 Z9.8 I-0.825 J0
X2.125 Y58 Z9.7 I0.825 J0
X0.475 Y58 Z9.6 I-0.825 J0
X2.125 Y58 Z9.5 I0.825 J0
X0.475 Y58 Z9.4 I-0.825 J0
X2.125 Y58 Z9.3 I0.825 J0
X0.475 Y58 Z9.2 I-0.825 J0
X2.125 Y58 Z9.1 I0.825 J0
X0.475 Y58 Z9 I-0.825 J0
X2.125 Y58 Z8.9 I0.825 J0
X0.475 Y58 Z8.8 I-0.825 J0
X2.125 Y58 Z8.7 I0.825 J0
X0.475 Y58 Z8.6 I-0.825 J0
X2.125 Y58 Z8.5 I0.825 J0
X0.475 Y58 Z8.4 I-0.825 J0
X2.125 Y58 Z8.3 I0.825 J0
X0.475 Y58 Z8.2 I-0.825 J0
X2.125 Y58 Z8.1 I0.825 J0
X0.475 Y58 Z8 I-0.825 J0
X2.125 Y58 Z7.9 I0.825 J0
X0.475 Y58 Z7.8 I-0.825 J0
X2.125 Y58 Z7.7 I0.825 J0
X0.475 Y58 Z7.6 I-0.825 J0
X2.125 Y58 Z7.5 I0.825 J0
X0.475 Y58 Z7.4 I-0.825 J0
X2.125 Y58 Z7.3 I0.825 J0
X0.475 Y58 Z7.2 I-0.825 J0
X2.125 Y58 Z7.1 I0.825 J0
X0.475 Y58 Z7 I-0.825 J0
X2.125 Y58 Z6.9 I0.825 J0
X0.475 Y58 Z6.8 I-0.825 J0
X2.125 Y58 Z6.7 I0.825 J0
X0.475 Y58 Z6.6 I-0.825 J0
X2.125 Y58 Z6.5 I0.825 J0
X0.475 Y58 Z6.4 I-0.825 J0
X2.125 Y58 Z6.3 I0.825 J0
X0.475 Y58 Z6.2 I-0.825 J0
X2.125 Y58 Z6.1 I0.825 J0
X0.475 Y58 Z6 I-0.825 J0
X2.125 Y58 Z5.9 I0.825 J0
X0.475 Y58 Z5.8 I-0.825 J0
X2.125 Y58 Z5.7 I0.825 J0
X0.475 Y58 Z5.6 I-0.825 J0
X2.125 Y58 Z5.5 I0.825 J0
X0.475 Y58 Z5.4 I-0.825 J0
X2.125 Y58 Z5.3 I0.825 J0
X0.475 Y58 Z5.2 I-0.825 J0
X2.125 Y58 Z5.1 I0.825 J0
X0.475 Y58 Z5 I-0.825 J0
X2.125 Y58 I0.825 J0
X0.475 Y58 I-0.825 J0
X0.793 Y57.682 I0.318 J0
G1 X0.951
G18 G2 X1.269 Z5.318 I0 K0.318
G0 Z19.2
X2.919
Z12.5
G1 Z10.818 F350
G2 X3.236 Z10.5 I0.317 K0
G1 X3.395
G17 G3 X3.713 Y58 I0 J0.318
X-1.113 Y58 Z10.4 I-2.413 J0
X3.713 Y58 Z10.3 I2.413 J0
X-1.113 Y58 Z10.2 I-2.413 J0
X3.713 Y58 Z10.1 I2.413 J0
X-1.113 Y58 Z10 I-2.413 J0
X3.713 Y58 Z9.9 I2.413 J0
X-1.113 Y58 Z9.8 I-2.413 J0
X3.713 Y58 Z9.7 I2.413 J0
X-1.113 Y58 Z9.6 I-2.413 J0
X3.713 Y58 Z9.5 I2.413 J0
X-1.113 Y58 Z9.4 I-2.413 J0
X3.713 Y58 Z9.3 I2.413 J0
X-1.113 Y58 Z9.2 I-2.413 J0
X3.713 Y58 Z9.1 I2.413 J0
X-1.113 Y58 Z9 I-2.413 J0
X3.713 Y58 Z8.9 I2.413 J0
X-1.113 Y58 Z8.8 I-2.413 J0
X3.713 Y58 Z8.7 I2.413 J0
X-1.113 Y58 Z8.6 I-2.413 J0
X3.713 Y58 Z8.5 I2.413 J0
X-1.113 Y58 Z8.4 I-2.413 J0
X3.712 Y58 Z8.3 I2.413 J0
X-1.113 Y58 Z8.2 I-2.413 J0
X3.712 Y58 Z8.1 I2.413 J0
X-1.113 Y58 Z8 I-2.413 J0
X3.712 Y58 Z7.9 I2.413 J0
X-1.113 Y58 Z7.8 I-2.413 J0
X3.712 Y58 Z7.7 I2.413 J0
X-1.113 Y58 Z7.6 I-2.413 J0
X3.712 Y58 Z7.5 I2.413 J0
X-1.113 Y58 Z7.4 I-2.413 J0
X3.712 Y58 Z7.3 I2.413 J0
X-1.113 Y58 Z7.2 I-2.413 J0
X3.712 Y58 Z7.1 I2.413 J0
X-1.113 Y58 Z7 I-2.412 J0
X3.712 Y58 Z6.9 I2.412 J0
X-1.113 Y58 Z6.8 I-2.412 J0
X3.712 Y58 Z6.7 I2.412 J0
X-1.113 Y58 Z6.6 I-2.412 J0
X3.712 Y58 Z6.5 I2.412 J0
X-1.113 Y58 Z6.4 I-2.412 J0
X3.712 Y58 Z6.3 I2.412 J0
X-1.113 Y58 Z6.2 I-2.412 J0
X3.712 Y58 Z6.1 I2.412 J0
X-1.112 Y58 Z6 I-2.412 J0
X3.712 Y58 Z5.9 I2.412 J0
X-1.112 Y58 Z5.8 I-2.412 J0
X3.712 Y58 Z5.7 I2.412 J0
X-1.112 Y58 Z5.6 I-2.412 J0
X3.712 Y58 Z5.5 I2.412 J0
X-1.112 Y58 Z5.4 I-2.412 J0
X3.712 Y58 Z5.3 I2.412 J0
X-1.112 Y58 Z5.2 I-2.412 J0
X3.712 Y58 Z5.1 I2.412 J0
X-1.112 Y58 Z5 I-2.412 J0
X3.712 Y58 I2.412 J0
X-1.112 Y58 I-2.412 J0
X-0.795 Y57.682 I0.317 J0
G1 X-0.636
G18 G2 X-0.319 Z5.318 I0 K0.318
G0 Z19.2
X1.331 Y31.683
Z12.5
G1 Z10.818 F350
G2 X1.649 Z10.5 I0.317 K0
G1 X1.808
G17 G3 X2.125 Y32 I0 J0.317
X0.475 Y32 Z10.4 I-0.825 J0
X2.125 Y32 Z10.3 I0.825 J0
X0.475 Y32 Z10.2 I-0.825 J0
X2.125 Y32 Z10.1 I0.825 J0
X0.475 Y32 Z10 I-0.825 J0
X2.125 Y32 Z9.9 I0.825 J0
X0.475 Y32 Z9.8 I-0.825 J0
X2.125 Y32 Z9.7 I0.825 J0
X0.475 Y32 Z9.6 I-0.825 J0
X2.125 Y32 Z9.5 I0.825 J0
X0.475 Y32 Z9.4 I-0.825 J0
X2.125 Y32 Z9.3 I0.825 J0
X0.475 Y32 Z9.2 I-0.825 J0
X2.125 Y32 Z9.1 I0.825 J0
X0.475 Y32 Z9 I-0.825 J0
X2.125 Y32 Z8.9 I0.825 J0
X0.475 Y32 Z8.8 I-0.825 J0
X2.125 Y32 Z8.7 I0.825 J0
X0.475 Y32 Z8.6 I-0.825 J0
X2.125 Y32 Z8.5 I0.825 J0
X0.475 Y32 Z8.4 I-0.825 J0
X2.125 Y32 Z8.3 I0.825 J0
X0.475 Y32 Z8.2 I-0.825 J0
X2.125 Y32 Z8.1 I0.825 J0
X0.475 Y32 Z8 I-0.825 J0
X2.125 Y32 Z7.9 I0.825 J0
X0.475 Y32 Z7.8 I-0.825 J0
X2.125 Y32 Z7.7 I0.825 J0
X0.475 Y32 Z7.6 I-0.825 J0
X2.125 Y32 Z7.5 I0.825 J0
X0.475 Y32 Z7.4 I-0.825 J0
X2.125 Y32 Z7.3 I0.825 J0
X0.475 Y32 Z7.2 I-0.825 J0
X2.125 Y32 Z7.1 I0.825 J0
X0.475 Y32 Z7 I-0.825 J0
X2.125 Y32 Z6.9 I0.825 J0
X0.475 Y32 Z6.8 I-0.825 J0
X2.125 Y32 Z6.7 I0.825 J0
X0.475 Y32 Z6.6 I-0.825 J0
X2.125 Y32 Z6.5 I0.825 J0
X0.475 Y32 Z6.4 I-0.825 J0
X2.125 Y32 Z6.3 I0.825 J0
X0.475 Y32 Z6.2 I-0.825 J0
X2.125 Y32 Z6.1 I0.825 J0
X0.475 Y32 Z6 I-0.825 J0
X2.125 Y32 Z5.9 I0.825 J0
X0.475 Y32 Z5.8 I-0.825 J0
X2.125 Y32 Z5.7 I0.825 J0
X0.475 Y32 Z5.6 I-0.825 J0
X2.125 Y32 Z5.5 I0.825 J0
X0.475 Y32 Z5.4 I-0.825 J0
X2.125 Y32 Z5.3 I0.825 J0
X0.475 Y32 Z5.2 I-0.825 J0
X2.125 Y32 Z5.1 I0.825 J0
X0.475 Y32 Z5 I-0.825 J0
X2.125 Y32 I0.825 J0
X0.475 Y32 I-0.825 J0
X0.793 Y31.683 I0.318 J0
G1 X0.951
G18 G2 X1.269 Z5.318 I0 K0.318
G0 Z19.2
X2.919
Z12.5
G1 Z10.818 F350
G2 X3.236 Z10.5 I0.317 K0
G1 X3.395
G17 G3 X3.713 Y32 I0 J0.317
X-1.113 Y32 Z10.4 I-2.413 J0
X3.713 Y32 Z10.3 I2.413 J0
X-1.113 Y32 Z10.2 I-2.413 J0
X3.713 Y32 Z10.1 I2.413 J0
X-1.113 Y32 Z10 I-2.413 J0
X3.713 Y32 Z9.9 I2.413 J0
X-1.113 Y32 Z9.8 I-2.413 J0
X3.713 Y32 Z9.7 I2.413 J0
X-1.113 Y32 Z9.6 I-2.413 J0
X3.713 Y32 Z9.5 I2.413 J0
X-1.113 Y32 Z9.4 I-2.413 J0
X3.713 Y32 Z9.3 I2.413 J0
X-1.113 Y32 Z9.2 I-2.413 J0
X3.713 Y32 Z9.1 I2.413 J0
X-1.113 Y32 Z9 I-2.413 J0
X3.713 Y32 Z8.9 I2.413 J0
X-1.113 Y32 Z8.8 I-2.413 J0
X3.713 Y32 Z8.7 I2.413 J0
X-1.113 Y32 Z8.6 I-2.413 J0
X3.713 Y32 Z8.5 I2.413 J0
X-1.113 Y32 Z8.4 I-2.413 J0
X3.712 Y32 Z8.3 I2.413 J0
X-1.113 Y32 Z8.2 I-2.413 J0
X3.712 Y32 Z8.1 I2.413 J0
X-1.113 Y32 Z8 I-2.413 J0
X3.712 Y32 Z7.9 I2.413 J0
X-1.113 Y32 Z7.8 I-2.413 J0
X3.712 Y32 Z7.7 I2.413 J0
X-1.113 Y32 Z7.6 I-2.413 J0
X3.712 Y32 Z7.5 I2.413 J0
X-1.113 Y32 Z7.4 I-2.413 J0
X3.712 Y32 Z7.3 I2.413 J0
X-1.113 Y32 Z7.2 I-2.413 J0
X3.712 Y32 Z7.1 I2.413 J0
X-1.113 Y32 Z7 I-2.412 J0
X3.712 Y32 Z6.9 I2.412 J0
X-1.113 Y32 Z6.8 I-2.412 J0
X3.712 Y32 Z6.7 I2.412 J0
X-1.113 Y32 Z6.6 I-2.412 J0
X3.712 Y32 Z6.5 I2.412 J0
X-1.113 Y32 Z6.4 I-2.412 J0
X3.712 Y32 Z6.3 I2.412 J0
X-1.113 Y32 Z6.2 I-2.412 J0
X3.712 Y32 Z6.1 I2.412 J0
X-1.112 Y32 Z6 I-2.412 J0
X3.712 Y32 Z5.9 I2.412 J0
X-1.112 Y32 Z5.8 I-2.412 J0
X3.712 Y32 Z5.7 I2.412 J0
X-1.112 Y32 Z5.6 I-2.412 J0
X3.712 Y32 Z5.5 I2.412 J0
X-1.112 Y32 Z5.4 I-2.412 J0
X3.712 Y32 Z5.3 I2.412 J0
X-1.112 Y32 Z5.2 I-2.412 J0
X3.712 Y32 Z5.1 I2.412 J0
X-1.112 Y32 Z5 I-2.412 J0
X3.712 Y32 I2.412 J0
X-1.112 Y32 I-2.412 J0
X-0.795 Y31.683 I0.317 J0
G1 X-0.636
G18 G2 X-0.319 Z5.318 I0 K0.318
G0 Z19.2
X27.331
Z12.5
G1 Z10.818 F350
G2 X27.649 Z10.5 I0.318 K0
G1 X27.808
G17 G3 X28.125 Y32 I0 J0.317
X26.475 Y32 Z10.4 I-0.825 J0
X28.125 Y32 Z10.3 I0.825 J0
X26.475 Y32 Z10.2 I-0.825 J0
X28.125 Y32 Z10.1 I0.825 J0
X26.475 Y32 Z10 I-0.825 J0
X28.125 Y32 Z9.9 I0.825 J0
X26.475 Y32 Z9.8 I-0.825 J0
X28.125 Y32 Z9.7 I0.825 J0
X26.475 Y32 Z9.6 I-0.825 J0
X28.125 Y32 Z9.5 I0.825 J0
X26.475 Y32 Z9.4 I-0.825 J0
X28.125 Y32 Z9.3 I0.825 J0
X26.475 Y32 Z9.2 I-0.825 J0
X28.125 Y32 Z9.1 I0.825 J0
X26.475 Y32 Z9 I-0.825 J0
X28.125 Y32 Z8.9 I0.825 J0
X26.475 Y32 Z8.8 I-0.825 J0
X28.125 Y32 Z8.7 I0.825 J0
X26.475 Y32 Z8.6 I-0.825 J0
X28.125 Y32 Z8.5 I0.825 J0
X26.475 Y32 Z8.4 I-0.825 J0
X28.125 Y32 Z8.3 I0.825 J0
X26.475 Y32 Z8.2 I-0.825 J0
X28.125 Y32 Z8.1 I0.825 J0
X26.475 Y32 Z8 I-0.825 J0
X28.125 Y32 Z7.9 I0.825 J0
X26.475 Y32 Z7.8 I-0.825 J0
X28.125 Y32 Z7.7 I0.825 J0
X26.475 Y32 Z7.6 I-0.825 J0
X28.125 Y32 Z7.5 I0.825 J0
X26.475 Y32 Z7.4 I-0.825 J0
X28.125 Y32 Z7.3 I0.825 J0
X26.475 Y32 Z7.2 I-0.825 J0
X28.125 Y32 Z7.1 I0.825 J0
X26.475 Y32 Z7 I-0.825 J0
X28.125 Y32 Z6.9 I0.825 J0
X26.475 Y32 Z6.8 I-0.825 J0
X28.125 Y32 Z6.7 I0.825 J0
X26.475 Y32 Z6.6 I-0.825 J0
X28.125 Y32 Z6.5 I0.825 J0
X26.475 Y32 Z6.4 I-0.825 J0
X28.125 Y32 Z6.3 I0.825 J0
X26.475 Y32 Z6.2 I-0.825 J0
X28.125 Y32 Z6.1 I0.825 J0
X26.475 Y32 Z6 I-0.825 J0
X28.125 Y32 Z5.9 I0.825 J0
X26.475 Y32 Z5.8 I-0.825 J0
X28.125 Y32 Z5.7 I0.825 J0
X26.475 Y32 Z5.6 I-0.825 J0
X28.125 Y32 Z5.5 I0.825 J0
X26.475 Y32 Z5.4 I-0.825 J0
X28.125 Y32 Z5.3 I0.825 J0
X26.475 Y32 Z5.2 I-0.825 J0
X28.125 Y32 Z5.1 I0.825 J0
X26.475 Y32 Z5 I-0.825 J0
X28.125 Y32 I0.825 J0
X26.475 Y32 I-0.825 J0
X26.792 Y31.683 I0.317 J0
G1 X26.951
G18 G2 X27.269 Z5.318 I0 K0.318
G0 Z19.2
X28.919
Z12.5
G1 Z10.818 F350
G2 X29.236 Z10.5 I0.317 K0
G1 X29.395
G17 G3 X29.712 Y32 I0 J0.317
X24.887 Y32 Z10.4 I-2.413 J0
X29.712 Y32 Z10.3 I2.413 J0
X24.887 Y32 Z10.2 I-2.413 J0
X29.712 Y32 Z10.1 I2.413 J0
X24.887 Y32 Z10 I-2.413 J0
X29.712 Y32 Z9.9 I2.413 J0
X24.887 Y32 Z9.8 I-2.413 J0
X29.712 Y32 Z9.7 I2.413 J0
X24.887 Y32 Z9.6 I-2.413 J0
X29.712 Y32 Z9.5 I2.413 J0
X24.887 Y32 Z9.4 I-2.413 J0
X29.712 Y32 Z9.3 I2.413 J0
X24.887 Y32 Z9.2 I-2.412 J0
X29.712 Y32 Z9.1 I2.412 J0
X24.887 Y32 Z9 I-2.412 J0
X29.712 Y32 Z8.9 I2.412 J0
X24.887 Y32 Z8.8 I-2.412 J0
X29.712 Y32 Z8.7 I2.412 J0
X24.887 Y32 Z8.6 I-2.412 J0
X29.712 Y32 Z8.5 I2.412 J0
X24.887 Y32 Z8.4 I-2.412 J0
X29.712 Y32 Z8.3 I2.412 J0
X24.887 Y32 Z8.2 I-2.412 J0
X29.712 Y32 Z8.1 I2.412 J0
X24.887 Y32 Z8 I-2.412 J0
X29.712 Y32 Z7.9 I2.412 J0
X24.887 Y32 Z7.8 I-2.412 J0
X29.712 Y32 Z7.7 I2.412 J0
X24.887 Y32 Z7.6 I-2.412 J0
X29.712 Y32 Z7.5 I2.412 J0
X24.887 Y32 Z7.4 I-2.412 J0
X29.712 Y32 Z7.3 I2.412 J0
X24.887 Y32 Z7.2 I-2.412 J0
X29.712 Y32 Z7.1 I2.412 J0
X24.888 Y32 Z7 I-2.412 J0
X29.712 Y32 Z6.9 I2.412 J0
X24.888 Y32 Z6.8 I-2.412 J0
X29.712 Y32 Z6.7 I2.412 J0
X24.888 Y32 Z6.6 I-2.412 J0
X29.712 Y32 Z6.5 I2.412 J0
X24.888 Y32 Z6.4 I-2.412 J0
X29.712 Y32 Z6.3 I2.412 J0
X24.888 Y32 Z6.2 I-2.412 J0
X29.712 Y32 Z6.1 I2.412 J0
X24.888 Y32 Z6 I-2.412 J0
X29.712 Y32 Z5.9 I2.412 J0
X24.888 Y32 Z5.8 I-2.412 J0
X29.712 Y32 Z5.7 I2.412 J0
X24.888 Y32 Z5.6 I-2.412 J0
X29.712 Y32 Z5.5 I2.412 J0
X24.888 Y32 Z5.4 I-2.412 J0
X29.712 Y32 Z5.3 I2.412 J0
X24.888 Y32 Z5.2 I-2.412 J0
X29.712 Y32 Z5.1 I2.412 J0
X24.888 Y32 Z5 I-2.412 J0
X29.712 Y32 I2.412 J0
X24.888 Y32 I-2.412 J0
X25.205 Y31.683 I0.317 J0
G1 X25.364
G18 G2 X25.681 Z5.318 I0 K0.318
G0 Z19.2
X35.281 Y9.682
Z12.5
G1 Z10.818 F350
G2 X35.599 Z10.5 I0.318 K0
G1 X35.757
G17 G3 X36.075 Y10 I0 J0.318
X32.925 Y10 Z10.4 I-1.575 J0
X36.075 Y10 Z10.3 I1.575 J0
X32.925 Y10 Z10.2 I-1.575 J0
X36.075 Y10 Z10.1 I1.575 J0
X32.925 Y10 Z10 I-1.575 J0
X36.075 Y10 Z9.9 I1.575 J0
X32.925 Y10 Z9.8 I-1.575 J0
X36.075 Y10 Z9.7 I1.575 J0
X32.925 Y10 Z9.6 I-1.575 J0
X36.075 Y10 Z9.5 I1.575 J0
X32.925 Y10 Z9.4 I-1.575 J0
X36.075 Y10 Z9.3 I1.575 J0
X32.925 Y10 Z9.2 I-1.575 J0
X36.075 Y10 Z9.1 I1.575 J0
X32.925 Y10 Z9 I-1.575 J0
X36.075 Y10 Z8.9 I1.575 J0
X32.925 Y10 Z8.8 I-1.575 J0
X36.075 Y10 Z8.7 I1.575 J0
X32.925 Y10 Z8.6 I-1.575 J0
X36.075 Y10 Z8.5 I1.575 J0
X32.925 Y10 Z8.4 I-1.575 J0
X36.075 Y10 Z8.3 I1.575 J0
X32.925 Y10 Z8.2 I-1.575 J0
X36.075 Y10 Z8.1 I1.575 J0
X32.925 Y10 Z8 I-1.575 J0
X36.075 Y10 Z7.9 I1.575 J0
X32.925 Y10 Z7.8 I-1.575 J0
X36.075 Y10 Z7.7 I1.575 J0
X32.925 Y10 Z7.6 I-1.575 J0
X36.075 Y10 Z7.5 I1.575 J0
X32.925 Y10 Z7.4 I-1.575 J0
X36.075 Y10 Z7.3 I1.575 J0
X32.925 Y10 Z7.2 I-1.575 J0
X36.075 Y10 Z7.1 I1.575 J0
X32.925 Y10 Z7 I-1.575 J0
X36.075 Y10 Z6.9 I1.575 J0
X32.925 Y10 Z6.8 I-1.575 J0
X36.075 Y10 Z6.7 I1.575 J0
X32.925 Y10 Z6.6 I-1.575 J0
X36.075 Y10 Z6.5 I1.575 J0
X32.925 Y10 Z6.4 I-1.575 J0
X36.075 Y10 Z6.3 I1.575 J0
X32.925 Y10 Z6.2 I-1.575 J0
X36.075 Y10 Z6.1 I1.575 J0
X32.925 Y10 Z6 I-1.575 J0
X36.075 Y10 Z5.9 I1.575 J0
X32.925 Y10 Z5.8 I-1.575 J0
X36.075 Y10 Z5.7 I1.575 J0
X32.925 Y10 Z5.6 I-1.575 J0
X36.075 Y10 Z5.5 I1.575 J0
X32.925 Y10 Z5.4 I-1.575 J0
X36.075 Y10 Z5.3 I1.575 J0
X32.925 Y10 Z5.2 I-1.575 J0
X36.075 Y10 Z5.1 I1.575 J0
X32.925 Y10 Z5 I-1.575 J0
X36.075 Y10 I1.575 J0
X32.925 Y10 I-1.575 J0
X33.243 Y9.682 I0.318 J0
G1 X33.401
G18 G2 X33.719 Z5.318 I0 K0.318
G0 Z19.2
X36.869
Z12.5
G1 Z10.818 F350
G2 X37.186 Z10.5 I0.317 K0
G1 X37.345
G17 G3 X37.662 Y10 I0 J0.318
X31.338 Y10 Z10.4 I-3.162 J0
X37.662 Y10 Z10.3 I3.162 J0
X31.338 Y10 Z10.2 I-3.162 J0
X37.662 Y10 Z10.1 I3.162 J0
X31.338 Y10 Z10 I-3.162 J0
X37.662 Y10 Z9.9 I3.162 J0
X31.338 Y10 Z9.8 I-3.162 J0
X37.662 Y10 Z9.7 I3.162 J0
X31.338 Y10 Z9.6 I-3.162 J0
X37.662 Y10 Z9.5 I3.162 J0
X31.338 Y10 Z9.4 I-3.162 J0
X37.662 Y10 Z9.3 I3.162 J0
X31.338 Y10 Z9.2 I-3.162 J0
X37.662 Y10 Z9.1 I3.162 J0
X31.338 Y10 Z9 I-3.162 J0
X37.662 Y10 Z8.9 I3.162 J0
X31.338 Y10 Z8.8 I-3.162 J0
X37.662 Y10 Z8.7 I3.162 J0
X31.338 Y10 Z8.6 I-3.162 J0
X37.662 Y10 Z8.5 I3.162 J0
X31.338 Y10 Z8.4 I-3.162 J0
X37.662 Y10 Z8.3 I3.162 J0
X31.338 Y10 Z8.2 I-3.162 J0
X37.662 Y10 Z8.1 I3.162 J0
X31.338 Y10 Z8 I-3.162 J0
X37.662 Y10 Z7.9 I3.162 J0
X31.338 Y10 Z7.8 I-3.162 J0
X37.662 Y10 Z7.7 I3.162 J0
X31.338 Y10 Z7.6 I-3.162 J0
X37.662 Y10 Z7.5 I3.162 J0
X31.338 Y10 Z7.4 I-3.162 J0
X37.662 Y10 Z7.3 I3.162 J0
X31.338 Y10 Z7.2 I-3.162 J0
X37.662 Y10 Z7.1 I3.162 J0
X31.338 Y10 Z7 I-3.162 J0
X37.662 Y10 Z6.9 I3.162 J0
X31.338 Y10 Z6.8 I-3.162 J0
X37.662 Y10 Z6.7 I3.162 J0
X31.338 Y10 Z6.6 I-3.162 J0
X37.662 Y10 Z6.5 I3.162 J0
X31.338 Y10 Z6.4 I-3.162 J0
X37.662 Y10 Z6.3 I3.162 J0
X31.338 Y10 Z6.2 I-3.162 J0
X37.663 Y10 Z6.1 I3.162 J0
X31.337 Y10 Z6 I-3.163 J0
X37.663 Y10 Z5.9 I3.163 J0
X31.337 Y10 Z5.8 I-3.163 J0
X37.663 Y10 Z5.7 I3.163 J0
X31.337 Y10 Z5.6 I-3.163 J0
X37.663 Y10 Z5.5 I3.163 J0
X31.337 Y10 Z5.4 I-3.163 J0
X37.663 Y10 Z5.3 I3.163 J0
X31.337 Y10 Z5.2 I-3.163 J0
X37.663 Y10 Z5.1 I3.163 J0
X31.337 Y10 Z5 I-3.163 J0
X37.663 Y10 I3.163 J0
X31.337 Y10 I-3.163 J0
X31.655 Y9.682 I0.318 J0
G1 X31.814
G18 G2 X32.131 Z5.318 I0 K0.318
G0 Z19.2
X35.281 Y-10.318
Z12.5
G1 Z10.818 F350
G2 X35.599 Z10.5 I0.318 K0
G1 X35.757
G17 G3 X36.075 Y-10 I0 J0.318
X32.925 Y-10 Z10.4 I-1.575 J0
X36.075 Y-10 Z10.3 I1.575 J0
X32.925 Y-10 Z10.2 I-1.575 J0
X36.075 Y-10 Z10.1 I1.575 J0
X32.925 Y-10 Z10 I-1.575 J0
X36.075 Y-10 Z9.9 I1.575 J0
X32.925 Y-10 Z9.8 I-1.575 J0
X36.075 Y-10 Z9.7 I1.575 J0
X32.925 Y-10 Z9.6 I-1.575 J0
X36.075 Y-10 Z9.5 I1.575 J0
X32.925 Y-10 Z9.4 I-1.575 J0
X36.075 Y-10 Z9.3 I1.575 J0
X32.925 Y-10 Z9.2 I-1.575 J0
X36.075 Y-10 Z9.1 I1.575 J0
X32.925 Y-10 Z9 I-1.575 J0
X36.075 Y-10 Z8.9 I1.575 J0
X32.925 Y-10 Z8.8 I-1.575 J0
X36.075 Y-10 Z8.7 I1.575 J0
X32.925 Y-10 Z8.6 I-1.575 J0
X36.075 Y-10 Z8.5 I1.575 J0
X32.925 Y-10 Z8.4 I-1.575 J0
X36.075 Y-10 Z8.3 I1.575 J0
X32.925 Y-10 Z8.2 I-1.575 J0
X36.075 Y-10 Z8.1 I1.575 J0
X32.925 Y-10 Z8 I-1.575 J0
X36.075 Y-10 Z7.9 I1.575 J0
X32.925 Y-10 Z7.8 I-1.575 J0
X36.075 Y-10 Z7.7 I1.575 J0
X32.925 Y-10 Z7.6 I-1.575 J0
X36.075 Y-10 Z7.5 I1.575 J0
X32.925 Y-10 Z7.4 I-1.575 J0
X36.075 Y-10 Z7.3 I1.575 J0
X32.925 Y-10 Z7.2 I-1.575 J0
X36.075 Y-10 Z7.1 I1.575 J0
X32.925 Y-10 Z7 I-1.575 J0
X36.075 Y-10 Z6.9 I1.575 J0
X32.925 Y-10 Z6.8 I-1.575 J0
X36.075 Y-10 Z6.7 I1.575 J0
X32.925 Y-10 Z6.6 I-1.575 J0
X36.075 Y-10 Z6.5 I1.575 J0
X32.925 Y-10 Z6.4 I-1.575 J0
X36.075 Y-10 Z6.3 I1.575 J0
X32.925 Y-10 Z6.2 I-1.575 J0
X36.075 Y-10 Z6.1 I1.575 J0
X32.925 Y-10 Z6 I-1.575 J0
X36.075 Y-10 Z5.9 I1.575 J0
X32.925 Y-10 Z5.8 I-1.575 J0
X36.075 Y-10 Z5.7 I1.575 J0
X32.925 Y-10 Z5.6 I-1.575 J0
X36.075 Y-10 Z5.5 I1.575 J0
X32.925 Y-10 Z5.4 I-1.575 J0
X36.075 Y-10 Z5.3 I1.575 J0
X32.925 Y-10 Z5.2 I-1.575 J0
X36.075 Y-10 Z5.1 I1.575 J0
X32.925 Y-10 Z5 I-1.575 J0
X36.075 Y-10 I1.575 J0
X32.925 Y-10 I-1.575 J0
X33.243 Y-10.318 I0.318 J0
G1 X33.401
G18 G2 X33.719 Z5.318 I0 K0.318
G0 Z19.2
X36.869
Z12.5
G1 Z10.818 F350
G2 X37.186 Z10.5 I0.317 K0
G1 X37.345
G17 G3 X37.662 Y-10 I0 J0.318
X31.338 Y-10 Z10.4 I-3.162 J0
X37.662 Y-10 Z10.3 I3.162 J0
X31.338 Y-10 Z10.2 I-3.162 J0
X37.662 Y-10 Z10.1 I3.162 J0
X31.338 Y-10 Z10 I-3.162 J0
X37.662 Y-10 Z9.9 I3.162 J0
X31.338 Y-10 Z9.8 I-3.162 J0
X37.662 Y-10 Z9.7 I3.162 J0
X31.338 Y-10 Z9.6 I-3.162 J0
X37.662 Y-10 Z9.5 I3.162 J0
X31.338 Y-10 Z9.4 I-3.162 J0
X37.662 Y-10 Z9.3 I3.162 J0
X31.338 Y-10 Z9.2 I-3.162 J0
X37.662 Y-10 Z9.1 I3.162 J0
X31.338 Y-10 Z9 I-3.162 J0
X37.662 Y-10 Z8.9 I3.162 J0
X31.338 Y-10 Z8.8 I-3.162 J0
X37.662 Y-10 Z8.7 I3.162 J0
X31.338 Y-10 Z8.6 I-3.162 J0
X37.662 Y-10 Z8.5 I3.162 J0
X31.338 Y-10 Z8.4 I-3.162 J0
X37.662 Y-10 Z8.3 I3.162 J0
X31.338 Y-10 Z8.2 I-3.162 J0
X37.662 Y-10 Z8.1 I3.162 J0
X31.338 Y-10 Z8 I-3.162 J0
X37.662 Y-10 Z7.9 I3.162 J0
X31.338 Y-10 Z7.8 I-3.162 J0
X37.662 Y-10 Z7.7 I3.162 J0
X31.338 Y-10 Z7.6 I-3.162 J0
X37.662 Y-10 Z7.5 I3.162 J0
X31.338 Y-10 Z7.4 I-3.162 J0
X37.662 Y-10 Z7.3 I3.162 J0
X31.338 Y-10 Z7.2 I-3.162 J0
X37.662 Y-10 Z7.1 I3.162 J0
X31.338 Y-10 Z7 I-3.162 J0
X37.662 Y-10 Z6.9 I3.162 J0
X31.338 Y-10 Z6.8 I-3.162 J0
X37.662 Y-10 Z6.7 I3.162 J0
X31.338 Y-10 Z6.6 I-3.162 J0
X37.662 Y-10 Z6.5 I3.162 J0
X31.338 Y-10 Z6.4 I-3.162 J0
X37.662 Y-10 Z6.3 I3.162 J0
X31.338 Y-10 Z6.2 I-3.162 J0
X37.663 Y-10 Z6.1 I3.162 J0
X31.337 Y-10 Z6 I-3.163 J0
X37.663 Y-10 Z5.9 I3.163 J0
X31.337 Y-10 Z5.8 I-3.163 J0
X37.663 Y-10 Z5.7 I3.163 J0
X31.337 Y-10 Z5.6 I-3.163 J0
X37.663 Y-10 Z5.5 I3.163 J0
X31.337 Y-10 Z5.4 I-3.163 J0
X37.663 Y-10 Z5.3 I3.163 J0
X31.337 Y-10 Z5.2 I-3.163 J0
X37.663 Y-10 Z5.1 I3.163 J0
X31.337 Y-10 Z5 I-3.163 J0
X37.663 Y-10 I3.163 J0
X31.337 Y-10 I-3.163 J0
X31.655 Y-10.318 I0.318 J0
G1 X31.814
G18 G2 X32.131 Z5.318 I0 K0.318
G0 Z19.2
X27.331 Y-32.318
Z12.5
G1 Z10.818 F350
G2 X27.649 Z10.5 I0.318 K0
G1 X27.808
G17 G3 X28.125 Y-32 I0 J0.318
X26.475 Y-32 Z10.4 I-0.825 J0
X28.125 Y-32 Z10.3 I0.825 J0
X26.475 Y-32 Z10.2 I-0.825 J0
X28.125 Y-32 Z10.1 I0.825 J0
X26.475 Y-32 Z10 I-0.825 J0
X28.125 Y-32 Z9.9 I0.825 J0
X26.475 Y-32 Z9.8 I-0.825 J0
X28.125 Y-32 Z9.7 I0.825 J0
X26.475 Y-32 Z9.6 I-0.825 J0
X28.125 Y-32 Z9.5 I0.825 J0
X26.475 Y-32 Z9.4 I-0.825 J0
X28.125 Y-32 Z9.3 I0.825 J0
X26.475 Y-32 Z9.2 I-0.825 J0
X28.125 Y-32 Z9.1 I0.825 J0
X26.475 Y-32 Z9 I-0.825 J0
X28.125 Y-32 Z8.9 I0.825 J0
X26.475 Y-32 Z8.8 I-0.825 J0
X28.125 Y-32 Z8.7 I0.825 J0
X26.475 Y-32 Z8.6 I-0.825 J0
X28.125 Y-32 Z8.5 I0.825 J0
X26.475 Y-32 Z8.4 I-0.825 J0
X28.125 Y-32 Z8.3 I0.825 J0
X26.475 Y-32 Z8.2 I-0.825 J0
X28.125 Y-32 Z8.1 I0.825 J0
X26.475 Y-32 Z8 I-0.825 J0
X28.125 Y-32 Z7.9 I0.825 J0
X26.475 Y-32 Z7.8 I-0.825 J0
X28.125 Y-32 Z7.7 I0.825 J0
X26.475 Y-32 Z7.6 I-0.825 J0
X28.125 Y-32 Z7.5 I0.825 J0
X26.475 Y-32 Z7.4 I-0.825 J0
X28.125 Y-32 Z7.3 I0.825 J0
X26.475 Y-32 Z7.2 I-0.825 J0
X28.125 Y-32 Z7.1 I0.825 J0
X26.475 Y-32 Z7 I-0.825 J0
X28.125 Y-32 Z6.9 I0.825 J0
X26.475 Y-32 Z6.8 I-0.825 J0
X28.125 Y-32 Z6.7 I0.825 J0
X26.475 Y-32 Z6.6 I-0.825 J0
X28.125 Y-32 Z6.5 I0.825 J0
X26.475 Y-32 Z6.4 I-0.825 J0
X28.125 Y-32 Z6.3 I0.825 J0
X26.475 Y-32 Z6.2 I-0.825 J0
X28.125 Y-32 Z6.1 I0.825 J0
X26.475 Y-32 Z6 I-0.825 J0
X28.125 Y-32 Z5.9 I0.825 J0
X26.475 Y-32 Z5.8 I-0.825 J0
X28.125 Y-32 Z5.7 I0.825 J0
X26.475 Y-32 Z5.6 I-0.825 J0
X28.125 Y-32 Z5.5 I0.825 J0
X26.475 Y-32 Z5.4 I-0.825 J0
X28.125 Y-32 Z5.3 I0.825 J0
X26.475 Y-32 Z5.2 I-0.825 J0
X28.125 Y-32 Z5.1 I0.825 J0
X26.475 Y-32 Z5 I-0.825 J0
X28.125 Y-32 I0.825 J0
X26.475 Y-32 I-0.825 J0
X26.792 Y-32.318 I0.317 J0
G1 X26.951
G18 G2 X27.269 Z5.318 I0 K0.318
G0 Z19.2
X28.919
Z12.5
G1 Z10.818 F350
G2 X29.236 Z10.5 I0.317 K0
G1 X29.395
G17 G3 X29.712 Y-32 I0 J0.318
X24.887 Y-32 Z10.4 I-2.413 J0
X29.712 Y-32 Z10.3 I2.413 J0
X24.887 Y-32 Z10.2 I-2.413 J0
X29.712 Y-32 Z10.1 I2.413 J0
X24.887 Y-32 Z10 I-2.413 J0
X29.712 Y-32 Z9.9 I2.413 J0
X24.887 Y-32 Z9.8 I-2.413 J0
X29.712 Y-32 Z9.7 I2.413 J0
X24.887 Y-32 Z9.6 I-2.413 J0
X29.712 Y-32 Z9.5 I2.413 J0
X24.887 Y-32 Z9.4 I-2.413 J0
X29.712 Y-32 Z9.3 I2.413 J0
X24.887 Y-32 Z9.2 I-2.412 J0
X29.712 Y-32 Z9.1 I2.412 J0
X24.887 Y-32 Z9 I-2.412 J0
X29.712 Y-32 Z8.9 I2.412 J0
X24.887 Y-32 Z8.8 I-2.412 J0
X29.712 Y-32 Z8.7 I2.412 J0
X24.887 Y-32 Z8.6 I-2.412 J0
X29.712 Y-32 Z8.5 I2.412 J0
X24.887 Y-32 Z8.4 I-2.412 J0
X29.712 Y-32 Z8.3 I2.412 J0
X24.887 Y-32 Z8.2 I-2.412 J0
X29.712 Y-32 Z8.1 I2.412 J0
X24.887 Y-32 Z8 I-2.412 J0
X29.712 Y-32 Z7.9 I2.412 J0
X24.887 Y-32 Z7.8 I-2.412 J0
X29.712 Y-32 Z7.7 I2.412 J0
X24.887 Y-32 Z7.6 I-2.412 J0
X29.712 Y-32 Z7.5 I2.412 J0
X24.887 Y-32 Z7.4 I-2.412 J0
X29.712 Y-32 Z7.3 I2.412 J0
X24.887 Y-32 Z7.2 I-2.412 J0
X29.712 Y-32 Z7.1 I2.412 J0
X24.888 Y-32 Z7 I-2.412 J0
X29.712 Y-32 Z6.9 I2.412 J0
X24.888 Y-32 Z6.8 I-2.412 J0
X29.712 Y-32 Z6.7 I2.412 J0
X24.888 Y-32 Z6.6 I-2.412 J0
X29.712 Y-32 Z6.5 I2.412 J0
X24.888 Y-32 Z6.4 I-2.412 J0
X29.712 Y-32 Z6.3 I2.412 J0
X24.888 Y-32 Z6.2 I-2.412 J0
X29.712 Y-32 Z6.1 I2.412 J0
X24.888 Y-32 Z6 I-2.412 J0
X29.712 Y-32 Z5.9 I2.412 J0
X24.888 Y-32 Z5.8 I-2.412 J0
X29.712 Y-32 Z5.7 I2.412 J0
X24.888 Y-32 Z5.6 I-2.412 J0
X29.712 Y-32 Z5.5 I2.412 J0
X24.888 Y-32 Z5.4 I-2.412 J0
X29.712 Y-32 Z5.3 I2.412 J0
X24.888 Y-32 Z5.2 I-2.412 J0
X29.712 Y-32 Z5.1 I2.412 J0
X24.888 Y-32 Z5 I-2.412 J0
X29.712 Y-32 I2.412 J0
X24.888 Y-32 I-2.412 J0
X25.205 Y-32.318 I0.317 J0
G1 X25.364
G18 G2 X25.681 Z5.318 I0 K0.318
G0 Z19.2
X1.331
Z12.5
G1 Z10.818 F350
G2 X1.649 Z10.5 I0.317 K0
G1 X1.808
G17 G3 X2.125 Y-32 I0 J0.318
X0.475 Y-32 Z10.4 I-0.825 J0
X2.125 Y-32 Z10.3 I0.825 J0
X0.475 Y-32 Z10.2 I-0.825 J0
X2.125 Y-32 Z10.1 I0.825 J0
X0.475 Y-32 Z10 I-0.825 J0
X2.125 Y-32 Z9.9 I0.825 J0
X0.475 Y-32 Z9.8 I-0.825 J0
X2.125 Y-32 Z9.7 I0.825 J0
X0.475 Y-32 Z9.6 I-0.825 J0
X2.125 Y-32 Z9.5 I0.825 J0
X0.475 Y-32 Z9.4 I-0.825 J0
X2.125 Y-32 Z9.3 I0.825 J0
X0.475 Y-32 Z9.2 I-0.825 J0
X2.125 Y-32 Z9.1 I0.825 J0
X0.475 Y-32 Z9 I-0.825 J0
X2.125 Y-32 Z8.9 I0.825 J0
X0.475 Y-32 Z8.8 I-0.825 J0
X2.125 Y-32 Z8.7 I0.825 J0
X0.475 Y-32 Z8.6 I-0.825 J0
X2.125 Y-32 Z8.5 I0.825 J0
X0.475 Y-32 Z8.4 I-0.825 J0
X2.125 Y-32 Z8.3 I0.825 J0
X0.475 Y-32 Z8.2 I-0.825 J0
X2.125 Y-32 Z8.1 I0.825 J0
X0.475 Y-32 Z8 I-0.825 J0
X2.125 Y-32 Z7.9 I0.825 J0
X0.475 Y-32 Z7.8 I-0.825 J0
X2.125 Y-32 Z7.7 I0.825 J0
X0.475 Y-32 Z7.6 I-0.825 J0
X2.125 Y-32 Z7.5 I0.825 J0
X0.475 Y-32 Z7.4 I-0.825 J0
X2.125 Y-32 Z7.3 I0.825 J0
X0.475 Y-32 Z7.2 I-0.825 J0
X2.125 Y-32 Z7.1 I0.825 J0
X0.475 Y-32 Z7 I-0.825 J0
X2.125 Y-32 Z6.9 I0.825 J0
X0.475 Y-32 Z6.8 I-0.825 J0
X2.125 Y-32 Z6.7 I0.825 J0
X0.475 Y-32 Z6.6 I-0.825 J0
X2.125 Y-32 Z6.5 I0.825 J0
X0.475 Y-32 Z6.4 I-0.825 J0
X2.125 Y-32 Z6.3 I0.825 J0
X0.475 Y-32 Z6.2 I-0.825 J0
X2.125 Y-32 Z6.1 I0.825 J0
X0.475 Y-32 Z6 I-0.825 J0
X2.125 Y-32 Z5.9 I0.825 J0
X0.475 Y-32 Z5.8 I-0.825 J0
X2.125 Y-32 Z5.7 I0.825 J0
X0.475 Y-32 Z5.6 I-0.825 J0
X2.125 Y-32 Z5.5 I0.825 J0
X0.475 Y-32 Z5.4 I-0.825 J0
X2.125 Y-32 Z5.3 I0.825 J0
X0.475 Y-32 Z5.2 I-0.825 J0
X2.125 Y-32 Z5.1 I0.825 J0
X0.475 Y-32 Z5 I-0.825 J0
X2.125 Y-32 I0.825 J0
X0.475 Y-32 I-0.825 J0
X0.793 Y-32.318 I0.318 J0
G1 X0.951
G18 G2 X1.269 Z5.318 I0 K0.318
G0 Z19.2
X2.919
Z12.5
G1 Z10.818 F350
G2 X3.236 Z10.5 I0.317 K0
G1 X3.395
G17 G3 X3.713 Y-32 I0 J0.318
X-1.113 Y-32 Z10.4 I-2.413 J0
X3.713 Y-32 Z10.3 I2.413 J0
X-1.113 Y-32 Z10.2 I-2.413 J0
X3.713 Y-32 Z10.1 I2.413 J0
X-1.113 Y-32 Z10 I-2.413 J0
X3.713 Y-32 Z9.9 I2.413 J0
X-1.113 Y-32 Z9.8 I-2.413 J0
X3.713 Y-32 Z9.7 I2.413 J0
X-1.113 Y-32 Z9.6 I-2.413 J0
X3.713 Y-32 Z9.5 I2.413 J0
X-1.113 Y-32 Z9.4 I-2.413 J0
X3.713 Y-32 Z9.3 I2.413 J0
X-1.113 Y-32 Z9.2 I-2.413 J0
X3.713 Y-32 Z9.1 I2.413 J0
X-1.113 Y-32 Z9 I-2.413 J0
X3.713 Y-32 Z8.9 I2.413 J0
X-1.113 Y-32 Z8.8 I-2.413 J0
X3.713 Y-32 Z8.7 I2.413 J0
X-1.113 Y-32 Z8.6 I-2.413 J0
X3.713 Y-32 Z8.5 I2.413 J0
X-1.113 Y-32 Z8.4 I-2.413 J0
X3.712 Y-32 Z8.3 I2.413 J0
X-1.113 Y-32 Z8.2 I-2.413 J0
X3.712 Y-32 Z8.1 I2.413 J0
X-1.113 Y-32 Z8 I-2.413 J0
X3.712 Y-32 Z7.9 I2.413 J0
X-1.113 Y-32 Z7.8 I-2.413 J0
X3.712 Y-32 Z7.7 I2.413 J0
X-1.113 Y-32 Z7.6 I-2.413 J0
X3.712 Y-32 Z7.5 I2.413 J0
X-1.113 Y-32 Z7.4 I-2.413 J0
X3.712 Y-32 Z7.3 I2.413 J0
X-1.113 Y-32 Z7.2 I-2.413 J0
X3.712 Y-32 Z7.1 I2.413 J0
X-1.113 Y-32 Z7 I-2.412 J0
X3.712 Y-32 Z6.9 I2.412 J0
X-1.113 Y-32 Z6.8 I-2.412 J0
X3.712 Y-32 Z6.7 I2.412 J0
X-1.113 Y-32 Z6.6 I-2.412 J0
X3.712 Y-32 Z6.5 I2.412 J0
X-1.113 Y-32 Z6.4 I-2.412 J0
X3.712 Y-32 Z6.3 I2.412 J0
X-1.113 Y-32 Z6.2 I-2.412 J0
X3.712 Y-32 Z6.1 I2.412 J0
X-1.112 Y-32 Z6 I-2.412 J0
X3.712 Y-32 Z5.9 I2.412 J0
X-1.112 Y-32 Z5.8 I-2.412 J0
X3.712 Y-32 Z5.7 I2.412 J0
X-1.112 Y-32 Z5.6 I-2.412 J0
X3.712 Y-32 Z5.5 I2.412 J0
X-1.112 Y-32 Z5.4 I-2.412 J0
X3.712 Y-32 Z5.3 I2.412 J0
X-1.112 Y-32 Z5.2 I-2.412 J0
X3.712 Y-32 Z5.1 I2.412 J0
X-1.112 Y-32 Z5 I-2.412 J0
X3.712 Y-32 I2.412 J0
X-1.112 Y-32 I-2.412 J0
X-0.795 Y-32.318 I0.317 J0
G1 X-0.636
G18 G2 X-0.319 Z5.318 I0 K0.318
G0 Z19.2
X1.331 Y-58.318
Z12.5
G1 Z10.818 F350
G2 X1.649 Z10.5 I0.317 K0
G1 X1.808
G17 G3 X2.125 Y-58 I0 J0.318
X0.475 Y-58 Z10.4 I-0.825 J0
X2.125 Y-58 Z10.3 I0.825 J0
X0.475 Y-58 Z10.2 I-0.825 J0
X2.125 Y-58 Z10.1 I0.825 J0
X0.475 Y-58 Z10 I-0.825 J0
X2.125 Y-58 Z9.9 I0.825 J0
X0.475 Y-58 Z9.8 I-0.825 J0
X2.125 Y-58 Z9.7 I0.825 J0
X0.475 Y-58 Z9.6 I-0.825 J0
X2.125 Y-58 Z9.5 I0.825 J0
X0.475 Y-58 Z9.4 I-0.825 J0
X2.125 Y-58 Z9.3 I0.825 J0
X0.475 Y-58 Z9.2 I-0.825 J0
X2.125 Y-58 Z9.1 I0.825 J0
X0.475 Y-58 Z9 I-0.825 J0
X2.125 Y-58 Z8.9 I0.825 J0
X0.475 Y-58 Z8.8 I-0.825 J0
X2.125 Y-58 Z8.7 I0.825 J0
X0.475 Y-58 Z8.6 I-0.825 J0
X2.125 Y-58 Z8.5 I0.825 J0
X0.475 Y-58 Z8.4 I-0.825 J0
X2.125 Y-58 Z8.3 I0.825 J0
X0.475 Y-58 Z8.2 I-0.825 J0
X2.125 Y-58 Z8.1 I0.825 J0
X0.475 Y-58 Z8 I-0.825 J0
X2.125 Y-58 Z7.9 I0.825 J0
X0.475 Y-58 Z7.8 I-0.825 J0
X2.125 Y-58 Z7.7 I0.825 J0
X0.475 Y-58 Z7.6 I-0.825 J0
X2.125 Y-58 Z7.5 I0.825 J0
X0.475 Y-58 Z7.4 I-0.825 J0
X2.125 Y-58 Z7.3 I0.825 J0
X0.475 Y-58 Z7.2 I-0.825 J0
X2.125 Y-58 Z7.1 I0.825 J0
X0.475 Y-58 Z7 I-0.825 J0
X2.125 Y-58 Z6.9 I0.825 J0
X0.475 Y-58 Z6.8 I-0.825 J0
X2.125 Y-58 Z6.7 I0.825 J0
X0.475 Y-58 Z6.6 I-0.825 J0
X2.125 Y-58 Z6.5 I0.825 J0
X0.475 Y-58 Z6.4 I-0.825 J0
X2.125 Y-58 Z6.3 I0.825 J0
X0.475 Y-58 Z6.2 I-0.825 J0
X2.125 Y-58 Z6.1 I0.825 J0
X0.475 Y-58 Z6 I-0.825 J0
X2.125 Y-58 Z5.9 I0.825 J0
X0.475 Y-58 Z5.8 I-0.825 J0
X2.125 Y-58 Z5.7 I0.825 J0
X0.475 Y-58 Z5.6 I-0.825 J0
X2.125 Y-58 Z5.5 I0.825 J0
X0.475 Y-58 Z5.4 I-0.825 J0
X2.125 Y-58 Z5.3 I0.825 J0
X0.475 Y-58 Z5.2 I-0.825 J0
X2.125 Y-58 Z5.1 I0.825 J0
X0.475 Y-58 Z5 I-0.825 J0
X2.125 Y-58 I0.825 J0
X0.475 Y-58 I-0.825 J0
X0.793 Y-58.318 I0.318 J0
G1 X0.951
G18 G2 X1.269 Z5.318 I0 K0.318
G0 Z19.2
X2.919
Z12.5
G1 Z10.818 F350
G2 X3.236 Z10.5 I0.317 K0
G1 X3.395
G17 G3 X3.713 Y-58 I0 J0.318
X-1.113 Y-58 Z10.4 I-2.413 J0
X3.713 Y-58 Z10.3 I2.413 J0
X-1.113 Y-58 Z10.2 I-2.413 J0
X3.713 Y-58 Z10.1 I2.413 J0
X-1.113 Y-58 Z10 I-2.413 J0
X3.713 Y-58 Z9.9 I2.413 J0
X-1.113 Y-58 Z9.8 I-2.413 J0
X3.713 Y-58 Z9.7 I2.413 J0
X-1.113 Y-58 Z9.6 I-2.413 J0
X3.713 Y-58 Z9.5 I2.413 J0
X-1.113 Y-58 Z9.4 I-2.413 J0
X3.713 Y-58 Z9.3 I2.413 J0
X-1.113 Y-58 Z9.2 I-2.413 J0
X3.713 Y-58 Z9.1 I2.413 J0
X-1.113 Y-58 Z9 I-2.413 J0
X3.713 Y-58 Z8.9 I2.413 J0
X-1.113 Y-58 Z8.8 I-2.413 J0
X3.713 Y-58 Z8.7 I2.413 J0
X-1.113 Y-58 Z8.6 I-2.413 J0
X3.713 Y-58 Z8.5 I2.413 J0
X-1.113 Y-58 Z8.4 I-2.413 J0
X3.712 Y-58 Z8.3 I2.413 J0
X-1.113 Y-58 Z8.2 I-2.413 J0
X3.712 Y-58 Z8.1 I2.413 J0
X-1.113 Y-58 Z8 I-2.413 J0
X3.712 Y-58 Z7.9 I2.413 J0
X-1.113 Y-58 Z7.8 I-2.413 J0
X3.712 Y-58 Z7.7 I2.413 J0
X-1.113 Y-58 Z7.6 I-2.413 J0
X3.712 Y-58 Z7.5 I2.413 J0
X-1.113 Y-58 Z7.4 I-2.413 J0
X3.712 Y-58 Z7.3 I2.413 J0
X-1.113 Y-58 Z7.2 I-2.413 J0
X3.712 Y-58 Z7.1 I2.413 J0
X-1.113 Y-58 Z7 I-2.412 J0
X3.712 Y-58 Z6.9 I2.412 J0
X-1.113 Y-58 Z6.8 I-2.412 J0
X3.712 Y-58 Z6.7 I2.412 J0
X-1.113 Y-58 Z6.6 I-2.412 J0
X3.712 Y-58 Z6.5 I2.412 J0
X-1.113 Y-58 Z6.4 I-2.412 J0
X3.712 Y-58 Z6.3 I2.412 J0
X-1.113 Y-58 Z6.2 I-2.412 J0
X3.712 Y-58 Z6.1 I2.412 J0
X-1.112 Y-58 Z6 I-2.412 J0
X3.712 Y-58 Z5.9 I2.412 J0
X-1.112 Y-58 Z5.8 I-2.412 J0
X3.712 Y-58 Z5.7 I2.412 J0
X-1.112 Y-58 Z5.6 I-2.412 J0
X3.712 Y-58 Z5.5 I2.412 J0
X-1.112 Y-58 Z5.4 I-2.412 J0
X3.712 Y-58 Z5.3 I2.412 J0
X-1.112 Y-58 Z5.2 I-2.412 J0
X3.712 Y-58 Z5.1 I2.412 J0
X-1.112 Y-58 Z5 I-2.412 J0
X3.712 Y-58 I2.412 J0
X-1.112 Y-58 I-2.412 J0
X-0.795 Y-58.318 I0.317 J0
G1 X-0.636
G18 G2 X-0.319 Z5.318 I0 K0.318
G0 Z19.2
X27.331
Z12.5
G1 Z10.818 F350
G2 X27.649 Z10.5 I0.318 K0
G1 X27.808
G17 G3 X28.125 Y-58 I0 J0.318
X26.475 Y-58 Z10.4 I-0.825 J0
X28.125 Y-58 Z10.3 I0.825 J0
X26.475 Y-58 Z10.2 I-0.825 J0
X28.125 Y-58 Z10.1 I0.825 J0
X26.475 Y-58 Z10 I-0.825 J0
X28.125 Y-58 Z9.9 I0.825 J0
X26.475 Y-58 Z9.8 I-0.825 J0
X28.125 Y-58 Z9.7 I0.825 J0
X26.475 Y-58 Z9.6 I-0.825 J0
X28.125 Y-58 Z9.5 I0.825 J0
X26.475 Y-58 Z9.4 I-0.825 J0
X28.125 Y-58 Z9.3 I0.825 J0
X26.475 Y-58 Z9.2 I-0.825 J0
X28.125 Y-58 Z9.1 I0.825 J0
X26.475 Y-58 Z9 I-0.825 J0
X28.125 Y-58 Z8.9 I0.825 J0
X26.475 Y-58 Z8.8 I-0.825 J0
X28.125 Y-58 Z8.7 I0.825 J0
X26.475 Y-58 Z8.6 I-0.825 J0
X28.125 Y-58 Z8.5 I0.825 J0
X26.475 Y-58 Z8.4 I-0.825 J0
X28.125 Y-58 Z8.3 I0.825 J0
X26.475 Y-58 Z8.2 I-0.825 J0
X28.125 Y-58 Z8.1 I0.825 J0
X26.475 Y-58 Z8 I-0.825 J0
X28.125 Y-58 Z7.9 I0.825 J0
X26.475 Y-58 Z7.8 I-0.825 J0
X28.125 Y-58 Z7.7 I0.825 J0
X26.475 Y-58 Z7.6 I-0.825 J0
X28.125 Y-58 Z7.5 I0.825 J0
X26.475 Y-58 Z7.4 I-0.825 J0
X28.125 Y-58 Z7.3 I0.825 J0
X26.475 Y-58 Z7.2 I-0.825 J0
X28.125 Y-58 Z7.1 I0.825 J0
X26.475 Y-58 Z7 I-0.825 J0
X28.125 Y-58 Z6.9 I0.825 J0
X26.475 Y-58 Z6.8 I-0.825 J0
X28.125 Y-58 Z6.7 I0.825 J0
X26.475 Y-58 Z6.6 I-0.825 J0
X28.125 Y-58 Z6.5 I0.825 J0
X26.475 Y-58 Z6.4 I-0.825 J0
X28.125 Y-58 Z6.3 I0.825 J0
X26.475 Y-58 Z6.2 I-0.825 J0
X28.125 Y-58 Z6.1 I0.825 J0
X26.475 Y-58 Z6 I-0.825 J0
X28.125 Y-58 Z5.9 I0.825 J0
X26.475 Y-58 Z5.8 I-0.825 J0
X28.125 Y-58 Z5.7 I0.825 J0
X26.475 Y-58 Z5.6 I-0.825 J0
X28.125 Y-58 Z5.5 I0.825 J0
X26.475 Y-58 Z5.4 I-0.825 J0
X28.125 Y-58 Z5.3 I0.825 J0
X26.475 Y-58 Z5.2 I-0.825 J0
X28.125 Y-58 Z5.1 I0.825 J0
X26.475 Y-58 Z5 I-0.825 J0
X28.125 Y-58 I0.825 J0
X26.475 Y-58 I-0.825 J0
X26.792 Y-58.318 I0.317 J0
G1 X26.951
G18 G2 X27.269 Z5.318 I0 K0.318
G0 Z19.2
X28.919
Z12.5
G1 Z10.818 F350
G2 X29.236 Z10.5 I0.317 K0
G1 X29.395
G17 G3 X29.712 Y-58 I0 J0.318
X24.887 Y-58 Z10.4 I-2.413 J0
X29.712 Y-58 Z10.3 I2.413 J0
X24.887 Y-58 Z10.2 I-2.413 J0
X29.712 Y-58 Z10.1 I2.413 J0
X24.887 Y-58 Z10 I-2.413 J0
X29.712 Y-58 Z9.9 I2.413 J0
X24.887 Y-58 Z9.8 I-2.413 J0
X29.712 Y-58 Z9.7 I2.413 J0
X24.887 Y-58 Z9.6 I-2.413 J0
X29.712 Y-58 Z9.5 I2.413 J0
X24.887 Y-58 Z9.4 I-2.413 J0
X29.712 Y-58 Z9.3 I2.413 J0
X24.887 Y-58 Z9.2 I-2.412 J0
X29.712 Y-58 Z9.1 I2.412 J0
X24.887 Y-58 Z9 I-2.412 J0
X29.712 Y-58 Z8.9 I2.412 J0
X24.887 Y-58 Z8.8 I-2.412 J0
X29.712 Y-58 Z8.7 I2.412 J0
X24.887 Y-58 Z8.6 I-2.412 J0
X29.712 Y-58 Z8.5 I2.412 J0
X24.887 Y-58 Z8.4 I-2.412 J0
X29.712 Y-58 Z8.3 I2.412 J0
X24.887 Y-58 Z8.2 I-2.412 J0
X29.712 Y-58 Z8.1 I2.412 J0
X24.887 Y-58 Z8 I-2.412 J0
X29.712 Y-58 Z7.9 I2.412 J0
X24.887 Y-58 Z7.8 I-2.412 J0
X29.712 Y-58 Z7.7 I2.412 J0
X24.887 Y-58 Z7.6 I-2.412 J0
X29.712 Y-58 Z7.5 I2.412 J0
X24.887 Y-58 Z7.4 I-2.412 J0
X29.712 Y-58 Z7.3 I2.412 J0
X24.887 Y-58 Z7.2 I-2.412 J0
X29.712 Y-58 Z7.1 I2.412 J0
X24.888 Y-58 Z7 I-2.412 J0
X29.712 Y-58 Z6.9 I2.412 J0
X24.888 Y-58 Z6.8 I-2.412 J0
X29.712 Y-58 Z6.7 I2.412 J0
X24.888 Y-58 Z6.6 I-2.412 J0
X29.712 Y-58 Z6.5 I2.412 J0
X24.888 Y-58 Z6.4 I-2.412 J0
X29.712 Y-58 Z6.3 I2.412 J0
X24.888 Y-58 Z6.2 I-2.412 J0
X29.712 Y-58 Z6.1 I2.412 J0
X24.888 Y-58 Z6 I-2.412 J0
X29.712 Y-58 Z5.9 I2.412 J0
X24.888 Y-58 Z5.8 I-2.412 J0
X29.712 Y-58 Z5.7 I2.412 J0
X24.888 Y-58 Z5.6 I-2.412 J0
X29.712 Y-58 Z5.5 I2.412 J0
X24.888 Y-58 Z5.4 I-2.412 J0
X29.712 Y-58 Z5.3 I2.412 J0
X24.888 Y-58 Z5.2 I-2.412 J0
X29.712 Y-58 Z5.1 I2.412 J0
X24.888 Y-58 Z5 I-2.412 J0
X29.712 Y-58 I2.412 J0
X24.888 Y-58 I-2.412 J0
X25.205 Y-58.318 I0.317 J0
G1 X25.364
G18 G2 X25.681 Z5.318 I0 K0.318
G0 Z25.2
G17
G28 G91 Z0
G90
G28 G91 X0 Y0
G90
M5
M30
