(face1)
(T3 D=16.4 CR=0 - ZMIN=0 - face mill)
G90 G94
G17
G21
G28 G91 Z0
G90

(Face4)
T3
S5000 M3
G17 G90 G94
G54
M8
G0 X2.66 Y-173.251
Z15
G0 Z5
G1 Z1.64 F333.3
G18 G3 X1.02 Z0 I-1.64 K0 F1000
G1 X-1
X-265
G3 X-266.64 Z1.64 I0 K1.64
G0 Z5
X2.66 Y-162.417
G1 Z1.64 F333.3
G3 X1.02 Z0 I-1.64 K0 F1000
G1 X-1
X-265
G3 X-266.64 Z1.64 I0 K1.64
G0 Z5
X2.66 Y-151.583
G1 Z1.64 F333.3
G3 X1.02 Z0 I-1.64 K0 F1000
G1 X-1
X-265
G3 X-266.64 Z1.64 I0 K1.64
G0 Z5
X2.66 Y-140.749
G1 Z1.64 F333.3
G3 X1.02 Z0 I-1.64 K0 F1000
G1 X-1
X-265
G3 X-266.64 Z1.64 I0 K1.64
G0 Z5
X2.66 Y-129.914
G1 Z1.64 F333.3
G3 X1.02 Z0 I-1.64 K0 F1000
G1 X-1
X-265
G3 X-266.64 Z1.64 I0 K1.64
G0 Z5
X2.66 Y-119.08
G1 Z1.64 F333.3
G3 X1.02 Z0 I-1.64 K0 F1000
G1 X-1
X-265
G3 X-266.64 Z1.64 I0 K1.64
G0 Z5
X2.66 Y-108.246
G1 Z1.64 F333.3
G3 X1.02 Z0 I-1.64 K0 F1000
G1 X-1
X-265
G3 X-266.64 Z1.64 I0 K1.64
G0 Z5
X2.66 Y-97.412
G1 Z1.64 F333.3
G3 X1.02 Z0 I-1.64 K0 F1000
G1 X-1
X-265
G3 X-266.64 Z1.64 I0 K1.64
G0 Z5
X2.66 Y-86.578
G1 Z1.64 F333.3
G3 X1.02 Z0 I-1.64 K0 F1000
G1 X-1
X-265
G3 X-266.64 Z1.64 I0 K1.64
G0 Z5
X2.66 Y-75.744
G1 Z1.64 F333.3
G3 X1.02 Z0 I-1.64 K0 F1000
G1 X-1
X-265
G3 X-266.64 Z1.64 I0 K1.64
G0 Z5
X2.66 Y-64.91
G1 Z1.64 F333.3
G3 X1.02 Z0 I-1.64 K0 F1000
G1 X-1
X-265
G3 X-266.64 Z1.64 I0 K1.64
G0 Z5
X2.66 Y-54.076
G1 Z1.64 F333.3
G3 X1.02 Z0 I-1.64 K0 F1000
G1 X-1
X-265
G3 X-266.64 Z1.64 I0 K1.64
G0 Z5
X2.66 Y-43.241
G1 Z1.64 F333.3
G3 X1.02 Z0 I-1.64 K0 F1000
G1 X-1
X-265
G3 X-266.64 Z1.64 I0 K1.64
G0 Z5
X2.66 Y-32.407
G1 Z1.64 F333.3
G3 X1.02 Z0 I-1.64 K0 F1000
G1 X-1
X-265
G3 X-266.64 Z1.64 I0 K1.64
G0 Z5
X2.66 Y-21.573
G1 Z1.64 F333.3
G3 X1.02 Z0 I-1.64 K0 F1000
G1 X-1
X-265
G3 X-266.64 Z1.64 I0 K1.64
G0 Z5
X2.66 Y-10.739
G1 Z1.64 F333.3
G3 X1.02 Z0 I-1.64 K0 F1000
G1 X-1
X-265
G3 X-266.64 Z1.64 I0 K1.64
G0 Z5
X2.66 Y0.095
G1 Z1.64 F333.3
G3 X1.02 Z0 I-1.64 K0 F1000
G1 X-1
X-265
G3 X-266.64 Z1.64 I0 K1.64
G0 Z15
G17
M9
G28 G91 Z0
G90
G28 G91 X0 Y0
G90
M5
M30
