(adap1_0.25_3)
(T6 D=3.175 CR=0 - ZMIN=0 - flat end mill)
G90 G94
G17
G21
G28 G91 Z0
G90

(Adaptive1 10)
T6
(18 Flat-45 degree helix)
S18000 M3
G17 G90 G94
G54
G0 X3.628 Y-0.311
Z30
G0 Z20
Z7.635
G1 Z7.318 F600
X3.62 Y-0.31 Z7.247
X3.598 Y-0.304 Z7.18
X3.561 Y-0.294 Z7.12
X3.512 Y-0.282 Z7.069
X3.454 Y-0.267 Z7.031
X3.389 Y-0.25 Z7.008
X3.321 Y-0.233 Z7
G3 X1.592 Y0.016 I-2.011 J-7.852
G1 X1.551 F1000
X1.372 Y-0.263
X0.923 Y-0.75
X0.341 Y-1.067
X-0.3 Y-1.232
X-0.96 Y-1.296
X-1.622 Y-1.315
X-2.284 Y-1.32
X-3.609 Y-1.322
X-41.367
X-41.693 Y-1.266
X-42 Y-1.142
X-42.277 Y-0.96
X-42.76 Y-0.506
X-43.073 Y0.078
X-43.234 Y0.72
X-43.297 Y1.379
X-43.316 Y2.042
X-43.32 Y2.704
X-43.322 Y4.029
Y4.691
Y55.035
Y105.379
Y130.55
X-43.226 Y130.868
X-43.069 Y131.159
X-42.653 Y131.674
X-42.089 Y132.022
X-41.454 Y132.211
X-40.796 Y132.289
X-40.134 Y132.314
X-39.472 Y132.32
X-38.809 Y132.321
X-18.937 Y132.322
X-0.389
X-0.076 Y132.214
X0.21 Y132.046
X0.711 Y131.614
X1.044 Y131.041
X1.221 Y130.403
X1.293 Y129.744
X1.315 Y129.082
X1.32 Y128.42
X1.322 Y127.095
Y101.26
Y50.917
Y1.235
X1.291 Y0.906
X1.204 Y0.586
X0.919 Y-0.012
X0.45 Y-0.48
X-0.135 Y-0.79
X-0.775 Y-0.961
X-1.433 Y-1.036
X-2.095 Y-1.062
X-2.758 Y-1.069
X-3.42 Y-1.071
X-12.031 Y-1.072
X-40.515
X-41.177 Y-1.04
X-41.797 Y-0.806
X-42.309 Y-0.386
X-42.677 Y0.164
X-42.901 Y0.788
X-43.01 Y1.441
X-43.053 Y2.102
X-43.066 Y2.765
X-43.07 Y3.427
X-43.072 Y4.752
Y55.096
Y105.439
Y129.949
X-42.92 Y130.593
X-42.562 Y131.151
X-42.05 Y131.571
X-41.445 Y131.842
X-40.798 Y131.983
X-40.139 Y132.043
X-39.476 Y132.064
X-38.814 Y132.07
X-38.152 Y132.071
X-18.279 Y132.072
X-1.056
X-0.411 Y131.923
X0.148 Y131.568
X0.57 Y131.057
X0.84 Y130.452
X0.983 Y129.805
X1.043 Y129.146
X1.064 Y128.484
X1.07 Y127.821
X1.071 Y127.159
X1.072 Y100
Y49.656
Y1.962
X1.053 Y1.3
X0.871 Y0.663
X0.501 Y0.113
X-0.016 Y-0.301
X-0.621 Y-0.571
X-1.266 Y-0.72
X-1.925 Y-0.787
X-2.587 Y-0.811
X-3.249 Y-0.819
X-3.912 Y-0.821
X-8.549 Y-0.822
X-39.682
X-40.345 Y-0.82
X-41.002 Y-0.737
X-41.603 Y-0.459
X-42.091 Y-0.01
X-42.437 Y0.555
X-42.648 Y1.182
X-42.756 Y1.836
X-42.8 Y2.497
X-42.815 Y3.159
X-42.82 Y3.822
X-42.821 Y5.146
X-42.822 Y7.796
Y58.14
Y108.483
Y129.018
X-42.807 Y129.681
X-42.628 Y130.318
X-42.259 Y130.869
X-41.745 Y131.286
X-41.142 Y131.561
X-40.498 Y131.715
X-39.839 Y131.785
X-39.177 Y131.81
X-38.515 Y131.818
X-37.852 Y131.821
X-34.54 Y131.822
X-14.668
X-2.082
X-1.419 Y131.82
X-0.774 Y131.672
X-0.207 Y131.329
X0.232 Y130.833
X0.529 Y130.241
X0.699 Y129.601
X0.777 Y128.943
X0.808 Y128.281
X0.817 Y127.619
X0.82 Y126.957
X0.822 Y124.969
Y95.823
Y45.479
Y2.422
X0.813 Y1.76
X0.672 Y1.113
X0.343 Y0.538
X-0.14 Y0.084
X-0.721 Y-0.233
X-1.357 Y-0.42
X-2.013 Y-0.513
X-2.674 Y-0.552
X-3.336 Y-0.565
X-3.999 Y-0.57
X-4.661 Y-0.571
X-39.107 Y-0.572
X-39.769 Y-0.571
X-40.431 Y-0.538
X-41.062 Y-0.337
X-41.605 Y0.043
X-42.019 Y0.56
X-42.293 Y1.163
X-42.45 Y1.806
X-42.526 Y2.464
X-42.557 Y3.126
X-42.567 Y3.788
X-42.57 Y4.451
X-42.572 Y5.775
Y13.062
Y63.406
Y113.749
Y118.045
X-42.577 Y118.162
X-42.591 Y118.279
X-42.616 Y118.395
X-42.649 Y118.545
X-42.673 Y118.696
X-42.686 Y118.846
X-42.687 Y119.749
Y126.82
X-42.662 Y127.271
X-42.654 Y127.316
X-42.636 Y127.465
X-42.615 Y127.732
X-42.592 Y128.165
X-42.576 Y128.827
X-42.531 Y129.488
X-42.313 Y130.114
X-41.919 Y130.646
X-41.392 Y131.047
X-40.785 Y131.312
X-40.139 Y131.462
X-39.481 Y131.532
X-38.819 Y131.559
X-38.156 Y131.568
X-37.494 Y131.57
X-35.507 Y131.572
X-2.386
X-1.724 Y131.562
X-1.08 Y131.407
X-0.512 Y131.066
X-0.066 Y130.576
X0.242 Y129.989
X0.426 Y129.353
X0.516 Y128.697
X0.552 Y128.035
X0.554 Y127.95
X0.558 Y127.867
X0.567 Y127.784
X0.581 Y127.703
X0.636 Y127.421
X0.662 Y127.271
X0.688 Y126.82
Y34.146
X0.685 Y33.996
X0.678 Y33.846
X0.658 Y33.695
X0.638 Y33.546
X0.616 Y33.287
X0.594 Y32.874
X0.576 Y32.211
X0.573 Y31.549
X0.572 Y29.562
Y3.065
X0.569 Y2.403
X0.511 Y1.743
X0.277 Y1.123
X-0.125 Y0.597
X-0.657 Y0.202
X-1.267 Y-0.058
X-1.912 Y-0.206
X-2.571 Y-0.277
X-3.233 Y-0.307
X-3.895 Y-0.317
X-4.557 Y-0.32
X-5.882 Y-0.322
X-17.143
X-39.003
X-39.665 Y-0.317
X-40.323 Y-0.24
X-40.935 Y0.015
X-41.446 Y0.436
X-41.826 Y0.979
X-42.074 Y1.593
X-42.215 Y2.24
X-42.282 Y2.899
X-42.308 Y3.561
X-42.317 Y4.224
X-42.32 Y4.886
X-42.322 Y6.873
Y26.083
Y76.427
Y117.069
X-42.327 Y117.188
X-42.342 Y117.306
X-42.366 Y117.422
X-42.616 Y118.395
G3 X-42.772 Y118.595 I-0.308 J-0.079 F600
G1 X-42.819 Y118.626
X-42.859 Y118.664
X-42.892 Y118.709
X-42.922 Y118.772 Z7.008
X-42.931 Y118.822 Z7.024
X-42.939 Y118.869 Z7.048
X-42.94 Y118.92 Z7.088
Y118.961 Z7.136
X-42.941 Y118.992 Z7.192
Y119.012 Z7.254
Y119.018 Z7.318
G0 Z20
X1.221 Y34.635
Z7.635
G1 Z7.318 F600
X1.216 Y34.629 Z7.247
X1.201 Y34.611 Z7.18
X1.176 Y34.583 Z7.12
X1.143 Y34.545 Z7.069
X1.103 Y34.5 Z7.031
X1.059 Y34.449 Z7.008
X1.012 Y34.396 Z7
G3 X0.658 Y33.695 I1.191 J-1.042
G1 X0.63 Y33.545 F1000
X0.51 Y32.943
X0.489 Y32.86
X0.452 Y32.676
X0.426 Y32.528
X0.406 Y32.375
X0.384 Y32.171
X0.362 Y31.882
X0.339 Y31.402
X0.325 Y30.74
X0.322 Y30.077
Y26.765
Y3.581
X0.321 Y2.918
X0.294 Y2.256
X0.122 Y1.617
X-0.223 Y1.051
X-0.711 Y0.603
X-1.296 Y0.292
X-1.93 Y0.101
X-2.585 Y0.001
X-3.246 Y-0.045
X-3.908 Y-0.062
X-4.57 Y-0.069
X-5.233 Y-0.071
X-8.545 Y-0.072
X-18.481
X-38.354
X-39.016 Y-0.07
X-39.678 Y-0.045
X-40.321 Y0.113
X-40.895 Y0.445
X-41.353 Y0.923
X-41.679 Y1.5
X-41.882 Y2.13
X-41.992 Y2.784
X-42.042 Y3.444
X-42.062 Y4.106
X-42.068 Y4.769
X-42.071 Y5.431
X-42.072 Y8.081
Y27.953
Y78.297
Y116.095
X-42.077 Y116.214
X-42.092 Y116.332
X-42.116 Y116.448
X-42.366 Y117.422
G3 X-42.73 Y117.645 I-0.305 J-0.09 F600
G1 X-42.78 Y117.621 Z7.005
X-42.827 Y117.599 Z7.019
X-42.872 Y117.578 Z7.042
X-42.901 Y117.539 Z7.078
X-42.926 Y117.505 Z7.122
X-42.945 Y117.479 Z7.173
X-42.958 Y117.461 Z7.229
X-42.965 Y117.452 Z7.289
Y117.451 Z7.318
G0 Z20
X1.115 Y33.76
Z7.635
G1 Z7.318 F600
X1.109 Y33.754 Z7.247
X1.093 Y33.738 Z7.18
X1.066 Y33.711 Z7.12
X1.03 Y33.675 Z7.069
X0.988 Y33.633 Z7.031
X0.94 Y33.585 Z7.008
X0.89 Y33.536 Z7
G3 X0.489 Y32.86 I1.118 J-1.12
G1 X0.472 Y32.792 F1000
X0.423 Y32.642
X0.361 Y32.492
X0.347 Y32.467
X0.278 Y32.333
X0.241 Y32.188
X0.211 Y32.041
X0.186 Y31.893
X0.162 Y31.714
X0.137 Y31.469
X0.113 Y31.165
X0.089 Y30.657
X0.076 Y29.995
X0.073 Y29.332
X0.072 Y27.345
X0.071 Y3.498
X0.062 Y2.836
X-0.037 Y2.181
X-0.304 Y1.574
X-0.73 Y1.067
X-1.275 Y0.69
X-1.889 Y0.442
X-2.536 Y0.298
X-3.194 Y0.227
X-3.856 Y0.196
X-4.518 Y0.184
X-5.18 Y0.18
X-6.505 Y0.179
X-19.091 Y0.178
X-38.301 Y0.179
X-38.964 Y0.184
X-39.623 Y0.244
X-40.248 Y0.465
X-40.787 Y0.85
X-41.204 Y1.364
X-41.492 Y1.961
X-41.666 Y2.6
X-41.758 Y3.256
X-41.798 Y3.917
X-41.814 Y4.58
X-41.819 Y5.242
X-41.821 Y5.904
X-41.822 Y9.879
Y29.089
Y79.433
Y115.121
X-41.827 Y115.24
X-41.842 Y115.358
X-41.866 Y115.474
X-42.116 Y116.448
G3 X-42.48 Y116.67 I-0.305 J-0.09 F600
G1 X-42.53 Y116.647 Z7.005
X-42.577 Y116.625 Z7.019
X-42.622 Y116.604 Z7.042
X-42.651 Y116.564 Z7.078
X-42.676 Y116.531 Z7.122
X-42.695 Y116.505 Z7.173
X-42.708 Y116.487 Z7.229
X-42.715 Y116.478 Z7.289
Y116.477 Z7.318
G0 Z20
X1.193 Y33.163
Z7.635
G1 Z7.318 F600
X1.186 Y33.159 Z7.247
X1.166 Y33.147 Z7.18
X1.133 Y33.129 Z7.12
X1.089 Y33.104 Z7.069
X1.036 Y33.075 Z7.031
X0.978 Y33.042 Z7.008
X0.916 Y33.008 Z7
G3 X0.347 Y32.467 I0.772 J-1.381
G1 X0.253 Y32.304 F1000
X0.215 Y32.246
X0.14 Y32.116
X0.083 Y31.977
X0.039 Y31.834
X0.002 Y31.688
X-0.027 Y31.541
X-0.056 Y31.373
X-0.079 Y31.202
X-0.105 Y30.964
X-0.132 Y30.637
X-0.157 Y30.157
X-0.173 Y29.495
X-0.177 Y28.833
X-0.178 Y27.508
Y4.323
X-0.179 Y3.661
X-0.199 Y2.999
X-0.324 Y2.348
X-0.622 Y1.756
X-1.071 Y1.269
X-1.627 Y0.91
X-2.246 Y0.674
X-2.895 Y0.539
X-3.554 Y0.473
X-4.216 Y0.445
X-4.878 Y0.434
X-5.541 Y0.43
X-6.865 Y0.429
X-10.112 Y0.428
X-10.204 Y0.425
X-10.297 Y0.416
X-10.388 Y0.401
X-10.58 Y0.363
X-10.73 Y0.335
X-10.881 Y0.327
X-11.182 Y0.314
X-11.332 Y0.312
X-16.598 Y0.313
X-16.748 Y0.316
X-16.899 Y0.331
X-17.049 Y0.349
X-17.198 Y0.367
X-17.482 Y0.389
X-17.956 Y0.412
X-18.618 Y0.425
X-19.281 Y0.428
X-23.255
X-37.828
X-38.491 Y0.431
X-39.153 Y0.462
X-39.792 Y0.634
X-40.364 Y0.969
X-40.824 Y1.445
X-41.154 Y2.02
X-41.363 Y2.648
X-41.479 Y3.3
X-41.535 Y3.96
X-41.558 Y4.622
X-41.567 Y5.285
X-41.57 Y5.947
X-41.571 Y7.272
X-41.572 Y27.807
Y78.151
Y114.147
X-41.577 Y114.266
X-41.592 Y114.384
X-41.616 Y114.5
X-41.866 Y115.474
G3 X-42.23 Y115.696 I-0.305 J-0.09 F600
G1 X-42.28 Y115.673 Z7.005
X-42.327 Y115.651 Z7.019
X-42.372 Y115.63 Z7.042
X-42.401 Y115.59 Z7.078
X-42.426 Y115.557 Z7.122
X-42.445 Y115.531 Z7.173
X-42.458 Y115.513 Z7.229
X-42.465 Y115.504 Z7.289
Y115.503 Z7.318
G0 Z20
X-16.388 Y0.016
Z7.518
G1 Z7.2 F600
X-16.486 Y0.093
X-16.59 Y0.161
G3 X-17.049 Y0.349 Z7 I-0.821 J-1.353
G1 X-17.651 Y0.469 F1000
X-17.801 Y0.501
X-17.847 Y0.513
X-18.001 Y0.545
X-18.149 Y0.571
X-18.298 Y0.592
X-18.496 Y0.613
X-18.772 Y0.636
X-19.221 Y0.659
X-19.883 Y0.674
X-20.546 Y0.677
X-22.533 Y0.678
X-37.769 Y0.679
X-38.431 Y0.686
X-39.09 Y0.754
X-39.714 Y0.977
X-40.253 Y1.361
X-40.674 Y1.873
X-40.968 Y2.467
X-41.149 Y3.104
X-41.247 Y3.759
X-41.293 Y4.42
X-41.311 Y5.082
X-41.318 Y5.744
X-41.32 Y6.407
X-41.322 Y8.394
Y28.929
Y79.272
Y113.173
X-41.327 Y113.292
X-41.342 Y113.41
X-41.366 Y113.526
X-41.616 Y114.5
G3 X-41.98 Y114.722 I-0.305 J-0.09 F600
G1 X-42.03 Y114.699 Z7.005
X-42.077 Y114.677 Z7.019
X-42.122 Y114.656 Z7.042
X-42.151 Y114.616 Z7.078
X-42.176 Y114.583 Z7.122
X-42.195 Y114.557 Z7.173
X-42.208 Y114.539 Z7.229
X-42.215 Y114.53 Z7.289
Y114.529 Z7.318
G0 Z20
X-17.207 Y0.141
Z7.518
G1 Z7.2 F600
X-17.3 Y0.223
X-17.399 Y0.298
G3 X-17.847 Y0.513 Z7 I-0.901 J-1.301
G1 X-17.952 Y0.54 F1000
X-18.102 Y0.591
X-18.118 Y0.598
X-18.187 Y0.631
X-18.326 Y0.689
X-18.469 Y0.735
X-18.614 Y0.77
X-18.762 Y0.799
X-18.912 Y0.822
X-19.116 Y0.847
X-19.352 Y0.87
X-19.706 Y0.894
X-20.315 Y0.919
X-20.977 Y0.926
X-21.639 Y0.928
X-37.537 Y0.929
X-38.2 Y0.937
X-38.857 Y1.017
X-39.478 Y1.248
X-40.012 Y1.639
X-40.429 Y2.154
X-40.721 Y2.749
X-40.902 Y3.386
X-40.998 Y4.042
X-41.042 Y4.703
X-41.06 Y5.365
X-41.068 Y6.027
X-41.07 Y6.69
X-41.072 Y8.677
Y29.874
Y80.218
Y112.199
X-41.077 Y112.318
X-41.092 Y112.436
X-41.116 Y112.552
X-41.366 Y113.526
G3 X-41.73 Y113.748 I-0.305 J-0.09 F600
G1 X-41.78 Y113.725 Z7.005
X-41.827 Y113.703 Z7.019
X-41.872 Y113.682 Z7.042
X-41.901 Y113.642 Z7.078
X-41.926 Y113.609 Z7.122
X-41.945 Y113.583 Z7.173
X-41.958 Y113.565 Z7.229
X-41.965 Y113.556 Z7.289
Y113.555 Z7.318
G0 Z20
X-17.631 Y0.143
Z7.518
G1 Z7.2 F600
X-17.707 Y0.242
X-17.79 Y0.334
G3 X-18.187 Y0.631 Z7 I-1.134 J-1.104
G1 X-18.253 Y0.662 F1000
X-18.403 Y0.752
X-18.428 Y0.769
X-18.558 Y0.844
X-18.696 Y0.903
X-18.838 Y0.95
X-18.984 Y0.987
X-19.13 Y1.019
X-19.278 Y1.045
X-19.472 Y1.073
X-19.696 Y1.1
X-19.978 Y1.125
X-20.403 Y1.15
X-21.065 Y1.171
X-21.727 Y1.176
X-22.39 Y1.178
X-36.963 Y1.179
X-37.625 Y1.181
X-38.287 Y1.216
X-38.93 Y1.373
X-39.511 Y1.692
X-39.988 Y2.152
X-40.339 Y2.713
X-40.571 Y3.334
X-40.704 Y3.983
X-40.772 Y4.642
X-40.802 Y5.303
X-40.814 Y5.966
X-40.819 Y6.628
X-40.821 Y7.29
X-40.822 Y11.265
Y30.475
Y80.819
Y111.225
X-40.827 Y111.344
X-40.842 Y111.462
X-40.866 Y111.578
X-41.116 Y112.552
G3 X-41.48 Y112.774 I-0.305 J-0.09 F600
G1 X-41.53 Y112.751 Z7.005
X-41.577 Y112.729 Z7.019
X-41.622 Y112.708 Z7.042
X-41.651 Y112.668 Z7.078
X-41.676 Y112.635 Z7.122
X-41.695 Y112.609 Z7.173
X-41.708 Y112.591 Z7.229
X-41.715 Y112.582 Z7.289
Y112.581 Z7.318
G0 Z20
X-17.777 Y-0.112
Z7.635
G1 Z7.318 F600
X-17.78 Y-0.105 Z7.247
X-17.79 Y-0.084 Z7.18
X-17.807 Y-0.05 Z7.12
X-17.829 Y-0.005 Z7.069
X-17.856 Y0.049 Z7.031
X-17.886 Y0.109 Z7.008
X-17.917 Y0.172 Z7
G3 X-18.428 Y0.769 I-1.419 J-0.7
G1 X-18.554 Y0.85 F1000
X-18.729 Y0.967
X-18.857 Y1.044
X-18.993 Y1.108
X-19.134 Y1.159
X-19.278 Y1.201
X-19.424 Y1.236
X-19.571 Y1.266
X-19.74 Y1.295
X-19.929 Y1.321
X-20.199 Y1.351
X-20.518 Y1.378
X-20.994 Y1.404
X-21.656 Y1.422
X-22.319 Y1.427
X-23.644 Y1.428
X-36.892 Y1.429
X-37.554 Y1.437
X-38.214 Y1.499
X-38.844 Y1.703
X-39.399 Y2.065
X-39.841 Y2.559
X-40.158 Y3.14
X-40.362 Y3.77
X-40.476 Y4.423
X-40.532 Y5.083
X-40.557 Y5.745
X-40.566 Y6.407
X-40.57 Y7.07
X-40.571 Y8.394
X-40.572 Y30.917
Y81.26
Y110.251
X-40.577 Y110.369
X-40.592 Y110.488
X-40.616 Y110.604
X-40.866 Y111.578
G3 X-41.23 Y111.8 I-0.305 J-0.09 F600
G1 X-41.28 Y111.777 Z7.005
X-41.327 Y111.755 Z7.019
X-41.372 Y111.734 Z7.042
X-41.401 Y111.694 Z7.078
X-41.426 Y111.661 Z7.122
X-41.445 Y111.635 Z7.173
X-41.458 Y111.617 Z7.229
X-41.465 Y111.608 Z7.289
Y111.607 Z7.318
G0 Z20
X-18.088 Y0.078
Z7.635
G1 Z7.318 F600
X-18.092 Y0.085 Z7.247
X-18.102 Y0.106 Z7.18
X-18.118 Y0.14 Z7.12
X-18.14 Y0.186 Z7.069
X-18.166 Y0.24 Z7.031
X-18.195 Y0.3 Z7.008
X-18.225 Y0.364 Z7
G3 X-18.729 Y0.967 I-1.428 J-0.682
G1 X-19.005 Y1.152 F1000
X-19.043 Y1.178
X-19.17 Y1.257
X-19.304 Y1.324
X-19.444 Y1.379
X-19.587 Y1.423
X-19.732 Y1.462
X-19.879 Y1.494
X-20.028 Y1.522
X-20.232 Y1.554
X-20.441 Y1.581
X-20.741 Y1.611
X-21.126 Y1.638
X-21.737 Y1.665
X-22.4 Y1.674
X-23.062 Y1.677
X-25.049 Y1.678
X-36.31 Y1.679
X-36.973 Y1.681
X-37.635 Y1.708
X-38.284 Y1.837
X-38.881 Y2.124
X-39.382 Y2.558
X-39.762 Y3.101
X-40.019 Y3.711
X-40.175 Y4.355
X-40.257 Y5.012
X-40.296 Y5.673
X-40.312 Y6.336
X-40.318 Y6.998
X-40.32 Y7.661
X-40.322 Y9.648
Y32.17
Y82.514
Y109.277
X-40.327 Y109.395
X-40.342 Y109.513
X-40.366 Y109.63
X-40.616 Y110.604
G3 X-40.98 Y110.826 I-0.305 J-0.09 F600
G1 X-41.03 Y110.803 Z7.005
X-41.077 Y110.781 Z7.019
X-41.122 Y110.76 Z7.042
X-41.151 Y110.72 Z7.078
X-41.176 Y110.687 Z7.122
X-41.195 Y110.66 Z7.173
X-41.208 Y110.643 Z7.229
X-41.215 Y110.634 Z7.289
Y110.633 Z7.318
G0 Z20
X-18.418 Y0.278
Z7.635
G1 Z7.318 F600
X-18.421 Y0.285 Z7.247
X-18.431 Y0.306 Z7.18
X-18.447 Y0.341 Z7.12
X-18.468 Y0.386 Z7.069
X-18.493 Y0.441 Z7.031
X-18.52 Y0.502 Z7.008
X-18.55 Y0.567 Z7
G3 X-19.043 Y1.178 I-1.44 J-0.657
G1 X-19.074 Y1.199 F1000
X-19.155 Y1.26
X-19.236 Y1.332
X-19.352 Y1.426
X-19.481 Y1.503
X-19.617 Y1.566
X-19.758 Y1.618
X-19.901 Y1.662
X-20.046 Y1.7
X-20.193 Y1.732
X-20.366 Y1.765
X-20.548 Y1.794
X-20.792 Y1.826
X-21.097 Y1.857
X-21.479 Y1.885
X-22.074 Y1.912
X-22.736 Y1.924
X-23.399 Y1.927
X-24.724 Y1.928
X-35.985
X-36.647 Y1.93
X-37.309 Y1.95
X-37.961 Y2.069
X-38.567 Y2.337
X-39.079 Y2.757
X-39.474 Y3.289
X-39.746 Y3.893
X-39.91 Y4.535
X-39.999 Y5.191
X-40.041 Y5.852
X-40.06 Y6.514
X-40.067 Y7.177
X-40.07 Y7.839
X-40.071 Y9.164
X-40.072 Y33.011
Y83.354
Y108.303
X-40.077 Y108.421
X-40.092 Y108.539
X-40.116 Y108.656
X-40.366 Y109.63
G3 X-40.73 Y109.852 I-0.305 J-0.09 F600
G1 X-40.78 Y109.829 Z7.005
X-40.827 Y109.807 Z7.019
X-40.872 Y109.786 Z7.042
X-40.901 Y109.746 Z7.078
X-40.926 Y109.713 Z7.122
X-40.945 Y109.686 Z7.173
X-40.958 Y109.669 Z7.229
X-40.965 Y109.66 Z7.289
Y109.658 Z7.318
G0 Z20
X-18.726 Y0.361
Z7.635
G1 Z7.318 F600
X-18.729 Y0.369 Z7.247
X-18.736 Y0.391 Z7.18
X-18.747 Y0.427 Z7.12
X-18.762 Y0.475 Z7.069
X-18.78 Y0.533 Z7.031
X-18.8 Y0.597 Z7.008
X-18.821 Y0.664 Z7
G3 X-19.236 Y1.332 I-1.51 J-0.475
G1 X-19.306 Y1.396 F1000
X-19.401 Y1.5
X-19.503 Y1.611
X-19.629 Y1.692
X-19.763 Y1.759
X-19.902 Y1.816
X-20.044 Y1.864
X-20.188 Y1.906
X-20.333 Y1.943
X-20.482 Y1.975
X-20.662 Y2.009
X-20.864 Y2.041
X-21.119 Y2.074
X-21.439 Y2.106
X-21.846 Y2.136
X-22.469 Y2.163
X-23.131 Y2.174
X-23.793 Y2.177
X-25.118 Y2.178
X-35.717
X-36.379 Y2.18
X-37.042 Y2.2
X-37.694 Y2.316
X-38.3 Y2.582
X-38.815 Y2.998
X-39.213 Y3.528
X-39.489 Y4.131
X-39.656 Y4.772
X-39.746 Y5.428
X-39.79 Y6.089
X-39.809 Y6.751
X-39.817 Y7.413
X-39.82 Y8.076
X-39.821 Y9.401
X-39.822 Y33.248
Y83.591
Y107.328
X-39.827 Y107.447
X-39.842 Y107.565
X-39.866 Y107.682
X-40.116 Y108.656
G3 X-40.48 Y108.878 I-0.305 J-0.09 F600
G1 X-40.53 Y108.855 Z7.005
X-40.577 Y108.833 Z7.019
X-40.622 Y108.812 Z7.042
X-40.651 Y108.772 Z7.078
X-40.676 Y108.738 Z7.122
X-40.695 Y108.712 Z7.173
X-40.708 Y108.694 Z7.229
X-40.715 Y108.686 Z7.289
Y108.684 Z7.318
G0 Z20
X-19.043 Y0.465
Z7.635
G1 Z7.318 F600
X-19.044 Y0.472 Z7.247
X-19.048 Y0.496 Z7.18
X-19.054 Y0.533 Z7.12
X-19.061 Y0.583 Z7.069
X-19.071 Y0.642 Z7.031
X-19.081 Y0.709 Z7.008
X-19.092 Y0.778 Z7
G3 X-19.401 Y1.5 I-1.564 J-0.243
G1 X-19.456 Y1.567 F1000
X-19.518 Y1.651
X-19.608 Y1.771
X-19.728 Y1.86
X-19.858 Y1.935
X-19.994 Y1.999
X-20.133 Y2.054
X-20.276 Y2.101
X-20.42 Y2.143
X-20.565 Y2.18
X-20.733 Y2.216
X-20.907 Y2.249
X-21.134 Y2.286
X-21.38 Y2.318
X-21.734 Y2.354
X-22.12 Y2.383
X-22.746 Y2.411
X-23.409 Y2.423
X-24.071 Y2.427
X-25.396 Y2.428
X-35.332
X-35.995 Y2.429
X-36.657 Y2.441
X-37.313 Y2.533
X-37.932 Y2.769
X-38.47 Y3.156
X-38.893 Y3.665
X-39.191 Y4.257
X-39.377 Y4.892
X-39.48 Y5.547
X-39.532 Y6.207
X-39.555 Y6.869
X-39.565 Y7.531
X-39.569 Y8.194
X-39.571 Y9.519
X-39.572 Y34.028
Y84.372
Y106.354
X-39.577 Y106.473
X-39.592 Y106.591
X-39.616 Y106.708
X-39.866 Y107.682
G3 X-40.23 Y107.904 I-0.305 J-0.09 F600
G1 X-40.28 Y107.881 Z7.005
X-40.327 Y107.859 Z7.019
X-40.372 Y107.838 Z7.042
X-40.401 Y107.798 Z7.078
X-40.426 Y107.764 Z7.122
X-40.445 Y107.738 Z7.173
X-40.458 Y107.72 Z7.229
X-40.465 Y107.712 Z7.289
Y107.71 Z7.318
G0 Z20
X-19.261 Y0.585
Z7.635
G1 Z7.318 F600
X-19.262 Y0.593 Z7.247
X-19.263 Y0.617 Z7.18
X-19.265 Y0.654 Z7.12
X-19.268 Y0.705 Z7.069
X-19.271 Y0.765 Z7.031
X-19.275 Y0.832 Z7.008
X-19.279 Y0.902 Z7
G3 X-19.518 Y1.651 I-1.58 J-0.091
G1 X-19.636 Y1.826 F1000
X-19.725 Y1.947
X-19.841 Y2.042
X-19.967 Y2.123
X-20.101 Y2.191
X-20.238 Y2.251
X-20.379 Y2.303
X-20.522 Y2.349
X-20.666 Y2.389
X-20.812 Y2.425
X-20.994 Y2.464
X-21.18 Y2.499
X-21.419 Y2.536
X-21.683 Y2.57
X-22.051 Y2.606
X-22.479 Y2.636
X-23.141 Y2.664
X-23.804 Y2.673
X-24.466 Y2.677
X-25.791 Y2.678
X-35.727 Y2.679
X-36.389 Y2.69
X-37.046 Y2.781
X-37.667 Y3.011
X-38.206 Y3.396
X-38.631 Y3.904
X-38.933 Y4.494
X-39.123 Y5.128
X-39.228 Y5.782
X-39.28 Y6.443
X-39.304 Y7.105
X-39.315 Y7.767
X-39.319 Y8.429
X-39.321 Y9.092
X-39.322 Y12.404
Y34.264
Y84.607
Y105.38
X-39.327 Y105.499
X-39.342 Y105.617
X-39.366 Y105.734
X-39.616 Y106.708
G3 X-39.98 Y106.93 I-0.305 J-0.09 F600
G1 X-40.03 Y106.907 Z7.005
X-40.077 Y106.884 Z7.019
X-40.122 Y106.863 Z7.042
X-40.151 Y106.824 Z7.078
X-40.176 Y106.79 Z7.122
X-40.195 Y106.764 Z7.173
X-40.208 Y106.746 Z7.229
X-40.215 Y106.737 Z7.289
Y106.736 Z7.318
G0 Z20
X-19.385 Y0.76
Z7.635
G1 Z7.318 F600
Y0.767 Z7.247
X-19.386 Y0.791 Z7.18
X-19.388 Y0.829 Z7.12
X-19.391 Y0.879 Z7.069
X-19.394 Y0.939 Z7.031
X-19.398 Y1.006 Z7.008
X-19.401 Y1.077 Z7
G3 X-19.636 Y1.826 I-1.58 J-0.083
G1 X-19.776 Y2.036 F1000
X-19.866 Y2.157
X-19.981 Y2.253
X-20.107 Y2.334
X-20.239 Y2.405
X-20.376 Y2.466
X-20.516 Y2.52
X-20.658 Y2.568
X-20.802 Y2.611
X-20.952 Y2.65
X-21.108 Y2.686
X-21.311 Y2.726
X-21.52 Y2.762
X-21.789 Y2.8
X-22.098 Y2.835
X-22.514 Y2.87
X-23.053 Y2.901
X-23.715 Y2.919
X-24.377 Y2.925
X-25.04 Y2.927
X-27.689 Y2.928
X-34.976
X-35.638 Y2.93
X-36.3 Y2.956
X-36.953 Y3.072
X-37.556 Y3.346
X-38.068 Y3.766
X-38.462 Y4.298
X-38.735 Y4.902
X-38.903 Y5.543
X-38.994 Y6.199
X-39.039 Y6.86
X-39.058 Y7.522
X-39.066 Y8.184
X-39.069 Y8.847
X-39.071 Y10.171
X-39.072 Y35.343
Y85.687
Y104.406
X-39.077 Y104.525
X-39.092 Y104.643
X-39.116 Y104.76
X-39.366 Y105.734
G3 X-39.73 Y105.956 I-0.305 J-0.09 F600
G1 X-39.78 Y105.933 Z7.005
X-39.827 Y105.91 Z7.019
X-39.872 Y105.889 Z7.042
X-39.901 Y105.85 Z7.078
X-39.926 Y105.816 Z7.122
X-39.945 Y105.79 Z7.173
X-39.958 Y105.772 Z7.229
X-39.965 Y105.763 Z7.289
Y105.762 Z7.318
G0 Z20
X-19.525 Y0.97
Z7.635
G1 Z7.318 F600
Y0.978 Z7.247
X-19.527 Y1.001 Z7.18
X-19.529 Y1.039 Z7.12
X-19.531 Y1.089 Z7.069
X-19.534 Y1.149 Z7.031
X-19.538 Y1.216 Z7.008
X-19.542 Y1.287 Z7
G3 X-19.776 Y2.036 I-1.58 J-0.083
G1 X-19.908 Y2.233 F1000
X-19.997 Y2.354
X-20.108 Y2.454
X-20.232 Y2.539
X-20.363 Y2.613
X-20.498 Y2.677
X-20.637 Y2.734
X-20.778 Y2.785
X-20.921 Y2.83
X-21.068 Y2.87
X-21.219 Y2.908
X-21.406 Y2.948
X-21.609 Y2.986
X-21.858 Y3.025
X-22.158 Y3.064
X-22.503 Y3.099
X-22.984 Y3.134
X-23.646 Y3.162
X-24.308 Y3.173
X-24.97 Y3.176
X-26.295 Y3.178
X-34.907 Y3.179
X-35.569 Y3.184
X-36.23 Y3.227
X-36.873 Y3.386
X-37.455 Y3.703
X-37.936 Y4.158
X-38.296 Y4.715
X-38.538 Y5.331
X-38.683 Y5.977
X-38.76 Y6.635
X-38.796 Y7.297
X-38.811 Y7.959
X-38.817 Y8.621
X-38.82 Y9.284
X-38.822 Y11.271
Y35.78
Y86.124
Y103.432
X-38.827 Y103.551
X-38.842 Y103.669
X-38.866 Y103.785
X-39.116 Y104.76
G3 X-39.48 Y104.982 I-0.305 J-0.09 F600
G1 X-39.53 Y104.959 Z7.005
X-39.577 Y104.936 Z7.019
X-39.622 Y104.915 Z7.042
X-39.651 Y104.876 Z7.078
X-39.676 Y104.842 Z7.122
X-39.695 Y104.816 Z7.173
X-39.708 Y104.798 Z7.229
X-39.715 Y104.789 Z7.289
Y104.788 Z7.318
G0 Z20
X-19.659 Y1.166
Z7.635
G1 Z7.318 F600
Y1.174 Z7.247
X-19.661 Y1.197 Z7.18
X-19.662 Y1.235 Z7.12
X-19.665 Y1.285 Z7.069
X-19.668 Y1.345 Z7.031
X-19.671 Y1.412 Z7.008
X-19.675 Y1.483 Z7
G3 X-19.908 Y2.233 I-1.581 J-0.079
G1 X-19.921 Y2.252 F1000
X-20.012 Y2.403
X-20.026 Y2.427
X-20.107 Y2.554
X-20.217 Y2.656
X-20.339 Y2.743
X-20.468 Y2.819
X-20.602 Y2.886
X-20.74 Y2.945
X-20.88 Y2.998
X-21.023 Y3.046
X-21.167 Y3.088
X-21.315 Y3.127
X-21.492 Y3.169
X-21.695 Y3.21
X-21.916 Y3.249
X-22.21 Y3.292
X-22.512 Y3.327
X-22.951 Y3.365
X-23.474 Y3.397
X-24.136 Y3.417
X-24.798 Y3.424
X-25.461 Y3.427
X-27.448 Y3.428
X-34.735 Y3.429
X-35.397 Y3.436
X-36.057 Y3.491
X-36.696 Y3.668
X-37.266 Y4.004
X-37.733 Y4.474
X-38.079 Y5.039
X-38.31 Y5.66
X-38.447 Y6.308
X-38.516 Y6.967
X-38.548 Y7.628
X-38.562 Y8.291
X-38.568 Y8.953
X-38.57 Y9.615
X-38.572 Y11.603
Y36.112
Y86.456
Y102.458
X-38.577 Y102.577
X-38.592 Y102.695
X-38.616 Y102.811
X-38.866 Y103.785
G3 X-39.23 Y104.008 I-0.305 J-0.09 F600
G1 X-39.28 Y103.985 Z7.005
X-39.327 Y103.962 Z7.019
X-39.372 Y103.941 Z7.042
X-39.401 Y103.902 Z7.078
X-39.426 Y103.868 Z7.122
X-39.445 Y103.842 Z7.173
X-39.458 Y103.824 Z7.229
X-39.465 Y103.815 Z7.289
Y103.814 Z7.318
G0 Z20
X-19.854 Y1.345
Z7.635
G1 Z7.318 F600
Y1.353 Z7.247
X-19.853 Y1.377 Z7.18
X-19.852 Y1.414 Z7.12
X-19.851 Y1.465 Z7.069
X-19.85 Y1.525 Z7.031
X-19.849 Y1.592 Z7.008
X-19.847 Y1.663 Z7
G3 X-20.026 Y2.427 I-1.582 J0.033
G1 X-20.058 Y2.484 F1000
X-20.088 Y2.553
X-20.104 Y2.599
X-20.161 Y2.738
X-20.271 Y2.839
X-20.392 Y2.929
X-20.519 Y3.008
X-20.652 Y3.078
X-20.788 Y3.141
X-20.927 Y3.198
X-21.068 Y3.248
X-21.211 Y3.294
X-21.355 Y3.336
X-21.527 Y3.38
X-21.717 Y3.423
X-21.921 Y3.463
X-22.19 Y3.508
X-22.467 Y3.546
X-22.828 Y3.586
X-23.287 Y3.623
X-23.859 Y3.653
X-24.521 Y3.669
X-25.184 Y3.675
X-25.846 Y3.677
X-27.833 Y3.678
X-34.458 Y3.679
X-35.12 Y3.684
X-35.78 Y3.736
X-36.42 Y3.91
X-36.994 Y4.239
X-37.466 Y4.704
X-37.819 Y5.265
X-38.055 Y5.884
X-38.192 Y6.532
X-38.263 Y7.19
X-38.297 Y7.852
X-38.311 Y8.514
X-38.317 Y9.176
X-38.32 Y9.839
X-38.322 Y11.826
Y36.998
Y87.342
Y101.484
X-38.327 Y101.603
X-38.342 Y101.721
X-38.366 Y101.837
X-38.616 Y102.811
G3 X-38.98 Y103.034 I-0.305 J-0.09 F600
G1 X-39.03 Y103.011 Z7.005
X-39.077 Y102.988 Z7.019
X-39.122 Y102.967 Z7.042
X-39.151 Y102.928 Z7.078
X-39.176 Y102.894 Z7.122
X-39.195 Y102.868 Z7.173
X-39.208 Y102.85 Z7.229
X-39.215 Y102.841 Z7.289
Y102.84 Z7.318
G0 Z20
X-20.125 Y1.503
Z7.635
G1 Z7.318 F600
X-20.124 Y1.511 Z7.247
X-20.119 Y1.534 Z7.18
X-20.111 Y1.571 Z7.12
X-20.102 Y1.62 Z7.069
X-20.09 Y1.679 Z7.031
X-20.077 Y1.745 Z7.008
X-20.063 Y1.815 Z7
G3 X-20.104 Y2.599 I-1.552 J0.311
G1 X-20.141 Y2.704 F1000
X-20.153 Y2.749
X-20.197 Y2.893
X-20.3 Y3.001
X-20.416 Y3.096
X-20.54 Y3.181
X-20.67 Y3.257
X-20.804 Y3.324
X-20.941 Y3.385
X-21.08 Y3.44
X-21.222 Y3.49
X-21.364 Y3.536
X-21.524 Y3.581
X-21.704 Y3.627
X-21.891 Y3.668
X-22.124 Y3.714
X-22.383 Y3.756
X-22.688 Y3.798
X-23.088 Y3.84
X-23.507 Y3.873
X-24.151 Y3.905
X-24.814 Y3.919
X-25.476 Y3.925
X-26.138 Y3.927
X-28.126 Y3.928
X-34.087 Y3.929
X-34.75 Y3.931
X-35.411 Y3.968
X-36.056 Y4.118
X-36.647 Y4.418
X-37.141 Y4.859
X-37.516 Y5.405
X-37.769 Y6.017
X-37.92 Y6.662
X-38.002 Y7.32
X-38.041 Y7.981
X-38.059 Y8.643
X-38.066 Y9.305
X-38.07 Y9.968
X-38.071 Y11.293
X-38.072 Y37.127
Y87.471
Y100.51
X-38.077 Y100.629
X-38.092 Y100.747
X-38.116 Y100.863
X-38.366 Y101.837
G3 X-38.73 Y102.06 I-0.305 J-0.09 F600
G1 X-38.78 Y102.037 Z7.005
X-38.827 Y102.014 Z7.019
X-38.872 Y101.993 Z7.042
X-38.901 Y101.954 Z7.078
X-38.926 Y101.92 Z7.122
X-38.945 Y101.894 Z7.173
X-38.958 Y101.876 Z7.229
X-38.965 Y101.867 Z7.289
Y101.866 Z7.318
G0 Z20
X-20.275 Y1.66
Z7.635
G1 Z7.318 F600
X-20.273 Y1.668 Z7.247
X-20.266 Y1.69 Z7.18
X-20.255 Y1.727 Z7.12
X-20.241 Y1.775 Z7.069
X-20.223 Y1.832 Z7.031
X-20.204 Y1.897 Z7.008
X-20.184 Y1.964 Z7
G3 X-20.153 Y2.749 I-1.516 J0.453
G1 X-20.188 Y2.89 F1000
X-20.232 Y3.033
X-20.324 Y3.151
X-20.433 Y3.254
X-20.552 Y3.346
X-20.678 Y3.427
X-20.809 Y3.501
X-20.943 Y3.567
X-21.081 Y3.627
X-21.221 Y3.681
X-21.362 Y3.731
X-21.506 Y3.776
X-21.673 Y3.823
X-21.848 Y3.868
X-22.051 Y3.913
X-22.3 Y3.961
X-22.556 Y4.003
X-22.868 Y4.045
X-23.268 Y4.088
X-23.708 Y4.122
X-24.367 Y4.155
X-25.03 Y4.169
X-25.692 Y4.175
X-26.354 Y4.177
X-28.342 Y4.178
X-33.641
X-34.303 Y4.18
X-34.966 Y4.199
X-35.619 Y4.309
X-36.23 Y4.564
X-36.757 Y4.966
X-37.167 Y5.486
X-37.453 Y6.083
X-37.632 Y6.721
X-37.731 Y7.376
X-37.782 Y8.037
X-37.805 Y8.699
X-37.815 Y9.361
X-37.819 Y10.023
X-37.82 Y10.686
X-37.822 Y13.335
Y37.845
Y88.189
Y99.536
X-37.827 Y99.655
X-37.842 Y99.773
X-37.866 Y99.889
X-38.116 Y100.863
G3 X-38.48 Y101.086 I-0.305 J-0.09 F600
G1 X-38.53 Y101.062 Z7.005
X-38.577 Y101.04 Z7.019
X-38.622 Y101.019 Z7.042
X-38.651 Y100.979 Z7.078
X-38.676 Y100.946 Z7.122
X-38.695 Y100.92 Z7.173
X-38.708 Y100.902 Z7.229
X-38.715 Y100.893 Z7.289
Y100.892 Z7.318
G0 Z20
X-20.31 Y1.801
Z7.635
G1 Z7.318 F600
X-20.308 Y1.808 Z7.247
X-20.301 Y1.831 Z7.18
X-20.29 Y1.867 Z7.12
X-20.276 Y1.915 Z7.069
X-20.259 Y1.973 Z7.031
X-20.239 Y2.037 Z7.008
X-20.219 Y2.105 Z7
G3 X-20.188 Y2.89 I-1.516 J0.453
G1 X-20.217 Y3.005 F1000
X-20.228 Y3.05
X-20.269 Y3.194
X-20.355 Y3.317
X-20.46 Y3.425
X-20.575 Y3.521
X-20.698 Y3.607
X-20.826 Y3.685
X-20.958 Y3.755
X-21.094 Y3.819
X-21.233 Y3.877
X-21.373 Y3.93
X-21.515 Y3.978
X-21.669 Y4.026
X-21.845 Y4.074
X-22.031 Y4.12
X-22.243 Y4.166
X-22.506 Y4.216
X-22.777 Y4.259
X-23.103 Y4.301
X-23.548 Y4.346
X-24.001 Y4.378
X-24.662 Y4.407
X-25.325 Y4.42
X-25.987 Y4.425
X-26.649 Y4.427
X-28.637 Y4.428
X-33.274
X-33.936 Y4.429
X-34.598 Y4.441
X-35.255 Y4.53
X-35.877 Y4.757
X-36.421 Y5.135
X-36.853 Y5.637
X-37.161 Y6.224
X-37.356 Y6.857
X-37.467 Y7.51
X-37.524 Y8.17
X-37.551 Y8.832
X-37.563 Y9.494
X-37.568 Y10.156
X-37.57 Y10.819
X-37.572 Y12.806
Y38.64
Y88.984
Y98.562
X-37.577 Y98.681
X-37.592 Y98.799
X-37.616 Y98.915
X-37.866 Y99.889
G3 X-38.23 Y100.111 I-0.305 J-0.09 F600
G1 X-38.28 Y100.088 Z7.005
X-38.327 Y100.066 Z7.019
X-38.372 Y100.045 Z7.042
X-38.401 Y100.005 Z7.078
X-38.426 Y99.972 Z7.122
X-38.445 Y99.946 Z7.173
X-38.458 Y99.928 Z7.229
X-38.465 Y99.919 Z7.289
Y99.918 Z7.318
G0 Z20
X-20.367 Y1.963
Z7.635
G1 Z7.318 F600
X-20.365 Y1.971 Z7.247
X-20.358 Y1.993 Z7.18
X-20.346 Y2.029 Z7.12
X-20.331 Y2.077 Z7.069
X-20.313 Y2.135 Z7.031
X-20.293 Y2.199 Z7.008
X-20.271 Y2.266 Z7
G3 X-20.228 Y3.05 I-1.509 J0.478
G1 X-20.252 Y3.155 F1000
X-20.268 Y3.232
X-20.304 Y3.378
X-20.39 Y3.501
X-20.493 Y3.61
X-20.606 Y3.709
X-20.727 Y3.797
X-20.853 Y3.878
X-20.984 Y3.951
X-21.119 Y4.017
X-21.256 Y4.078
X-21.395 Y4.134
X-21.536 Y4.185
X-21.679 Y4.232
X-21.846 Y4.282
X-22.036 Y4.332
X-22.23 Y4.379
X-22.46 Y4.426
X-22.744 Y4.477
X-23.037 Y4.52
X-23.391 Y4.563
X-23.863 Y4.606
X-24.388 Y4.639
X-25.05 Y4.662
X-25.712 Y4.671
X-26.374 Y4.675
X-27.037 Y4.677
X-29.687 Y4.678
X-33.661 Y4.679
X-34.323 Y4.689
X-34.98 Y4.775
X-35.605 Y4.994
X-36.152 Y5.368
X-36.587 Y5.868
X-36.9 Y6.451
X-37.101 Y7.083
X-37.214 Y7.735
X-37.273 Y8.395
X-37.3 Y9.057
X-37.313 Y9.719
X-37.318 Y10.382
X-37.32 Y11.044
X-37.322 Y13.031
Y38.866
Y89.209
Y97.588
X-37.327 Y97.707
X-37.342 Y97.825
X-37.366 Y97.941
X-37.616 Y98.915
G3 X-37.98 Y99.137 I-0.305 J-0.09 F600
G1 X-38.03 Y99.114 Z7.005
X-38.077 Y99.092 Z7.019
X-38.122 Y99.071 Z7.042
X-38.151 Y99.031 Z7.078
X-38.176 Y98.998 Z7.122
X-38.195 Y98.972 Z7.173
X-38.208 Y98.954 Z7.229
X-38.215 Y98.945 Z7.289
Y98.944 Z7.318
G0 Z20
X-20.444 Y2.151
Z7.635
G1 Z7.318 F600
X-20.441 Y2.158 Z7.247
X-20.433 Y2.18 Z7.18
X-20.42 Y2.216 Z7.12
X-20.404 Y2.263 Z7.069
X-20.384 Y2.32 Z7.031
X-20.361 Y2.383 Z7.008
X-20.338 Y2.45 Z7
G3 X-20.268 Y3.232 I-1.492 J0.528
G1 X-20.306 Y3.425 F1000
X-20.343 Y3.571
X-20.428 Y3.694
X-20.529 Y3.805
X-20.641 Y3.905
X-20.761 Y3.995
X-20.886 Y4.077
X-21.016 Y4.153
X-21.15 Y4.221
X-21.286 Y4.284
X-21.424 Y4.342
X-21.564 Y4.395
X-21.711 Y4.446
X-21.866 Y4.495
X-22.05 Y4.547
X-22.254 Y4.598
X-22.467 Y4.646
X-22.721 Y4.695
X-23.026 Y4.745
X-23.351 Y4.789
X-23.757 Y4.832
X-24.271 Y4.872
X-24.933 Y4.904
X-25.595 Y4.918
X-26.258 Y4.924
X-26.92 Y4.927
X-28.245 Y4.928
X-32.882
X-33.544 Y4.93
X-34.206 Y4.951
X-34.86 Y5.056
X-35.472 Y5.31
X-35.997 Y5.714
X-36.408 Y6.234
X-36.697 Y6.83
X-36.879 Y7.467
X-36.981 Y8.122
X-37.031 Y8.782
X-37.054 Y9.444
X-37.064 Y10.106
X-37.069 Y10.769
X-37.07 Y11.431
X-37.072 Y14.081
Y39.253
Y89.596
Y96.614
X-37.077 Y96.733
X-37.092 Y96.851
X-37.116 Y96.967
X-37.366 Y97.941
G3 X-37.73 Y98.163 I-0.305 J-0.09 F600
G1 X-37.78 Y98.14 Z7.005
X-37.827 Y98.118 Z7.019
X-37.872 Y98.097 Z7.042
X-37.901 Y98.057 Z7.078
X-37.926 Y98.024 Z7.122
X-37.945 Y97.998 Z7.173
X-37.958 Y97.98 Z7.229
X-37.965 Y97.971 Z7.289
Y97.97 Z7.318
G0 Z20
X-20.482 Y2.344
Z7.635
G1 Z7.318 F600
X-20.479 Y2.351 Z7.247
X-20.471 Y2.374 Z7.18
X-20.459 Y2.409 Z7.12
X-20.442 Y2.457 Z7.069
X-20.422 Y2.513 Z7.031
X-20.4 Y2.577 Z7.008
X-20.376 Y2.643 Z7
G3 X-20.306 Y3.425 I-1.492 J0.528
G1 X-20.342 Y3.606 F1000
X-20.373 Y3.753
X-20.456 Y3.878
X-20.555 Y3.991
X-20.664 Y4.094
X-20.782 Y4.186
X-20.906 Y4.271
X-21.034 Y4.349
X-21.166 Y4.42
X-21.301 Y4.486
X-21.438 Y4.546
X-21.578 Y4.602
X-21.72 Y4.653
X-21.871 Y4.704
X-22.045 Y4.756
X-22.243 Y4.81
X-22.45 Y4.86
X-22.691 Y4.91
X-22.98 Y4.963
X-23.275 Y5.008
X-23.652 Y5.054
X-24.141 Y5.1
X-24.652 Y5.134
X-25.314 Y5.159
X-25.977 Y5.17
X-26.639 Y5.175
X-27.301 Y5.177
X-29.289 Y5.178
X-32.601
X-33.263 Y5.179
X-33.925 Y5.197
X-34.58 Y5.3
X-35.195 Y5.545
X-35.725 Y5.943
X-36.141 Y6.458
X-36.438 Y7.051
X-36.623 Y7.686
X-36.727 Y8.341
X-36.779 Y9.001
X-36.803 Y9.663
X-36.814 Y10.325
X-36.818 Y10.988
X-36.82 Y11.65
X-36.822 Y14.3
Y40.134
Y90.478
Y95.64
X-36.827 Y95.759
X-36.842 Y95.877
X-36.866 Y95.993
X-37.116 Y96.967
G3 X-37.48 Y97.189 I-0.305 J-0.09 F600
G1 X-37.53 Y97.166 Z7.005
X-37.577 Y97.144 Z7.019
X-37.622 Y97.123 Z7.042
X-37.651 Y97.083 Z7.078
X-37.676 Y97.05 Z7.122
X-37.695 Y97.024 Z7.173
X-37.708 Y97.006 Z7.229
X-37.715 Y96.997 Z7.289
Y96.996 Z7.318
G0 Z20
X-20.552 Y2.531
Z7.635
G1 Z7.318 F600
X-20.549 Y2.538 Z7.247
X-20.541 Y2.56 Z7.18
X-20.527 Y2.596 Z7.12
X-20.509 Y2.642 Z7.069
X-20.487 Y2.698 Z7.031
X-20.462 Y2.761 Z7.008
X-20.437 Y2.827 Z7
G3 X-20.342 Y3.606 I-1.474 J0.576
G1 X-20.367 Y3.757 F1000
X-20.371 Y3.802
X-20.393 Y3.951
X-20.478 Y4.075
X-20.576 Y4.187
X-20.686 Y4.29
X-20.803 Y4.384
X-20.925 Y4.47
X-21.053 Y4.55
X-21.184 Y4.623
X-21.318 Y4.69
X-21.454 Y4.753
X-21.593 Y4.81
X-21.737 Y4.865
X-21.885 Y4.917
X-22.054 Y4.97
X-22.25 Y5.026
X-22.456 Y5.078
X-22.681 Y5.129
X-22.952 Y5.182
X-23.261 Y5.233
X-23.608 Y5.281
X-24.023 Y5.326
X-24.544 Y5.367
X-25.201 Y5.401
X-25.863 Y5.416
X-26.525 Y5.423
X-27.188 Y5.426
X-28.513 Y5.428
X-32.487 Y5.429
X-33.15 Y5.431
X-33.811 Y5.462
X-34.462 Y5.587
X-35.062 Y5.868
X-35.569 Y6.293
X-35.961 Y6.828
X-36.232 Y7.432
X-36.4 Y8.073
X-36.492 Y8.729
X-36.536 Y9.39
X-36.556 Y10.052
X-36.565 Y10.714
X-36.569 Y11.377
X-36.571 Y12.702
X-36.572 Y40.523
Y90.867
Y94.666
X-36.577 Y94.785
X-36.592 Y94.903
X-36.616 Y95.019
X-36.866 Y95.993
G3 X-37.23 Y96.215 I-0.305 J-0.09 F600
G1 X-37.28 Y96.192 Z7.005
X-37.327 Y96.17 Z7.019
X-37.372 Y96.149 Z7.042
X-37.401 Y96.109 Z7.078
X-37.426 Y96.076 Z7.122
X-37.445 Y96.05 Z7.173
X-37.458 Y96.032 Z7.229
X-37.465 Y96.023 Z7.289
Y96.022 Z7.318
G0 Z20
X-20.654 Y2.744
Z7.635
G1 Z7.318 F600
X-20.651 Y2.751 Z7.247
X-20.641 Y2.772 Z7.18
X-20.625 Y2.806 Z7.12
X-20.603 Y2.852 Z7.069
X-20.578 Y2.906 Z7.031
X-20.549 Y2.967 Z7.008
X-20.519 Y3.031 Z7
G3 X-20.371 Y3.802 I-1.432 J0.675
G1 X-20.381 Y3.907 F1000
X-20.383 Y3.953
X-20.397 Y4.102
X-20.473 Y4.231
X-20.567 Y4.348
X-20.672 Y4.455
X-20.785 Y4.554
X-20.905 Y4.644
X-21.03 Y4.727
X-21.159 Y4.804
X-21.291 Y4.875
X-21.426 Y4.94
X-21.563 Y5.001
X-21.702 Y5.058
X-21.847 Y5.112
X-22.01 Y5.168
X-22.195 Y5.224
X-22.384 Y5.277
X-22.606 Y5.332
X-22.862 Y5.388
X-23.134 Y5.44
X-23.446 Y5.489
X-23.836 Y5.54
X-24.289 Y5.586
X-24.798 Y5.624
X-25.46 Y5.653
X-26.122 Y5.667
X-26.785 Y5.673
X-27.447 Y5.676
X-28.772 Y5.678
X-32.084
X-32.746 Y5.68
X-33.408 Y5.697
X-34.063 Y5.797
X-34.679 Y6.041
X-35.213 Y6.433
X-35.633 Y6.946
X-35.93 Y7.538
X-36.118 Y8.173
X-36.224 Y8.827
X-36.278 Y9.487
X-36.303 Y10.149
X-36.314 Y10.811
X-36.318 Y11.474
X-36.32 Y12.136
X-36.322 Y14.786
Y40.62
Y90.964
Y93.692
X-36.327 Y93.81
X-36.342 Y93.929
X-36.366 Y94.045
X-36.616 Y95.019
G3 X-36.98 Y95.241 I-0.305 J-0.09 F600
G1 X-37.03 Y95.218 Z7.005
X-37.077 Y95.196 Z7.019
X-37.122 Y95.175 Z7.042
X-37.151 Y95.135 Z7.078
X-37.176 Y95.102 Z7.122
X-37.195 Y95.076 Z7.173
X-37.208 Y95.058 Z7.229
X-37.215 Y95.049 Z7.289
Y95.048 Z7.318
G0 Z20
X-20.724 Y2.911
Z7.635
G1 Z7.318 F600
X-20.72 Y2.918 Z7.247
X-20.709 Y2.939 Z7.18
X-20.691 Y2.972 Z7.12
X-20.667 Y3.017 Z7.069
X-20.638 Y3.07 Z7.031
X-20.606 Y3.129 Z7.008
X-20.573 Y3.191 Z7
G3 X-20.383 Y3.953 I-1.393 J0.752
G1 X-20.387 Y4.058 F1000
Y4.103
X-20.395 Y4.253
X-20.464 Y4.386
X-20.552 Y4.507
X-20.653 Y4.618
X-20.763 Y4.721
X-20.88 Y4.815
X-21.002 Y4.902
X-21.129 Y4.982
X-21.259 Y5.057
X-21.392 Y5.126
X-21.528 Y5.19
X-21.665 Y5.249
X-21.805 Y5.305
X-21.96 Y5.362
X-22.137 Y5.421
X-22.322 Y5.477
X-22.526 Y5.532
X-22.759 Y5.588
X-23.03 Y5.645
X-23.31 Y5.696
X-23.655 Y5.749
X-24.061 Y5.8
X-24.514 Y5.843
X-25.083 Y5.881
X-25.744 Y5.906
X-26.407 Y5.918
X-27.069 Y5.924
X-27.732 Y5.926
X-29.056 Y5.928
X-31.706
X-32.368 Y5.929
X-33.031 Y5.94
X-33.689 Y6.018
X-34.315 Y6.232
X-34.869 Y6.596
X-35.313 Y7.088
X-35.632 Y7.668
X-35.838 Y8.298
X-35.957 Y8.949
X-36.019 Y9.609
X-36.049 Y10.271
X-36.062 Y10.933
X-36.068 Y11.595
X-36.07 Y12.258
X-36.072 Y14.245
Y41.404
Y91.748
Y92.718
X-36.077 Y92.836
X-36.092 Y92.954
X-36.116 Y93.071
X-36.366 Y94.045
G3 X-36.73 Y94.267 I-0.305 J-0.09 F600
G1 X-36.78 Y94.244 Z7.005
X-36.827 Y94.222 Z7.019
X-36.872 Y94.201 Z7.042
X-36.901 Y94.161 Z7.078
X-36.926 Y94.128 Z7.122
X-36.945 Y94.101 Z7.173
X-36.958 Y94.084 Z7.229
X-36.965 Y94.075 Z7.289
Y94.074 Z7.318
G0 Z20
X-20.771 Y3.077
Z7.635
G1 Z7.318 F600
X-20.767 Y3.084 Z7.247
X-20.755 Y3.104 Z7.18
X-20.735 Y3.136 Z7.12
X-20.71 Y3.18 Z7.069
X-20.679 Y3.231 Z7.031
X-20.645 Y3.289 Z7.008
X-20.609 Y3.35 Z7
G3 X-20.387 Y4.103 I-1.36 J0.809
G1 Y4.254 F1000
X-20.395 Y4.404
X-20.455 Y4.541
X-20.538 Y4.666
X-20.634 Y4.781
X-20.74 Y4.887
X-20.854 Y4.985
X-20.973 Y5.076
X-21.097 Y5.16
X-21.226 Y5.237
X-21.357 Y5.31
X-21.491 Y5.377
X-21.627 Y5.44
X-21.766 Y5.498
X-21.912 Y5.555
X-22.078 Y5.615
X-22.263 Y5.675
X-22.454 Y5.731
X-22.671 Y5.788
X-22.923 Y5.847
X-23.197 Y5.903
X-23.501 Y5.956
X-23.861 Y6.009
X-24.3 Y6.06
X-24.76 Y6.101
X-25.4 Y6.139
X-26.062 Y6.16
X-26.725 Y6.17
X-27.387 Y6.174
X-28.049 Y6.177
X-30.037 Y6.178
X-32.024 Y6.179
X-32.686 Y6.185
X-33.346 Y6.25
X-33.98 Y6.442
X-34.546 Y6.785
X-35.006 Y7.261
X-35.345 Y7.831
X-35.565 Y8.456
X-35.694 Y9.105
X-35.762 Y9.764
X-35.795 Y10.426
X-35.81 Y11.088
X-35.817 Y11.751
X-35.82 Y12.413
X-35.821 Y13.738
X-35.822 Y41.559
Y91.903
Y91.916
X-35.824 Y91.929
X-35.827 Y91.942
X-36.116 Y93.071
G3 X-36.48 Y93.293 I-0.305 J-0.09 F600
G1 X-36.53 Y93.27 Z7.005
X-36.577 Y93.248 Z7.019
X-36.622 Y93.227 Z7.042
X-36.651 Y93.187 Z7.078
X-36.676 Y93.154 Z7.122
X-36.695 Y93.127 Z7.173
X-36.708 Y93.11 Z7.229
X-36.715 Y93.101 Z7.289
Y93.099 Z7.318
G0 Z20
X-20.771 Y3.227
Z7.635
G1 Z7.318 F600
X-20.767 Y3.234 Z7.247
X-20.755 Y3.254 Z7.18
X-20.735 Y3.287 Z7.12
X-20.71 Y3.33 Z7.069
X-20.679 Y3.382 Z7.031
X-20.645 Y3.439 Z7.008
X-20.609 Y3.5 Z7
G3 X-20.387 Y4.254 I-1.36 J0.809
G1 Y4.436 F1000
X-20.395 Y4.586
X-20.455 Y4.723
X-20.536 Y4.849
X-20.63 Y4.966
X-20.735 Y5.074
X-20.847 Y5.173
X-20.965 Y5.266
X-21.088 Y5.352
X-21.215 Y5.432
X-21.345 Y5.506
X-21.478 Y5.576
X-21.613 Y5.641
X-21.751 Y5.702
X-21.893 Y5.759
X-22.049 Y5.818
X-22.228 Y5.88
X-22.426 Y5.941
X-22.629 Y5.998
X-22.862 Y6.057
X-23.133 Y6.116
X-23.43 Y6.173
X-23.759 Y6.227
X-24.142 Y6.278
X-24.628 Y6.328
X-25.149 Y6.368
X-25.81 Y6.399
X-26.472 Y6.414
X-27.135 Y6.422
X-27.797 Y6.425
X-29.122 Y6.428
X-31.772 Y6.429
X-32.434 Y6.434
X-33.093 Y6.5
X-33.728 Y6.689
X-34.294 Y7.034
X-34.754 Y7.511
X-35.092 Y8.08
X-35.315 Y8.704
X-35.445 Y9.353
X-35.512 Y10.012
X-35.545 Y10.674
X-35.56 Y11.336
X-35.567 Y11.999
X-35.57 Y12.661
X-35.571 Y13.986
X-35.572 Y42.47
Y90.769
X-35.577 Y90.888
X-35.592 Y91.006
X-35.616 Y91.123
X-35.827 Y91.942
G3 X-36.191 Y92.165 I-0.305 J-0.09 F600
G1 X-36.24 Y92.142 Z7.005
X-36.288 Y92.119 Z7.019
X-36.333 Y92.098 Z7.042
X-36.362 Y92.059 Z7.078
X-36.386 Y92.025 Z7.122
X-36.406 Y91.999 Z7.173
X-36.419 Y91.981 Z7.229
X-36.425 Y91.972 Z7.289
X-36.426 Y91.971 Z7.318
G0 Z20
X-20.771 Y3.409
Z7.635
G1 Z7.318 F600
X-20.767 Y3.416 Z7.247
X-20.755 Y3.436 Z7.18
X-20.735 Y3.469 Z7.12
X-20.71 Y3.512 Z7.069
X-20.679 Y3.564 Z7.031
X-20.645 Y3.622 Z7.008
X-20.609 Y3.682 Z7
G3 X-20.387 Y4.436 I-1.36 J0.809
G1 Y4.629 F1000
X-20.395 Y4.779
X-20.456 Y4.916
X-20.537 Y5.042
X-20.63 Y5.16
X-20.734 Y5.268
X-20.845 Y5.369
X-20.962 Y5.463
X-21.083 Y5.55
X-21.209 Y5.632
X-21.339 Y5.708
X-21.471 Y5.779
X-21.605 Y5.846
X-21.742 Y5.908
X-21.888 Y5.97
X-22.04 Y6.029
X-22.212 Y6.091
X-22.407 Y6.154
X-22.614 Y6.215
X-22.839 Y6.274
X-23.096 Y6.334
X-23.391 Y6.395
X-23.707 Y6.45
X-24.076 Y6.503
X-24.51 Y6.554
X-25.043 Y6.601
X-25.675 Y6.639
X-26.337 Y6.659
X-26.999 Y6.669
X-27.661 Y6.674
X-28.324 Y6.676
X-30.311 Y6.678
X-31.636 Y6.679
X-32.298 Y6.692
X-32.956 Y6.773
X-33.582 Y6.99
X-34.13 Y7.361
X-34.569 Y7.857
X-34.887 Y8.438
X-35.092 Y9.068
X-35.211 Y9.72
X-35.271 Y10.379
X-35.299 Y11.041
X-35.312 Y11.704
X-35.318 Y12.366
X-35.32 Y13.028
X-35.321 Y15.016
X-35.322 Y42.837
Y89.795
X-35.327 Y89.914
X-35.342 Y90.032
X-35.366 Y90.149
X-35.616 Y91.123
G3 X-35.98 Y91.345 I-0.305 J-0.09 F600
G1 X-36.03 Y91.322 Z7.005
X-36.077 Y91.3 Z7.019
X-36.122 Y91.279 Z7.042
X-36.151 Y91.239 Z7.078
X-36.176 Y91.205 Z7.122
X-36.195 Y91.179 Z7.173
X-36.208 Y91.161 Z7.229
X-36.215 Y91.153 Z7.289
Y91.151 Z7.318
G0 Z20
X-20.771 Y3.603
Z7.635
G1 Z7.318 F600
X-20.767 Y3.609 Z7.247
X-20.755 Y3.63 Z7.18
X-20.735 Y3.662 Z7.12
X-20.71 Y3.705 Z7.069
X-20.679 Y3.757 Z7.031
X-20.645 Y3.815 Z7.008
X-20.609 Y3.875 Z7
G3 X-20.387 Y4.629 I-1.36 J0.809
G1 Y4.81 F1000
X-20.395 Y4.96
X-20.453 Y5.098
X-20.531 Y5.226
X-20.622 Y5.345
X-20.724 Y5.456
X-20.833 Y5.558
X-20.948 Y5.654
X-21.069 Y5.743
X-21.193 Y5.827
X-21.321 Y5.905
X-21.452 Y5.978
X-21.586 Y6.047
X-21.721 Y6.111
X-21.864 Y6.174
X-22.016 Y6.235
X-22.185 Y6.298
X-22.374 Y6.363
X-22.576 Y6.425
X-22.795 Y6.486
X-23.044 Y6.548
X-23.329 Y6.61
X-23.635 Y6.668
X-23.975 Y6.723
X-24.394 Y6.778
X-24.902 Y6.83
X-25.446 Y6.87
X-26.108 Y6.9
X-26.77 Y6.914
X-27.433 Y6.922
X-28.095 Y6.925
X-29.42 Y6.928
X-31.407 Y6.929
X-32.069 Y6.942
X-32.726 Y7.028
X-33.35 Y7.25
X-33.896 Y7.626
X-34.331 Y8.125
X-34.645 Y8.708
X-34.849 Y9.339
X-34.964 Y9.991
X-35.022 Y10.651
X-35.05 Y11.313
X-35.062 Y11.975
X-35.068 Y12.637
X-35.07 Y13.3
X-35.072 Y15.287
Y43.109
Y88.821
X-35.077 Y88.94
X-35.092 Y89.058
X-35.116 Y89.175
X-35.366 Y90.149
G3 X-35.73 Y90.371 I-0.305 J-0.09 F600
G1 X-35.78 Y90.348 Z7.005
X-35.827 Y90.325 Z7.019
X-35.872 Y90.304 Z7.042
X-35.901 Y90.265 Z7.078
X-35.926 Y90.231 Z7.122
X-35.945 Y90.205 Z7.173
X-35.958 Y90.187 Z7.229
X-35.965 Y90.178 Z7.289
Y90.177 Z7.318
G0 Z20
X-20.771 Y3.783
Z7.635
G1 Z7.318 F600
X-20.767 Y3.79 Z7.247
X-20.755 Y3.811 Z7.18
X-20.735 Y3.843 Z7.12
X-20.71 Y3.886 Z7.069
X-20.679 Y3.938 Z7.031
X-20.645 Y3.996 Z7.008
X-20.609 Y4.056 Z7
G3 X-20.387 Y4.81 I-1.36 J0.809
G1 Y5.006 F1000
X-20.395 Y5.156
X-20.453 Y5.294
X-20.53 Y5.423
X-20.62 Y5.542
X-20.721 Y5.654
X-20.829 Y5.757
X-20.944 Y5.854
X-21.063 Y5.945
X-21.187 Y6.03
X-21.314 Y6.109
X-21.444 Y6.184
X-21.577 Y6.254
X-21.712 Y6.319
X-21.857 Y6.385
X-22.007 Y6.448
X-22.172 Y6.511
X-22.358 Y6.577
X-22.566 Y6.644
X-22.779 Y6.706
X-23.02 Y6.768
X-23.291 Y6.83
X-23.608 Y6.894
X-23.934 Y6.95
X-24.332 Y7.006
X-24.795 Y7.058
X-25.349 Y7.105
X-26.01 Y7.142
X-26.672 Y7.16
X-27.335 Y7.17
X-27.997 Y7.174
X-28.659 Y7.176
X-30.647 Y7.178
X-31.309 Y7.18
X-31.971 Y7.205
X-32.624 Y7.315
X-33.233 Y7.576
X-33.755 Y7.984
X-34.163 Y8.506
X-34.45 Y9.103
X-34.631 Y9.74
X-34.732 Y10.395
X-34.782 Y11.055
X-34.804 Y11.717
X-34.814 Y12.379
X-34.818 Y13.042
X-34.82 Y13.704
X-34.822 Y16.354
Y43.513
Y87.847
X-34.827 Y87.966
X-34.842 Y88.084
X-34.866 Y88.201
X-35.116 Y89.175
G3 X-35.48 Y89.397 I-0.305 J-0.09 F600
G1 X-35.53 Y89.374 Z7.005
X-35.577 Y89.351 Z7.019
X-35.622 Y89.33 Z7.042
X-35.651 Y89.291 Z7.078
X-35.676 Y89.257 Z7.122
X-35.695 Y89.231 Z7.173
X-35.708 Y89.213 Z7.229
X-35.715 Y89.204 Z7.289
Y89.203 Z7.318
G0 Z20
X-20.771 Y3.979
Z7.635
G1 Z7.318 F600
X-20.767 Y3.986 Z7.247
X-20.755 Y4.006 Z7.18
X-20.735 Y4.039 Z7.12
X-20.71 Y4.082 Z7.069
X-20.679 Y4.134 Z7.031
X-20.645 Y4.192 Z7.008
X-20.609 Y4.252 Z7
G3 X-20.387 Y5.006 I-1.36 J0.809
G1 Y5.188 F1000
X-20.395 Y5.338
X-20.448 Y5.478
X-20.522 Y5.608
X-20.611 Y5.73
X-20.709 Y5.843
X-20.816 Y5.948
X-20.929 Y6.047
X-21.047 Y6.139
X-21.169 Y6.226
X-21.295 Y6.307
X-21.425 Y6.384
X-21.556 Y6.455
X-21.69 Y6.523
X-21.833 Y6.589
X-21.981 Y6.654
X-22.144 Y6.719
X-22.326 Y6.786
X-22.528 Y6.854
X-22.735 Y6.917
X-22.974 Y6.982
X-23.239 Y7.047
X-23.545 Y7.112
X-23.857 Y7.169
X-24.228 Y7.227
X-24.676 Y7.284
X-25.214 Y7.336
X-25.782 Y7.375
X-26.444 Y7.402
X-27.106 Y7.415
X-27.768 Y7.422
X-28.431 Y7.425
X-29.756 Y7.428
X-30.418
X-31.081 Y7.43
X-31.742 Y7.456
X-32.394 Y7.573
X-33.002 Y7.837
X-33.52 Y8.25
X-33.924 Y8.775
X-34.209 Y9.373
X-34.387 Y10.011
X-34.484 Y10.666
X-34.532 Y11.327
X-34.554 Y11.989
X-34.564 Y12.651
X-34.568 Y13.314
X-34.57 Y13.976
X-34.572 Y16.626
Y44.447
Y86.873
X-34.577 Y86.992
X-34.592 Y87.11
X-34.616 Y87.226
X-34.866 Y88.201
G3 X-35.23 Y88.423 I-0.305 J-0.09 F600
G1 X-35.28 Y88.4 Z7.005
X-35.327 Y88.377 Z7.019
X-35.372 Y88.356 Z7.042
X-35.401 Y88.317 Z7.078
X-35.426 Y88.283 Z7.122
X-35.445 Y88.257 Z7.173
X-35.458 Y88.239 Z7.229
X-35.465 Y88.23 Z7.289
Y88.229 Z7.318
G0 Z20
X-20.771 Y4.162
Z7.635
G1 Z7.318 F600
X-20.767 Y4.168 Z7.247
X-20.755 Y4.189 Z7.18
X-20.735 Y4.221 Z7.12
X-20.71 Y4.264 Z7.069
X-20.679 Y4.316 Z7.031
X-20.645 Y4.374 Z7.008
X-20.609 Y4.435 Z7
G3 X-20.387 Y5.188 I-1.36 J0.809
G1 Y5.381 F1000
X-20.395 Y5.531
X-20.446 Y5.672
X-20.519 Y5.803
X-20.606 Y5.926
X-20.703 Y6.04
X-20.808 Y6.146
X-20.92 Y6.246
X-21.037 Y6.34
X-21.159 Y6.428
X-21.284 Y6.511
X-21.412 Y6.589
X-21.543 Y6.662
X-21.676 Y6.731
X-21.819 Y6.799
X-21.967 Y6.865
X-22.126 Y6.931
X-22.305 Y6.999
X-22.505 Y7.068
X-22.715 Y7.135
X-22.946 Y7.201
X-23.204 Y7.266
X-23.496 Y7.332
X-23.821 Y7.395
X-24.17 Y7.453
X-24.601 Y7.512
X-25.093 Y7.565
X-25.663 Y7.61
X-26.325 Y7.644
X-26.987 Y7.661
X-27.649 Y7.67
X-28.312 Y7.674
X-28.974 Y7.676
X-30.299 Y7.678
X-30.961 Y7.682
X-31.623 Y7.721
X-32.27 Y7.861
X-32.862 Y8.159
X-33.359 Y8.597
X-33.739 Y9.139
X-34 Y9.748
X-34.161 Y10.391
X-34.247 Y11.047
X-34.289 Y11.709
X-34.307 Y12.371
X-34.316 Y13.033
X-34.319 Y13.695
X-34.321 Y15.02
X-34.322 Y44.829
Y85.899
X-34.327 Y86.018
X-34.342 Y86.136
X-34.366 Y86.252
X-34.616 Y87.226
G3 X-34.98 Y87.449 I-0.305 J-0.09 F600
G1 X-35.03 Y87.426 Z7.005
X-35.077 Y87.403 Z7.019
X-35.122 Y87.382 Z7.042
X-35.151 Y87.343 Z7.078
X-35.176 Y87.309 Z7.122
X-35.195 Y87.283 Z7.173
X-35.208 Y87.265 Z7.229
X-35.215 Y87.256 Z7.289
Y87.255 Z7.318
G0 Z20
X-20.771 Y4.355
Z7.635
G1 Z7.318 F600
X-20.767 Y4.362 Z7.247
X-20.755 Y4.382 Z7.18
X-20.735 Y4.414 Z7.12
X-20.71 Y4.458 Z7.069
X-20.679 Y4.509 Z7.031
X-20.645 Y4.567 Z7.008
X-20.609 Y4.628 Z7
G3 X-20.387 Y5.381 I-1.36 J0.809
G1 Y5.608 F1000
X-20.395 Y5.757
X-20.452 Y5.896
X-20.527 Y6.026
X-20.616 Y6.147
X-20.714 Y6.26
X-20.82 Y6.366
X-20.932 Y6.466
X-21.049 Y6.56
X-21.171 Y6.648
X-21.295 Y6.731
X-21.423 Y6.809
X-21.554 Y6.883
X-21.687 Y6.953
X-21.83 Y7.022
X-21.986 Y7.092
X-22.146 Y7.159
X-22.323 Y7.227
X-22.521 Y7.297
X-22.743 Y7.368
X-22.973 Y7.434
X-23.229 Y7.5
X-23.516 Y7.566
X-23.851 Y7.633
X-24.216 Y7.695
X-24.615 Y7.751
X-25.097 Y7.805
X-25.675 Y7.853
X-26.337 Y7.889
X-26.999 Y7.908
X-27.661 Y7.918
X-28.324 Y7.923
X-28.986 Y7.926
X-30.311 Y7.929
X-30.973 Y7.942
X-31.632 Y8.009
X-32.262 Y8.213
X-32.821 Y8.57
X-33.273 Y9.054
X-33.604 Y9.627
X-33.823 Y10.253
X-33.951 Y10.903
X-34.017 Y11.562
X-34.048 Y12.223
X-34.062 Y12.886
X-34.067 Y13.548
X-34.07 Y14.21
X-34.071 Y16.198
X-34.072 Y45.344
Y84.925
X-34.077 Y85.044
X-34.092 Y85.162
X-34.116 Y85.278
X-34.366 Y86.252
G3 X-34.73 Y86.475 I-0.305 J-0.09 F600
G1 X-34.78 Y86.452 Z7.005
X-34.827 Y86.429 Z7.019
X-34.872 Y86.408 Z7.042
X-34.901 Y86.369 Z7.078
X-34.926 Y86.335 Z7.122
X-34.945 Y86.309 Z7.173
X-34.958 Y86.291 Z7.229
X-34.965 Y86.282 Z7.289
Y86.281 Z7.318
G0 Z20
X-20.771 Y4.581
Z7.635
G1 Z7.318 F600
X-20.767 Y4.588 Z7.247
X-20.755 Y4.608 Z7.18
X-20.735 Y4.641 Z7.12
X-20.71 Y4.684 Z7.069
X-20.679 Y4.736 Z7.031
X-20.645 Y4.793 Z7.008
X-20.609 Y4.854 Z7
G3 X-20.387 Y5.608 I-1.36 J0.809
G1 Y5.79 F1000
X-20.395 Y5.94
X-20.445 Y6.081
X-20.517 Y6.213
X-20.603 Y6.336
X-20.699 Y6.451
X-20.803 Y6.559
X-20.913 Y6.661
X-21.029 Y6.756
X-21.149 Y6.846
X-21.273 Y6.93
X-21.4 Y7.01
X-21.53 Y7.086
X-21.662 Y7.157
X-21.802 Y7.227
X-21.947 Y7.294
X-22.109 Y7.364
X-22.287 Y7.435
X-22.484 Y7.508
X-22.689 Y7.576
X-22.913 Y7.644
X-23.171 Y7.714
X-23.462 Y7.785
X-23.774 Y7.851
X-24.105 Y7.911
X-24.5 Y7.972
X-24.973 Y8.031
X-25.525 Y8.084
X-26.126 Y8.125
X-26.788 Y8.151
X-27.451 Y8.164
X-28.113 Y8.171
X-28.775 Y8.175
X-30.1 Y8.178
X-30.762 Y8.192
X-31.42 Y8.27
X-32.048 Y8.48
X-32.601 Y8.845
X-33.046 Y9.336
X-33.371 Y9.913
X-33.585 Y10.54
X-33.707 Y11.191
X-33.77 Y11.85
X-33.799 Y12.512
X-33.812 Y13.174
X-33.818 Y13.837
X-33.82 Y14.499
X-33.821 Y16.487
X-33.822 Y45.633
Y83.951
X-33.827 Y84.07
X-33.842 Y84.188
X-33.866 Y84.304
X-34.116 Y85.278
G3 X-34.48 Y85.501 I-0.305 J-0.09 F600
G1 X-34.53 Y85.478 Z7.005
X-34.577 Y85.455 Z7.019
X-34.622 Y85.434 Z7.042
X-34.651 Y85.395 Z7.078
X-34.676 Y85.361 Z7.122
X-34.695 Y85.335 Z7.173
X-34.708 Y85.317 Z7.229
X-34.715 Y85.308 Z7.289
Y85.307 Z7.318
G0 Z20
X-20.771 Y4.763
Z7.635
G1 Z7.318 F600
X-20.767 Y4.77 Z7.247
X-20.755 Y4.79 Z7.18
X-20.735 Y4.823 Z7.12
X-20.71 Y4.866 Z7.069
X-20.679 Y4.918 Z7.031
X-20.645 Y4.976 Z7.008
X-20.609 Y5.036 Z7
G3 X-20.387 Y5.79 I-1.36 J0.809
G1 Y5.983 F1000
X-20.395 Y6.133
X-20.442 Y6.275
X-20.511 Y6.408
X-20.595 Y6.533
X-20.689 Y6.649
X-20.792 Y6.759
X-20.901 Y6.861
X-21.016 Y6.958
X-21.135 Y7.049
X-21.258 Y7.135
X-21.384 Y7.216
X-21.513 Y7.293
X-21.645 Y7.365
X-21.785 Y7.437
X-21.932 Y7.508
X-22.089 Y7.577
X-22.262 Y7.648
X-22.456 Y7.721
X-22.667 Y7.794
X-22.888 Y7.863
X-23.138 Y7.934
X-23.414 Y8.004
X-23.728 Y8.073
X-24.057 Y8.137
X-24.437 Y8.199
X-24.893 Y8.26
X-25.414 Y8.316
X-26.002 Y8.361
X-26.664 Y8.393
X-27.326 Y8.41
X-27.988 Y8.419
X-28.651 Y8.424
X-29.976 Y8.429
X-30.638 Y8.45
X-31.293 Y8.548
X-31.91 Y8.79
X-32.444 Y9.181
X-32.867 Y9.691
X-33.169 Y10.28
X-33.363 Y10.914
X-33.473 Y11.567
X-33.528 Y12.227
X-33.553 Y12.889
X-33.564 Y13.551
X-33.568 Y14.214
X-33.57 Y14.876
X-33.572 Y17.526
Y46.01
Y82.977
X-33.577 Y83.096
X-33.592 Y83.214
X-33.616 Y83.33
X-33.866 Y84.304
G3 X-34.23 Y84.526 I-0.305 J-0.09 F600
G1 X-34.28 Y84.503 Z7.005
X-34.327 Y84.481 Z7.019
X-34.372 Y84.46 Z7.042
X-34.401 Y84.42 Z7.078
X-34.426 Y84.387 Z7.122
X-34.445 Y84.361 Z7.173
X-34.458 Y84.343 Z7.229
X-34.465 Y84.334 Z7.289
Y84.333 Z7.318
G0 Z20
X-20.771 Y4.957
Z7.635
G1 Z7.318 F600
X-20.767 Y4.963 Z7.247
X-20.755 Y4.984 Z7.18
X-20.735 Y5.016 Z7.12
X-20.71 Y5.059 Z7.069
X-20.679 Y5.111 Z7.031
X-20.645 Y5.169 Z7.008
X-20.609 Y5.229 Z7
G3 X-20.387 Y5.983 I-1.36 J0.809
G1 Y6.209 F1000
X-20.395 Y6.359
X-20.447 Y6.5
X-20.518 Y6.632
X-20.603 Y6.755
X-20.698 Y6.871
X-20.801 Y6.98
X-20.911 Y7.083
X-21.025 Y7.18
X-21.144 Y7.271
X-21.267 Y7.358
X-21.393 Y7.439
X-21.522 Y7.516
X-21.653 Y7.589
X-21.792 Y7.661
X-21.946 Y7.735
X-22.105 Y7.806
X-22.278 Y7.878
X-22.47 Y7.951
X-22.685 Y8.026
X-22.916 Y8.099
X-23.16 Y8.169
X-23.433 Y8.239
X-23.743 Y8.309
X-24.101 Y8.379
X-24.472 Y8.441
X-24.906 Y8.501
X-25.417 Y8.556
X-26.017 Y8.605
X-26.679 Y8.639
X-27.341 Y8.658
X-28.003 Y8.668
X-28.666 Y8.673
X-29.328 Y8.676
X-29.991 Y8.684
X-30.652 Y8.726
X-31.297 Y8.877
X-31.885 Y9.182
X-32.377 Y9.625
X-32.751 Y10.172
X-33.007 Y10.783
X-33.164 Y11.426
X-33.249 Y12.083
X-33.29 Y12.744
X-33.308 Y13.407
X-33.316 Y14.069
X-33.319 Y14.731
X-33.321 Y16.056
X-33.322 Y46.527
Y82.003
X-33.327 Y82.122
X-33.342 Y82.24
X-33.366 Y82.356
X-33.616 Y83.33
G3 X-33.98 Y83.552 I-0.305 J-0.09 F600
G1 X-34.03 Y83.529 Z7.005
X-34.077 Y83.507 Z7.019
X-34.122 Y83.486 Z7.042
X-34.151 Y83.446 Z7.078
X-34.176 Y83.413 Z7.122
X-34.195 Y83.387 Z7.173
X-34.208 Y83.369 Z7.229
X-34.215 Y83.36 Z7.289
Y83.359 Z7.318
G0 Z20
X-20.771 Y5.183
Z7.635
G1 Z7.318 F600
X-20.767 Y5.19 Z7.247
X-20.755 Y5.21 Z7.18
X-20.735 Y5.243 Z7.12
X-20.71 Y5.286 Z7.069
X-20.679 Y5.337 Z7.031
X-20.645 Y5.395 Z7.008
X-20.609 Y5.456 Z7
G3 X-20.387 Y6.209 I-1.36 J0.809
G1 Y6.434 F1000
X-20.395 Y6.584
X-20.45 Y6.724
X-20.523 Y6.855
X-20.609 Y6.978
X-20.704 Y7.093
X-20.808 Y7.202
X-20.917 Y7.305
X-21.032 Y7.402
X-21.15 Y7.493
X-21.273 Y7.58
X-21.399 Y7.661
X-21.527 Y7.739
X-21.658 Y7.812
X-21.799 Y7.885
X-21.953 Y7.96
X-22.112 Y8.032
X-22.288 Y8.106
X-22.482 Y8.181
X-22.696 Y8.256
X-22.925 Y8.33
X-23.169 Y8.401
X-23.451 Y8.474
X-23.763 Y8.546
X-24.117 Y8.616
X-24.482 Y8.679
X-24.908 Y8.739
X-25.419 Y8.797
X-26.015 Y8.847
X-26.676 Y8.884
X-27.338 Y8.905
X-28.001 Y8.916
X-28.663 Y8.922
X-29.326 Y8.927
X-29.988 Y8.943
X-30.646 Y9.015
X-31.275 Y9.224
X-31.831 Y9.584
X-32.28 Y10.071
X-32.608 Y10.647
X-32.825 Y11.273
X-32.952 Y11.923
X-33.018 Y12.582
X-33.049 Y13.244
X-33.062 Y13.906
X-33.068 Y14.568
X-33.07 Y15.231
X-33.072 Y17.218
Y47.027
Y81.029
X-33.077 Y81.148
X-33.092 Y81.266
X-33.116 Y81.382
X-33.366 Y82.356
G3 X-33.73 Y82.578 I-0.305 J-0.09 F600
G1 X-33.78 Y82.555 Z7.005
X-33.827 Y82.533 Z7.019
X-33.872 Y82.512 Z7.042
X-33.901 Y82.472 Z7.078
X-33.926 Y82.439 Z7.122
X-33.945 Y82.413 Z7.173
X-33.958 Y82.395 Z7.229
X-33.965 Y82.386 Z7.289
Y82.385 Z7.318
G0 Z20
X-20.771 Y5.408
Z7.635
G1 Z7.318 F600
X-20.767 Y5.415 Z7.247
X-20.755 Y5.435 Z7.18
X-20.735 Y5.467 Z7.12
X-20.71 Y5.511 Z7.069
X-20.679 Y5.562 Z7.031
X-20.645 Y5.62 Z7.008
X-20.609 Y5.681 Z7
G3 X-20.387 Y6.434 I-1.36 J0.809
G1 Y6.661 F1000
X-20.395 Y6.811
X-20.452 Y6.949
X-20.527 Y7.079
X-20.614 Y7.201
X-20.71 Y7.317
X-20.814 Y7.425
X-20.923 Y7.528
X-21.038 Y7.625
X-21.156 Y7.716
X-21.279 Y7.803
X-21.404 Y7.885
X-21.533 Y7.963
X-21.663 Y8.036
X-21.805 Y8.111
X-21.961 Y8.187
X-22.121 Y8.26
X-22.298 Y8.335
X-22.492 Y8.41
X-22.709 Y8.488
X-22.939 Y8.563
X-23.187 Y8.635
X-23.469 Y8.71
X-23.781 Y8.783
X-24.131 Y8.854
X-24.5 Y8.918
X-24.922 Y8.979
X-25.429 Y9.038
X-26.023 Y9.091
X-26.684 Y9.13
X-27.346 Y9.152
X-28.008 Y9.164
X-29.333 Y9.18
X-29.995 Y9.21
X-30.647 Y9.328
X-31.251 Y9.598
X-31.768 Y10.012
X-32.171 Y10.538
X-32.454 Y11.137
X-32.632 Y11.775
X-32.733 Y12.43
X-32.783 Y13.09
X-32.805 Y13.752
X-32.815 Y14.415
X-32.819 Y15.077
X-32.821 Y16.402
X-32.822 Y47.535
Y80.055
X-32.827 Y80.174
X-32.842 Y80.292
X-32.866 Y80.408
X-33.116 Y81.382
G3 X-33.48 Y81.604 I-0.305 J-0.09 F600
G1 X-33.53 Y81.581 Z7.005
X-33.577 Y81.559 Z7.019
X-33.622 Y81.538 Z7.042
X-33.651 Y81.498 Z7.078
X-33.676 Y81.465 Z7.122
X-33.695 Y81.439 Z7.173
X-33.708 Y81.421 Z7.229
X-33.715 Y81.412 Z7.289
Y81.411 Z7.318
G0 Z20
X-20.771 Y5.634
Z7.635
G1 Z7.318 F600
X-20.767 Y5.641 Z7.247
X-20.755 Y5.661 Z7.18
X-20.735 Y5.694 Z7.12
X-20.71 Y5.737 Z7.069
X-20.679 Y5.789 Z7.031
X-20.645 Y5.846 Z7.008
X-20.609 Y5.907 Z7
G3 X-20.387 Y6.661 I-1.36 J0.809
G1 Y6.843 F1000
X-20.395 Y6.993
X-20.444 Y7.134
X-20.514 Y7.267
X-20.597 Y7.392
X-20.691 Y7.509
X-20.792 Y7.62
X-20.9 Y7.724
X-21.013 Y7.822
X-21.131 Y7.916
X-21.252 Y8.004
X-21.377 Y8.087
X-21.504 Y8.166
X-21.634 Y8.242
X-21.774 Y8.317
X-21.918 Y8.39
X-22.078 Y8.465
X-22.256 Y8.543
X-22.45 Y8.621
X-22.655 Y8.697
X-22.876 Y8.771
X-23.125 Y8.848
X-23.405 Y8.925
X-23.713 Y9.001
X-24.031 Y9.069
X-24.387 Y9.136
X-24.809 Y9.202
X-25.304 Y9.265
X-25.871 Y9.322
X-26.498 Y9.366
X-27.159 Y9.394
X-27.822 Y9.41
X-29.146 Y9.428
X-29.808 Y9.465
X-30.457 Y9.597
X-31.055 Y9.881
X-31.562 Y10.308
X-31.953 Y10.842
X-32.226 Y11.446
X-32.397 Y12.086
X-32.49 Y12.742
X-32.536 Y13.402
X-32.557 Y14.064
X-32.565 Y14.727
X-32.569 Y15.389
X-32.571 Y16.714
X-32.572 Y47.848
Y79.081
X-32.577 Y79.2
X-32.592 Y79.318
X-32.616 Y79.434
X-32.866 Y80.408
G3 X-33.23 Y80.63 I-0.305 J-0.09 F600
G1 X-33.28 Y80.607 Z7.005
X-33.327 Y80.585 Z7.019
X-33.372 Y80.564 Z7.042
X-33.401 Y80.524 Z7.078
X-33.426 Y80.491 Z7.122
X-33.445 Y80.465 Z7.173
X-33.458 Y80.447 Z7.229
X-33.465 Y80.438 Z7.289
Y80.437 Z7.318
G0 Z20
X-20.771 Y5.816
Z7.635
G1 Z7.318 F600
X-20.767 Y5.823 Z7.247
X-20.755 Y5.844 Z7.18
X-20.735 Y5.876 Z7.12
X-20.71 Y5.919 Z7.069
X-20.679 Y5.971 Z7.031
X-20.645 Y6.029 Z7.008
X-20.609 Y6.089 Z7
G3 X-20.387 Y6.843 I-1.36 J0.809
G1 Y7.067 F1000
X-20.395 Y7.216
X-20.447 Y7.357
X-20.517 Y7.49
X-20.601 Y7.614
X-20.695 Y7.731
X-20.796 Y7.841
X-20.904 Y7.946
X-21.017 Y8.045
X-21.134 Y8.138
X-21.255 Y8.227
X-21.38 Y8.31
X-21.507 Y8.39
X-21.636 Y8.466
X-21.777 Y8.542
X-21.931 Y8.62
X-22.089 Y8.695
X-22.262 Y8.771
X-22.454 Y8.849
X-22.669 Y8.93
X-22.899 Y9.008
X-23.143 Y9.084
X-23.413 Y9.159
X-23.712 Y9.233
X-24.053 Y9.308
X-24.424 Y9.378
X-24.829 Y9.443
X-25.314 Y9.507
X-25.87 Y9.564
X-26.507 Y9.611
X-27.169 Y9.641
X-27.831 Y9.658
X-28.493 Y9.669
X-29.155 Y9.685
X-29.815 Y9.749
X-30.449 Y9.94
X-31.016 Y10.283
X-31.479 Y10.757
X-31.823 Y11.323
X-32.053 Y11.944
X-32.19 Y12.592
X-32.262 Y13.251
X-32.296 Y13.912
X-32.311 Y14.575
X-32.317 Y15.237
X-32.32 Y15.899
X-32.322 Y17.887
Y48.358
Y78.107
X-32.327 Y78.226
X-32.342 Y78.344
X-32.366 Y78.46
X-32.616 Y79.434
G3 X-32.98 Y79.656 I-0.305 J-0.09 F600
G1 X-33.03 Y79.633 Z7.005
X-33.077 Y79.611 Z7.019
X-33.122 Y79.59 Z7.042
X-33.151 Y79.55 Z7.078
X-33.176 Y79.517 Z7.122
X-33.195 Y79.491 Z7.173
X-33.208 Y79.473 Z7.229
X-33.215 Y79.464 Z7.289
Y79.463 Z7.318
G0 Z20
X-20.771 Y6.04
Z7.635
G1 Z7.318 F600
X-20.767 Y6.047 Z7.247
X-20.755 Y6.067 Z7.18
X-20.735 Y6.1 Z7.12
X-20.71 Y6.143 Z7.069
X-20.679 Y6.195 Z7.031
X-20.645 Y6.252 Z7.008
X-20.609 Y6.313 Z7
G3 X-20.387 Y7.067 I-1.36 J0.809
G1 Y7.263 F1000
X-20.395 Y7.412
X-20.441 Y7.555
X-20.509 Y7.689
X-20.59 Y7.815
X-20.682 Y7.933
X-20.782 Y8.045
X-20.889 Y8.151
X-21.001 Y8.251
X-21.117 Y8.345
X-21.238 Y8.435
X-21.361 Y8.52
X-21.487 Y8.601
X-21.616 Y8.677
X-21.755 Y8.755
X-21.901 Y8.831
X-22.059 Y8.907
X-22.235 Y8.986
X-22.428 Y9.067
X-22.638 Y9.147
X-22.853 Y9.223
X-23.094 Y9.3
X-23.368 Y9.379
X-23.672 Y9.457
X-24.003 Y9.533
X-24.344 Y9.6
X-24.75 Y9.669
X-25.224 Y9.736
X-25.771 Y9.796
X-26.374 Y9.846
X-27.035 Y9.882
X-27.697 Y9.903
X-28.359 Y9.916
X-29.022 Y9.939
X-29.679 Y10.022
X-30.305 Y10.239
X-30.855 Y10.607
X-31.298 Y11.1
X-31.621 Y11.678
X-31.833 Y12.306
X-31.957 Y12.956
X-32.021 Y13.616
X-32.05 Y14.278
X-32.063 Y14.94
X-32.068 Y15.602
X-32.07 Y16.265
X-32.072 Y18.252
Y49.386
Y77.133
X-32.077 Y77.251
X-32.092 Y77.369
X-32.116 Y77.486
X-32.366 Y78.46
G3 X-32.73 Y78.682 I-0.305 J-0.09 F600
G1 X-32.78 Y78.659 Z7.005
X-32.827 Y78.637 Z7.019
X-32.872 Y78.616 Z7.042
X-32.901 Y78.576 Z7.078
X-32.926 Y78.543 Z7.122
X-32.945 Y78.517 Z7.173
X-32.958 Y78.499 Z7.229
X-32.965 Y78.49 Z7.289
Y78.489 Z7.318
G0 Z20
X-20.771 Y6.236
Z7.635
G1 Z7.318 F600
X-20.767 Y6.243 Z7.247
X-20.755 Y6.263 Z7.18
X-20.735 Y6.296 Z7.12
X-20.71 Y6.339 Z7.069
X-20.679 Y6.391 Z7.031
X-20.645 Y6.448 Z7.008
X-20.609 Y6.509 Z7
G3 X-20.387 Y7.263 I-1.36 J0.809
G1 Y7.487 F1000
X-20.395 Y7.637
X-20.444 Y7.779
X-20.512 Y7.913
X-20.594 Y8.038
X-20.686 Y8.157
X-20.786 Y8.268
X-20.892 Y8.374
X-21.004 Y8.474
X-21.12 Y8.569
X-21.24 Y8.659
X-21.364 Y8.745
X-21.49 Y8.826
X-21.618 Y8.903
X-21.758 Y8.981
X-21.911 Y9.061
X-22.069 Y9.138
X-22.24 Y9.216
X-22.43 Y9.295
X-22.641 Y9.377
X-22.871 Y9.458
X-23.11 Y9.536
X-23.381 Y9.615
X-23.676 Y9.692
X-24.009 Y9.769
X-24.38 Y9.843
X-24.767 Y9.91
X-25.233 Y9.977
X-25.768 Y10.038
X-26.381 Y10.09
X-27.042 Y10.128
X-27.704 Y10.151
X-28.366 Y10.168
X-29.028 Y10.207
X-29.678 Y10.335
X-30.278 Y10.614
X-30.79 Y11.035
X-31.186 Y11.566
X-31.464 Y12.167
X-31.639 Y12.806
X-31.737 Y13.461
X-31.785 Y14.122
X-31.806 Y14.784
X-31.815 Y15.446
X-31.819 Y16.108
X-31.821 Y17.433
X-31.822 Y49.892
Y76.159
X-31.827 Y76.277
X-31.842 Y76.395
X-31.866 Y76.512
X-32.116 Y77.486
G3 X-32.48 Y77.708 I-0.305 J-0.09 F600
G1 X-32.53 Y77.685 Z7.005
X-32.577 Y77.663 Z7.019
X-32.622 Y77.642 Z7.042
X-32.651 Y77.602 Z7.078
X-32.676 Y77.569 Z7.122
X-32.695 Y77.542 Z7.173
X-32.708 Y77.525 Z7.229
X-32.715 Y77.516 Z7.289
Y77.515 Z7.318
G0 Z20
X-20.771 Y6.461
Z7.635
G1 Z7.318 F600
X-20.767 Y6.468 Z7.247
X-20.755 Y6.488 Z7.18
X-20.735 Y6.521 Z7.12
X-20.71 Y6.564 Z7.069
X-20.679 Y6.615 Z7.031
X-20.645 Y6.673 Z7.008
X-20.609 Y6.734 Z7
G3 X-20.387 Y7.487 I-1.36 J0.809
G1 Y7.714 F1000
X-20.395 Y7.864
X-20.445 Y8.005
X-20.515 Y8.138
X-20.597 Y8.263
X-20.689 Y8.381
X-20.789 Y8.493
X-20.896 Y8.599
X-21.007 Y8.699
X-21.123 Y8.794
X-21.243 Y8.884
X-21.366 Y8.97
X-21.492 Y9.052
X-21.621 Y9.129
X-21.76 Y9.208
X-21.913 Y9.288
X-22.07 Y9.366
X-22.245 Y9.446
X-22.437 Y9.527
X-22.649 Y9.609
X-22.878 Y9.691
X-23.115 Y9.769
X-23.385 Y9.848
X-23.689 Y9.929
X-24.022 Y10.007
X-24.391 Y10.082
X-24.775 Y10.15
X-25.234 Y10.217
X-25.769 Y10.28
X-26.382 Y10.334
X-27.043 Y10.374
X-28.367 Y10.423
X-29.026 Y10.487
X-29.662 Y10.671
X-30.233 Y11.007
X-30.703 Y11.474
X-31.054 Y12.036
X-31.29 Y12.655
X-31.433 Y13.302
X-31.509 Y13.96
X-31.545 Y14.621
X-31.561 Y15.284
X-31.567 Y15.946
X-31.57 Y16.608
X-31.571 Y17.933
X-31.572 Y50.392
Y75.185
X-31.577 Y75.303
X-31.592 Y75.421
X-31.616 Y75.538
X-31.866 Y76.512
G3 X-32.23 Y76.734 I-0.305 J-0.09 F600
G1 X-32.28 Y76.711 Z7.005
X-32.327 Y76.689 Z7.019
X-32.372 Y76.668 Z7.042
X-32.401 Y76.628 Z7.078
X-32.426 Y76.595 Z7.122
X-32.445 Y76.568 Z7.173
X-32.458 Y76.551 Z7.229
X-32.465 Y76.542 Z7.289
Y76.54 Z7.318
G0 Z20
X-20.771 Y6.687
Z7.635
G1 Z7.318 F600
X-20.767 Y6.694 Z7.247
X-20.755 Y6.714 Z7.18
X-20.735 Y6.747 Z7.12
X-20.71 Y6.79 Z7.069
X-20.679 Y6.842 Z7.031
X-20.645 Y6.9 Z7.008
X-20.609 Y6.96 Z7
G3 X-20.387 Y7.714 I-1.36 J0.809
G1 Y7.939 F1000
X-20.395 Y8.089
X-20.446 Y8.229
X-20.516 Y8.362
X-20.599 Y8.487
X-20.691 Y8.606
X-20.791 Y8.717
X-20.897 Y8.823
X-21.009 Y8.924
X-21.125 Y9.019
X-21.244 Y9.109
X-21.367 Y9.195
X-21.493 Y9.277
X-21.621 Y9.355
X-21.761 Y9.435
X-21.915 Y9.516
X-22.073 Y9.594
X-22.249 Y9.675
X-22.441 Y9.757
X-22.653 Y9.841
X-22.881 Y9.923
X-23.122 Y10.003
X-23.394 Y10.084
X-23.699 Y10.165
X-24.031 Y10.244
X-24.4 Y10.321
X-24.78 Y10.389
X-25.237 Y10.457
X-25.771 Y10.521
X-26.385 Y10.578
X-27.046 Y10.619
X-27.707 Y10.648
X-28.369 Y10.684
X-29.024 Y10.784
X-29.639 Y11.029
X-30.175 Y11.419
X-30.599 Y11.927
X-30.905 Y12.515
X-31.103 Y13.147
X-31.217 Y13.799
X-31.276 Y14.459
X-31.303 Y15.121
X-31.314 Y15.783
X-31.318 Y16.446
X-31.32 Y17.108
X-31.322 Y19.758
Y50.892
Y74.21
X-31.327 Y74.329
X-31.342 Y74.447
X-31.366 Y74.564
X-31.616 Y75.538
G3 X-31.98 Y75.76 I-0.305 J-0.09 F600
G1 X-32.03 Y75.737 Z7.005
X-32.077 Y75.715 Z7.019
X-32.122 Y75.694 Z7.042
X-32.151 Y75.654 Z7.078
X-32.176 Y75.62 Z7.122
X-32.195 Y75.594 Z7.173
X-32.208 Y75.576 Z7.229
X-32.215 Y75.568 Z7.289
Y75.566 Z7.318
G0 Z20
X-20.771 Y6.912
Z7.635
G1 Z7.318 F600
X-20.767 Y6.919 Z7.247
X-20.755 Y6.939 Z7.18
X-20.735 Y6.972 Z7.12
X-20.71 Y7.015 Z7.069
X-20.679 Y7.067 Z7.031
X-20.645 Y7.125 Z7.008
X-20.609 Y7.185 Z7
G3 X-20.387 Y7.939 I-1.36 J0.809
G1 Y8.165 F1000
X-20.395 Y8.315
X-20.447 Y8.456
X-20.518 Y8.588
X-20.601 Y8.713
X-20.693 Y8.831
X-20.793 Y8.943
X-20.899 Y9.049
X-21.011 Y9.149
X-21.126 Y9.245
X-21.246 Y9.335
X-21.369 Y9.422
X-21.494 Y9.504
X-21.622 Y9.582
X-21.763 Y9.662
X-21.916 Y9.745
X-22.075 Y9.824
X-22.251 Y9.905
X-22.444 Y9.989
X-22.658 Y10.073
X-22.887 Y10.157
X-23.129 Y10.237
X-23.402 Y10.319
X-23.708 Y10.402
X-24.039 Y10.482
X-24.409 Y10.56
X-24.788 Y10.629
X-25.243 Y10.698
X-25.777 Y10.764
X-26.4 Y10.823
X-27.06 Y10.866
X-27.722 Y10.9
X-28.382 Y10.955
X-29.026 Y11.11
X-29.614 Y11.415
X-30.108 Y11.857
X-30.484 Y12.402
X-30.745 Y13.011
X-30.906 Y13.653
X-30.995 Y14.31
X-31.039 Y14.971
X-31.058 Y15.633
X-31.066 Y16.295
X-31.069 Y16.958
X-31.071 Y18.282
X-31.072 Y51.403
Y73.236
X-31.077 Y73.355
X-31.092 Y73.473
X-31.116 Y73.59
X-31.366 Y74.564
G3 X-31.73 Y74.786 I-0.305 J-0.09 F600
G1 X-31.78 Y74.763 Z7.005
X-31.827 Y74.741 Z7.019
X-31.872 Y74.72 Z7.042
X-31.901 Y74.68 Z7.078
X-31.926 Y74.646 Z7.122
X-31.945 Y74.62 Z7.173
X-31.958 Y74.602 Z7.229
X-31.965 Y74.594 Z7.289
Y74.592 Z7.318
G0 Z20
X-20.771 Y7.139
Z7.635
G1 Z7.318 F600
X-20.767 Y7.146 Z7.247
X-20.755 Y7.166 Z7.18
X-20.735 Y7.198 Z7.12
X-20.71 Y7.241 Z7.069
X-20.679 Y7.293 Z7.031
X-20.645 Y7.351 Z7.008
X-20.609 Y7.412 Z7
G3 X-20.387 Y8.165 I-1.36 J0.809
G1 Y8.39 F1000
X-20.395 Y8.54
X-20.448 Y8.68
X-20.518 Y8.813
X-20.601 Y8.938
X-20.694 Y9.056
X-20.794 Y9.168
X-20.9 Y9.274
X-21.011 Y9.374
X-21.126 Y9.47
X-21.246 Y9.561
X-21.368 Y9.648
X-21.493 Y9.73
X-21.621 Y9.809
X-21.763 Y9.89
X-21.916 Y9.973
X-22.075 Y10.053
X-22.252 Y10.135
X-22.447 Y10.22
X-22.661 Y10.305
X-22.889 Y10.389
X-23.133 Y10.471
X-23.406 Y10.554
X-23.713 Y10.638
X-24.045 Y10.719
X-24.414 Y10.798
X-24.792 Y10.868
X-25.247 Y10.938
X-25.785 Y11.006
X-26.427 Y11.069
X-27.088 Y11.115
X-27.749 Y11.157
X-28.406 Y11.245
X-29.031 Y11.464
X-29.583 Y11.831
X-30.029 Y12.321
X-30.355 Y12.897
X-30.572 Y13.523
X-30.7 Y14.173
X-30.767 Y14.832
X-30.799 Y15.494
X-30.812 Y16.156
X-30.818 Y16.818
X-30.82 Y17.481
X-30.822 Y19.468
Y51.264
Y72.262
X-30.827 Y72.381
X-30.842 Y72.499
X-30.866 Y72.616
X-31.116 Y73.59
G3 X-31.48 Y73.812 I-0.305 J-0.09 F600
G1 X-31.53 Y73.789 Z7.005
X-31.577 Y73.766 Z7.019
X-31.622 Y73.745 Z7.042
X-31.651 Y73.706 Z7.078
X-31.676 Y73.672 Z7.122
X-31.695 Y73.646 Z7.173
X-31.708 Y73.628 Z7.229
X-31.715 Y73.619 Z7.289
Y73.618 Z7.318
G0 Z20
X-20.771 Y7.364
Z7.635
G1 Z7.318 F600
X-20.767 Y7.37 Z7.247
X-20.755 Y7.391 Z7.18
X-20.735 Y7.423 Z7.12
X-20.71 Y7.466 Z7.069
X-20.679 Y7.518 Z7.031
X-20.645 Y7.576 Z7.008
X-20.609 Y7.637 Z7
G3 X-20.387 Y8.39 I-1.36 J0.809
G1 Y8.617 F1000
X-20.395 Y8.766
X-20.448 Y8.907
X-20.519 Y9.039
X-20.602 Y9.164
X-20.695 Y9.282
X-20.794 Y9.394
X-20.9 Y9.5
X-21.011 Y9.601
X-21.127 Y9.696
X-21.246 Y9.788
X-21.368 Y9.874
X-21.493 Y9.957
X-21.622 Y10.037
X-21.764 Y10.119
X-21.918 Y10.202
X-22.078 Y10.283
X-22.256 Y10.367
X-22.45 Y10.452
X-22.666 Y10.539
X-22.895 Y10.624
X-23.14 Y10.706
X-23.414 Y10.791
X-23.721 Y10.876
X-24.053 Y10.957
X-24.424 Y11.038
X-24.803 Y11.108
X-25.259 Y11.18
X-25.808 Y11.251
X-26.468 Y11.317
X-27.128 Y11.366
X-27.788 Y11.425
X-28.435 Y11.564
X-29.033 Y11.851
X-29.541 Y12.276
X-29.935 Y12.809
X-30.211 Y13.411
X-30.386 Y14.05
X-30.484 Y14.705
X-30.534 Y15.365
X-30.556 Y16.027
X-30.565 Y16.69
X-30.569 Y17.352
X-30.571 Y18.677
X-30.572 Y51.798
Y71.288
X-30.577 Y71.407
X-30.592 Y71.525
X-30.616 Y71.641
X-30.866 Y72.616
G3 X-31.23 Y72.838 I-0.305 J-0.09 F600
G1 X-31.28 Y72.815 Z7.005
X-31.327 Y72.792 Z7.019
X-31.372 Y72.771 Z7.042
X-31.401 Y72.732 Z7.078
X-31.426 Y72.698 Z7.122
X-31.445 Y72.672 Z7.173
X-31.458 Y72.654 Z7.229
X-31.465 Y72.645 Z7.289
Y72.644 Z7.318
G0 Z20
X-20.771 Y7.59
Z7.635
G1 Z7.318 F600
X-20.767 Y7.597 Z7.247
X-20.755 Y7.617 Z7.18
X-20.735 Y7.65 Z7.12
X-20.71 Y7.693 Z7.069
X-20.679 Y7.745 Z7.031
X-20.645 Y7.802 Z7.008
X-20.609 Y7.863 Z7
G3 X-20.387 Y8.617 I-1.36 J0.809
G1 Y8.804 F1000
X-20.395 Y8.954
X-20.439 Y9.097
X-20.505 Y9.232
X-20.584 Y9.359
X-20.674 Y9.48
X-20.772 Y9.593
X-20.876 Y9.701
X-20.986 Y9.803
X-21.1 Y9.901
X-21.218 Y9.993
X-21.34 Y10.081
X-21.464 Y10.165
X-21.591 Y10.246
X-21.73 Y10.328
X-21.874 Y10.408
X-22.034 Y10.491
X-22.212 Y10.577
X-22.405 Y10.664
X-22.61 Y10.749
X-22.829 Y10.832
X-23.075 Y10.918
X-23.348 Y11.005
X-23.652 Y11.093
X-23.974 Y11.176
X-24.308 Y11.251
X-24.696 Y11.328
X-25.155 Y11.405
X-25.704 Y11.481
X-26.362 Y11.554
X-27.022 Y11.609
X-27.68 Y11.683
X-28.321 Y11.853
X-28.901 Y12.172
X-29.385 Y12.625
X-29.753 Y13.176
X-30.007 Y13.787
X-30.163 Y14.431
X-30.249 Y15.088
X-30.29 Y15.749
X-30.309 Y16.411
X-30.316 Y17.074
X-30.32 Y17.736
X-30.321 Y19.061
X-30.322 Y52.844
Y70.314
X-30.327 Y70.433
X-30.342 Y70.551
X-30.366 Y70.667
X-30.616 Y71.641
G3 X-30.98 Y71.864 I-0.305 J-0.09 F600
G1 X-31.03 Y71.841 Z7.005
X-31.077 Y71.818 Z7.019
X-31.122 Y71.797 Z7.042
X-31.151 Y71.758 Z7.078
X-31.176 Y71.724 Z7.122
X-31.195 Y71.698 Z7.173
X-31.208 Y71.68 Z7.229
X-31.215 Y71.671 Z7.289
Y71.67 Z7.318
G0 Z20
X-20.771 Y7.778
Z7.635
G1 Z7.318 F600
X-20.767 Y7.785 Z7.247
X-20.755 Y7.805 Z7.18
X-20.735 Y7.837 Z7.12
X-20.71 Y7.881 Z7.069
X-20.679 Y7.932 Z7.031
X-20.645 Y7.99 Z7.008
X-20.609 Y8.051 Z7
G3 X-20.387 Y8.804 I-1.36 J0.809
G1 Y9.022 F1000
X-20.395 Y9.172
X-20.439 Y9.316
X-20.503 Y9.451
X-20.582 Y9.579
X-20.671 Y9.699
X-20.768 Y9.814
X-20.872 Y9.922
X-20.981 Y10.025
X-21.095 Y10.123
X-21.213 Y10.216
X-21.333 Y10.304
X-21.457 Y10.389
X-21.584 Y10.47
X-21.723 Y10.553
X-21.874 Y10.637
X-22.03 Y10.719
X-22.202 Y10.803
X-22.393 Y10.889
X-22.605 Y10.978
X-22.83 Y11.065
X-23.071 Y11.151
X-23.34 Y11.237
X-23.632 Y11.322
X-23.956 Y11.407
X-24.318 Y11.491
X-24.693 Y11.566
X-25.152 Y11.645
X-25.711 Y11.725
X-26.37 Y11.8
X-27.029 Y11.864
X-27.683 Y11.969
X-28.304 Y12.2
X-28.85 Y12.575
X-29.29 Y13.07
X-29.613 Y13.648
X-29.826 Y14.275
X-29.953 Y14.926
X-30.019 Y15.585
X-30.049 Y16.246
X-30.062 Y16.909
X-30.068 Y17.571
X-30.07 Y18.234
X-30.072 Y20.221
Y52.679
Y69.34
X-30.077 Y69.459
X-30.092 Y69.577
X-30.116 Y69.693
X-30.366 Y70.667
G3 X-30.73 Y70.89 I-0.305 J-0.09 F600
G1 X-30.78 Y70.867 Z7.005
X-30.827 Y70.844 Z7.019
X-30.872 Y70.823 Z7.042
X-30.901 Y70.784 Z7.078
X-30.926 Y70.75 Z7.122
X-30.945 Y70.724 Z7.173
X-30.958 Y70.706 Z7.229
X-30.965 Y70.697 Z7.289
Y70.696 Z7.318
G0 Z20
X-20.771 Y7.996
Z7.635
G1 Z7.318 F600
X-20.767 Y8.003 Z7.247
X-20.755 Y8.023 Z7.18
X-20.735 Y8.055 Z7.12
X-20.71 Y8.099 Z7.069
X-20.679 Y8.15 Z7.031
X-20.645 Y8.208 Z7.008
X-20.609 Y8.269 Z7
G3 X-20.387 Y9.022 I-1.36 J0.809
G1 Y9.25 F1000
X-20.395 Y9.4
X-20.44 Y9.543
X-20.505 Y9.678
X-20.584 Y9.806
X-20.673 Y9.926
X-20.77 Y10.041
X-20.873 Y10.149
X-20.982 Y10.252
X-21.096 Y10.351
X-21.213 Y10.444
X-21.334 Y10.533
X-21.458 Y10.618
X-21.584 Y10.699
X-21.722 Y10.782
X-21.874 Y10.867
X-22.031 Y10.95
X-22.205 Y11.035
X-22.396 Y11.123
X-22.608 Y11.212
X-22.836 Y11.301
X-23.072 Y11.385
X-23.339 Y11.472
X-23.638 Y11.56
X-23.964 Y11.645
X-24.332 Y11.732
X-24.709 Y11.808
X-25.174 Y11.889
X-25.785 Y11.978
X-26.443 Y12.055
X-27.101 Y12.137
X-27.743 Y12.299
X-28.331 Y12.604
X-28.828 Y13.042
X-29.211 Y13.583
X-29.478 Y14.189
X-29.645 Y14.83
X-29.739 Y15.486
X-29.786 Y16.147
X-29.807 Y16.809
X-29.816 Y17.471
X-29.819 Y18.133
X-29.821 Y19.458
X-29.822 Y53.241
Y68.366
X-29.827 Y68.485
X-29.842 Y68.603
X-29.866 Y68.719
X-30.116 Y69.693
G3 X-30.48 Y69.916 I-0.305 J-0.09 F600
G1 X-30.53 Y69.893 Z7.005
X-30.577 Y69.87 Z7.019
X-30.622 Y69.849 Z7.042
X-30.651 Y69.81 Z7.078
X-30.676 Y69.776 Z7.122
X-30.695 Y69.75 Z7.173
X-30.708 Y69.732 Z7.229
X-30.715 Y69.723 Z7.289
Y69.722 Z7.318
G0 Z20
X-20.771 Y8.224
Z7.635
G1 Z7.318 F600
X-20.767 Y8.23 Z7.247
X-20.755 Y8.251 Z7.18
X-20.735 Y8.283 Z7.12
X-20.71 Y8.326 Z7.069
X-20.679 Y8.378 Z7.031
X-20.645 Y8.436 Z7.008
X-20.609 Y8.496 Z7
G3 X-20.387 Y9.25 I-1.36 J0.809
G1 Y9.474 F1000
X-20.395 Y9.624
X-20.439 Y9.767
X-20.504 Y9.902
X-20.582 Y10.03
X-20.671 Y10.151
X-20.768 Y10.265
X-20.871 Y10.374
X-20.98 Y10.478
X-21.093 Y10.576
X-21.21 Y10.67
X-21.331 Y10.759
X-21.454 Y10.844
X-21.58 Y10.926
X-21.719 Y11.01
X-21.87 Y11.095
X-22.027 Y11.179
X-22.201 Y11.265
X-22.392 Y11.353
X-22.603 Y11.443
X-22.828 Y11.531
X-23.066 Y11.617
X-23.334 Y11.705
X-23.636 Y11.795
X-23.964 Y11.883
X-24.329 Y11.969
X-24.71 Y12.048
X-25.202 Y12.136
X-25.857 Y12.233
X-26.515 Y12.316
X-27.167 Y12.43
X-27.787 Y12.664
X-28.334 Y13.038
X-28.776 Y13.531
X-29.102 Y14.108
X-29.318 Y14.734
X-29.447 Y15.384
X-29.515 Y16.043
X-29.548 Y16.704
X-29.562 Y17.366
X-29.568 Y18.029
X-29.57 Y18.691
X-29.572 Y20.678
Y53.799
Y67.392
X-29.577 Y67.511
X-29.592 Y67.629
X-29.616 Y67.745
X-29.866 Y68.719
G3 X-30.23 Y68.942 I-0.305 J-0.09 F600
G1 X-30.28 Y68.919 Z7.005
X-30.327 Y68.896 Z7.019
X-30.372 Y68.875 Z7.042
X-30.401 Y68.836 Z7.078
X-30.426 Y68.802 Z7.122
X-30.445 Y68.776 Z7.173
X-30.458 Y68.758 Z7.229
X-30.465 Y68.749 Z7.289
Y68.748 Z7.318
G0 Z20
X-20.771 Y8.447
Z7.635
G1 Z7.318 F600
X-20.767 Y8.454 Z7.247
X-20.755 Y8.474 Z7.18
X-20.735 Y8.507 Z7.12
X-20.71 Y8.55 Z7.069
X-20.679 Y8.602 Z7.031
X-20.645 Y8.659 Z7.008
X-20.609 Y8.72 Z7
G3 X-20.387 Y9.474 I-1.36 J0.809
G1 Y9.701 F1000
X-20.395 Y9.851
X-20.44 Y9.994
X-20.504 Y10.13
X-20.583 Y10.257
X-20.672 Y10.378
X-20.768 Y10.493
X-20.871 Y10.602
X-20.98 Y10.706
X-21.093 Y10.804
X-21.21 Y10.898
X-21.33 Y10.988
X-21.453 Y11.073
X-21.579 Y11.155
X-21.718 Y11.24
X-21.87 Y11.326
X-22.026 Y11.41
X-22.201 Y11.497
X-22.391 Y11.585
X-22.602 Y11.675
X-22.83 Y11.765
X-23.069 Y11.852
X-23.339 Y11.942
X-23.641 Y12.033
X-23.971 Y12.121
X-24.341 Y12.21
X-24.734 Y12.293
X-25.281 Y12.391
X-25.936 Y12.49
X-26.591 Y12.588
X-27.231 Y12.758
X-27.818 Y13.065
X-28.315 Y13.503
X-28.7 Y14.043
X-28.969 Y14.648
X-29.139 Y15.288
X-29.235 Y15.944
X-29.284 Y16.604
X-29.306 Y17.266
X-29.315 Y17.929
X-29.319 Y18.591
X-29.321 Y19.916
X-29.322 Y54.362
Y66.418
X-29.327 Y66.537
X-29.342 Y66.655
X-29.366 Y66.771
X-29.616 Y67.745
G3 X-29.98 Y67.967 I-0.305 J-0.09 F600
G1 X-30.03 Y67.944 Z7.005
X-30.077 Y67.922 Z7.019
X-30.122 Y67.901 Z7.042
X-30.151 Y67.861 Z7.078
X-30.176 Y67.828 Z7.122
X-30.195 Y67.802 Z7.173
X-30.208 Y67.784 Z7.229
X-30.215 Y67.775 Z7.289
Y67.774 Z7.318
G0 Z20
X-20.771 Y8.675
Z7.635
G1 Z7.318 F600
X-20.767 Y8.682 Z7.247
X-20.755 Y8.702 Z7.18
X-20.735 Y8.734 Z7.12
X-20.71 Y8.778 Z7.069
X-20.679 Y8.829 Z7.031
X-20.645 Y8.887 Z7.008
X-20.609 Y8.948 Z7
G3 X-20.387 Y9.701 I-1.36 J0.809
G1 Y9.925 F1000
X-20.395 Y10.075
X-20.439 Y10.218
X-20.503 Y10.354
X-20.581 Y10.482
X-20.669 Y10.603
X-20.766 Y10.718
X-20.868 Y10.827
X-20.977 Y10.931
X-21.089 Y11.03
X-21.206 Y11.125
X-21.326 Y11.215
X-21.449 Y11.301
X-21.574 Y11.383
X-21.713 Y11.468
X-21.864 Y11.554
X-22.02 Y11.638
X-22.195 Y11.726
X-22.386 Y11.816
X-22.598 Y11.907
X-22.823 Y11.997
X-23.064 Y12.085
X-23.334 Y12.176
X-23.639 Y12.269
X-23.974 Y12.36
X-24.339 Y12.449
X-24.765 Y12.54
X-25.417 Y12.659
X-26.071 Y12.762
X-26.72 Y12.895
X-27.332 Y13.148
X-27.869 Y13.536
X-28.301 Y14.038
X-28.617 Y14.62
X-28.826 Y15.249
X-28.95 Y15.9
X-29.016 Y16.559
X-29.048 Y17.22
X-29.062 Y17.883
X-29.068 Y18.545
X-29.07 Y19.207
X-29.072 Y21.195
Y54.978
Y65.444
X-29.077 Y65.563
X-29.092 Y65.681
X-29.116 Y65.797
X-29.366 Y66.771
G3 X-29.73 Y66.993 I-0.305 J-0.09 F600
G1 X-29.78 Y66.97 Z7.005
X-29.827 Y66.948 Z7.019
X-29.872 Y66.927 Z7.042
X-29.901 Y66.887 Z7.078
X-29.926 Y66.854 Z7.122
X-29.945 Y66.828 Z7.173
X-29.958 Y66.81 Z7.229
X-29.965 Y66.801 Z7.289
Y66.8 Z7.318
G0 Z20
X-20.771 Y8.899
Z7.635
G1 Z7.318 F600
X-20.767 Y8.905 Z7.247
X-20.755 Y8.926 Z7.18
X-20.735 Y8.958 Z7.12
X-20.71 Y9.001 Z7.069
X-20.679 Y9.053 Z7.031
X-20.645 Y9.111 Z7.008
X-20.609 Y9.171 Z7
G3 X-20.387 Y9.925 I-1.36 J0.809
G1 Y10.153 F1000
X-20.395 Y10.303
X-20.439 Y10.446
X-20.503 Y10.581
X-20.581 Y10.71
X-20.669 Y10.831
X-20.765 Y10.946
X-20.868 Y11.056
X-20.976 Y11.16
X-21.088 Y11.259
X-21.205 Y11.354
X-21.324 Y11.444
X-21.447 Y11.53
X-21.573 Y11.612
X-21.711 Y11.698
X-21.863 Y11.786
X-22.02 Y11.87
X-22.194 Y11.958
X-22.386 Y12.048
X-22.598 Y12.141
X-22.825 Y12.232
X-23.067 Y12.321
X-23.34 Y12.414
X-23.645 Y12.507
X-23.991 Y12.603
X-24.361 Y12.694
X-24.859 Y12.801
X-25.51 Y12.922
X-26.162 Y13.04
X-26.795 Y13.234
X-27.371 Y13.561
X-27.855 Y14.013
X-28.226 Y14.562
X-28.485 Y15.172
X-28.647 Y15.814
X-28.739 Y16.47
X-28.785 Y17.131
X-28.806 Y17.793
X-28.815 Y18.455
X-28.819 Y19.118
X-28.821 Y20.442
X-28.822 Y55.55
Y64.47
X-28.827 Y64.589
X-28.842 Y64.707
X-28.866 Y64.823
X-29.116 Y65.797
G3 X-29.48 Y66.019 I-0.305 J-0.09 F600
G1 X-29.53 Y65.996 Z7.005
X-29.577 Y65.974 Z7.019
X-29.622 Y65.953 Z7.042
X-29.651 Y65.913 Z7.078
X-29.676 Y65.88 Z7.122
X-29.695 Y65.854 Z7.173
X-29.708 Y65.836 Z7.229
X-29.715 Y65.827 Z7.289
Y65.826 Z7.318
G0 Z20
X-20.771 Y9.126
Z7.635
G1 Z7.318 F600
X-20.767 Y9.133 Z7.247
X-20.755 Y9.153 Z7.18
X-20.735 Y9.186 Z7.12
X-20.71 Y9.229 Z7.069
X-20.679 Y9.281 Z7.031
X-20.645 Y9.338 Z7.008
X-20.609 Y9.399 Z7
G3 X-20.387 Y10.153 I-1.36 J0.809
G1 Y10.376 F1000
X-20.395 Y10.526
X-20.438 Y10.67
X-20.501 Y10.806
X-20.579 Y10.934
X-20.666 Y11.056
X-20.762 Y11.172
X-20.864 Y11.281
X-20.972 Y11.386
X-21.084 Y11.485
X-21.2 Y11.58
X-21.32 Y11.671
X-21.442 Y11.758
X-21.567 Y11.84
X-21.706 Y11.926
X-21.856 Y12.014
X-22.013 Y12.099
X-22.188 Y12.188
X-22.38 Y12.279
X-22.593 Y12.373
X-22.818 Y12.464
X-23.061 Y12.555
X-23.338 Y12.65
X-23.648 Y12.745
X-24.009 Y12.846
X-24.388 Y12.941
X-25.035 Y13.082
X-25.685 Y13.206
X-26.327 Y13.369
X-26.926 Y13.653
X-27.445 Y14.065
X-27.856 Y14.584
X-28.153 Y15.177
X-28.347 Y15.81
X-28.461 Y16.463
X-28.521 Y17.122
X-28.55 Y17.784
X-28.562 Y18.446
X-28.568 Y19.109
X-28.57 Y19.771
X-28.572 Y21.758
Y55.542
Y63.496
X-28.577 Y63.615
X-28.592 Y63.733
X-28.616 Y63.849
X-28.866 Y64.823
G3 X-29.23 Y65.045 I-0.305 J-0.09 F600
G1 X-29.28 Y65.022 Z7.005
X-29.327 Y65 Z7.019
X-29.372 Y64.979 Z7.042
X-29.401 Y64.939 Z7.078
X-29.426 Y64.906 Z7.122
X-29.445 Y64.88 Z7.173
X-29.458 Y64.862 Z7.229
X-29.465 Y64.853 Z7.289
Y64.852 Z7.318
G0 Z20
X-20.771 Y9.35
Z7.635
G1 Z7.318 F600
X-20.767 Y9.357 Z7.247
X-20.755 Y9.377 Z7.18
X-20.735 Y9.409 Z7.12
X-20.71 Y9.453 Z7.069
X-20.679 Y9.504 Z7.031
X-20.645 Y9.562 Z7.008
X-20.609 Y9.623 Z7
G3 X-20.387 Y10.376 I-1.36 J0.809
G1 Y10.604 F1000
X-20.395 Y10.754
X-20.438 Y10.898
X-20.501 Y11.034
X-20.578 Y11.162
X-20.665 Y11.284
X-20.761 Y11.4
X-20.863 Y11.51
X-20.97 Y11.615
X-21.082 Y11.714
X-21.198 Y11.81
X-21.317 Y11.901
X-21.44 Y11.987
X-21.565 Y12.07
X-21.703 Y12.157
X-21.855 Y12.246
X-22.012 Y12.332
X-22.186 Y12.421
X-22.379 Y12.513
X-22.593 Y12.608
X-22.82 Y12.7
X-23.065 Y12.792
X-23.35 Y12.89
X-23.666 Y12.989
X-24.033 Y13.093
X-24.495 Y13.209
X-25.142 Y13.352
X-25.788 Y13.497
X-26.41 Y13.725
X-26.967 Y14.083
X-27.429 Y14.558
X-27.777 Y15.121
X-28.016 Y15.739
X-28.164 Y16.385
X-28.247 Y17.042
X-28.288 Y17.703
X-28.308 Y18.365
X-28.316 Y19.028
X-28.319 Y19.69
X-28.321 Y21.015
X-28.322 Y56.123
Y62.522
X-28.327 Y62.641
X-28.342 Y62.759
X-28.366 Y62.875
X-28.616 Y63.849
G3 X-28.98 Y64.071 I-0.305 J-0.09 F600
G1 X-29.03 Y64.048 Z7.005
X-29.077 Y64.026 Z7.019
X-29.122 Y64.005 Z7.042
X-29.151 Y63.965 Z7.078
X-29.176 Y63.932 Z7.122
X-29.195 Y63.906 Z7.173
X-29.208 Y63.888 Z7.229
X-29.215 Y63.879 Z7.289
Y63.878 Z7.318
G0 Z20
X-20.771 Y9.578
Z7.635
G1 Z7.318 F600
X-20.767 Y9.584 Z7.247
X-20.755 Y9.605 Z7.18
X-20.735 Y9.637 Z7.12
X-20.71 Y9.68 Z7.069
X-20.679 Y9.732 Z7.031
X-20.645 Y9.79 Z7.008
X-20.609 Y9.85 Z7
G3 X-20.387 Y10.604 I-1.36 J0.809
G1 Y10.828 F1000
X-20.395 Y10.978
X-20.436 Y11.122
X-20.499 Y11.258
X-20.575 Y11.387
X-20.662 Y11.509
X-20.757 Y11.625
X-20.859 Y11.736
X-20.966 Y11.841
X-21.077 Y11.941
X-21.193 Y12.037
X-21.312 Y12.128
X-21.434 Y12.215
X-21.559 Y12.299
X-21.697 Y12.386
X-21.847 Y12.474
X-22.005 Y12.561
X-22.18 Y12.652
X-22.373 Y12.745
X-22.59 Y12.841
X-22.814 Y12.934
X-23.064 Y13.029
X-23.354 Y13.129
X-23.7 Y13.239
X-24.061 Y13.342
X-24.702 Y13.505
X-25.348 Y13.653
X-25.979 Y13.857
X-26.557 Y14.179
X-27.049 Y14.623
X-27.432 Y15.164
X-27.702 Y15.768
X-27.875 Y16.408
X-27.975 Y17.063
X-28.028 Y17.723
X-28.053 Y18.385
X-28.064 Y19.047
X-28.068 Y19.71
X-28.07 Y20.372
X-28.072 Y23.022
Y56.805
Y61.548
X-28.077 Y61.667
X-28.092 Y61.785
X-28.116 Y61.901
X-28.366 Y62.875
G3 X-28.73 Y63.097 I-0.305 J-0.09 F600
G1 X-28.78 Y63.074 Z7.005
X-28.827 Y63.052 Z7.019
X-28.872 Y63.031 Z7.042
X-28.901 Y62.991 Z7.078
X-28.926 Y62.958 Z7.122
X-28.945 Y62.932 Z7.173
X-28.958 Y62.914 Z7.229
X-28.965 Y62.905 Z7.289
Y62.904 Z7.318
G0 Z20
X-20.771 Y9.801
Z7.635
G1 Z7.318 F600
X-20.767 Y9.808 Z7.247
X-20.755 Y9.828 Z7.18
X-20.735 Y9.861 Z7.12
X-20.71 Y9.904 Z7.069
X-20.679 Y9.956 Z7.031
X-20.645 Y10.013 Z7.008
X-20.609 Y10.074 Z7
G3 X-20.387 Y10.828 I-1.36 J0.809
G1 Y11.061 F1000
X-20.395 Y11.211
X-20.437 Y11.355
X-20.5 Y11.491
X-20.577 Y11.62
X-20.664 Y11.742
X-20.759 Y11.858
X-20.86 Y11.968
X-20.967 Y12.074
X-21.079 Y12.174
X-21.194 Y12.27
X-21.313 Y12.361
X-21.435 Y12.448
X-21.56 Y12.532
X-21.699 Y12.62
X-21.851 Y12.71
X-22.009 Y12.798
X-22.185 Y12.888
X-22.38 Y12.982
X-22.599 Y13.081
X-22.828 Y13.176
X-23.09 Y13.275
X-23.385 Y13.379
X-23.755 Y13.496
X-24.214 Y13.628
X-24.856 Y13.792
X-25.493 Y13.972
X-26.094 Y14.252
X-26.62 Y14.654
X-27.045 Y15.163
X-27.357 Y15.747
X-27.566 Y16.376
X-27.691 Y17.026
X-27.76 Y17.685
X-27.794 Y18.346
X-27.81 Y19.008
X-27.817 Y19.671
X-27.82 Y20.333
X-27.821 Y21.658
X-27.822 Y57.429
Y60.574
X-27.827 Y60.692
X-27.842 Y60.81
X-27.866 Y60.927
X-28.116 Y61.901
G3 X-28.48 Y62.123 I-0.305 J-0.09 F600
G1 X-28.53 Y62.1 Z7.005
X-28.577 Y62.078 Z7.019
X-28.622 Y62.057 Z7.042
X-28.651 Y62.017 Z7.078
X-28.676 Y61.984 Z7.122
X-28.695 Y61.957 Z7.173
X-28.708 Y61.94 Z7.229
X-28.715 Y61.931 Z7.289
Y61.93 Z7.318
G0 Z20
X-20.771 Y10.034
Z7.635
G1 Z7.318 F600
X-20.767 Y10.041 Z7.247
X-20.755 Y10.061 Z7.18
X-20.735 Y10.094 Z7.12
X-20.71 Y10.137 Z7.069
X-20.679 Y10.189 Z7.031
X-20.645 Y10.247 Z7.008
X-20.609 Y10.307 Z7
G3 X-20.387 Y11.061 I-1.36 J0.809
G1 Y11.325 F1000
X-20.395 Y11.474
X-20.445 Y11.616
X-20.512 Y11.75
X-20.592 Y11.877
X-20.681 Y11.998
X-20.777 Y12.112
X-20.88 Y12.222
X-20.988 Y12.326
X-21.1 Y12.425
X-21.217 Y12.52
X-21.336 Y12.611
X-21.458 Y12.698
X-21.584 Y12.781
X-21.725 Y12.87
X-21.882 Y12.962
X-22.047 Y13.052
X-22.224 Y13.143
X-22.425 Y13.239
X-22.651 Y13.339
X-22.897 Y13.44
X-23.171 Y13.543
X-23.51 Y13.661
X-23.92 Y13.789
X-24.557 Y13.969
X-25.193 Y14.156
X-25.795 Y14.433
X-26.328 Y14.826
X-26.762 Y15.326
X-27.084 Y15.905
X-27.3 Y16.531
X-27.431 Y17.18
X-27.504 Y17.839
X-27.541 Y18.5
X-27.558 Y19.162
X-27.566 Y19.825
X-27.569 Y20.487
X-27.571 Y21.812
X-27.572 Y57.583
Y59.6
X-27.577 Y59.718
X-27.592 Y59.836
X-27.616 Y59.953
X-27.866 Y60.927
G3 X-28.23 Y61.149 I-0.305 J-0.09 F600
G1 X-28.28 Y61.126 Z7.005
X-28.327 Y61.104 Z7.019
X-28.372 Y61.083 Z7.042
X-28.401 Y61.043 Z7.078
X-28.426 Y61.01 Z7.122
X-28.445 Y60.983 Z7.173
X-28.458 Y60.966 Z7.229
X-28.465 Y60.957 Z7.289
Y60.956 Z7.318
G0 Z20
X-20.771 Y10.298
Z7.635
G1 Z7.318 F600
X-20.767 Y10.305 Z7.247
X-20.755 Y10.325 Z7.18
X-20.735 Y10.358 Z7.12
X-20.71 Y10.401 Z7.069
X-20.679 Y10.453 Z7.031
X-20.645 Y10.51 Z7.008
X-20.609 Y10.571 Z7
G3 X-20.387 Y11.325 I-1.36 J0.809
G1 Y11.549 F1000
X-20.395 Y11.699
X-20.443 Y11.841
X-20.509 Y11.976
X-20.588 Y12.103
X-20.677 Y12.224
X-20.773 Y12.34
X-20.875 Y12.449
X-20.983 Y12.554
X-21.095 Y12.653
X-21.211 Y12.749
X-21.33 Y12.84
X-21.452 Y12.927
X-21.581 Y13.013
X-21.725 Y13.103
X-21.875 Y13.192
X-22.04 Y13.284
X-22.226 Y13.38
X-22.434 Y13.48
X-22.657 Y13.579
X-22.907 Y13.683
X-23.21 Y13.798
X-23.568 Y13.922
X-24.199 Y14.122
X-24.834 Y14.311
X-25.441 Y14.577
X-25.986 Y14.952
X-26.439 Y15.436
X-26.78 Y16.004
X-27.014 Y16.623
X-27.16 Y17.27
X-27.242 Y17.927
X-27.285 Y18.588
X-27.305 Y19.25
X-27.315 Y19.912
X-27.319 Y20.575
X-27.32 Y21.237
X-27.322 Y23.887
Y58.333
Y58.626
X-27.327 Y58.744
X-27.342 Y58.862
X-27.366 Y58.979
X-27.616 Y59.953
G3 X-27.98 Y60.175 I-0.305 J-0.09 F600
G1 X-28.03 Y60.152 Z7.005
X-28.077 Y60.13 Z7.019
X-28.122 Y60.109 Z7.042
X-28.151 Y60.069 Z7.078
X-28.176 Y60.036 Z7.122
X-28.195 Y60.009 Z7.173
X-28.208 Y59.992 Z7.229
X-28.215 Y59.983 Z7.289
Y59.981 Z7.318
G0 Z20
X-20.771 Y10.523
Z7.635
G1 Z7.318 F600
X-20.767 Y10.53 Z7.247
X-20.755 Y10.55 Z7.18
X-20.735 Y10.583 Z7.12
X-20.71 Y10.626 Z7.069
X-20.679 Y10.677 Z7.031
X-20.645 Y10.735 Z7.008
X-20.609 Y10.796 Z7
G3 X-20.387 Y11.549 I-1.36 J0.809
G1 Y11.776 F1000
X-20.395 Y11.926
X-20.441 Y12.068
X-20.507 Y12.203
X-20.585 Y12.331
X-20.673 Y12.452
X-20.769 Y12.568
X-20.871 Y12.678
X-20.979 Y12.783
X-21.09 Y12.883
X-21.206 Y12.978
X-21.325 Y13.07
X-21.447 Y13.157
X-21.577 Y13.245
X-21.722 Y13.337
X-21.873 Y13.426
X-22.04 Y13.519
X-22.228 Y13.617
X-22.444 Y13.722
X-22.667 Y13.822
X-22.931 Y13.932
X-23.285 Y14.068
X-23.758 Y14.234
X-24.389 Y14.436
X-25.006 Y14.677
X-25.572 Y15.022
X-26.053 Y15.477
X-26.429 Y16.022
X-26.696 Y16.629
X-26.868 Y17.268
X-26.969 Y17.923
X-27.023 Y18.583
X-27.05 Y19.245
X-27.062 Y19.907
X-27.068 Y20.57
X-27.07 Y21.232
X-27.072 Y23.219
Y57.651
X-27.077 Y57.77
X-27.092 Y57.888
X-27.116 Y58.005
X-27.366 Y58.979
G3 X-27.73 Y59.201 I-0.305 J-0.09 F600
G1 X-27.78 Y59.178 Z7.005
X-27.827 Y59.156 Z7.019
X-27.872 Y59.135 Z7.042
X-27.901 Y59.095 Z7.078
X-27.926 Y59.061 Z7.122
X-27.945 Y59.035 Z7.173
X-27.958 Y59.017 Z7.229
X-27.965 Y59.009 Z7.289
Y59.007 Z7.318
G0 Z20
X-20.771 Y10.749
Z7.635
G1 Z7.318 F600
X-20.767 Y10.756 Z7.247
X-20.755 Y10.776 Z7.18
X-20.735 Y10.809 Z7.12
X-20.71 Y10.852 Z7.069
X-20.679 Y10.904 Z7.031
X-20.645 Y10.962 Z7.008
X-20.609 Y11.022 Z7
G3 X-20.387 Y11.776 I-1.36 J0.809
G1 Y12.001 F1000
X-20.395 Y12.151
X-20.44 Y12.294
X-20.504 Y12.429
X-20.582 Y12.557
X-20.669 Y12.679
X-20.765 Y12.795
X-20.866 Y12.905
X-20.973 Y13.011
X-21.085 Y13.111
X-21.2 Y13.207
X-21.318 Y13.299
X-21.44 Y13.387
X-21.571 Y13.476
X-21.716 Y13.569
X-21.867 Y13.659
X-22.036 Y13.754
X-22.229 Y13.855
X-22.445 Y13.961
X-22.685 Y14.07
X-23.001 Y14.203
X-23.348 Y14.337
X-23.972 Y14.559
X-24.593 Y14.79
X-25.172 Y15.111
X-25.677 Y15.54
X-26.081 Y16.065
X-26.377 Y16.657
X-26.574 Y17.29
X-26.694 Y17.941
X-26.76 Y18.6
X-26.793 Y19.262
X-26.809 Y19.924
X-26.816 Y20.586
X-26.819 Y21.249
X-26.821 Y22.574
X-26.822 Y56.677
X-26.827 Y56.796
X-26.842 Y56.914
X-26.866 Y57.031
X-27.116 Y58.005
G3 X-27.48 Y58.227 I-0.305 J-0.09 F600
G1 X-27.53 Y58.204 Z7.005
X-27.577 Y58.182 Z7.019
X-27.622 Y58.161 Z7.042
X-27.651 Y58.121 Z7.078
X-27.676 Y58.087 Z7.122
X-27.695 Y58.061 Z7.173
X-27.708 Y58.043 Z7.229
X-27.715 Y58.035 Z7.289
Y58.033 Z7.318
G0 Z20
X-20.771 Y10.974
Z7.635
G1 Z7.318 F600
X-20.767 Y10.981 Z7.247
X-20.755 Y11.001 Z7.18
X-20.735 Y11.034 Z7.12
X-20.71 Y11.077 Z7.069
X-20.679 Y11.129 Z7.031
X-20.645 Y11.186 Z7.008
X-20.609 Y11.247 Z7
G3 X-20.387 Y12.001 I-1.36 J0.809
G1 Y12.227 F1000
X-20.395 Y12.377
X-20.439 Y12.52
X-20.502 Y12.656
X-20.579 Y12.785
X-20.666 Y12.907
X-20.761 Y13.024
X-20.862 Y13.134
X-20.969 Y13.24
X-21.08 Y13.341
X-21.195 Y13.437
X-21.313 Y13.529
X-21.434 Y13.618
X-21.566 Y13.708
X-21.711 Y13.802
X-21.863 Y13.893
X-22.037 Y13.992
X-22.245 Y14.102
X-22.461 Y14.209
X-22.715 Y14.326
X-23.057 Y14.471
X-23.674 Y14.713
X-24.291 Y14.952
X-24.872 Y15.271
X-25.383 Y15.693
X-25.796 Y16.211
X-26.102 Y16.798
X-26.307 Y17.428
X-26.433 Y18.078
X-26.503 Y18.737
X-26.54 Y19.399
X-26.557 Y20.061
X-26.565 Y20.723
X-26.569 Y21.385
X-26.571 Y22.71
X-26.572 Y55.703
X-26.577 Y55.822
X-26.592 Y55.94
X-26.616 Y56.057
X-26.866 Y57.031
G3 X-27.23 Y57.253 I-0.305 J-0.09 F600
G1 X-27.28 Y57.23 Z7.005
X-27.327 Y57.207 Z7.019
X-27.372 Y57.186 Z7.042
X-27.401 Y57.147 Z7.078
X-27.426 Y57.113 Z7.122
X-27.445 Y57.087 Z7.173
X-27.458 Y57.069 Z7.229
X-27.465 Y57.06 Z7.289
Y57.059 Z7.318
G0 Z20
X-20.771 Y11.201
Z7.635
G1 Z7.318 F600
X-20.767 Y11.208 Z7.247
X-20.755 Y11.228 Z7.18
X-20.735 Y11.26 Z7.12
X-20.71 Y11.303 Z7.069
X-20.679 Y11.355 Z7.031
X-20.645 Y11.413 Z7.008
X-20.609 Y11.474 Z7
G3 X-20.387 Y12.227 I-1.36 J0.809
G1 Y12.452 F1000
X-20.395 Y12.602
X-20.437 Y12.746
X-20.499 Y12.882
X-20.575 Y13.012
X-20.662 Y13.134
X-20.756 Y13.251
X-20.857 Y13.362
X-20.963 Y13.468
X-21.073 Y13.57
X-21.188 Y13.666
X-21.306 Y13.759
X-21.426 Y13.848
X-21.561 Y13.941
X-21.705 Y14.035
X-21.861 Y14.13
X-22.041 Y14.233
X-22.25 Y14.345
X-22.475 Y14.458
X-22.807 Y14.612
X-23.416 Y14.874
X-24.028 Y15.127
X-24.606 Y15.449
X-25.118 Y15.871
X-25.533 Y16.387
X-25.842 Y16.973
X-26.05 Y17.602
X-26.178 Y18.252
X-26.25 Y18.91
X-26.288 Y19.571
X-26.306 Y20.234
X-26.315 Y20.896
X-26.319 Y21.558
X-26.321 Y22.883
X-26.322 Y54.729
X-26.327 Y54.848
X-26.342 Y54.966
X-26.366 Y55.082
X-26.616 Y56.057
G3 X-26.98 Y56.279 I-0.305 J-0.09 F600
G1 X-27.03 Y56.256 Z7.005
X-27.077 Y56.233 Z7.019
X-27.122 Y56.212 Z7.042
X-27.151 Y56.173 Z7.078
X-27.176 Y56.139 Z7.122
X-27.195 Y56.113 Z7.173
X-27.208 Y56.095 Z7.229
X-27.215 Y56.086 Z7.289
Y56.085 Z7.318
G0 Z20
X-20.771 Y11.426
Z7.635
G1 Z7.318 F600
X-20.767 Y11.432 Z7.247
X-20.755 Y11.453 Z7.18
X-20.735 Y11.485 Z7.12
X-20.71 Y11.528 Z7.069
X-20.679 Y11.58 Z7.031
X-20.645 Y11.638 Z7.008
X-20.609 Y11.699 Z7
G3 X-20.387 Y12.452 I-1.36 J0.809
G1 Y12.679 F1000
X-20.395 Y12.828
X-20.436 Y12.973
X-20.497 Y13.11
X-20.572 Y13.239
X-20.658 Y13.362
X-20.752 Y13.48
X-20.852 Y13.591
X-20.957 Y13.698
X-21.068 Y13.799
X-21.182 Y13.897
X-21.299 Y13.99
X-21.419 Y14.08
X-21.556 Y14.175
X-21.698 Y14.269
X-21.857 Y14.367
X-22.057 Y14.483
X-22.265 Y14.596
X-22.587 Y14.759
X-23.014 Y14.96
X-23.621 Y15.225
X-24.208 Y15.533
X-24.736 Y15.933
X-25.176 Y16.428
X-25.512 Y16.999
X-25.747 Y17.619
X-25.896 Y18.264
X-25.982 Y18.921
X-26.029 Y19.581
X-26.052 Y20.243
X-26.063 Y20.906
X-26.068 Y21.568
X-26.07 Y22.231
X-26.071 Y24.218
X-26.072 Y53.755
X-26.077 Y53.874
X-26.092 Y53.992
X-26.116 Y54.108
X-26.366 Y55.082
G3 X-26.73 Y55.305 I-0.305 J-0.09 F600
G1 X-26.78 Y55.282 Z7.005
X-26.827 Y55.259 Z7.019
X-26.872 Y55.238 Z7.042
X-26.901 Y55.199 Z7.078
X-26.926 Y55.165 Z7.122
X-26.945 Y55.139 Z7.173
X-26.958 Y55.121 Z7.229
X-26.965 Y55.112 Z7.289
Y55.111 Z7.318
G0 Z20
X-20.771 Y11.652
Z7.635
G1 Z7.318 F600
X-20.767 Y11.659 Z7.247
X-20.755 Y11.679 Z7.18
X-20.735 Y11.712 Z7.12
X-20.71 Y11.755 Z7.069
X-20.679 Y11.807 Z7.031
X-20.645 Y11.864 Z7.008
X-20.609 Y11.925 Z7
G3 X-20.387 Y12.679 I-1.36 J0.809
G1 Y12.934 F1000
X-20.395 Y13.084
X-20.44 Y13.227
X-20.505 Y13.362
X-20.582 Y13.491
X-20.669 Y13.613
X-20.763 Y13.729
X-20.864 Y13.84
X-20.97 Y13.946
X-21.081 Y14.048
X-21.195 Y14.145
X-21.313 Y14.238
X-21.436 Y14.33
X-21.577 Y14.428
X-21.726 Y14.527
X-21.912 Y14.642
X-22.13 Y14.768
X-22.388 Y14.908
X-22.979 Y15.208
X-23.577 Y15.493
X-24.145 Y15.834
X-24.643 Y16.27
X-25.047 Y16.795
X-25.348 Y17.385
X-25.553 Y18.015
X-25.68 Y18.665
X-25.752 Y19.324
X-25.788 Y19.985
X-25.806 Y20.648
X-25.815 Y21.31
X-25.819 Y21.972
X-25.821 Y23.297
X-25.822 Y52.444
Y52.781
X-25.827 Y52.9
X-25.842 Y53.018
X-25.866 Y53.134
X-26.116 Y54.108
G3 X-26.48 Y54.331 I-0.305 J-0.09 F600
G1 X-26.53 Y54.308 Z7.005
X-26.577 Y54.285 Z7.019
X-26.622 Y54.264 Z7.042
X-26.651 Y54.225 Z7.078
X-26.676 Y54.191 Z7.122
X-26.695 Y54.165 Z7.173
X-26.708 Y54.147 Z7.229
X-26.715 Y54.138 Z7.289
Y54.137 Z7.318
G0 Z20
X-20.771 Y11.907
Z7.635
G1 Z7.318 F600
X-20.767 Y11.914 Z7.247
X-20.755 Y11.934 Z7.18
X-20.735 Y11.967 Z7.12
X-20.71 Y12.01 Z7.069
X-20.679 Y12.062 Z7.031
X-20.645 Y12.12 Z7.008
X-20.609 Y12.18 Z7
G3 X-20.387 Y12.934 I-1.36 J0.809
G1 Y13.162 F1000
X-20.395 Y13.311
X-20.439 Y13.455
X-20.502 Y13.591
X-20.578 Y13.72
X-20.665 Y13.843
X-20.759 Y13.959
X-20.859 Y14.071
X-20.965 Y14.178
X-21.075 Y14.28
X-21.188 Y14.377
X-21.305 Y14.471
X-21.437 Y14.57
X-21.574 Y14.668
X-21.737 Y14.777
X-21.932 Y14.9
X-22.219 Y15.069
X-22.554 Y15.254
X-23.143 Y15.557
X-23.72 Y15.884
X-24.239 Y16.295
X-24.672 Y16.797
X-25.005 Y17.369
X-25.24 Y17.988
X-25.391 Y18.633
X-25.48 Y19.29
X-25.527 Y19.95
X-25.551 Y20.612
X-25.562 Y21.275
X-25.567 Y21.937
X-25.57 Y22.6
X-25.571 Y24.587
X-25.572 Y51.807
X-25.577 Y51.926
X-25.592 Y52.044
X-25.616 Y52.16
X-25.866 Y53.134
G3 X-26.23 Y53.357 I-0.305 J-0.09 F600
G1 X-26.28 Y53.334 Z7.005
X-26.327 Y53.311 Z7.019
X-26.372 Y53.29 Z7.042
X-26.401 Y53.251 Z7.078
X-26.426 Y53.217 Z7.122
X-26.445 Y53.191 Z7.173
X-26.458 Y53.173 Z7.229
X-26.465 Y53.164 Z7.289
Y53.163 Z7.318
G0 Z20
X-20.771 Y12.135
Z7.635
G1 Z7.318 F600
X-20.767 Y12.142 Z7.247
X-20.755 Y12.162 Z7.18
X-20.735 Y12.195 Z7.12
X-20.71 Y12.238 Z7.069
X-20.679 Y12.29 Z7.031
X-20.645 Y12.347 Z7.008
X-20.609 Y12.408 Z7
G3 X-20.387 Y13.162 I-1.36 J0.809
G1 Y13.385 F1000
X-20.395 Y13.535
X-20.436 Y13.679
X-20.498 Y13.816
X-20.573 Y13.946
X-20.658 Y14.069
X-20.751 Y14.187
X-20.851 Y14.299
X-20.955 Y14.406
X-21.065 Y14.509
X-21.178 Y14.608
X-21.294 Y14.703
X-21.422 Y14.802
X-21.576 Y14.913
X-21.759 Y15.039
X-21.961 Y15.168
X-22.246 Y15.34
X-22.822 Y15.666
X-23.395 Y15.999
X-23.918 Y16.405
X-24.362 Y16.897
X-24.709 Y17.461
X-24.957 Y18.075
X-25.12 Y18.717
X-25.217 Y19.373
X-25.27 Y20.033
X-25.297 Y20.695
X-25.311 Y21.357
X-25.317 Y22.02
X-25.319 Y22.682
X-25.321 Y24.007
X-25.322 Y50.833
X-25.327 Y50.952
X-25.342 Y51.07
X-25.366 Y51.186
X-25.616 Y52.16
G3 X-25.98 Y52.383 I-0.305 J-0.09 F600
G1 X-26.03 Y52.359 Z7.005
X-26.077 Y52.337 Z7.019
X-26.122 Y52.316 Z7.042
X-26.151 Y52.277 Z7.078
X-26.176 Y52.243 Z7.122
X-26.195 Y52.217 Z7.173
X-26.208 Y52.199 Z7.229
X-26.215 Y52.19 Z7.289
Y52.189 Z7.318
G0 Z20
X-20.771 Y12.359
Z7.635
G1 Z7.318 F600
X-20.767 Y12.366 Z7.247
X-20.755 Y12.386 Z7.18
X-20.735 Y12.418 Z7.12
X-20.71 Y12.462 Z7.069
X-20.679 Y12.513 Z7.031
X-20.645 Y12.571 Z7.008
X-20.609 Y12.632 Z7
G3 X-20.387 Y13.385 I-1.36 J0.809
G1 Y13.618 F1000
X-20.395 Y13.768
X-20.436 Y13.913
X-20.497 Y14.05
X-20.571 Y14.18
X-20.656 Y14.303
X-20.749 Y14.421
X-20.847 Y14.534
X-20.952 Y14.642
X-21.06 Y14.746
X-21.172 Y14.845
X-21.293 Y14.946
X-21.42 Y15.046
X-21.58 Y15.164
X-21.762 Y15.291
X-22.046 Y15.478
X-22.609 Y15.826
X-23.172 Y16.176
X-23.687 Y16.592
X-24.125 Y17.089
X-24.467 Y17.656
X-24.712 Y18.272
X-24.871 Y18.915
X-24.967 Y19.57
X-25.02 Y20.231
X-25.047 Y20.893
X-25.06 Y21.555
X-25.066 Y22.217
X-25.069 Y22.88
X-25.071 Y24.205
X-25.072 Y49.859
X-25.077 Y49.978
X-25.092 Y50.096
X-25.116 Y50.212
X-25.366 Y51.186
G3 X-25.73 Y51.408 I-0.305 J-0.09 F600
G1 X-25.78 Y51.385 Z7.005
X-25.827 Y51.363 Z7.019
X-25.872 Y51.342 Z7.042
X-25.901 Y51.302 Z7.078
X-25.926 Y51.269 Z7.122
X-25.945 Y51.243 Z7.173
X-25.958 Y51.225 Z7.229
X-25.965 Y51.216 Z7.289
Y51.215 Z7.318
G0 Z20
X-20.771 Y12.592
Z7.635
G1 Z7.318 F600
X-20.767 Y12.599 Z7.247
X-20.755 Y12.619 Z7.18
X-20.735 Y12.651 Z7.12
X-20.71 Y12.695 Z7.069
X-20.679 Y12.746 Z7.031
X-20.645 Y12.804 Z7.008
X-20.609 Y12.865 Z7
G3 X-20.387 Y13.618 I-1.36 J0.809
G1 Y13.882 F1000
X-20.395 Y14.032
X-20.441 Y14.174
X-20.506 Y14.31
X-20.583 Y14.439
X-20.669 Y14.562
X-20.762 Y14.679
X-20.861 Y14.791
X-20.966 Y14.899
X-21.074 Y15.003
X-21.186 Y15.103
X-21.317 Y15.214
X-21.46 Y15.327
X-21.651 Y15.47
X-21.961 Y15.688
X-22.513 Y16.054
X-23.058 Y16.43
X-23.554 Y16.869
X-23.968 Y17.387
X-24.284 Y17.969
X-24.507 Y18.592
X-24.649 Y19.24
X-24.732 Y19.897
X-24.777 Y20.558
X-24.8 Y21.22
X-24.812 Y21.882
X-24.817 Y22.544
X-24.82 Y23.207
X-24.821 Y24.532
X-24.822 Y48.885
X-24.827 Y49.004
X-24.842 Y49.122
X-24.866 Y49.238
X-25.116 Y50.212
G3 X-25.48 Y50.434 I-0.305 J-0.09 F600
G1 X-25.53 Y50.411 Z7.005
X-25.577 Y50.389 Z7.019
X-25.622 Y50.368 Z7.042
X-25.651 Y50.328 Z7.078
X-25.676 Y50.295 Z7.122
X-25.695 Y50.269 Z7.173
X-25.708 Y50.251 Z7.229
X-25.715 Y50.242 Z7.289
Y50.241 Z7.318
G0 Z20
X-20.771 Y12.856
Z7.635
G1 Z7.318 F600
X-20.767 Y12.862 Z7.247
X-20.755 Y12.883 Z7.18
X-20.735 Y12.915 Z7.12
X-20.71 Y12.958 Z7.069
X-20.679 Y13.01 Z7.031
X-20.645 Y13.068 Z7.008
X-20.609 Y13.128 Z7
G3 X-20.387 Y13.882 I-1.36 J0.809
G1 Y14.107 F1000
X-20.395 Y14.257
X-20.438 Y14.4
X-20.5 Y14.537
X-20.575 Y14.667
X-20.66 Y14.791
X-20.752 Y14.909
X-20.85 Y15.023
X-20.953 Y15.132
X-21.06 Y15.237
X-21.171 Y15.34
X-21.311 Y15.462
X-21.47 Y15.592
X-21.707 Y15.776
X-22.242 Y16.166
X-22.78 Y16.553
X-23.273 Y16.996
X-23.688 Y17.512
X-24.01 Y18.091
X-24.238 Y18.713
X-24.386 Y19.359
X-24.474 Y20.015
X-24.523 Y20.676
X-24.548 Y21.338
X-24.561 Y22
X-24.567 Y22.663
X-24.569 Y23.325
X-24.571 Y24.65
X-24.572 Y47.911
X-24.577 Y48.03
X-24.592 Y48.148
X-24.616 Y48.264
X-24.866 Y49.238
G3 X-25.23 Y49.46 I-0.305 J-0.09 F600
G1 X-25.28 Y49.437 Z7.005
X-25.327 Y49.415 Z7.019
X-25.372 Y49.394 Z7.042
X-25.401 Y49.354 Z7.078
X-25.426 Y49.321 Z7.122
X-25.445 Y49.295 Z7.173
X-25.458 Y49.277 Z7.229
X-25.465 Y49.268 Z7.289
Y49.267 Z7.318
G0 Z20
X-20.771 Y13.081
Z7.635
G1 Z7.318 F600
X-20.767 Y13.087 Z7.247
X-20.755 Y13.108 Z7.18
X-20.735 Y13.14 Z7.12
X-20.71 Y13.183 Z7.069
X-20.679 Y13.235 Z7.031
X-20.645 Y13.293 Z7.008
X-20.609 Y13.353 Z7
G3 X-20.387 Y14.107 I-1.36 J0.809
G1 Y14.333 F1000
X-20.395 Y14.483
X-20.435 Y14.628
X-20.494 Y14.765
X-20.568 Y14.896
X-20.651 Y15.021
X-20.741 Y15.141
X-20.837 Y15.256
X-20.938 Y15.367
X-21.044 Y15.474
X-21.153 Y15.579
X-21.299 Y15.711
X-21.513 Y15.893
X-21.828 Y16.148
X-22.355 Y16.549
X-22.86 Y16.978
X-23.298 Y17.474
X-23.65 Y18.036
X-23.909 Y18.645
X-24.085 Y19.284
X-24.194 Y19.937
X-24.257 Y20.597
X-24.29 Y21.258
X-24.306 Y21.92
X-24.315 Y22.583
X-24.318 Y23.245
X-24.321 Y24.57
X-24.322 Y37.818
Y46.937
X-24.327 Y47.056
X-24.342 Y47.174
X-24.366 Y47.29
X-24.616 Y48.264
G3 X-24.98 Y48.486 I-0.305 J-0.09 F600
G1 X-25.03 Y48.463 Z7.005
X-25.077 Y48.441 Z7.019
X-25.122 Y48.42 Z7.042
X-25.151 Y48.38 Z7.078
X-25.176 Y48.347 Z7.122
X-25.195 Y48.321 Z7.173
X-25.208 Y48.303 Z7.229
X-25.215 Y48.294 Z7.289
Y48.293 Z7.318
G0 Z20
X-20.771 Y13.307
Z7.635
G1 Z7.318 F600
X-20.767 Y13.314 Z7.247
X-20.755 Y13.334 Z7.18
X-20.735 Y13.366 Z7.12
X-20.71 Y13.41 Z7.069
X-20.679 Y13.461 Z7.031
X-20.645 Y13.519 Z7.008
X-20.609 Y13.58 Z7
G3 X-20.387 Y14.333 I-1.36 J0.809
G1 Y14.589 F1000
X-20.395 Y14.739
X-20.437 Y14.882
X-20.498 Y15.019
X-20.572 Y15.15
X-20.654 Y15.276
X-20.744 Y15.396
X-20.839 Y15.512
X-20.939 Y15.623
X-21.044 Y15.733
X-21.179 Y15.867
X-21.328 Y16.007
X-21.552 Y16.205
X-22.061 Y16.63
X-22.558 Y17.067
X-22.998 Y17.562
X-23.357 Y18.119
X-23.626 Y18.724
X-23.812 Y19.36
X-23.929 Y20.012
X-23.998 Y20.671
X-24.035 Y21.332
X-24.054 Y21.994
X-24.063 Y22.657
X-24.068 Y23.319
X-24.07 Y23.982
X-24.071 Y25.969
X-24.072 Y45.963
X-24.077 Y46.082
X-24.092 Y46.2
X-24.116 Y46.316
X-24.366 Y47.29
G3 X-24.73 Y47.512 I-0.305 J-0.09 F600
G1 X-24.78 Y47.489 Z7.005
X-24.827 Y47.467 Z7.019
X-24.872 Y47.446 Z7.042
X-24.901 Y47.406 Z7.078
X-24.926 Y47.373 Z7.122
X-24.945 Y47.347 Z7.173
X-24.958 Y47.329 Z7.229
X-24.965 Y47.32 Z7.289
Y47.319 Z7.318
G0 Z20
X-20.771 Y13.562
Z7.635
G1 Z7.318 F600
X-20.767 Y13.569 Z7.247
X-20.755 Y13.589 Z7.18
X-20.735 Y13.622 Z7.12
X-20.71 Y13.665 Z7.069
X-20.679 Y13.717 Z7.031
X-20.645 Y13.774 Z7.008
X-20.609 Y13.835 Z7
G3 X-20.387 Y14.589 I-1.36 J0.809
G1 Y14.822 F1000
X-20.395 Y14.972
X-20.434 Y15.117
X-20.492 Y15.255
X-20.563 Y15.387
X-20.644 Y15.514
X-20.731 Y15.635
X-20.824 Y15.753
X-20.921 Y15.867
X-21.022 Y15.978
X-21.155 Y16.116
X-21.367 Y16.324
X-21.853 Y16.774
X-22.336 Y17.227
X-22.765 Y17.731
X-23.117 Y18.293
X-23.381 Y18.9
X-23.563 Y19.537
X-23.679 Y20.189
X-23.747 Y20.848
X-23.784 Y21.51
X-23.803 Y22.172
X-23.813 Y22.834
X-23.818 Y23.497
X-23.82 Y24.159
X-23.821 Y26.146
X-23.822 Y44.989
X-23.827 Y45.108
X-23.842 Y45.226
X-23.866 Y45.342
X-24.116 Y46.316
G3 X-24.48 Y46.538 I-0.305 J-0.09 F600
G1 X-24.53 Y46.515 Z7.005
X-24.577 Y46.493 Z7.019
X-24.622 Y46.472 Z7.042
X-24.651 Y46.432 Z7.078
X-24.676 Y46.399 Z7.122
X-24.695 Y46.373 Z7.173
X-24.708 Y46.355 Z7.229
X-24.715 Y46.346 Z7.289
Y46.345 Z7.318
G0 Z20
X-20.771 Y13.795
Z7.635
G1 Z7.318 F600
X-20.767 Y13.802 Z7.247
X-20.755 Y13.823 Z7.18
X-20.735 Y13.855 Z7.12
X-20.71 Y13.898 Z7.069
X-20.679 Y13.95 Z7.031
X-20.645 Y14.008 Z7.008
X-20.609 Y14.068 Z7
G3 X-20.387 Y14.822 I-1.36 J0.809
G1 Y15.086 F1000
X-20.395 Y15.235
X-20.436 Y15.38
X-20.495 Y15.518
X-20.566 Y15.65
X-20.645 Y15.777
X-20.731 Y15.9
X-20.822 Y16.019
X-20.917 Y16.135
X-21.046 Y16.283
X-21.246 Y16.499
X-22.173 Y17.447
X-22.583 Y17.966
X-22.917 Y18.539
X-23.165 Y19.153
X-23.334 Y19.793
X-23.44 Y20.447
X-23.503 Y21.107
X-23.537 Y21.768
X-23.555 Y22.43
X-23.564 Y23.093
X-23.568 Y23.755
X-23.57 Y24.418
X-23.571 Y26.405
X-23.572 Y44.015
X-23.577 Y44.133
X-23.592 Y44.251
X-23.616 Y44.368
X-23.866 Y45.342
G3 X-24.23 Y45.564 I-0.305 J-0.09 F600
G1 X-24.28 Y45.541 Z7.005
X-24.327 Y45.519 Z7.019
X-24.372 Y45.498 Z7.042
X-24.401 Y45.458 Z7.078
X-24.426 Y45.425 Z7.122
X-24.445 Y45.398 Z7.173
X-24.458 Y45.381 Z7.229
X-24.465 Y45.372 Z7.289
Y45.371 Z7.318
G0 Z20
X-20.771 Y14.059
Z7.635
G1 Z7.318 F600
X-20.767 Y14.066 Z7.247
X-20.755 Y14.086 Z7.18
X-20.735 Y14.119 Z7.12
X-20.71 Y14.162 Z7.069
X-20.679 Y14.214 Z7.031
X-20.645 Y14.271 Z7.008
X-20.609 Y14.332 Z7
G3 X-20.387 Y15.086 I-1.36 J0.809
G1 Y15.341 F1000
X-20.395 Y15.491
X-20.435 Y15.635
X-20.492 Y15.774
X-20.56 Y15.907
X-20.637 Y16.036
X-20.721 Y16.161
X-20.809 Y16.282
X-20.918 Y16.423
X-21.076 Y16.616
X-21.334 Y16.912
X-21.783 Y17.399
X-22.205 Y17.91
X-22.558 Y18.47
X-22.832 Y19.073
X-23.027 Y19.706
X-23.155 Y20.356
X-23.232 Y21.014
X-23.276 Y21.675
X-23.299 Y22.337
X-23.311 Y22.999
X-23.316 Y23.661
X-23.319 Y24.324
X-23.321 Y25.649
X-23.322 Y43.041
X-23.327 Y43.159
X-23.342 Y43.277
X-23.366 Y43.394
X-23.616 Y44.368
G3 X-23.98 Y44.59 I-0.305 J-0.09 F600
G1 X-24.03 Y44.567 Z7.005
X-24.077 Y44.545 Z7.019
X-24.122 Y44.524 Z7.042
X-24.151 Y44.484 Z7.078
X-24.176 Y44.451 Z7.122
X-24.195 Y44.424 Z7.173
X-24.208 Y44.407 Z7.229
X-24.215 Y44.398 Z7.289
Y44.397 Z7.318
G0 Z20
X-20.771 Y14.315
Z7.635
G1 Z7.318 F600
X-20.767 Y14.321 Z7.247
X-20.755 Y14.342 Z7.18
X-20.735 Y14.374 Z7.12
X-20.71 Y14.417 Z7.069
X-20.679 Y14.469 Z7.031
X-20.645 Y14.527 Z7.008
X-20.609 Y14.587 Z7
G3 X-20.387 Y15.341 I-1.36 J0.809
G1 Y15.611 F1000
X-20.395 Y15.761
X-20.435 Y15.906
X-20.49 Y16.045
X-20.557 Y16.18
X-20.631 Y16.31
X-20.711 Y16.437
X-20.795 Y16.561
X-20.895 Y16.699
X-21.039 Y16.886
X-21.874 Y17.914
X-22.235 Y18.469
X-22.523 Y19.066
X-22.733 Y19.694
X-22.875 Y20.341
X-22.964 Y20.997
X-23.016 Y21.658
X-23.043 Y22.32
X-23.058 Y22.982
X-23.065 Y23.644
X-23.069 Y24.307
X-23.071 Y25.632
X-23.072 Y38.217
Y42.067
X-23.077 Y42.185
X-23.092 Y42.303
X-23.116 Y42.42
X-23.366 Y43.394
G3 X-23.73 Y43.616 I-0.305 J-0.09 F600
G1 X-23.78 Y43.593 Z7.005
X-23.827 Y43.571 Z7.019
X-23.872 Y43.55 Z7.042
X-23.901 Y43.51 Z7.078
X-23.926 Y43.477 Z7.122
X-23.945 Y43.45 Z7.173
X-23.958 Y43.433 Z7.229
X-23.965 Y43.424 Z7.289
Y43.422 Z7.318
G0 Z20
X-20.771 Y14.585
Z7.635
G1 Z7.318 F600
X-20.767 Y14.592 Z7.247
X-20.755 Y14.612 Z7.18
X-20.735 Y14.644 Z7.12
X-20.71 Y14.688 Z7.069
X-20.679 Y14.739 Z7.031
X-20.645 Y14.797 Z7.008
X-20.609 Y14.858 Z7
G3 X-20.387 Y15.611 I-1.36 J0.809
G1 Y15.87 F1000
X-20.395 Y16.019
X-20.429 Y16.165
X-20.48 Y16.306
X-20.542 Y16.443
X-20.612 Y16.576
X-20.688 Y16.705
X-20.779 Y16.849
X-20.912 Y17.047
X-21.129 Y17.35
X-21.529 Y17.878
X-21.896 Y18.43
X-22.197 Y19.019
X-22.426 Y19.641
X-22.586 Y20.284
X-22.689 Y20.938
X-22.751 Y21.598
X-22.786 Y22.259
X-22.804 Y22.921
X-22.813 Y23.584
X-22.818 Y24.246
X-22.82 Y24.908
X-22.821 Y26.896
X-22.822 Y41.092
X-22.827 Y41.211
X-22.842 Y41.329
X-22.866 Y41.446
X-23.116 Y42.42
G3 X-23.48 Y42.642 I-0.305 J-0.09 F600
G1 X-23.53 Y42.619 Z7.005
X-23.577 Y42.597 Z7.019
X-23.622 Y42.576 Z7.042
X-23.651 Y42.536 Z7.078
X-23.676 Y42.502 Z7.122
X-23.695 Y42.476 Z7.173
X-23.708 Y42.458 Z7.229
X-23.715 Y42.45 Z7.289
Y42.448 Z7.318
G0 Z20
X-20.771 Y14.843
Z7.635
G1 Z7.318 F600
X-20.767 Y14.85 Z7.247
X-20.755 Y14.87 Z7.18
X-20.735 Y14.903 Z7.12
X-20.71 Y14.946 Z7.069
X-20.679 Y14.998 Z7.031
X-20.645 Y15.055 Z7.008
X-20.609 Y15.116 Z7
G3 X-20.387 Y15.87 I-1.36 J0.809
G1 Y16.17 F1000
X-20.395 Y16.32
X-20.429 Y16.466
X-20.479 Y16.608
X-20.538 Y16.746
X-20.604 Y16.88
X-20.676 Y17.012
X-20.76 Y17.156
X-20.892 Y17.368
X-21.258 Y17.92
X-21.613 Y18.479
X-21.914 Y19.069
X-22.148 Y19.689
X-22.315 Y20.33
X-22.425 Y20.983
X-22.492 Y21.642
X-22.53 Y22.303
X-22.551 Y22.965
X-22.561 Y23.628
X-22.567 Y24.29
X-22.569 Y24.953
X-22.571 Y26.277
X-22.572 Y40.118
X-22.577 Y40.237
X-22.592 Y40.355
X-22.616 Y40.472
X-22.866 Y41.446
G3 X-23.23 Y41.668 I-0.305 J-0.09 F600
G1 X-23.28 Y41.645 Z7.005
X-23.327 Y41.623 Z7.019
X-23.372 Y41.602 Z7.042
X-23.401 Y41.562 Z7.078
X-23.426 Y41.528 Z7.122
X-23.445 Y41.502 Z7.173
X-23.458 Y41.484 Z7.229
X-23.465 Y41.476 Z7.289
Y41.474 Z7.318
G0 Z20
X-20.771 Y15.144
Z7.635
G1 Z7.318 F600
X-20.767 Y15.151 Z7.247
X-20.755 Y15.171 Z7.18
X-20.735 Y15.204 Z7.12
X-20.71 Y15.247 Z7.069
X-20.679 Y15.298 Z7.031
X-20.645 Y15.356 Z7.008
X-20.609 Y15.417 Z7
G3 X-20.387 Y16.17 I-1.36 J0.809
G1 Y16.471 F1000
X-20.395 Y16.621
X-20.425 Y16.768
X-20.47 Y16.911
X-20.525 Y17.051
X-20.587 Y17.187
X-20.658 Y17.332
X-20.782 Y17.564
