(adap1)
(T6 D=3.175 CR=0 - ZMIN=0 - flat end mill)
G90 G94
G17
G21
G28 G91 Z0
G90

(Adaptive1 10)
T6
(18 Flat-45 degree helix)
S18000 M3
G17 G90 G94
G54
G0 X3.628 Y-0.311
Z30
G0 Z20
Z10.135
G1 Z9.818 F600
X3.62 Y-0.31 Z9.747
X3.598 Y-0.304 Z9.68
X3.561 Y-0.294 Z9.62
X3.512 Y-0.282 Z9.569
X3.454 Y-0.267 Z9.531
X3.389 Y-0.25 Z9.508
X3.321 Y-0.233 Z9.5
G3 X1.592 Y0.016 I-2.011 J-7.852
G1 X1.442 F1000
X0.793 Y-0.117
X0.135 Y-0.194
X-0.526 Y-0.24
X-1.187 Y-0.266
X-1.85 Y-0.281
X-2.512 Y-0.29
X-3.174 Y-0.295
X-3.837 Y-0.298
X-5.162 Y-0.3
X-9.136 Y-0.302
X-40.601
X-40.916 Y-0.2
X-41.184 Y-0.004
X-41.625 Y0.489
X-41.901 Y1.091
X-42.067 Y1.733
X-42.166 Y2.388
X-42.223 Y3.048
X-42.256 Y3.709
X-42.276 Y4.371
X-42.287 Y5.034
X-42.293 Y5.696
X-42.297 Y6.359
X-42.299 Y7.021
X-42.301 Y9.008
X-42.302 Y57.365
Y107.708
Y117.077
X-42.304 Y117.139
X-42.312 Y117.201
X-42.325 Y117.261
X-42.616 Y118.395
X-42.649 Y118.545
X-42.673 Y118.696
X-42.686 Y118.846
X-42.687 Y119.749
Y126.82
X-42.662 Y127.271
X-42.636 Y127.421
X-42.577 Y127.722
X-42.478 Y128.377
X-42.402 Y129.035
X-42.381 Y129.366
X-42.372 Y129.531
X-42.337 Y129.693
X-42.202 Y129.996
X-41.989 Y130.249
X-41.475 Y130.667
X-40.866 Y130.927
X-40.222 Y131.083
X-39.566 Y131.175
X-38.906 Y131.228
X-38.244 Y131.259
X-37.582 Y131.277
X-36.92 Y131.288
X-36.257 Y131.294
X-35.595 Y131.297
X-34.27 Y131.3
X-30.958 Y131.302
X-1.48
X-1.318 Y131.27
X-1.014 Y131.138
X-0.758 Y130.928
X-0.338 Y130.416
X-0.076 Y129.807
X0.081 Y129.164
X0.094 Y129.069
X0.118 Y128.961
X0.157 Y128.858
X0.211 Y128.762
X0.253 Y128.699
X0.296 Y128.625
X0.377 Y128.474
X0.403 Y128.411
X0.436 Y128.324
X0.482 Y128.174
X0.517 Y128.023
X0.636 Y127.421
X0.662 Y127.271
X0.688 Y126.82
Y34.146
X0.685 Y33.996
X0.678 Y33.846
X0.658 Y33.695
X0.63 Y33.545
X0.57 Y33.244
X0.474 Y32.588
X0.399 Y31.93
X0.358 Y31.269
X0.334 Y30.607
X0.32 Y29.945
X0.312 Y29.282
X0.308 Y28.62
X0.305 Y27.958
X0.303 Y26.633
X0.302 Y21.996
Y2.786
X0.218 Y2.465
X0.038 Y2.188
X-0.433 Y1.722
X-1.025 Y1.424
X-1.661 Y1.24
X-2.314 Y1.129
X-2.973 Y1.063
X-3.635 Y1.024
X-4.297 Y1.001
X-4.959 Y0.987
X-5.621 Y0.979
X-6.284 Y0.975
X-6.946 Y0.972
X-8.271 Y0.97
X-8.744 Y0.969
X-8.888 Y0.955
X-9.027 Y0.913
X-9.154 Y0.844
X-9.226 Y0.797
X-9.301 Y0.748
X-9.376 Y0.701
X-9.581 Y0.598
X-9.677 Y0.564
X-9.828 Y0.517
X-10.279 Y0.423
X-10.58 Y0.363
X-10.73 Y0.335
X-10.881 Y0.327
X-11.182 Y0.314
X-11.332 Y0.312
X-16.598 Y0.313
X-16.748 Y0.316
X-16.899 Y0.331
X-17.049 Y0.349
X-17.651 Y0.469
X-17.801 Y0.501
X-17.952 Y0.54
X-18.102 Y0.591
X-18.244 Y0.639
X-18.778 Y0.757
X-19.434 Y0.848
X-20.094 Y0.9
X-20.756 Y0.929
X-21.418 Y0.946
X-22.081 Y0.956
X-22.743 Y0.961
X-23.406 Y0.964
X-24.73 Y0.967
X-28.705 Y0.968
X-38.972
X-39.294 Y1.048
X-39.585 Y1.205
X-40.092 Y1.632
X-40.439 Y2.196
X-40.664 Y2.819
X-40.807 Y3.466
X-40.895 Y4.123
X-40.949 Y4.783
X-40.982 Y5.445
X-41.002 Y6.107
X-41.014 Y6.769
X-41.021 Y7.431
X-41.025 Y8.094
X-41.028 Y8.756
X-41.03 Y10.081
X-41.032 Y14.056
Y29.291
Y79.635
Y112.129
X-41.034 Y112.191
X-41.042 Y112.252
X-41.055 Y112.313
X-42.325 Y117.261
X-42.449 Y117.744 Z9.7 F600
X-42.51 Y117.985
X-42.616 Y118.395 F1000
X-42.649 Y118.545
X-42.673 Y118.696
X-42.686 Y118.846
X-42.687 Y119.297
Y126.82
X-42.679 Y126.97
Y126.984
X-42.664 Y127.232 F600
X-42.662 Y127.271 Z9.684
X-42.636 Y127.421 Z9.623
X-42.577 Y127.722 Z9.5
X-42.485 Y128.174 F1000
X-42.475 Y128.209
X-42.436 Y128.324
X-42.377 Y128.474
X-42.296 Y128.625
X-42.202 Y128.775
X-41.9 Y129.227
X-41.799 Y129.377
X-41.723 Y129.47
X-41.587 Y129.627
X-41.11 Y129.979
X-40.884 Y130.129
X-40.655 Y130.28
X-40.519 Y130.352
X-40.369 Y130.42
X-40.219 Y130.472
X-40.068 Y130.506
X-39.918 Y130.538
X-39.617 Y130.597
X-39.316 Y130.655
X-39.165 Y130.672
X-38.864 Y130.684
X-38.714 Y130.687
X-3.208
X-2.756 Y130.666
X-2.606 Y130.641
X-2.155 Y130.552
X-2.004 Y130.521
X-1.854 Y130.488
X-1.703 Y130.445
X-1.553 Y130.39
X-1.343 Y130.28
X-0.89 Y129.979
X-0.65 Y129.818
X-0.477 Y129.678
X-0.349 Y129.554
X-0.327 Y129.528
X-0.199 Y129.373
X0.001 Y129.076
X0.211 Y128.762
G3 X0.468 Y128.629 I0.258 J0.185 F600
G1 X0.469
X0.524 Y128.634
X0.578 Y128.649
X0.628 Y128.672
X0.667 Y128.71 Z9.505
X0.705 Y128.747 Z9.519
X0.74 Y128.782 Z9.542
X0.755 Y128.829 Z9.578
X0.767 Y128.868 Z9.622
X0.776 Y128.9 Z9.673
X0.783 Y128.921 Z9.729
X0.786 Y128.931 Z9.789
Y128.933 Z9.818
G0 Z20
X1.147 Y34.176
Z10.135
G1 Z9.818 F600
X1.141 Y34.17 Z9.747
X1.126 Y34.152 Z9.68
X1.1 Y34.124 Z9.62
X1.067 Y34.087 Z9.569
X1.026 Y34.042 Z9.531
X0.981 Y33.992 Z9.508
X0.934 Y33.94 Z9.5
G3 X0.57 Y33.244 I1.176 J-1.059
G1 X0.51 Y32.943 F1000
X0.472 Y32.792
X0.423 Y32.642
X0.361 Y32.492
X0.253 Y32.304
X0.18 Y32.191
X-0.123 Y31.739
X-0.274 Y31.493
X-0.382 Y31.279
X-0.495 Y31.005
X-0.613 Y30.636
X-0.735 Y30.114
X-0.833 Y29.459
X-0.89 Y28.799
X-0.923 Y28.138
X-0.942 Y27.476
X-0.953 Y26.813
X-0.959 Y26.151
X-0.963 Y25.489
X-0.967 Y24.164
X-0.968 Y21.514
Y4.291
X-1.059 Y3.973
X-1.222 Y3.684
X-1.654 Y3.182
X-2.219 Y2.837
X-2.842 Y2.612
X-3.489 Y2.469
X-4.145 Y2.379
X-4.805 Y2.324
X-5.467 Y2.29
X-6.129 Y2.27
X-6.791 Y2.257
X-7.393 Y2.25
X-7.57 Y2.227
X-7.737 Y2.161
X-7.883 Y2.057
X-8 Y1.921
X-8.081 Y1.801
X-8.184 Y1.651
X-8.298 Y1.5
X-8.438 Y1.35
X-8.473 Y1.319
X-8.634 Y1.199
X-8.85 Y1.049
X-8.925 Y0.998
X-9.154 Y0.844
G3 X-9.286 Y0.587 I0.185 J-0.258 F600
G1 X-9.282 Y0.531
X-9.267 Y0.478
X-9.243 Y0.427
X-9.205 Y0.388 Z9.505
X-9.168 Y0.351 Z9.519
X-9.134 Y0.315 Z9.542
X-9.087 Y0.301 Z9.578
X-9.047 Y0.289 Z9.622
X-9.016 Y0.279 Z9.673
X-8.995 Y0.273 Z9.729
X-8.984 Y0.27 Z9.789
X-8.983 Z9.818
G0 Z20
X0.774 Y32.369
Z10.135
G1 Z9.818 F600
X0.767 Y32.366 Z9.747
X0.746 Y32.356 Z9.68
X0.711 Y32.34 Z9.62
X0.666 Y32.319 Z9.569
X0.611 Y32.294 Z9.531
X0.55 Y32.266 Z9.508
X0.486 Y32.236 Z9.5
G3 X-0.123 Y31.739 I0.665 J-1.436
G1 X-0.226 Y31.589 F1000
X-0.355 Y31.438
X-0.427 Y31.359
X-0.522 Y31.288
X-0.8 Y31.085
X-0.878 Y31.031
X-0.996 Y30.939
X-1.105 Y30.836
X-1.219 Y30.707
X-1.329 Y30.562
X-1.448 Y30.374
X-1.574 Y30.135
X-1.699 Y29.841
X-1.831 Y29.451
X-1.964 Y28.915
X-2.072 Y28.262
X-2.137 Y27.602
X-2.177 Y26.941
X-2.201 Y26.279
X-2.216 Y25.617
X-2.225 Y24.955
X-2.23 Y24.292
X-2.233 Y23.63
X-2.237 Y22.305
X-2.238 Y18.993
Y5.745
X-2.309 Y5.421
X-2.45 Y5.121
X-2.845 Y4.59
X-3.389 Y4.211
X-4 Y3.956
X-4.642 Y3.791
X-5.296 Y3.685
X-5.955 Y3.618
X-6.616 Y3.574
X-6.859 Y3.542
X-7.078 Y3.478
X-7.267 Y3.35
X-7.408 Y3.17
X-7.488 Y2.956
X-7.509 Y2.854
X-7.571 Y2.648
X-7.614 Y2.553
X-7.687 Y2.403
X-7.781 Y2.252
X-7.88 Y2.102
X-8 Y1.921
G3 X-7.923 Y1.502 I0.27 J-0.167 F600
G1 X-7.873 Y1.48 Z9.505
X-7.824 Y1.46 Z9.519
X-7.779 Y1.44 Z9.542
X-7.73 Y1.437 Z9.577
X-7.684 Y1.445 Z9.626
X-7.65 Y1.451 Z9.685
X-7.629 Y1.455 Z9.749
X-7.622 Y1.456 Z9.817
G0 Z20
X0.184 Y31.303
Z10.135
G1 Z9.818 F600
X0.176 Z9.747
X0.152 Y31.301 Z9.68
X0.115 Y31.298 Z9.62
X0.065 Y31.294 Z9.569
X0.005 Y31.29 Z9.531
X-0.062 Y31.285 Z9.508
X-0.133 Y31.28 Z9.5
G3 X-0.878 Y31.031 I0.114 J-1.578
G1 X-0.951 Y30.98 F1000
X-1.252 Y30.78
X-1.407 Y30.686
X-1.553 Y30.61
X-1.703 Y30.555
X-1.842 Y30.497
X-1.97 Y30.419
X-2.089 Y30.328
X-2.214 Y30.214
X-2.334 Y30.084
X-2.463 Y29.922
X-2.605 Y29.709
X-2.739 Y29.468
X-2.884 Y29.152
X-3.025 Y28.763
X-3.17 Y28.235
X-3.293 Y27.584
X-3.372 Y26.926
X-3.422 Y26.266
X-3.454 Y25.604
X-3.474 Y24.942
X-3.487 Y24.28
X-3.495 Y23.617
X-3.5 Y22.955
X-3.503 Y22.293
X-3.506 Y20.968
X-3.508 Y18.318
Y7.057
X-3.581 Y6.734
X-3.722 Y6.434
X-4.112 Y5.899
X-4.651 Y5.514
X-5.26 Y5.253
X-5.899 Y5.077
X-6.457 Y4.939
X-6.796 Y4.826
X-6.862 Y4.798
X-7.046 Y4.686
X-7.19 Y4.525
X-7.281 Y4.33
X-7.312 Y4.116
Y4.058
X-7.319 Y3.907
X-7.333 Y3.757
X-7.358 Y3.606
X-7.478 Y3.005
X-7.488 Y2.956
G3 X-7.257 Y2.597 I0.313 J-0.053 F600
G1 X-7.216 Y2.591 Z9.503
X-7.175 Y2.586 Z9.511
X-7.118 Y2.6 Z9.534
X-7.067 Y2.613 Z9.568
X-7.023 Y2.624 Z9.612
X-6.997 Y2.643 Z9.657
X-6.977 Y2.657 Z9.708
X-6.965 Y2.665 Z9.762
X-6.961 Y2.668 Z9.817
G0 Z20
X-0.607 Y30.539
Z10.135
G1 Z9.818 F600
X-0.615 Y30.54 Z9.747
X-0.638 Y30.545 Z9.68
X-0.675 Y30.552 Z9.62
X-0.725 Y30.562 Z9.569
X-0.784 Y30.573 Z9.531
X-0.85 Y30.586 Z9.508
X-0.919 Y30.6 Z9.5
G3 X-1.703 Y30.555 I-0.304 J-1.553
G1 X-1.757 Y30.536 F1000
X-1.854 Y30.513
X-2.305 Y30.418
X-2.455 Y30.388
X-2.601 Y30.352
X-2.743 Y30.303
X-2.878 Y30.238
X-3.006 Y30.16
X-3.141 Y30.061
X-3.273 Y29.948
X-3.416 Y29.801
X-3.572 Y29.615
X-3.719 Y29.407
X-3.886 Y29.127
X-4.039 Y28.814
X-4.203 Y28.398
X-4.361 Y27.877
X-4.502 Y27.23
X-4.596 Y26.574
X-4.659 Y25.915
X-4.7 Y25.254
X-4.727 Y24.592
X-4.745 Y23.93
X-4.757 Y23.267
X-4.765 Y22.605
X-4.77 Y21.943
X-4.773 Y21.28
X-4.776 Y19.955
X-4.778 Y17.306
Y8.694
X-4.792 Y8.363
X-4.862 Y8.039
X-4.998 Y7.738
X-5.381 Y7.197
X-5.903 Y6.789
X-6.478 Y6.459
X-6.88 Y6.23
X-6.989 Y6.156
X-7.124 Y6.037
X-7.227 Y5.89
X-7.291 Y5.722
X-7.312 Y5.543
Y4.116
G3 X-7.015 Y3.811 I0.317 J0.011 F600
G1 X-6.995 Y3.81 Z9.501
X-6.942 Y3.824 Z9.509
X-6.891 Y3.837 Z9.527
X-6.844 Y3.849 Z9.554
X-6.808 Y3.88 Z9.594
X-6.779 Y3.905 Z9.642
X-6.757 Y3.924 Z9.697
X-6.744 Y3.936 Z9.756
X-6.739 Y3.94 Z9.817
G0 Z20
X-1.375 Y30.208
Z10.135
G1 Z9.818 F600
X-1.382 Y30.211 Z9.747
X-1.404 Y30.219 Z9.68
X-1.44 Y30.231 Z9.62
X-1.487 Y30.248 Z9.569
X-1.544 Y30.269 Z9.531
X-1.607 Y30.291 Z9.508
X-1.673 Y30.315 Z9.5
G3 X-2.455 Y30.388 I-0.534 J-1.49
G1 X-2.606 Y30.359 F1000
X-2.756 Y30.334
X-3.208 Y30.312
X-3.29
X-3.44 Y30.305
X-3.587 Y30.275
X-3.73 Y30.228
X-3.867 Y30.167
X-4.007 Y30.088
X-4.145 Y29.996
X-4.299 Y29.874
X-4.459 Y29.725
X-4.623 Y29.546
X-4.8 Y29.318
X-4.969 Y29.06
X-5.154 Y28.72
X-5.326 Y28.333
X-5.501 Y27.836
X-5.671 Y27.196
X-5.789 Y26.544
X-5.872 Y25.887
X-5.928 Y25.227
X-5.968 Y24.566
X-5.994 Y23.904
X-6.012 Y23.241
X-6.024 Y22.579
X-6.033 Y21.917
X-6.038 Y21.254
X-6.042 Y20.592
X-6.046 Y19.267
X-6.048 Y16.617
Y9.993
X-6.079 Y9.332
X-6.329 Y8.718
X-6.736 Y8.195
X-7.093 Y7.84
X-7.212 Y7.686
X-7.287 Y7.507
X-7.312 Y7.314
Y5.543
G3 X-7.015 Y5.238 I0.317 J0.011 F600
G1 X-6.995 Y5.237 Z9.501
X-6.942 Y5.251 Z9.509
X-6.891 Y5.264 Z9.527
X-6.844 Y5.276 Z9.554
X-6.808 Y5.307 Z9.594
X-6.779 Y5.332 Z9.642
X-6.757 Y5.351 Z9.697
X-6.744 Y5.363 Z9.756
X-6.739 Y5.367 Z9.817
G0 Z20
X-2.264 Y29.929
Z10.135
G1 Z9.818 F600
X-2.271 Y29.933 Z9.747
X-2.291 Y29.945 Z9.68
X-2.323 Y29.964 Z9.62
X-2.367 Y29.99 Z9.569
X-2.418 Y30.021 Z9.531
X-2.476 Y30.055 Z9.508
X-2.537 Y30.091 Z9.5
G3 X-3.29 Y30.312 I-0.809 J-1.36
G1 X-4.261 F1000
X-4.411 Y30.305
X-4.559 Y30.281
X-4.703 Y30.24
X-4.843 Y30.186
X-4.984 Y30.117
X-5.142 Y30.023
X-5.299 Y29.912
X-5.476 Y29.764
X-5.645 Y29.598
X-5.839 Y29.375
X-6.019 Y29.131
X-6.224 Y28.798
X-6.408 Y28.44
X-6.603 Y27.97
X-6.793 Y27.383
X-6.945 Y26.738
X-7.056 Y26.085
X-7.134 Y25.427
X-7.19 Y24.767
X-7.23 Y24.106
X-7.258 Y23.444
X-7.277 Y22.782
X-7.29 Y22.12
X-7.299 Y21.457
X-7.306 Y20.795
X-7.31 Y20.132
X-7.312 Y19.522
Y7.314
G3 X-7.015 Y7.008 I0.317 J0.011 F600
G1 X-6.995 Z9.501
X-6.942 Y7.021 Z9.509
X-6.891 Y7.034 Z9.527
X-6.844 Y7.046 Z9.554
X-6.808 Y7.077 Z9.594
X-6.779 Y7.103 Z9.642
X-6.757 Y7.122 Z9.697
X-6.744 Y7.133 Z9.756
X-6.739 Y7.137 Z9.817
G0 Z20
X-3.234 Y29.929
Z10.135
G1 Z9.818 F600
X-3.241 Y29.933 Z9.747
X-3.261 Y29.945 Z9.68
X-3.294 Y29.964 Z9.62
X-3.337 Y29.99 Z9.569
X-3.389 Y30.021 Z9.531
X-3.447 Y30.055 Z9.508
X-3.507 Y30.091 Z9.5
G3 X-4.261 Y30.312 I-0.809 J-1.36
G1 X-5.314 F1000
X-5.464 Y30.305
X-5.612 Y30.284
X-5.758 Y30.247
X-5.899 Y30.197
X-6.052 Y30.127
X-6.209 Y30.04
X-6.379 Y29.926
X-6.555 Y29.787
X-6.742 Y29.614
X-6.937 Y29.401
X-7.137 Y29.144
X-7.191 Y29.061
X-7.258 Y28.935
X-7.299 Y28.797
X-7.312 Y28.655
G3 X-6.984 Y28.349 Z9.7 I0.317 J0.011 F600
G1 X-6.918 Y28.358
X-6.854 Y28.381
X-6.797 Y28.417
X-6.762 Y28.446
X-5.127 Y29.747 F1000
X-5.108 Y29.764
X-5.067 Y29.811 F600
X-5.036 Y29.864
X-5.016 Y29.923
X-5.008 Y29.984
G3 X-5.314 Y30.312 Z9.5 I-0.317 J0.011
G1 X-6.45 F1000
X-6.6 Y30.305
X-6.748 Y30.282
X-6.761 Y30.279
X-6.94 Y30.205
X-7.094 Y30.087
X-7.213 Y29.934
X-7.287 Y29.755
X-7.312 Y29.562
G3 X-6.984 Y29.256 Z9.7 I0.317 J0.011 F600
G1 X-6.918 Y29.266
X-6.855 Y29.289
X-6.798 Y29.324
X-6.762 Y29.353
X-6.264 Y29.746 F1000
X-6.243 Y29.764
X-6.203 Y29.811 F600
X-6.172 Y29.864
X-6.152 Y29.923
X-6.144 Y29.984
G3 X-6.45 Y30.312 Z9.5 I-0.317 J0.011
G1 X-6.668 F1000
X-6.818 Y30.311
X-6.969 Y30.286
X-7.044 Y30.269
X-7.082 Y30.255
X-7.12 Y30.235
X-7.162 Y30.204
X-7.204 Y30.16
X-7.233 Y30.122
X-7.253 Y30.084
X-7.27 Y30.041
X-7.293 Y29.934
X-7.307 Y29.859
X-7.312 Y29.784
Y19.522
G3 X-7.015 Y19.216 I0.317 J0.011 F600
G1 X-6.995 Y19.215 Z9.501
X-6.942 Y19.229 Z9.509
X-6.891 Y19.242 Z9.527
X-6.844 Y19.254 Z9.554
X-6.808 Y19.285 Z9.594
X-6.779 Y19.31 Z9.642
X-6.757 Y19.329 Z9.697
X-6.744 Y19.341 Z9.756
X-6.739 Y19.345 Z9.817
G0 Z20
X-17.301 Y-0.156
Z10.135
G1 Z9.818 F600
X-17.305 Y-0.15 Z9.747
X-17.32 Y-0.131 Z9.68
X-17.342 Y-0.101 Z9.62
X-17.372 Y-0.061 Z9.569
X-17.408 Y-0.012 Z9.531
X-17.448 Y0.041 Z9.508
X-17.491 Y0.098 Z9.5
G3 X-18.102 Y0.591 I-1.268 J-0.947
G1 X-18.118 Y0.598 F1000
X-18.253 Y0.662
X-18.403 Y0.752
X-18.554 Y0.85
X-19.005 Y1.152
X-19.074 Y1.199
X-19.155 Y1.26
X-19.186 Y1.287
X-19.303 Y1.381
X-19.461 Y1.486
X-19.657 Y1.594
X-19.911 Y1.708
X-20.243 Y1.827
X-20.701 Y1.95
X-21.352 Y2.07
X-22.011 Y2.139
X-22.672 Y2.18
X-23.334 Y2.204
X-23.996 Y2.218
X-24.659 Y2.226
X-25.321 Y2.231
X-25.984 Y2.234
X-27.308 Y2.237
X-31.283 Y2.238
X-37.245
X-37.576 Y2.25
X-37.898 Y2.327
X-38.194 Y2.476
X-38.717 Y2.882
X-39.086 Y3.432
X-39.333 Y4.047
X-39.492 Y4.69
X-39.594 Y5.344
X-39.658 Y6.004
X-39.698 Y6.665
X-39.722 Y7.327
X-39.738 Y7.989
X-39.747 Y8.651
X-39.753 Y9.314
X-39.756 Y9.976
X-39.76 Y11.301
X-39.761 Y13.951
X-39.762 Y33.161
Y83.504
Y107.181
X-39.764 Y107.243
X-39.772 Y107.304
X-39.785 Y107.365
X-41.055 Y112.313
G3 X-41.419 Y112.535 I-0.305 J-0.09 F600
G1 X-41.468 Y112.512 Z9.505
X-41.516 Y112.49 Z9.519
X-41.561 Y112.469 Z9.542
X-41.59 Y112.429 Z9.578
X-41.615 Y112.396 Z9.622
X-41.634 Y112.37 Z9.673
X-41.647 Y112.352 Z9.729
X-41.654 Y112.343 Z9.789
Y112.342 Z9.818
G0 Z20
X-18.676 Y0.317
Z10.135
G1 Z9.818 F600
X-18.679 Y0.324 Z9.747
X-18.686 Y0.347 Z9.68
X-18.697 Y0.383 Z9.62
X-18.712 Y0.431 Z9.569
X-18.73 Y0.488 Z9.531
X-18.751 Y0.552 Z9.508
X-18.772 Y0.62 Z9.5
G3 X-19.186 Y1.287 I-1.51 J-0.475
G1 X-19.256 Y1.35 F1000
X-19.306 Y1.396
X-19.401 Y1.5
X-19.456 Y1.567
X-19.518 Y1.651
X-19.757 Y2.008
X-19.82 Y2.102
X-19.91 Y2.222
X-20.013 Y2.332
X-20.143 Y2.45
X-20.29 Y2.562
X-20.481 Y2.686
X-20.72 Y2.815
X-21.015 Y2.944
X-21.402 Y3.078
X-21.928 Y3.214
X-22.581 Y3.328
X-23.24 Y3.397
X-23.901 Y3.44
X-24.562 Y3.467
X-25.225 Y3.483
X-25.887 Y3.493
X-26.549 Y3.499
X-27.212 Y3.503
X-28.537 Y3.506
X-31.186 Y3.508
X-35.823
X-36.154 Y3.513
X-36.48 Y3.573
X-36.786 Y3.701
X-37.333 Y4.074
X-37.731 Y4.603
X-38.001 Y5.208
X-38.18 Y5.846
X-38.294 Y6.499
X-38.368 Y7.157
X-38.414 Y7.818
X-38.443 Y8.479
X-38.462 Y9.142
X-38.473 Y9.804
X-38.48 Y10.466
X-38.485 Y11.129
X-38.487 Y11.791
X-38.49 Y13.116
X-38.491 Y16.428
X-38.492 Y36.301
Y86.644
Y102.232
X-38.494 Y102.294
X-38.502 Y102.356
X-38.515 Y102.417
X-39.785 Y107.365
G3 X-40.149 Y107.587 I-0.305 J-0.09 F600
G1 X-40.198 Y107.564 Z9.505
X-40.246 Y107.542 Z9.519
X-40.291 Y107.521 Z9.542
X-40.32 Y107.481 Z9.578
X-40.345 Y107.447 Z9.622
X-40.364 Y107.421 Z9.673
X-40.377 Y107.403 Z9.729
X-40.384 Y107.395 Z9.789
Y107.393 Z9.818
G0 Z20
X-19.569 Y1.035
Z10.135
G1 Z9.818 F600
X-19.57 Y1.043 Z9.747
X-19.571 Y1.067 Z9.68
X-19.573 Y1.104 Z9.62
X-19.576 Y1.155 Z9.569
X-19.579 Y1.215 Z9.531
X-19.582 Y1.282 Z9.508
X-19.586 Y1.352 Z9.5
G3 X-19.82 Y2.102 I-1.58 J-0.083
G1 X-19.921 Y2.252 F1000
X-20.012 Y2.403
X-20.058 Y2.484
X-20.088 Y2.553
X-20.141 Y2.704
X-20.162 Y2.786
X-20.206 Y2.93
X-20.27 Y3.066
X-20.349 Y3.193
X-20.439 Y3.313
X-20.554 Y3.439
X-20.692 Y3.569
X-20.856 Y3.7
X-21.072 Y3.845
X-21.322 Y3.986
X-21.641 Y4.133
X-22.037 Y4.278
X-22.569 Y4.427
X-23.219 Y4.553
X-23.877 Y4.634
X-24.537 Y4.686
X-25.199 Y4.72
X-25.861 Y4.741
X-26.523 Y4.755
X-27.185 Y4.764
X-27.848 Y4.769
X-28.51 Y4.773
X-29.835 Y4.776
X-32.485 Y4.778
X-34.472
X-34.803 Y4.78
X-35.13 Y4.831
X-35.44 Y4.948
X-36.001 Y5.301
X-36.413 Y5.819
X-36.696 Y6.418
X-36.884 Y7.053
X-37.007 Y7.704
X-37.085 Y8.362
X-37.136 Y9.023
X-37.168 Y9.684
X-37.188 Y10.346
X-37.2 Y11.009
X-37.208 Y11.671
X-37.213 Y12.333
X-37.216 Y12.996
X-37.22 Y14.321
X-37.221 Y16.97
X-37.222 Y38.83
Y89.174
Y97.284
X-37.224 Y97.346
X-37.232 Y97.408
X-37.245 Y97.468
X-38.515 Y102.417
G3 X-39.114 Y102.445 I-0.305 J-0.09 F600
G1 X-39.14 Y102.38 Z9.508
X-39.165 Y102.317 Z9.531
X-39.188 Y102.261 Z9.569
X-39.207 Y102.215 Z9.62
X-39.221 Y102.18 Z9.68
X-39.229 Y102.158 Z9.747
X-39.232 Y102.151 Z9.818
G0 Z20
X-20.284 Y1.697
Z10.135
G1 Z9.818 F600
X-20.282 Y1.705 Z9.747
X-20.275 Y1.728 Z9.68
X-20.264 Y1.764 Z9.62
X-20.25 Y1.812 Z9.569
X-20.233 Y1.87 Z9.531
X-20.213 Y1.934 Z9.508
X-20.193 Y2.002 Z9.5
G3 X-20.162 Y2.786 I-1.516 J0.453
G1 X-20.217 Y3.005 F1000
X-20.252 Y3.155
X-20.342 Y3.606
X-20.359 Y3.712
X-20.391 Y3.858
X-20.445 Y3.998
X-20.513 Y4.132
X-20.593 Y4.259
X-20.699 Y4.398
X-20.821 Y4.536
X-20.976 Y4.684
X-21.173 Y4.844
X-21.395 Y4.996
X-21.693 Y5.168
X-22.023 Y5.324
X-22.462 Y5.49
X-23.026 Y5.652
X-23.675 Y5.784
X-24.331 Y5.873
X-24.991 Y5.932
X-25.652 Y5.972
X-26.314 Y5.998
X-26.977 Y6.016
X-27.639 Y6.027
X-28.301 Y6.035
X-28.964 Y6.04
X-29.626 Y6.043
X-30.951 Y6.046
X-33.601 Y6.048
X-33.925 Y6.115
X-34.228 Y6.248
X-34.774 Y6.624
X-35.17 Y7.154
X-35.442 Y7.758
X-35.623 Y8.396
X-35.741 Y9.047
X-35.818 Y9.705
X-35.867 Y10.366
X-35.898 Y11.028
X-35.918 Y11.69
X-35.93 Y12.352
X-35.938 Y13.014
X-35.943 Y13.677
X-35.946 Y14.339
X-35.95 Y15.664
X-35.951 Y18.314
X-35.952 Y41.498
Y91.842
Y92.336
X-35.954 Y92.398
X-35.962 Y92.459
X-35.975 Y92.52
X-37.245 Y97.468
G3 X-37.844 Y97.497 I-0.305 J-0.09 F600
G1 X-37.87 Y97.431 Z9.508
X-37.895 Y97.369 Z9.531
X-37.918 Y97.313 Z9.569
X-37.937 Y97.267 Z9.62
X-37.951 Y97.232 Z9.68
X-37.959 Y97.21 Z9.747
X-37.962 Y97.202 Z9.818
G0 Z20
X-20.57 Y2.636
Z10.135
G1 Z9.818 F600
X-20.567 Y2.644 Z9.747
X-20.558 Y2.666 Z9.68
X-20.544 Y2.701 Z9.62
X-20.526 Y2.748 Z9.569
X-20.504 Y2.804 Z9.531
X-20.48 Y2.866 Z9.508
X-20.454 Y2.932 Z9.5
G3 X-20.359 Y3.712 I-1.474 J0.576
G1 X-20.367 Y3.757 F1000
X-20.381 Y3.907
X-20.387 Y4.058
Y4.509
X-20.395 Y4.659
X-20.426 Y4.806
X-20.474 Y4.948
X-20.535 Y5.085
X-20.609 Y5.219
X-20.71 Y5.372
X-20.827 Y5.52
X-20.983 Y5.69
X-21.159 Y5.853
X-21.388 Y6.032
X-21.656 Y6.21
X-21.99 Y6.394
X-22.384 Y6.572
X-22.891 Y6.753
X-23.531 Y6.926
X-24.182 Y7.047
X-24.839 Y7.133
X-25.499 Y7.192
X-26.16 Y7.233
X-26.822 Y7.261
X-27.484 Y7.28
X-28.146 Y7.293
X-28.808 Y7.301
X-29.471 Y7.307
X-30.133 Y7.311
X-31.458 Y7.315
X-32.12 Y7.316
X-32.45 Y7.346
X-32.768 Y7.44
X-33.06 Y7.596
X-33.58 Y8.006
X-33.953 Y8.554
X-34.207 Y9.166
X-34.375 Y9.806
X-34.485 Y10.46
X-34.556 Y11.118
X-34.602 Y11.779
X-34.631 Y12.441
X-34.65 Y13.103
X-34.661 Y13.765
X-34.669 Y14.428
X-34.674 Y15.09
X-34.677 Y15.753
X-34.68 Y17.077
X-34.681 Y20.389
X-34.682 Y43.574
Y87.388
X-34.684 Y87.45
X-34.692 Y87.511
X-34.705 Y87.572
X-35.975 Y92.52
G3 X-36.574 Y92.549 I-0.305 J-0.09 F600
G1 X-36.6 Y92.483 Z9.508
X-36.625 Y92.421 Z9.531
X-36.648 Y92.365 Z9.569
X-36.667 Y92.318 Z9.62
X-36.681 Y92.283 Z9.68
X-36.689 Y92.261 Z9.747
X-36.692 Y92.254 Z9.818
G0 Z20
X-20.771 Y3.483
Z10.135
G1 Z9.818 F600
X-20.767 Y3.489 Z9.747
X-20.755 Y3.51 Z9.68
X-20.735 Y3.542 Z9.62
X-20.71 Y3.585 Z9.569
X-20.679 Y3.637 Z9.531
X-20.645 Y3.695 Z9.508
X-20.609 Y3.755 Z9.5
G3 X-20.387 Y4.509 I-1.36 J0.809
G1 Y5.494 F1000
X-20.395 Y5.644
X-20.42 Y5.792
X-20.461 Y5.936
X-20.516 Y6.076
X-20.585 Y6.219
X-20.68 Y6.379
X-20.792 Y6.538
X-20.943 Y6.718
X-21.112 Y6.89
X-21.339 Y7.087
X-21.588 Y7.27
X-21.926 Y7.479
X-22.29 Y7.666
X-22.767 Y7.863
X-23.363 Y8.056
X-24.007 Y8.209
X-24.661 Y8.319
X-25.318 Y8.399
X-25.978 Y8.456
X-26.639 Y8.497
X-27.301 Y8.525
X-27.963 Y8.545
X-28.625 Y8.559
X-29.288 Y8.568
X-29.95 Y8.575
X-30.613 Y8.579
X-30.944 Y8.584
X-31.271 Y8.635
X-31.581 Y8.751
X-32.146 Y9.097
X-32.565 Y9.611
X-32.856 Y10.206
X-33.051 Y10.839
X-33.18 Y11.489
X-33.263 Y12.146
X-33.317 Y12.806
X-33.351 Y13.467
X-33.373 Y14.129
X-33.387 Y14.792
X-33.396 Y15.454
X-33.402 Y16.117
X-33.405 Y16.779
X-33.409 Y18.104
X-33.411 Y20.753
X-33.412 Y45.925
Y82.439
X-33.414 Y82.501
X-33.422 Y82.563
X-33.435 Y82.624
X-34.705 Y87.572
G3 X-35.304 Y87.601 I-0.305 J-0.09 F600
G1 X-35.33 Y87.535 Z9.508
X-35.355 Y87.473 Z9.531
X-35.378 Y87.417 Z9.569
X-35.397 Y87.37 Z9.62
X-35.411 Y87.335 Z9.68
X-35.419 Y87.313 Z9.747
X-35.422 Y87.306 Z9.818
G0 Z20
X-20.771 Y4.468
Z10.135
G1 Z9.818 F600
X-20.767 Y4.475 Z9.747
X-20.755 Y4.495 Z9.68
X-20.735 Y4.528 Z9.62
X-20.71 Y4.571 Z9.569
X-20.679 Y4.622 Z9.531
X-20.645 Y4.68 Z9.508
X-20.609 Y4.741 Z9.5
G3 X-20.387 Y5.494 I-1.36 J0.809
G1 Y6.615 F1000
X-20.395 Y6.765
X-20.423 Y6.912
X-20.467 Y7.056
X-20.523 Y7.195
X-20.603 Y7.357
X-20.699 Y7.516
X-20.829 Y7.698
X-20.978 Y7.874
X-21.175 Y8.073
X-21.4 Y8.266
X-21.696 Y8.48
X-22.026 Y8.682
X-22.456 Y8.899
X-22.96 Y9.104
X-23.592 Y9.304
X-24.237 Y9.453
X-24.89 Y9.564
X-25.548 Y9.646
X-26.207 Y9.707
X-26.868 Y9.75
X-27.53 Y9.782
X-28.192 Y9.805
X-28.854 Y9.821
X-29.516 Y9.833
X-29.846 Y9.861
X-30.166 Y9.946
X-30.463 Y10.094
X-30.994 Y10.49
X-31.378 Y11.03
X-31.642 Y11.638
X-31.818 Y12.276
X-31.933 Y12.929
X-32.008 Y13.587
X-32.056 Y14.247
X-32.087 Y14.909
X-32.107 Y15.571
X-32.12 Y16.233
X-32.128 Y16.896
X-32.133 Y17.558
X-32.136 Y18.221
X-32.139 Y19.545
X-32.141 Y22.195
X-32.142 Y48.692
Y77.491
X-32.144 Y77.553
X-32.152 Y77.615
X-32.165 Y77.675
X-33.435 Y82.624
G3 X-34.034 Y82.652 I-0.305 J-0.09 F600
G1 X-34.06 Y82.587 Z9.508
X-34.085 Y82.524 Z9.531
X-34.108 Y82.469 Z9.569
X-34.127 Y82.422 Z9.62
X-34.141 Y82.387 Z9.68
X-34.149 Y82.365 Z9.747
X-34.152 Y82.358 Z9.818
G0 Z20
X-20.771 Y5.589
Z10.135
G1 Z9.818 F600
X-20.767 Y5.596 Z9.747
X-20.755 Y5.616 Z9.68
X-20.735 Y5.648 Z9.62
X-20.71 Y5.692 Z9.569
X-20.679 Y5.743 Z9.531
X-20.645 Y5.801 Z9.508
X-20.609 Y5.862 Z9.5
G3 X-20.387 Y6.615 I-1.36 J0.809
G1 Y7.668 F1000
X-20.395 Y7.818
X-20.415 Y7.967
X-20.45 Y8.113
X-20.5 Y8.259
X-20.564 Y8.406
X-20.656 Y8.576
X-20.763 Y8.743
X-20.909 Y8.934
X-21.081 Y9.125
X-21.301 Y9.333
X-21.557 Y9.539
X-21.889 Y9.765
X-22.261 Y9.976
X-22.739 Y10.199
X-23.325 Y10.416
X-23.962 Y10.596
X-24.61 Y10.733
X-25.265 Y10.837
X-25.922 Y10.915
X-26.582 Y10.973
X-27.243 Y11.016
X-27.905 Y11.048
X-28.567 Y11.071
X-28.886 Y11.161
X-29.181 Y11.31
X-29.71 Y11.709
X-30.097 Y12.247
X-30.364 Y12.853
X-30.542 Y13.491
X-30.659 Y14.143
X-30.735 Y14.801
X-30.784 Y15.462
X-30.816 Y16.123
X-30.836 Y16.786
X-30.849 Y17.448
X-30.857 Y18.11
X-30.862 Y18.773
X-30.866 Y19.435
X-30.869 Y20.76
X-30.871 Y23.41
X-30.872 Y51.231
Y72.543
X-30.874 Y72.605
X-30.882 Y72.667
X-30.895 Y72.727
X-32.165 Y77.675
G3 X-32.764 Y77.704 I-0.305 J-0.09 F600
G1 X-32.79 Y77.639 Z9.508
X-32.815 Y77.576 Z9.531
X-32.838 Y77.52 Z9.569
X-32.857 Y77.474 Z9.62
X-32.871 Y77.439 Z9.68
X-32.879 Y77.417 Z9.747
X-32.882 Y77.409 Z9.818
G0 Z20
X-20.771 Y6.642
Z10.135
G1 Z9.818 F600
X-20.767 Y6.649 Z9.747
X-20.755 Y6.669 Z9.68
X-20.735 Y6.701 Z9.62
X-20.71 Y6.745 Z9.569
X-20.679 Y6.796 Z9.531
X-20.645 Y6.854 Z9.508
X-20.609 Y6.915 Z9.5
G3 X-20.387 Y7.668 I-1.36 J0.809
G1 Y8.872 F1000
X-20.395 Y9.022
X-20.421 Y9.169
X-20.461 Y9.314
X-20.516 Y9.461
X-20.595 Y9.628
X-20.69 Y9.795
X-20.82 Y9.986
X-20.97 Y10.171
X-21.174 Y10.386
X-21.4 Y10.589
X-21.708 Y10.823
X-22.042 Y11.037
X-22.479 Y11.27
X-23.012 Y11.501
X-23.639 Y11.715
X-24.28 Y11.881
X-24.93 Y12.009
X-25.585 Y12.107
X-26.244 Y12.181
X-26.904 Y12.238
X-27.233 Y12.273
X-27.554 Y12.356
X-27.854 Y12.496
X-28.394 Y12.879
X-28.793 Y13.408
X-29.069 Y14.01
X-29.255 Y14.646
X-29.378 Y15.297
X-29.457 Y15.955
X-29.509 Y16.615
X-29.542 Y17.277
X-29.564 Y17.939
X-29.577 Y18.601
X-29.586 Y19.263
X-29.592 Y19.926
X-29.595 Y20.588
X-29.599 Y21.913
X-29.601 Y24.563
X-29.602 Y53.709
Y67.595
X-29.604 Y67.657
X-29.612 Y67.718
X-29.625 Y67.779
X-30.895 Y72.727
G3 X-31.494 Y72.756 I-0.305 J-0.09 F600
G1 X-31.52 Y72.69 Z9.508
X-31.545 Y72.628 Z9.531
X-31.568 Y72.572 Z9.569
X-31.587 Y72.525 Z9.62
X-31.601 Y72.49 Z9.68
X-31.609 Y72.469 Z9.747
X-31.612 Y72.461 Z9.818
G0 Z20
X-20.771 Y7.845
Z10.135
G1 Z9.818 F600
X-20.767 Y7.852 Z9.747
X-20.755 Y7.872 Z9.68
X-20.735 Y7.905 Z9.62
X-20.71 Y7.948 Z9.569
X-20.679 Y8 Z9.531
X-20.645 Y8.058 Z9.508
X-20.609 Y8.118 Z9.5
G3 X-20.387 Y8.872 I-1.36 J0.809
G1 Y10.008 F1000
X-20.395 Y10.158
X-20.417 Y10.306
X-20.454 Y10.451
X-20.507 Y10.604
X-20.575 Y10.759
X-20.672 Y10.938
X-20.786 Y11.113
X-20.943 Y11.317
X-21.122 Y11.514
X-21.363 Y11.74
X-21.634 Y11.956
X-21.998 Y12.201
X-22.395 Y12.425
X-22.907 Y12.661
X-23.529 Y12.889
X-24.167 Y13.068
X-24.814 Y13.208
X-25.467 Y13.318
X-26.123 Y13.408
X-26.738 Y13.655
X-27.231 Y14.097
X-27.592 Y14.653
X-27.842 Y15.266
X-28.011 Y15.907
X-28.123 Y16.56
X-28.197 Y17.218
X-28.244 Y17.879
X-28.275 Y18.54
X-28.296 Y19.203
X-28.308 Y19.865
X-28.317 Y20.527
X-28.322 Y21.19
X-28.326 Y21.852
X-28.329 Y23.177
X-28.331 Y25.827
X-28.332 Y55.635
Y62.647
X-28.334 Y62.709
X-28.342 Y62.77
X-28.355 Y62.831
X-29.625 Y67.779
G3 X-30.224 Y67.808 I-0.305 J-0.09 F600
G1 X-30.25 Y67.742 Z9.508
X-30.275 Y67.68 Z9.531
X-30.298 Y67.624 Z9.569
X-30.317 Y67.577 Z9.62
X-30.331 Y67.542 Z9.68
X-30.339 Y67.52 Z9.747
X-30.342 Y67.513 Z9.818
G0 Z20
X-20.771 Y8.981
Z10.135
G1 Z9.818 F600
X-20.767 Y8.988 Z9.747
X-20.755 Y9.008 Z9.68
X-20.735 Y9.041 Z9.62
X-20.71 Y9.084 Z9.569
X-20.679 Y9.136 Z9.531
X-20.645 Y9.193 Z9.508
X-20.609 Y9.254 Z9.5
G3 X-20.387 Y10.008 I-1.36 J0.809
G1 Y11.211 F1000
X-20.395 Y11.361
X-20.419 Y11.509
X-20.458 Y11.654
X-20.509 Y11.799
X-20.584 Y11.965
X-20.682 Y12.142
X-20.805 Y12.329
X-20.963 Y12.531
X-21.154 Y12.739
X-21.398 Y12.964
X-21.686 Y13.191
X-22.047 Y13.43
X-22.495 Y13.678
X-23.014 Y13.913
X-23.637 Y14.136
X-24.276 Y14.313
X-24.923 Y14.456
X-25.52 Y14.743
X-25.993 Y15.206
X-26.34 Y15.771
X-26.582 Y16.387
X-26.746 Y17.029
X-26.855 Y17.682
X-26.927 Y18.341
X-26.975 Y19.002
X-27.005 Y19.663
X-27.025 Y20.325
X-27.038 Y20.988
X-27.047 Y21.65
X-27.052 Y22.312
X-27.055 Y22.975
X-27.059 Y24.3
X-27.061 Y26.949
X-27.062 Y57.698
X-27.064 Y57.76
X-27.072 Y57.822
X-27.085 Y57.883
X-28.355 Y62.831
G3 X-28.954 Y62.859 I-0.305 J-0.09 F600
G1 X-28.98 Y62.794 Z9.508
X-29.005 Y62.732 Z9.531
X-29.028 Y62.676 Z9.569
X-29.047 Y62.629 Z9.62
X-29.061 Y62.594 Z9.68
X-29.069 Y62.572 Z9.747
X-29.072 Y62.565 Z9.818
G0 Z20
X-20.771 Y10.185
Z10.135
G1 Z9.818 F600
X-20.767 Y10.192 Z9.747
X-20.755 Y10.212 Z9.68
X-20.735 Y10.244 Z9.62
X-20.71 Y10.288 Z9.569
X-20.679 Y10.339 Z9.531
X-20.645 Y10.397 Z9.508
X-20.609 Y10.458 Z9.5
G3 X-20.387 Y11.211 I-1.36 J0.809
G1 Y12.415 F1000
X-20.395 Y12.565
X-20.42 Y12.713
X-20.46 Y12.857
X-20.514 Y13.008
X-20.59 Y13.173
X-20.692 Y13.356
X-20.816 Y13.542
X-20.985 Y13.756
X-21.176 Y13.962
X-21.435 Y14.198
X-21.722 Y14.422
X-22.1 Y14.67
X-22.556 Y14.918
X-23.16 Y15.188
X-23.783 Y15.415
X-24.342 Y15.77
X-24.782 Y16.265
X-25.104 Y16.844
X-25.331 Y17.466
X-25.486 Y18.11
X-25.59 Y18.765
X-25.66 Y19.423
X-25.706 Y20.084
X-25.736 Y20.746
X-25.755 Y21.408
X-25.768 Y22.07
X-25.776 Y22.733
X-25.782 Y23.395
X-25.785 Y24.058
X-25.789 Y25.382
X-25.791 Y28.032
X-25.792 Y52.75
X-25.794 Y52.812
X-25.802 Y52.874
X-25.815 Y52.934
X-27.085 Y57.883
G3 X-27.684 Y57.911 I-0.305 J-0.09 F600
G1 X-27.71 Y57.846 Z9.508
X-27.735 Y57.783 Z9.531
X-27.758 Y57.727 Z9.569
X-27.777 Y57.681 Z9.62
X-27.791 Y57.646 Z9.68
X-27.799 Y57.624 Z9.747
X-27.802 Y57.617 Z9.818
G0 Z20
X-20.771 Y11.388
Z10.135
G1 Z9.818 F600
X-20.767 Y11.395 Z9.747
X-20.755 Y11.415 Z9.68
X-20.735 Y11.448 Z9.62
X-20.71 Y11.491 Z9.569
X-20.679 Y11.543 Z9.531
X-20.645 Y11.601 Z9.508
X-20.609 Y11.661 Z9.5
G3 X-20.387 Y12.415 I-1.36 J0.809
G1 Y13.618 F1000
X-20.395 Y13.768
X-20.42 Y13.916
X-20.46 Y14.061
X-20.516 Y14.217
X-20.591 Y14.38
X-20.696 Y14.569
X-20.819 Y14.753
X-20.99 Y14.969
X-21.184 Y15.177
X-21.448 Y15.419
X-21.758 Y15.66
X-22.312 Y16.023
X-22.866 Y16.387
X-23.331 Y16.858
X-23.69 Y17.415
X-23.953 Y18.023
X-24.137 Y18.659
X-24.264 Y19.309
X-24.35 Y19.966
X-24.408 Y20.626
X-24.447 Y21.287
X-24.473 Y21.949
X-24.489 Y22.611
X-24.501 Y23.274
X-24.508 Y23.936
X-24.513 Y24.598
X-24.516 Y25.261
X-24.519 Y26.586
X-24.521 Y29.235
X-24.522 Y47.802
X-24.524 Y47.864
X-24.532 Y47.925
X-24.545 Y47.986
X-25.815 Y52.934
G3 X-26.414 Y52.963 I-0.305 J-0.09 F600
G1 X-26.44 Y52.897 Z9.508
X-26.465 Y52.835 Z9.531
X-26.488 Y52.779 Z9.569
X-26.507 Y52.733 Z9.62
X-26.521 Y52.698 Z9.68
X-26.529 Y52.676 Z9.747
X-26.532 Y52.668 Z9.818
G0 Z20
X-20.771 Y12.592
Z10.135
G1 Z9.818 F600
X-20.767 Y12.599 Z9.747
X-20.755 Y12.619 Z9.68
X-20.735 Y12.651 Z9.62
X-20.71 Y12.695 Z9.569
X-20.679 Y12.746 Z9.531
X-20.645 Y12.804 Z9.508
X-20.609 Y12.865 Z9.5
G3 X-20.387 Y13.618 I-1.36 J0.809
G1 Y14.822 F1000
X-20.395 Y14.972
X-20.42 Y15.12
X-20.459 Y15.265
X-20.516 Y15.426
X-20.59 Y15.588
X-20.695 Y15.779
X-20.846 Y16.007
X-21.112 Y16.345
X-21.562 Y16.832
X-21.986 Y17.341
X-22.334 Y17.904
X-22.603 Y18.51
X-22.801 Y19.142
X-22.943 Y19.789
X-23.042 Y20.444
X-23.11 Y21.103
X-23.157 Y21.763
X-23.188 Y22.425
X-23.209 Y23.087
X-23.224 Y23.749
X-23.233 Y24.412
X-23.239 Y25.074
X-23.244 Y25.737
X-23.248 Y27.061
X-23.251 Y29.049
X-23.252 Y37.66
Y42.854
X-23.254 Y42.916
X-23.262 Y42.977
X-23.275 Y43.038
X-24.545 Y47.986
G3 X-25.144 Y48.015 I-0.305 J-0.09 F600
G1 X-25.17 Y47.949 Z9.508
X-25.195 Y47.887 Z9.531
X-25.218 Y47.831 Z9.569
X-25.237 Y47.784 Z9.62
X-25.251 Y47.749 Z9.68
X-25.259 Y47.728 Z9.747
X-25.262 Y47.72 Z9.818
G0 Z20
X-20.771 Y13.795
Z10.135
G1 Z9.818 F600
X-20.767 Y13.802 Z9.747
X-20.755 Y13.823 Z9.68
X-20.735 Y13.855 Z9.62
X-20.71 Y13.898 Z9.569
X-20.679 Y13.95 Z9.531
X-20.645 Y14.008 Z9.508
X-20.609 Y14.068 Z9.5
G3 X-20.387 Y14.822 I-1.36 J0.809
G1 Y16.093 F1000
X-20.395 Y16.243
X-20.423 Y16.424
X-20.478 Y16.652
X-20.624 Y17.1
X-20.88 Y17.712
X-21.132 Y18.324
X-21.349 Y18.95
X-21.523 Y19.589
X-21.655 Y20.238
X-21.752 Y20.894
X-21.822 Y21.552
X-21.872 Y22.213
X-21.907 Y22.874
X-21.931 Y23.536
X-21.947 Y24.199
X-21.958 Y24.861
X-21.966 Y25.523
X-21.971 Y26.186
X-21.975 Y26.848
X-21.979 Y28.173
X-21.981 Y30.823
X-21.982 Y37.905
X-21.984 Y37.967
X-21.992 Y38.029
X-22.005 Y38.09
X-23.275 Y43.038
G3 X-23.874 Y43.067 I-0.305 J-0.09 F600
G1 X-23.9 Y43.001 Z9.508
X-23.925 Y42.939 Z9.531
X-23.948 Y42.883 Z9.569
X-23.967 Y42.836 Z9.62
X-23.981 Y42.801 Z9.68
X-23.989 Y42.779 Z9.747
X-23.992 Y42.772 Z9.818
G0 Z20
X-20.771 Y15.067
Z10.135
G1 Z9.818 F600
X-20.767 Y15.074 Z9.747
X-20.755 Y15.094 Z9.68
X-20.735 Y15.126 Z9.62
X-20.71 Y15.169 Z9.569
X-20.679 Y15.221 Z9.531
X-20.645 Y15.279 Z9.508
X-20.609 Y15.34 Z9.5
G3 X-20.387 Y16.093 I-1.36 J0.809
G1 Y18.952 F1000
X-20.42 Y19.613
X-20.456 Y20.275
X-20.504 Y20.935
X-20.551 Y21.596
X-20.592 Y22.257
X-20.624 Y22.919
X-20.648 Y23.581
X-20.667 Y24.243
X-20.68 Y24.905
X-20.69 Y25.568
X-20.697 Y26.23
X-20.701 Y26.892
X-20.705 Y27.555
X-20.708 Y28.88
X-20.711 Y31.529
Y32.956
X-20.714 Y33.018
X-20.722 Y33.08
X-20.735 Y33.14
X-22.005 Y38.09
G3 X-22.604 Y38.118 I-0.305 J-0.09 F600
G1 X-22.63 Y38.053 Z9.508
X-22.655 Y37.99 Z9.531
X-22.678 Y37.935 Z9.569
X-22.697 Y37.888 Z9.62
X-22.711 Y37.853 Z9.68
X-22.719 Y37.831 Z9.747
X-22.722 Y37.824 Z9.818
G0 Z20
X-20.771 Y17.925
Z10.135
G1 Z9.818 F600
X-20.767 Y17.932 Z9.747
X-20.755 Y17.952 Z9.68
X-20.735 Y17.985 Z9.62
X-20.71 Y18.028 Z9.569
X-20.679 Y18.08 Z9.531
X-20.645 Y18.137 Z9.508
X-20.609 Y18.198 Z9.5
G3 X-20.387 Y18.952 I-1.36 J0.809
G1 Y31.589 F1000
X-20.389 Y31.739
X-20.397 Y31.815
X-20.414 Y31.89
X-20.735 Y33.14
G3 X-21.099 Y33.363 I-0.305 J-0.09 F600
G1 X-21.148 Y33.34 Z9.505
X-21.196 Y33.317 Z9.519
X-21.241 Y33.296 Z9.542
X-21.27 Y33.257 Z9.578
X-21.294 Y33.223 Z9.622
X-21.314 Y33.197 Z9.673
X-21.327 Y33.179 Z9.729
X-21.333 Y33.17 Z9.789
X-21.334 Y33.169 Z9.818
G0 Z20
X3.628 Y-0.311
Z9.635
G1 Z9.318 F600
X3.62 Y-0.31 Z9.247
X3.598 Y-0.304 Z9.18
X3.561 Y-0.294 Z9.12
X3.512 Y-0.282 Z9.069
X3.454 Y-0.267 Z9.031
X3.389 Y-0.25 Z9.008
X3.321 Y-0.233 Z9
G3 X1.592 Y0.016 I-2.011 J-7.852
G1 X1.442 F1000
X0.793 Y-0.117
X0.135 Y-0.194
X-0.526 Y-0.24
X-1.187 Y-0.266
X-1.85 Y-0.281
X-2.512 Y-0.29
X-3.174 Y-0.295
X-3.837 Y-0.298
X-5.162 Y-0.3
X-9.136 Y-0.302
X-40.601
X-40.916 Y-0.2
X-41.184 Y-0.004
X-41.625 Y0.489
X-41.901 Y1.091
X-42.067 Y1.733
X-42.166 Y2.388
X-42.223 Y3.048
X-42.256 Y3.709
X-42.276 Y4.371
X-42.287 Y5.034
X-42.293 Y5.696
X-42.297 Y6.359
X-42.299 Y7.021
X-42.301 Y9.008
X-42.302 Y57.365
Y107.708
Y117.077
X-42.304 Y117.139
X-42.312 Y117.201
X-42.325 Y117.261
X-42.616 Y118.395
X-42.649 Y118.545
X-42.673 Y118.696
X-42.686 Y118.846
X-42.687 Y119.749
Y126.82
X-42.662 Y127.271
X-42.636 Y127.421
X-42.577 Y127.722
X-42.478 Y128.377
X-42.402 Y129.035
X-42.381 Y129.366
X-42.372 Y129.531
X-42.337 Y129.693
X-42.202 Y129.996
X-41.989 Y130.249
X-41.475 Y130.667
X-40.866 Y130.927
X-40.222 Y131.083
X-39.566 Y131.175
X-38.906 Y131.228
X-38.244 Y131.259
X-37.582 Y131.277
X-36.92 Y131.288
X-36.257 Y131.294
X-35.595 Y131.297
X-34.27 Y131.3
X-30.958 Y131.302
X-1.48
X-1.318 Y131.27
X-1.014 Y131.138
X-0.758 Y130.928
X-0.338 Y130.416
X-0.076 Y129.807
X0.081 Y129.164
X0.094 Y129.069
X0.118 Y128.961
X0.157 Y128.858
X0.211 Y128.762
X0.253 Y128.699
X0.296 Y128.625
X0.377 Y128.474
X0.403 Y128.411
X0.436 Y128.324
X0.482 Y128.174
X0.517 Y128.023
X0.636 Y127.421
X0.662 Y127.271
X0.688 Y126.82
Y34.146
X0.685 Y33.996
X0.678 Y33.846
X0.658 Y33.695
X0.63 Y33.545
X0.57 Y33.244
X0.474 Y32.588
X0.399 Y31.93
X0.358 Y31.269
X0.334 Y30.607
X0.32 Y29.945
X0.312 Y29.282
X0.308 Y28.62
X0.305 Y27.958
X0.303 Y26.633
X0.302 Y21.996
Y2.786
X0.218 Y2.465
X0.038 Y2.188
X-0.433 Y1.722
X-1.025 Y1.424
X-1.661 Y1.24
X-2.314 Y1.129
X-2.973 Y1.063
X-3.635 Y1.024
X-4.297 Y1.001
X-4.959 Y0.987
X-5.621 Y0.979
X-6.284 Y0.975
X-6.946 Y0.972
X-8.271 Y0.97
X-8.744 Y0.969
X-8.888 Y0.955
X-9.027 Y0.913
X-9.154 Y0.844
X-9.226 Y0.797
X-9.301 Y0.748
X-9.376 Y0.701
X-9.581 Y0.598
X-9.677 Y0.564
X-9.828 Y0.517
X-10.279 Y0.423
X-10.58 Y0.363
X-10.73 Y0.335
X-10.881 Y0.327
X-11.182 Y0.314
X-11.332 Y0.312
X-16.598 Y0.313
X-16.748 Y0.316
X-16.899 Y0.331
X-17.049 Y0.349
X-17.651 Y0.469
X-17.801 Y0.501
X-17.952 Y0.54
X-18.102 Y0.591
X-18.244 Y0.639
X-18.778 Y0.757
X-19.434 Y0.848
X-20.094 Y0.9
X-20.756 Y0.929
X-21.418 Y0.946
X-22.081 Y0.956
X-22.743 Y0.961
X-23.406 Y0.964
X-24.73 Y0.967
X-28.705 Y0.968
X-38.972
X-39.294 Y1.048
X-39.585 Y1.205
X-40.092 Y1.632
X-40.439 Y2.196
X-40.664 Y2.819
X-40.807 Y3.466
X-40.895 Y4.123
X-40.949 Y4.783
X-40.982 Y5.445
X-41.002 Y6.107
X-41.014 Y6.769
X-41.021 Y7.431
X-41.025 Y8.094
X-41.028 Y8.756
X-41.03 Y10.081
X-41.032 Y14.056
Y29.291
Y79.635
Y112.129
X-41.034 Y112.191
X-41.042 Y112.252
X-41.055 Y112.313
X-42.325 Y117.261
X-42.449 Y117.744 Z9.2 F600
X-42.51 Y117.985
X-42.616 Y118.395 F1000
X-42.649 Y118.545
X-42.673 Y118.696
X-42.686 Y118.846
X-42.687 Y119.297
Y126.82
X-42.679 Y126.97
Y126.984
X-42.664 Y127.232 F600
X-42.662 Y127.271 Z9.184
X-42.636 Y127.421 Z9.123
X-42.577 Y127.722 Z9
X-42.485 Y128.174 F1000
X-42.475 Y128.209
X-42.436 Y128.324
X-42.377 Y128.474
X-42.296 Y128.625
X-42.202 Y128.775
X-41.9 Y129.227
X-41.799 Y129.377
X-41.723 Y129.47
X-41.587 Y129.627
X-41.11 Y129.979
X-40.884 Y130.129
X-40.655 Y130.28
X-40.519 Y130.352
X-40.369 Y130.42
X-40.219 Y130.472
X-40.068 Y130.506
X-39.918 Y130.538
X-39.617 Y130.597
X-39.316 Y130.655
X-39.165 Y130.672
X-38.864 Y130.684
X-38.714 Y130.687
X-3.208
X-2.756 Y130.666
X-2.606 Y130.641
X-2.155 Y130.552
X-2.004 Y130.521
X-1.854 Y130.488
X-1.703 Y130.445
X-1.553 Y130.39
X-1.343 Y130.28
X-0.89 Y129.979
X-0.65 Y129.818
X-0.477 Y129.678
X-0.349 Y129.554
X-0.327 Y129.528
X-0.199 Y129.373
X0.001 Y129.076
X0.211 Y128.762
G3 X0.468 Y128.629 I0.258 J0.185 F600
G1 X0.469
X0.524 Y128.634
X0.578 Y128.649
X0.628 Y128.672
X0.667 Y128.71 Z9.005
X0.705 Y128.747 Z9.019
X0.74 Y128.782 Z9.042
X0.755 Y128.829 Z9.078
X0.767 Y128.868 Z9.122
X0.776 Y128.9 Z9.173
X0.783 Y128.921 Z9.229
X0.786 Y128.931 Z9.289
Y128.933 Z9.318
G0 Z20
X1.147 Y34.176
Z9.635
G1 Z9.318 F600
X1.141 Y34.17 Z9.247
X1.126 Y34.152 Z9.18
X1.1 Y34.124 Z9.12
X1.067 Y34.087 Z9.069
X1.026 Y34.042 Z9.031
X0.981 Y33.992 Z9.008
X0.934 Y33.94 Z9
G3 X0.57 Y33.244 I1.176 J-1.059
G1 X0.51 Y32.943 F1000
X0.472 Y32.792
X0.423 Y32.642
X0.361 Y32.492
X0.253 Y32.304
X0.18 Y32.191
X-0.123 Y31.739
X-0.274 Y31.493
X-0.382 Y31.279
X-0.495 Y31.005
X-0.613 Y30.636
X-0.735 Y30.114
X-0.833 Y29.459
X-0.89 Y28.799
X-0.923 Y28.138
X-0.942 Y27.476
X-0.953 Y26.813
X-0.959 Y26.151
X-0.963 Y25.489
X-0.967 Y24.164
X-0.968 Y21.514
Y4.291
X-1.059 Y3.973
X-1.222 Y3.684
X-1.654 Y3.182
X-2.219 Y2.837
X-2.842 Y2.612
X-3.489 Y2.469
X-4.145 Y2.379
X-4.805 Y2.324
X-5.467 Y2.29
X-6.129 Y2.27
X-6.791 Y2.257
X-7.393 Y2.25
X-7.57 Y2.227
X-7.737 Y2.161
X-7.883 Y2.057
X-8 Y1.921
X-8.081 Y1.801
X-8.184 Y1.651
X-8.298 Y1.5
X-8.438 Y1.35
X-8.473 Y1.319
X-8.634 Y1.199
X-8.85 Y1.049
X-8.925 Y0.998
X-9.154 Y0.844
G3 X-9.286 Y0.587 I0.185 J-0.258 F600
G1 X-9.282 Y0.531
X-9.267 Y0.478
X-9.243 Y0.427
X-9.205 Y0.388 Z9.005
X-9.168 Y0.351 Z9.019
X-9.134 Y0.315 Z9.042
X-9.087 Y0.301 Z9.078
X-9.047 Y0.289 Z9.122
X-9.016 Y0.279 Z9.173
X-8.995 Y0.273 Z9.229
X-8.984 Y0.27 Z9.289
X-8.983 Z9.318
G0 Z20
X0.774 Y32.369
Z9.635
G1 Z9.318 F600
X0.767 Y32.366 Z9.247
X0.746 Y32.356 Z9.18
X0.711 Y32.34 Z9.12
X0.666 Y32.319 Z9.069
X0.611 Y32.294 Z9.031
X0.55 Y32.266 Z9.008
X0.486 Y32.236 Z9
G3 X-0.123 Y31.739 I0.665 J-1.436
G1 X-0.226 Y31.589 F1000
X-0.355 Y31.438
X-0.427 Y31.359
X-0.522 Y31.288
X-0.8 Y31.085
X-0.878 Y31.031
X-0.996 Y30.939
X-1.105 Y30.836
X-1.219 Y30.707
X-1.329 Y30.562
X-1.448 Y30.374
X-1.574 Y30.135
X-1.699 Y29.841
X-1.831 Y29.451
X-1.964 Y28.915
X-2.072 Y28.262
X-2.137 Y27.602
X-2.177 Y26.941
X-2.201 Y26.279
X-2.216 Y25.617
X-2.225 Y24.955
X-2.23 Y24.292
X-2.233 Y23.63
X-2.237 Y22.305
X-2.238 Y18.993
Y5.745
X-2.309 Y5.421
X-2.45 Y5.121
X-2.845 Y4.59
X-3.389 Y4.211
X-4 Y3.956
X-4.642 Y3.791
X-5.296 Y3.685
X-5.955 Y3.618
X-6.616 Y3.574
X-6.859 Y3.542
X-7.078 Y3.478
X-7.267 Y3.35
X-7.408 Y3.17
X-7.488 Y2.956
X-7.509 Y2.854
X-7.571 Y2.648
X-7.614 Y2.553
X-7.687 Y2.403
X-7.781 Y2.252
X-7.88 Y2.102
X-8 Y1.921
G3 X-7.923 Y1.502 I0.27 J-0.167 F600
G1 X-7.873 Y1.48 Z9.005
X-7.824 Y1.46 Z9.019
X-7.779 Y1.44 Z9.042
X-7.73 Y1.437 Z9.077
X-7.684 Y1.445 Z9.126
X-7.65 Y1.451 Z9.185
X-7.629 Y1.455 Z9.249
X-7.622 Y1.456 Z9.317
G0 Z20
X0.184 Y31.303
Z9.635
G1 Z9.318 F600
X0.176 Z9.247
X0.152 Y31.301 Z9.18
X0.115 Y31.298 Z9.12
X0.065 Y31.294 Z9.069
X0.005 Y31.29 Z9.031
X-0.062 Y31.285 Z9.008
X-0.133 Y31.28 Z9
G3 X-0.878 Y31.031 I0.114 J-1.578
G1 X-0.951 Y30.98 F1000
X-1.252 Y30.78
X-1.407 Y30.686
X-1.553 Y30.61
X-1.703 Y30.555
X-1.842 Y30.497
X-1.97 Y30.419
X-2.089 Y30.328
X-2.214 Y30.214
X-2.334 Y30.084
X-2.463 Y29.922
X-2.605 Y29.709
X-2.739 Y29.468
X-2.884 Y29.152
X-3.025 Y28.763
X-3.17 Y28.235
X-3.293 Y27.584
X-3.372 Y26.926
X-3.422 Y26.266
X-3.454 Y25.604
X-3.474 Y24.942
X-3.487 Y24.28
X-3.495 Y23.617
X-3.5 Y22.955
X-3.503 Y22.293
X-3.506 Y20.968
X-3.508 Y18.318
Y7.057
X-3.581 Y6.734
X-3.722 Y6.434
X-4.112 Y5.899
X-4.651 Y5.514
X-5.26 Y5.253
X-5.899 Y5.077
X-6.457 Y4.939
X-6.796 Y4.826
X-6.862 Y4.798
X-7.046 Y4.686
X-7.19 Y4.525
X-7.281 Y4.33
X-7.312 Y4.116
Y4.058
X-7.319 Y3.907
X-7.333 Y3.757
X-7.358 Y3.606
X-7.478 Y3.005
X-7.488 Y2.956
G3 X-7.257 Y2.597 I0.313 J-0.053 F600
G1 X-7.216 Y2.591 Z9.003
X-7.175 Y2.586 Z9.011
X-7.118 Y2.6 Z9.034
X-7.067 Y2.613 Z9.068
X-7.023 Y2.624 Z9.112
X-6.997 Y2.643 Z9.157
X-6.977 Y2.657 Z9.208
X-6.965 Y2.665 Z9.262
X-6.961 Y2.668 Z9.317
G0 Z9.635
X-0.607 Y30.539
G1 Z9.318 F600
X-0.615 Y30.54 Z9.247
X-0.638 Y30.545 Z9.18
X-0.675 Y30.552 Z9.12
X-0.725 Y30.562 Z9.069
X-0.784 Y30.573 Z9.031
X-0.85 Y30.586 Z9.008
X-0.919 Y30.6 Z9
G3 X-1.703 Y30.555 I-0.304 J-1.553
G1 X-1.757 Y30.536 F1000
X-1.854 Y30.513
X-2.305 Y30.418
X-2.455 Y30.388
X-2.601 Y30.352
X-2.743 Y30.303
X-2.878 Y30.238
X-3.006 Y30.16
X-3.141 Y30.061
X-3.273 Y29.948
X-3.416 Y29.801
X-3.572 Y29.615
X-3.719 Y29.407
X-3.886 Y29.127
X-4.039 Y28.814
X-4.203 Y28.398
X-4.361 Y27.877
X-4.502 Y27.23
X-4.596 Y26.574
X-4.659 Y25.915
X-4.7 Y25.254
X-4.727 Y24.592
X-4.745 Y23.93
X-4.757 Y23.267
X-4.765 Y22.605
X-4.77 Y21.943
X-4.773 Y21.28
X-4.776 Y19.955
X-4.778 Y17.306
Y8.694
X-4.792 Y8.363
X-4.862 Y8.039
X-4.998 Y7.738
X-5.381 Y7.197
X-5.903 Y6.789
X-6.478 Y6.459
X-6.88 Y6.23
X-6.989 Y6.156
X-7.124 Y6.037
X-7.227 Y5.89
X-7.291 Y5.722
X-7.312 Y5.543
Y4.116
G3 X-7.015 Y3.811 I0.317 J0.011 F600
G1 X-6.995 Y3.81 Z9.001
X-6.942 Y3.824 Z9.009
X-6.891 Y3.837 Z9.027
X-6.844 Y3.849 Z9.054
X-6.808 Y3.88 Z9.094
X-6.779 Y3.905 Z9.142
X-6.757 Y3.924 Z9.197
X-6.744 Y3.936 Z9.256
X-6.739 Y3.94 Z9.317
G0 Z9.635
X-1.375 Y30.208
G1 Z9.318 F600
X-1.382 Y30.211 Z9.247
X-1.404 Y30.219 Z9.18
X-1.44 Y30.231 Z9.12
X-1.487 Y30.248 Z9.069
X-1.544 Y30.269 Z9.031
X-1.607 Y30.291 Z9.008
X-1.673 Y30.315 Z9
G3 X-2.455 Y30.388 I-0.534 J-1.49
G1 X-2.606 Y30.359 F1000
X-2.756 Y30.334
X-3.208 Y30.312
X-3.29
X-3.44 Y30.305
X-3.587 Y30.275
X-3.73 Y30.228
X-3.867 Y30.167
X-4.007 Y30.088
X-4.145 Y29.996
X-4.299 Y29.874
X-4.459 Y29.725
X-4.623 Y29.546
X-4.8 Y29.318
X-4.969 Y29.06
X-5.154 Y28.72
X-5.326 Y28.333
X-5.501 Y27.836
X-5.671 Y27.196
X-5.789 Y26.544
X-5.872 Y25.887
X-5.928 Y25.227
X-5.968 Y24.566
X-5.994 Y23.904
X-6.012 Y23.241
X-6.024 Y22.579
X-6.033 Y21.917
X-6.038 Y21.254
X-6.042 Y20.592
X-6.046 Y19.267
X-6.048 Y16.617
Y9.993
X-6.079 Y9.332
X-6.329 Y8.718
X-6.736 Y8.195
X-7.093 Y7.84
X-7.212 Y7.686
X-7.287 Y7.507
X-7.312 Y7.314
Y5.543
G3 X-7.015 Y5.238 I0.317 J0.011 F600
G1 X-6.995 Y5.237 Z9.001
X-6.942 Y5.251 Z9.009
X-6.891 Y5.264 Z9.027
X-6.844 Y5.276 Z9.054
X-6.808 Y5.307 Z9.094
X-6.779 Y5.332 Z9.142
X-6.757 Y5.351 Z9.197
X-6.744 Y5.363 Z9.256
X-6.739 Y5.367 Z9.317
G0 Z9.635
X-2.264 Y29.929
G1 Z9.318 F600
X-2.271 Y29.933 Z9.247
X-2.291 Y29.945 Z9.18
X-2.323 Y29.964 Z9.12
X-2.367 Y29.99 Z9.069
X-2.418 Y30.021 Z9.031
X-2.476 Y30.055 Z9.008
X-2.537 Y30.091 Z9
G3 X-3.29 Y30.312 I-0.809 J-1.36
G1 X-4.261 F1000
X-4.411 Y30.305
X-4.559 Y30.281
X-4.703 Y30.24
X-4.843 Y30.186
X-4.984 Y30.117
X-5.142 Y30.023
X-5.299 Y29.912
X-5.476 Y29.764
X-5.645 Y29.598
X-5.839 Y29.375
X-6.019 Y29.131
X-6.224 Y28.798
X-6.408 Y28.44
X-6.603 Y27.97
X-6.793 Y27.383
X-6.945 Y26.738
X-7.056 Y26.085
X-7.134 Y25.427
X-7.19 Y24.767
X-7.23 Y24.106
X-7.258 Y23.444
X-7.277 Y22.782
X-7.29 Y22.12
X-7.299 Y21.457
X-7.306 Y20.795
X-7.31 Y20.132
X-7.312 Y19.522
Y7.314
G3 X-7.015 Y7.008 I0.317 J0.011 F600
G1 X-6.995 Z9.001
X-6.942 Y7.021 Z9.009
X-6.891 Y7.034 Z9.027
X-6.844 Y7.046 Z9.054
X-6.808 Y7.077 Z9.094
X-6.779 Y7.103 Z9.142
X-6.757 Y7.122 Z9.197
X-6.744 Y7.133 Z9.256
X-6.739 Y7.137 Z9.317
G0 Z9.635
X-3.234 Y29.929
G1 Z9.318 F600
X-3.241 Y29.933 Z9.247
X-3.261 Y29.945 Z9.18
X-3.294 Y29.964 Z9.12
X-3.337 Y29.99 Z9.069
X-3.389 Y30.021 Z9.031
X-3.447 Y30.055 Z9.008
X-3.507 Y30.091 Z9
G3 X-4.261 Y30.312 I-0.809 J-1.36
G1 X-5.314 F1000
X-5.464 Y30.305
X-5.612 Y30.284
X-5.758 Y30.247
X-5.899 Y30.197
X-6.052 Y30.127
X-6.209 Y30.04
X-6.379 Y29.926
X-6.555 Y29.787
X-6.742 Y29.614
X-6.937 Y29.401
X-7.137 Y29.144
X-7.191 Y29.061
X-7.258 Y28.935
X-7.299 Y28.797
X-7.312 Y28.655
G3 X-6.984 Y28.349 Z9.2 I0.317 J0.011 F600
G1 X-6.918 Y28.358
X-6.854 Y28.381
X-6.797 Y28.417
X-6.762 Y28.446
X-5.127 Y29.747 F1000
X-5.108 Y29.764
X-5.067 Y29.811 F600
X-5.036 Y29.864
X-5.016 Y29.923
X-5.008 Y29.984
G3 X-5.314 Y30.312 Z9 I-0.317 J0.011
G1 X-6.45 F1000
X-6.6 Y30.305
X-6.748 Y30.282
X-6.761 Y30.279
X-6.94 Y30.205
X-7.094 Y30.087
X-7.213 Y29.934
X-7.287 Y29.755
X-7.312 Y29.562
G3 X-6.984 Y29.256 Z9.2 I0.317 J0.011 F600
G1 X-6.918 Y29.266
X-6.855 Y29.289
X-6.798 Y29.324
X-6.762 Y29.353
X-6.264 Y29.746 F1000
X-6.243 Y29.764
X-6.203 Y29.811 F600
X-6.172 Y29.864
X-6.152 Y29.923
X-6.144 Y29.984
G3 X-6.45 Y30.312 Z9 I-0.317 J0.011
G1 X-6.668 F1000
X-6.818 Y30.311
X-6.969 Y30.286
X-7.044 Y30.269
X-7.082 Y30.255
X-7.12 Y30.235
X-7.162 Y30.204
X-7.204 Y30.16
X-7.233 Y30.122
X-7.253 Y30.084
X-7.27 Y30.041
X-7.293 Y29.934
X-7.307 Y29.859
X-7.312 Y29.784
Y19.522
G3 X-7.015 Y19.216 I0.317 J0.011 F600
G1 X-6.995 Y19.215 Z9.001
X-6.942 Y19.229 Z9.009
X-6.891 Y19.242 Z9.027
X-6.844 Y19.254 Z9.054
X-6.808 Y19.285 Z9.094
X-6.779 Y19.31 Z9.142
X-6.757 Y19.329 Z9.197
X-6.744 Y19.341 Z9.256
X-6.739 Y19.345 Z9.317
G0 Z20
X-17.301 Y-0.156
Z9.635
G1 Z9.318 F600
X-17.305 Y-0.15 Z9.247
X-17.32 Y-0.131 Z9.18
X-17.342 Y-0.101 Z9.12
X-17.372 Y-0.061 Z9.069
X-17.408 Y-0.012 Z9.031
X-17.448 Y0.041 Z9.008
X-17.491 Y0.098 Z9
G3 X-18.102 Y0.591 I-1.268 J-0.947
G1 X-18.118 Y0.598 F1000
X-18.253 Y0.662
X-18.403 Y0.752
X-18.554 Y0.85
X-19.005 Y1.152
X-19.074 Y1.199
X-19.155 Y1.26
X-19.186 Y1.287
X-19.303 Y1.381
X-19.461 Y1.486
X-19.657 Y1.594
X-19.911 Y1.708
X-20.243 Y1.827
X-20.701 Y1.95
X-21.352 Y2.07
X-22.011 Y2.139
X-22.672 Y2.18
X-23.334 Y2.204
X-23.996 Y2.218
X-24.659 Y2.226
X-25.321 Y2.231
X-25.984 Y2.234
X-27.308 Y2.237
X-31.283 Y2.238
X-37.245
X-37.576 Y2.25
X-37.898 Y2.327
X-38.194 Y2.476
X-38.717 Y2.882
X-39.086 Y3.432
X-39.333 Y4.047
X-39.492 Y4.69
X-39.594 Y5.344
X-39.658 Y6.004
X-39.698 Y6.665
X-39.722 Y7.327
X-39.738 Y7.989
X-39.747 Y8.651
X-39.753 Y9.314
X-39.756 Y9.976
X-39.76 Y11.301
X-39.761 Y13.951
X-39.762 Y33.161
Y83.504
Y107.181
X-39.764 Y107.243
X-39.772 Y107.304
X-39.785 Y107.365
X-41.055 Y112.313
G3 X-41.419 Y112.535 I-0.305 J-0.09 F600
G1 X-41.468 Y112.512 Z9.005
X-41.516 Y112.49 Z9.019
X-41.561 Y112.469 Z9.042
X-41.59 Y112.429 Z9.078
X-41.615 Y112.396 Z9.122
X-41.634 Y112.37 Z9.173
X-41.647 Y112.352 Z9.229
X-41.654 Y112.343 Z9.289
Y112.342 Z9.318
G0 Z20
X-18.676 Y0.317
Z9.635
G1 Z9.318 F600
X-18.679 Y0.324 Z9.247
X-18.686 Y0.347 Z9.18
X-18.697 Y0.383 Z9.12
X-18.712 Y0.431 Z9.069
X-18.73 Y0.488 Z9.031
X-18.751 Y0.552 Z9.008
X-18.772 Y0.62 Z9
G3 X-19.186 Y1.287 I-1.51 J-0.475
G1 X-19.256 Y1.35 F1000
X-19.306 Y1.396
X-19.401 Y1.5
X-19.456 Y1.567
X-19.518 Y1.651
X-19.757 Y2.008
X-19.82 Y2.102
X-19.91 Y2.222
X-20.013 Y2.332
X-20.143 Y2.45
X-20.29 Y2.562
X-20.481 Y2.686
X-20.72 Y2.815
X-21.015 Y2.944
X-21.402 Y3.078
X-21.928 Y3.214
X-22.581 Y3.328
X-23.24 Y3.397
X-23.901 Y3.44
X-24.562 Y3.467
X-25.225 Y3.483
X-25.887 Y3.493
X-26.549 Y3.499
X-27.212 Y3.503
X-28.537 Y3.506
X-31.186 Y3.508
X-35.823
X-36.154 Y3.513
X-36.48 Y3.573
X-36.786 Y3.701
X-37.333 Y4.074
X-37.731 Y4.603
X-38.001 Y5.208
X-38.18 Y5.846
X-38.294 Y6.499
X-38.368 Y7.157
X-38.414 Y7.818
X-38.443 Y8.479
X-38.462 Y9.142
X-38.473 Y9.804
X-38.48 Y10.466
X-38.485 Y11.129
X-38.487 Y11.791
X-38.49 Y13.116
X-38.491 Y16.428
X-38.492 Y36.301
Y86.644
Y102.232
X-38.494 Y102.294
X-38.502 Y102.356
X-38.515 Y102.417
X-39.785 Y107.365
G3 X-40.149 Y107.587 I-0.305 J-0.09 F600
G1 X-40.198 Y107.564 Z9.005
X-40.246 Y107.542 Z9.019
X-40.291 Y107.521 Z9.042
X-40.32 Y107.481 Z9.078
X-40.345 Y107.447 Z9.122
X-40.364 Y107.421 Z9.173
X-40.377 Y107.403 Z9.229
X-40.384 Y107.395 Z9.289
Y107.393 Z9.318
G0 Z20
X-19.569 Y1.035
Z9.635
G1 Z9.318 F600
X-19.57 Y1.043 Z9.247
X-19.571 Y1.067 Z9.18
X-19.573 Y1.104 Z9.12
X-19.576 Y1.155 Z9.069
X-19.579 Y1.215 Z9.031
X-19.582 Y1.282 Z9.008
X-19.586 Y1.352 Z9
G3 X-19.82 Y2.102 I-1.58 J-0.083
G1 X-19.921 Y2.252 F1000
X-20.012 Y2.403
X-20.058 Y2.484
X-20.088 Y2.553
X-20.141 Y2.704
X-20.162 Y2.786
X-20.206 Y2.93
X-20.27 Y3.066
X-20.349 Y3.193
X-20.439 Y3.313
X-20.554 Y3.439
X-20.692 Y3.569
X-20.856 Y3.7
X-21.072 Y3.845
X-21.322 Y3.986
X-21.641 Y4.133
X-22.037 Y4.278
X-22.569 Y4.427
X-23.219 Y4.553
X-23.877 Y4.634
X-24.537 Y4.686
X-25.199 Y4.72
X-25.861 Y4.741
X-26.523 Y4.755
X-27.185 Y4.764
X-27.848 Y4.769
X-28.51 Y4.773
X-29.835 Y4.776
X-32.485 Y4.778
X-34.472
X-34.803 Y4.78
X-35.13 Y4.831
X-35.44 Y4.948
X-36.001 Y5.301
X-36.413 Y5.819
X-36.696 Y6.418
X-36.884 Y7.053
X-37.007 Y7.704
X-37.085 Y8.362
X-37.136 Y9.023
X-37.168 Y9.684
X-37.188 Y10.346
X-37.2 Y11.009
X-37.208 Y11.671
X-37.213 Y12.333
X-37.216 Y12.996
X-37.22 Y14.321
X-37.221 Y16.97
X-37.222 Y38.83
Y89.174
Y97.284
X-37.224 Y97.346
X-37.232 Y97.408
X-37.245 Y97.468
X-38.515 Y102.417
G3 X-38.879 Y102.639 I-0.305 J-0.09 F600
G1 X-38.928 Y102.616 Z9.005
X-38.976 Y102.593 Z9.019
X-39.021 Y102.572 Z9.042
X-39.05 Y102.533 Z9.078
X-39.075 Y102.499 Z9.122
X-39.094 Y102.473 Z9.173
X-39.107 Y102.455 Z9.229
X-39.114 Y102.446 Z9.289
Y102.445 Z9.318
G0 Z20
X-20.284 Y1.697
Z9.635
G1 Z9.318 F600
X-20.282 Y1.705 Z9.247
X-20.275 Y1.728 Z9.18
X-20.264 Y1.764 Z9.12
X-20.25 Y1.812 Z9.069
X-20.233 Y1.87 Z9.031
X-20.213 Y1.934 Z9.008
X-20.193 Y2.002 Z9
G3 X-20.162 Y2.786 I-1.516 J0.453
G1 X-20.217 Y3.005 F1000
X-20.252 Y3.155
X-20.342 Y3.606
X-20.359 Y3.712
X-20.391 Y3.858
X-20.445 Y3.998
X-20.513 Y4.132
X-20.593 Y4.259
X-20.699 Y4.398
X-20.821 Y4.536
X-20.976 Y4.684
X-21.173 Y4.844
X-21.395 Y4.996
X-21.693 Y5.168
X-22.023 Y5.324
X-22.462 Y5.49
X-23.026 Y5.652
X-23.675 Y5.784
X-24.331 Y5.873
X-24.991 Y5.932
X-25.652 Y5.972
X-26.314 Y5.998
X-26.977 Y6.016
X-27.639 Y6.027
X-28.301 Y6.035
X-28.964 Y6.04
X-29.626 Y6.043
X-30.951 Y6.046
X-33.601 Y6.048
X-33.925 Y6.115
X-34.228 Y6.248
X-34.774 Y6.624
X-35.17 Y7.154
X-35.442 Y7.758
X-35.623 Y8.396
X-35.741 Y9.047
X-35.818 Y9.705
X-35.867 Y10.366
X-35.898 Y11.028
X-35.918 Y11.69
X-35.93 Y12.352
X-35.938 Y13.014
X-35.943 Y13.677
X-35.946 Y14.339
X-35.95 Y15.664
X-35.951 Y18.314
X-35.952 Y41.498
Y91.842
Y92.336
X-35.954 Y92.398
X-35.962 Y92.459
X-35.975 Y92.52
X-37.245 Y97.468
G3 X-37.609 Y97.691 I-0.305 J-0.09 F600
G1 X-37.658 Y97.667 Z9.005
X-37.706 Y97.645 Z9.019
X-37.751 Y97.624 Z9.042
X-37.78 Y97.585 Z9.078
X-37.805 Y97.551 Z9.122
X-37.824 Y97.525 Z9.173
X-37.837 Y97.507 Z9.229
X-37.844 Y97.498 Z9.289
Y97.497 Z9.318
G0 Z20
X-20.57 Y2.636
Z9.635
G1 Z9.318 F600
X-20.567 Y2.644 Z9.247
X-20.558 Y2.666 Z9.18
X-20.544 Y2.701 Z9.12
X-20.526 Y2.748 Z9.069
X-20.504 Y2.804 Z9.031
X-20.48 Y2.866 Z9.008
X-20.454 Y2.932 Z9
G3 X-20.359 Y3.712 I-1.474 J0.576
G1 X-20.367 Y3.757 F1000
X-20.381 Y3.907
X-20.387 Y4.058
Y4.509
X-20.395 Y4.659
X-20.426 Y4.806
X-20.474 Y4.948
X-20.535 Y5.085
X-20.609 Y5.219
X-20.71 Y5.372
X-20.827 Y5.52
X-20.983 Y5.69
X-21.159 Y5.853
X-21.388 Y6.032
X-21.656 Y6.21
X-21.99 Y6.394
X-22.384 Y6.572
X-22.891 Y6.753
X-23.531 Y6.926
X-24.182 Y7.047
X-24.839 Y7.133
X-25.499 Y7.192
X-26.16 Y7.233
X-26.822 Y7.261
X-27.484 Y7.28
X-28.146 Y7.293
X-28.808 Y7.301
X-29.471 Y7.307
X-30.133 Y7.311
X-31.458 Y7.315
X-32.12 Y7.316
X-32.45 Y7.346
X-32.768 Y7.44
X-33.06 Y7.596
X-33.58 Y8.006
X-33.953 Y8.554
X-34.207 Y9.166
X-34.375 Y9.806
X-34.485 Y10.46
X-34.556 Y11.118
X-34.602 Y11.779
X-34.631 Y12.441
X-34.65 Y13.103
X-34.661 Y13.765
X-34.669 Y14.428
X-34.674 Y15.09
X-34.677 Y15.753
X-34.68 Y17.077
X-34.681 Y20.389
X-34.682 Y43.574
Y87.388
X-34.684 Y87.45
X-34.692 Y87.511
X-34.705 Y87.572
X-35.975 Y92.52
G3 X-36.339 Y92.742 I-0.305 J-0.09 F600
G1 X-36.388 Y92.719 Z9.005
X-36.436 Y92.697 Z9.019
X-36.481 Y92.676 Z9.042
X-36.51 Y92.636 Z9.078
X-36.535 Y92.603 Z9.122
X-36.554 Y92.577 Z9.173
X-36.567 Y92.559 Z9.229
X-36.574 Y92.55 Z9.289
Y92.549 Z9.318
G0 Z9.635
X-20.771 Y3.483
G1 Z9.318 F600
X-20.767 Y3.489 Z9.247
X-20.755 Y3.51 Z9.18
X-20.735 Y3.542 Z9.12
X-20.71 Y3.585 Z9.069
X-20.679 Y3.637 Z9.031
X-20.645 Y3.695 Z9.008
X-20.609 Y3.755 Z9
G3 X-20.387 Y4.509 I-1.36 J0.809
G1 Y5.494 F1000
X-20.395 Y5.644
X-20.42 Y5.792
X-20.461 Y5.936
X-20.516 Y6.076
X-20.585 Y6.219
X-20.68 Y6.379
X-20.792 Y6.538
X-20.943 Y6.718
X-21.112 Y6.89
X-21.339 Y7.087
X-21.588 Y7.27
X-21.926 Y7.479
X-22.29 Y7.666
X-22.767 Y7.863
X-23.363 Y8.056
X-24.007 Y8.209
X-24.661 Y8.319
X-25.318 Y8.399
X-25.978 Y8.456
X-26.639 Y8.497
X-27.301 Y8.525
X-27.963 Y8.545
X-28.625 Y8.559
X-29.288 Y8.568
X-29.95 Y8.575
X-30.613 Y8.579
X-30.944 Y8.584
X-31.271 Y8.635
X-31.581 Y8.751
X-32.146 Y9.097
X-32.565 Y9.611
X-32.856 Y10.206
X-33.051 Y10.839
X-33.18 Y11.489
X-33.263 Y12.146
X-33.317 Y12.806
X-33.351 Y13.467
X-33.373 Y14.129
X-33.387 Y14.792
X-33.396 Y15.454
X-33.402 Y16.117
X-33.405 Y16.779
X-33.409 Y18.104
X-33.411 Y20.753
X-33.412 Y45.925
Y82.439
X-33.414 Y82.501
X-33.422 Y82.563
X-33.435 Y82.624
X-34.705 Y87.572
G3 X-35.069 Y87.794 I-0.305 J-0.09 F600
G1 X-35.118 Y87.771 Z9.005
X-35.166 Y87.749 Z9.019
X-35.211 Y87.728 Z9.042
X-35.24 Y87.688 Z9.078
X-35.265 Y87.655 Z9.122
X-35.284 Y87.628 Z9.173
X-35.297 Y87.611 Z9.229
X-35.304 Y87.602 Z9.289
Y87.601 Z9.318
G0 Z9.635
X-20.771 Y4.468
G1 Z9.318 F600
X-20.767 Y4.475 Z9.247
X-20.755 Y4.495 Z9.18
X-20.735 Y4.528 Z9.12
X-20.71 Y4.571 Z9.069
X-20.679 Y4.622 Z9.031
X-20.645 Y4.68 Z9.008
X-20.609 Y4.741 Z9
G3 X-20.387 Y5.494 I-1.36 J0.809
G1 Y6.615 F1000
X-20.395 Y6.765
X-20.423 Y6.912
X-20.467 Y7.056
X-20.523 Y7.195
X-20.603 Y7.357
X-20.699 Y7.516
X-20.829 Y7.698
X-20.978 Y7.874
X-21.175 Y8.073
X-21.4 Y8.266
X-21.696 Y8.48
X-22.026 Y8.682
X-22.456 Y8.899
X-22.96 Y9.104
X-23.592 Y9.304
X-24.237 Y9.453
X-24.89 Y9.564
X-25.548 Y9.646
X-26.207 Y9.707
X-26.868 Y9.75
X-27.53 Y9.782
X-28.192 Y9.805
X-28.854 Y9.821
X-29.516 Y9.833
X-29.846 Y9.861
X-30.166 Y9.946
X-30.463 Y10.094
X-30.994 Y10.49
X-31.378 Y11.03
X-31.642 Y11.638
X-31.818 Y12.276
X-31.933 Y12.929
X-32.008 Y13.587
X-32.056 Y14.247
X-32.087 Y14.909
X-32.107 Y15.571
X-32.12 Y16.233
X-32.128 Y16.896
X-32.133 Y17.558
X-32.136 Y18.221
X-32.139 Y19.545
X-32.141 Y22.195
X-32.142 Y48.692
Y77.491
X-32.144 Y77.553
X-32.152 Y77.615
X-32.165 Y77.675
X-33.435 Y82.624
G3 X-33.799 Y82.846 I-0.305 J-0.09 F600
G1 X-33.848 Y82.823 Z9.005
X-33.896 Y82.8 Z9.019
X-33.941 Y82.779 Z9.042
X-33.97 Y82.74 Z9.078
X-33.995 Y82.706 Z9.122
X-34.014 Y82.68 Z9.173
X-34.027 Y82.662 Z9.229
X-34.034 Y82.653 Z9.289
Y82.652 Z9.318
G0 Z9.635
X-20.771 Y5.589
G1 Z9.318 F600
X-20.767 Y5.596 Z9.247
X-20.755 Y5.616 Z9.18
X-20.735 Y5.648 Z9.12
X-20.71 Y5.692 Z9.069
X-20.679 Y5.743 Z9.031
X-20.645 Y5.801 Z9.008
X-20.609 Y5.862 Z9
G3 X-20.387 Y6.615 I-1.36 J0.809
G1 Y7.668 F1000
X-20.395 Y7.818
X-20.415 Y7.967
X-20.45 Y8.113
X-20.5 Y8.259
X-20.564 Y8.406
X-20.656 Y8.576
X-20.763 Y8.743
X-20.909 Y8.934
X-21.081 Y9.125
X-21.301 Y9.333
X-21.557 Y9.539
X-21.889 Y9.765
X-22.261 Y9.976
X-22.739 Y10.199
X-23.325 Y10.416
X-23.962 Y10.596
X-24.61 Y10.733
X-25.265 Y10.837
X-25.922 Y10.915
X-26.582 Y10.973
X-27.243 Y11.016
X-27.905 Y11.048
X-28.567 Y11.071
X-28.886 Y11.161
X-29.181 Y11.31
X-29.71 Y11.709
X-30.097 Y12.247
X-30.364 Y12.853
X-30.542 Y13.491
X-30.659 Y14.143
X-30.735 Y14.801
X-30.784 Y15.462
X-30.816 Y16.123
X-30.836 Y16.786
X-30.849 Y17.448
X-30.857 Y18.11
X-30.862 Y18.773
X-30.866 Y19.435
X-30.869 Y20.76
X-30.871 Y23.41
X-30.872 Y51.231
Y72.543
X-30.874 Y72.605
X-30.882 Y72.667
X-30.895 Y72.727
X-32.165 Y77.675
G3 X-32.529 Y77.898 I-0.305 J-0.09 F600
G1 X-32.578 Y77.875 Z9.005
X-32.626 Y77.852 Z9.019
X-32.671 Y77.831 Z9.042
X-32.7 Y77.792 Z9.078
X-32.725 Y77.758 Z9.122
X-32.744 Y77.732 Z9.173
X-32.757 Y77.714 Z9.229
X-32.764 Y77.705 Z9.289
Y77.704 Z9.318
G0 Z9.635
X-20.771 Y6.642
G1 Z9.318 F600
X-20.767 Y6.649 Z9.247
X-20.755 Y6.669 Z9.18
X-20.735 Y6.701 Z9.12
X-20.71 Y6.745 Z9.069
X-20.679 Y6.796 Z9.031
X-20.645 Y6.854 Z9.008
X-20.609 Y6.915 Z9
G3 X-20.387 Y7.668 I-1.36 J0.809
G1 Y8.872 F1000
X-20.395 Y9.022
X-20.421 Y9.169
X-20.461 Y9.314
X-20.516 Y9.461
X-20.595 Y9.628
X-20.69 Y9.795
X-20.82 Y9.986
X-20.97 Y10.171
X-21.174 Y10.386
X-21.4 Y10.589
X-21.708 Y10.823
X-22.042 Y11.037
X-22.479 Y11.27
X-23.012 Y11.501
X-23.639 Y11.715
X-24.28 Y11.881
X-24.93 Y12.009
X-25.585 Y12.107
X-26.244 Y12.181
X-26.904 Y12.238
X-27.233 Y12.273
X-27.554 Y12.356
X-27.854 Y12.496
X-28.394 Y12.879
X-28.793 Y13.408
X-29.069 Y14.01
X-29.255 Y14.646
X-29.378 Y15.297
X-29.457 Y15.955
X-29.509 Y16.615
X-29.542 Y17.277
X-29.564 Y17.939
X-29.577 Y18.601
X-29.586 Y19.263
X-29.592 Y19.926
X-29.595 Y20.588
X-29.599 Y21.913
X-29.601 Y24.563
X-29.602 Y53.709
Y67.595
X-29.604 Y67.657
X-29.612 Y67.718
X-29.625 Y67.779
X-30.895 Y72.727
G3 X-31.259 Y72.949 I-0.305 J-0.09 F600
G1 X-31.308 Y72.926 Z9.005
X-31.356 Y72.904 Z9.019
X-31.401 Y72.883 Z9.042
X-31.43 Y72.843 Z9.078
X-31.455 Y72.81 Z9.122
X-31.474 Y72.784 Z9.173
X-31.487 Y72.766 Z9.229
X-31.494 Y72.757 Z9.289
Y72.756 Z9.318
G0 Z9.635
X-20.771 Y7.845
G1 Z9.318 F600
X-20.767 Y7.852 Z9.247
X-20.755 Y7.872 Z9.18
X-20.735 Y7.905 Z9.12
X-20.71 Y7.948 Z9.069
X-20.679 Y8 Z9.031
X-20.645 Y8.058 Z9.008
X-20.609 Y8.118 Z9
G3 X-20.387 Y8.872 I-1.36 J0.809
G1 Y10.008 F1000
X-20.395 Y10.158
X-20.417 Y10.306
X-20.454 Y10.451
X-20.507 Y10.604
X-20.575 Y10.759
X-20.672 Y10.938
X-20.786 Y11.113
X-20.943 Y11.317
X-21.122 Y11.514
X-21.363 Y11.74
X-21.634 Y11.956
X-21.998 Y12.201
X-22.395 Y12.425
X-22.907 Y12.661
X-23.529 Y12.889
X-24.167 Y13.068
X-24.814 Y13.208
X-25.467 Y13.318
X-26.123 Y13.408
X-26.738 Y13.655
X-27.231 Y14.097
X-27.592 Y14.653
X-27.842 Y15.266
X-28.011 Y15.907
X-28.123 Y16.56
X-28.197 Y17.218
X-28.244 Y17.879
X-28.275 Y18.54
X-28.296 Y19.203
X-28.308 Y19.865
X-28.317 Y20.527
X-28.322 Y21.19
X-28.326 Y21.852
X-28.329 Y23.177
X-28.331 Y25.827
X-28.332 Y55.635
Y62.647
X-28.334 Y62.709
X-28.342 Y62.77
X-28.355 Y62.831
X-29.625 Y67.779
G3 X-29.989 Y68.001 I-0.305 J-0.09 F600
G1 X-30.038 Y67.978 Z9.005
X-30.086 Y67.956 Z9.019
X-30.131 Y67.935 Z9.042
X-30.16 Y67.895 Z9.078
X-30.185 Y67.862 Z9.122
X-30.204 Y67.836 Z9.173
X-30.217 Y67.818 Z9.229
X-30.224 Y67.809 Z9.289
Y67.808 Z9.318
G0 Z9.635
X-20.771 Y8.981
G1 Z9.318 F600
X-20.767 Y8.988 Z9.247
X-20.755 Y9.008 Z9.18
X-20.735 Y9.041 Z9.12
X-20.71 Y9.084 Z9.069
X-20.679 Y9.136 Z9.031
X-20.645 Y9.193 Z9.008
X-20.609 Y9.254 Z9
G3 X-20.387 Y10.008 I-1.36 J0.809
G1 Y11.211 F1000
X-20.395 Y11.361
X-20.419 Y11.509
X-20.458 Y11.654
X-20.509 Y11.799
X-20.584 Y11.965
X-20.682 Y12.142
X-20.805 Y12.329
X-20.963 Y12.531
X-21.154 Y12.739
X-21.398 Y12.964
X-21.686 Y13.191
X-22.047 Y13.43
X-22.495 Y13.678
X-23.014 Y13.913
X-23.637 Y14.136
X-24.276 Y14.313
X-24.923 Y14.456
X-25.52 Y14.743
X-25.993 Y15.206
X-26.34 Y15.771
X-26.582 Y16.387
X-26.746 Y17.029
X-26.855 Y17.682
X-26.927 Y18.341
X-26.975 Y19.002
X-27.005 Y19.663
X-27.025 Y20.325
X-27.038 Y20.988
X-27.047 Y21.65
X-27.052 Y22.312
X-27.055 Y22.975
X-27.059 Y24.3
X-27.061 Y26.949
X-27.062 Y57.698
X-27.064 Y57.76
X-27.072 Y57.822
X-27.085 Y57.883
X-28.355 Y62.831
G3 X-28.719 Y63.053 I-0.305 J-0.09 F600
G1 X-28.768 Y63.03 Z9.005
X-28.816 Y63.008 Z9.019
X-28.861 Y62.987 Z9.042
X-28.89 Y62.947 Z9.078
X-28.915 Y62.913 Z9.122
X-28.934 Y62.887 Z9.173
X-28.947 Y62.869 Z9.229
X-28.954 Y62.861 Z9.289
Y62.859 Z9.318
G0 Z9.635
X-20.771 Y10.185
G1 Z9.318 F600
X-20.767 Y10.192 Z9.247
X-20.755 Y10.212 Z9.18
X-20.735 Y10.244 Z9.12
X-20.71 Y10.288 Z9.069
X-20.679 Y10.339 Z9.031
X-20.645 Y10.397 Z9.008
X-20.609 Y10.458 Z9
G3 X-20.387 Y11.211 I-1.36 J0.809
G1 Y12.415 F1000
X-20.395 Y12.565
X-20.42 Y12.713
X-20.46 Y12.857
X-20.514 Y13.008
X-20.59 Y13.173
X-20.692 Y13.356
X-20.816 Y13.542
X-20.985 Y13.756
X-21.176 Y13.962
X-21.435 Y14.198
X-21.722 Y14.422
X-22.1 Y14.67
X-22.556 Y14.918
X-23.16 Y15.188
X-23.783 Y15.415
X-24.342 Y15.77
X-24.782 Y16.265
X-25.104 Y16.844
X-25.331 Y17.466
X-25.486 Y18.11
X-25.59 Y18.765
X-25.66 Y19.423
X-25.706 Y20.084
X-25.736 Y20.746
X-25.755 Y21.408
X-25.768 Y22.07
X-25.776 Y22.733
X-25.782 Y23.395
X-25.785 Y24.058
X-25.789 Y25.382
X-25.791 Y28.032
X-25.792 Y52.75
X-25.794 Y52.812
X-25.802 Y52.874
X-25.815 Y52.934
X-27.085 Y57.883
G3 X-27.449 Y58.105 I-0.305 J-0.09 F600
G1 X-27.498 Y58.082 Z9.005
X-27.546 Y58.059 Z9.019
X-27.591 Y58.038 Z9.042
X-27.62 Y57.999 Z9.078
X-27.645 Y57.965 Z9.122
X-27.664 Y57.939 Z9.173
X-27.677 Y57.921 Z9.229
X-27.684 Y57.912 Z9.289
Y57.911 Z9.318
G0 Z9.635
X-20.771 Y11.388
G1 Z9.318 F600
X-20.767 Y11.395 Z9.247
X-20.755 Y11.415 Z9.18
X-20.735 Y11.448 Z9.12
X-20.71 Y11.491 Z9.069
X-20.679 Y11.543 Z9.031
X-20.645 Y11.601 Z9.008
X-20.609 Y11.661 Z9
G3 X-20.387 Y12.415 I-1.36 J0.809
G1 Y13.618 F1000
X-20.395 Y13.768
X-20.42 Y13.916
X-20.46 Y14.061
X-20.516 Y14.217
X-20.591 Y14.38
X-20.696 Y14.569
X-20.819 Y14.753
X-20.99 Y14.969
X-21.184 Y15.177
X-21.448 Y15.419
X-21.758 Y15.66
X-22.312 Y16.023
X-22.866 Y16.387
X-23.331 Y16.858
X-23.69 Y17.415
X-23.953 Y18.023
X-24.137 Y18.659
X-24.264 Y19.309
X-24.35 Y19.966
X-24.408 Y20.626
X-24.447 Y21.287
X-24.473 Y21.949
X-24.489 Y22.611
X-24.501 Y23.274
X-24.508 Y23.936
X-24.513 Y24.598
X-24.516 Y25.261
X-24.519 Y26.586
X-24.521 Y29.235
X-24.522 Y47.802
X-24.524 Y47.864
X-24.532 Y47.925
X-24.545 Y47.986
X-25.815 Y52.934
G3 X-26.179 Y53.157 I-0.305 J-0.09 F600
G1 X-26.228 Y53.133 Z9.005
X-26.276 Y53.111 Z9.019
X-26.321 Y53.09 Z9.042
X-26.35 Y53.051 Z9.078
X-26.375 Y53.017 Z9.122
X-26.394 Y52.991 Z9.173
X-26.407 Y52.973 Z9.229
X-26.414 Y52.964 Z9.289
Y52.963 Z9.318
G0 Z9.635
X-20.771 Y12.592
G1 Z9.318 F600
X-20.767 Y12.599 Z9.247
X-20.755 Y12.619 Z9.18
X-20.735 Y12.651 Z9.12
X-20.71 Y12.695 Z9.069
X-20.679 Y12.746 Z9.031
X-20.645 Y12.804 Z9.008
X-20.609 Y12.865 Z9
G3 X-20.387 Y13.618 I-1.36 J0.809
G1 Y14.822 F1000
X-20.395 Y14.972
X-20.42 Y15.12
X-20.459 Y15.265
X-20.516 Y15.426
X-20.59 Y15.588
X-20.695 Y15.779
X-20.846 Y16.007
X-21.112 Y16.345
X-21.562 Y16.832
X-21.986 Y17.341
X-22.334 Y17.904
X-22.603 Y18.51
X-22.801 Y19.142
X-22.943 Y19.789
X-23.042 Y20.444
X-23.11 Y21.103
X-23.157 Y21.763
X-23.188 Y22.425
X-23.209 Y23.087
X-23.224 Y23.749
X-23.233 Y24.412
X-23.239 Y25.074
X-23.244 Y25.737
X-23.248 Y27.061
X-23.251 Y29.049
X-23.252 Y37.66
Y42.854
X-23.254 Y42.916
X-23.262 Y42.977
X-23.275 Y43.038
X-24.545 Y47.986
G3 X-24.909 Y48.208 I-0.305 J-0.09 F600
G1 X-24.958 Y48.185 Z9.005
X-25.006 Y48.163 Z9.019
X-25.051 Y48.142 Z9.042
X-25.08 Y48.102 Z9.078
X-25.105 Y48.069 Z9.122
X-25.124 Y48.043 Z9.173
X-25.137 Y48.025 Z9.229
X-25.144 Y48.016 Z9.289
Y48.015 Z9.318
G0 Z20
X-20.771 Y13.795
Z9.635
G1 Z9.318 F600
X-20.767 Y13.802 Z9.247
X-20.755 Y13.823 Z9.18
X-20.735 Y13.855 Z9.12
X-20.71 Y13.898 Z9.069
X-20.679 Y13.95 Z9.031
X-20.645 Y14.008 Z9.008
X-20.609 Y14.068 Z9
G3 X-20.387 Y14.822 I-1.36 J0.809
G1 Y16.093 F1000
X-20.395 Y16.243
X-20.423 Y16.424
X-20.478 Y16.652
X-20.624 Y17.1
X-20.88 Y17.712
X-21.132 Y18.324
X-21.349 Y18.95
X-21.523 Y19.589
X-21.655 Y20.238
X-21.752 Y20.894
X-21.822 Y21.552
X-21.872 Y22.213
X-21.907 Y22.874
X-21.931 Y23.536
X-21.947 Y24.199
X-21.958 Y24.861
X-21.966 Y25.523
X-21.971 Y26.186
X-21.975 Y26.848
X-21.979 Y28.173
X-21.981 Y30.823
X-21.982 Y37.905
X-21.984 Y37.967
X-21.992 Y38.029
X-22.005 Y38.09
X-23.275 Y43.038
G3 X-23.639 Y43.26 I-0.305 J-0.09 F600
G1 X-23.688 Y43.237 Z9.005
X-23.736 Y43.215 Z9.019
X-23.781 Y43.194 Z9.042
X-23.81 Y43.154 Z9.078
X-23.835 Y43.121 Z9.122
X-23.854 Y43.094 Z9.173
X-23.867 Y43.077 Z9.229
X-23.874 Y43.068 Z9.289
Y43.067 Z9.318
G0 Z20
X-20.771 Y15.067
Z9.635
G1 Z9.318 F600
X-20.767 Y15.074 Z9.247
X-20.755 Y15.094 Z9.18
X-20.735 Y15.126 Z9.12
X-20.71 Y15.169 Z9.069
X-20.679 Y15.221 Z9.031
X-20.645 Y15.279 Z9.008
X-20.609 Y15.34 Z9
G3 X-20.387 Y16.093 I-1.36 J0.809
G1 Y18.952 F1000
X-20.42 Y19.613
X-20.456 Y20.275
X-20.504 Y20.935
X-20.551 Y21.596
X-20.592 Y22.257
X-20.624 Y22.919
X-20.648 Y23.581
X-20.667 Y24.243
X-20.68 Y24.905
X-20.69 Y25.568
X-20.697 Y26.23
X-20.701 Y26.892
X-20.705 Y27.555
X-20.708 Y28.88
X-20.711 Y31.529
Y32.956
X-20.714 Y33.018
X-20.722 Y33.08
X-20.735 Y33.14
X-22.005 Y38.09
G3 X-22.369 Y38.312 I-0.305 J-0.09 F600
G1 X-22.418 Y38.289 Z9.005
X-22.466 Y38.266 Z9.019
X-22.511 Y38.245 Z9.042
X-22.54 Y38.206 Z9.078
X-22.565 Y38.172 Z9.122
X-22.584 Y38.146 Z9.173
X-22.597 Y38.128 Z9.229
X-22.604 Y38.119 Z9.289
Y38.118 Z9.318
G0 Z20
X-20.771 Y17.925
Z9.635
G1 Z9.318 F600
X-20.767 Y17.932 Z9.247
X-20.755 Y17.952 Z9.18
X-20.735 Y17.985 Z9.12
X-20.71 Y18.028 Z9.069
X-20.679 Y18.08 Z9.031
X-20.645 Y18.137 Z9.008
X-20.609 Y18.198 Z9
G3 X-20.387 Y18.952 I-1.36 J0.809
G1 Y31.589 F1000
X-20.389 Y31.739
X-20.397 Y31.815
X-20.414 Y31.89
X-20.735 Y33.14
G3 X-21.099 Y33.363 I-0.305 J-0.09 F600
G1 X-21.148 Y33.34 Z9.005
X-21.196 Y33.317 Z9.019
X-21.241 Y33.296 Z9.042
X-21.27 Y33.257 Z9.078
X-21.294 Y33.223 Z9.122
X-21.314 Y33.197 Z9.173
X-21.327 Y33.179 Z9.229
X-21.333 Y33.17 Z9.289
X-21.334 Y33.169 Z9.318
G0 Z20
X3.628 Y-0.311
Z9.135
G1 Z8.818 F600
X3.62 Y-0.31 Z8.747
X3.598 Y-0.304 Z8.68
X3.561 Y-0.294 Z8.62
X3.512 Y-0.282 Z8.569
X3.454 Y-0.267 Z8.531
X3.389 Y-0.25 Z8.508
X3.321 Y-0.233 Z8.5
G3 X1.592 Y0.016 I-2.011 J-7.852
G1 X1.442 F1000
X0.793 Y-0.117
X0.135 Y-0.194
X-0.526 Y-0.24
X-1.187 Y-0.266
X-1.85 Y-0.281
X-2.512 Y-0.29
X-3.174 Y-0.295
X-3.837 Y-0.298
X-5.162 Y-0.3
X-9.136 Y-0.302
X-40.601
X-40.916 Y-0.2
X-41.184 Y-0.004
X-41.625 Y0.489
X-41.901 Y1.091
X-42.067 Y1.733
X-42.166 Y2.388
X-42.223 Y3.048
X-42.256 Y3.709
X-42.276 Y4.371
X-42.287 Y5.034
X-42.293 Y5.696
X-42.297 Y6.359
X-42.299 Y7.021
X-42.301 Y9.008
X-42.302 Y57.365
Y107.708
Y117.077
X-42.304 Y117.139
X-42.312 Y117.201
X-42.325 Y117.261
X-42.616 Y118.395
X-42.649 Y118.545
X-42.673 Y118.696
X-42.686 Y118.846
X-42.687 Y119.749
Y126.82
X-42.662 Y127.271
X-42.636 Y127.421
X-42.577 Y127.722
X-42.478 Y128.377
X-42.402 Y129.035
X-42.381 Y129.366
X-42.372 Y129.531
X-42.337 Y129.693
X-42.202 Y129.996
X-41.989 Y130.249
X-41.475 Y130.667
X-40.866 Y130.927
X-40.222 Y131.083
X-39.566 Y131.175
X-38.906 Y131.228
X-38.244 Y131.259
X-37.582 Y131.277
X-36.92 Y131.288
X-36.257 Y131.294
X-35.595 Y131.297
X-34.27 Y131.3
X-30.958 Y131.302
X-1.48
X-1.318 Y131.27
X-1.014 Y131.138
X-0.758 Y130.928
X-0.338 Y130.416
X-0.076 Y129.807
X0.081 Y129.164
X0.094 Y129.069
X0.118 Y128.961
X0.157 Y128.858
X0.211 Y128.762
X0.253 Y128.699
X0.296 Y128.625
X0.377 Y128.474
X0.403 Y128.411
X0.436 Y128.324
X0.482 Y128.174
X0.517 Y128.023
X0.636 Y127.421
X0.662 Y127.271
X0.688 Y126.82
Y34.146
X0.685 Y33.996
X0.678 Y33.846
X0.658 Y33.695
X0.63 Y33.545
X0.57 Y33.244
X0.474 Y32.588
X0.399 Y31.93
X0.358 Y31.269
X0.334 Y30.607
X0.32 Y29.945
X0.312 Y29.282
X0.308 Y28.62
X0.305 Y27.958
X0.303 Y26.633
X0.302 Y21.996
Y2.786
X0.218 Y2.465
X0.038 Y2.188
X-0.433 Y1.722
X-1.025 Y1.424
X-1.661 Y1.24
X-2.314 Y1.129
X-2.973 Y1.063
X-3.635 Y1.024
X-4.297 Y1.001
X-4.959 Y0.987
X-5.621 Y0.979
X-6.284 Y0.975
X-6.946 Y0.972
X-8.271 Y0.97
X-8.744 Y0.969
X-8.888 Y0.955
X-9.027 Y0.913
X-9.154 Y0.844
X-9.226 Y0.797
X-9.301 Y0.748
X-9.376 Y0.701
X-9.581 Y0.598
X-9.677 Y0.564
X-9.828 Y0.517
X-10.279 Y0.423
X-10.58 Y0.363
X-10.73 Y0.335
X-10.881 Y0.327
X-11.182 Y0.314
X-11.332 Y0.312
X-16.598 Y0.313
X-16.748 Y0.316
X-16.899 Y0.331
X-17.049 Y0.349
X-17.651 Y0.469
X-17.801 Y0.501
X-17.952 Y0.54
X-18.102 Y0.591
X-18.244 Y0.639
X-18.778 Y0.757
X-19.434 Y0.848
X-20.094 Y0.9
X-20.756 Y0.929
X-21.418 Y0.946
X-22.081 Y0.956
X-22.743 Y0.961
X-23.406 Y0.964
X-24.73 Y0.967
X-28.705 Y0.968
X-38.972
X-39.294 Y1.048
X-39.585 Y1.205
X-40.092 Y1.632
X-40.439 Y2.196
X-40.664 Y2.819
X-40.807 Y3.466
X-40.895 Y4.123
X-40.949 Y4.783
X-40.982 Y5.445
X-41.002 Y6.107
X-41.014 Y6.769
X-41.021 Y7.431
X-41.025 Y8.094
X-41.028 Y8.756
X-41.03 Y10.081
X-41.032 Y14.056
Y29.291
Y79.635
Y112.129
X-41.034 Y112.191
X-41.042 Y112.252
X-41.055 Y112.313
X-42.325 Y117.261
X-42.449 Y117.744 Z8.7 F600
X-42.51 Y117.985
X-42.616 Y118.395 F1000
X-42.649 Y118.545
X-42.673 Y118.696
X-42.686 Y118.846
X-42.687 Y119.297
Y126.82
X-42.679 Y126.97
Y126.984
X-42.664 Y127.232 F600
X-42.662 Y127.271 Z8.684
X-42.636 Y127.421 Z8.623
X-42.577 Y127.722 Z8.5
X-42.485 Y128.174 F1000
X-42.475 Y128.209
X-42.436 Y128.324
X-42.377 Y128.474
X-42.296 Y128.625
X-42.202 Y128.775
X-41.9 Y129.227
X-41.799 Y129.377
X-41.723 Y129.47
X-41.587 Y129.627
X-41.11 Y129.979
X-40.884 Y130.129
X-40.655 Y130.28
X-40.519 Y130.352
X-40.369 Y130.42
X-40.219 Y130.472
X-40.068 Y130.506
X-39.918 Y130.538
X-39.617 Y130.597
X-39.316 Y130.655
X-39.165 Y130.672
X-38.864 Y130.684
X-38.714 Y130.687
X-3.208
X-2.756 Y130.666
X-2.606 Y130.641
X-2.155 Y130.552
X-2.004 Y130.521
X-1.854 Y130.488
X-1.703 Y130.445
X-1.553 Y130.39
X-1.343 Y130.28
X-0.89 Y129.979
X-0.65 Y129.818
X-0.477 Y129.678
X-0.349 Y129.554
X-0.327 Y129.528
X-0.199 Y129.373
X0.001 Y129.076
X0.211 Y128.762
G3 X0.468 Y128.629 I0.258 J0.185 F600
G1 X0.469
X0.524 Y128.634
X0.578 Y128.649
X0.628 Y128.672
X0.667 Y128.71 Z8.505
X0.705 Y128.747 Z8.519
X0.74 Y128.782 Z8.542
X0.755 Y128.829 Z8.578
X0.767 Y128.868 Z8.622
X0.776 Y128.9 Z8.673
X0.783 Y128.921 Z8.729
X0.786 Y128.931 Z8.789
Y128.933 Z8.818
G0 Z20
X1.147 Y34.176
Z9.135
G1 Z8.818 F600
X1.141 Y34.17 Z8.747
X1.126 Y34.152 Z8.68
X1.1 Y34.124 Z8.62
X1.067 Y34.087 Z8.569
X1.026 Y34.042 Z8.531
X0.981 Y33.992 Z8.508
X0.934 Y33.94 Z8.5
G3 X0.57 Y33.244 I1.176 J-1.059
G1 X0.51 Y32.943 F1000
X0.472 Y32.792
X0.423 Y32.642
X0.361 Y32.492
X0.253 Y32.304
X0.18 Y32.191
X-0.123 Y31.739
X-0.274 Y31.493
X-0.382 Y31.279
X-0.495 Y31.005
X-0.613 Y30.636
X-0.735 Y30.114
X-0.833 Y29.459
X-0.89 Y28.799
X-0.923 Y28.138
X-0.942 Y27.476
X-0.953 Y26.813
X-0.959 Y26.151
X-0.963 Y25.489
X-0.967 Y24.164
X-0.968 Y21.514
Y4.291
X-1.059 Y3.973
X-1.222 Y3.684
X-1.654 Y3.182
X-2.219 Y2.837
X-2.842 Y2.612
X-3.489 Y2.469
X-4.145 Y2.379
X-4.805 Y2.324
X-5.467 Y2.29
X-6.129 Y2.27
X-6.791 Y2.257
X-7.393 Y2.25
X-7.57 Y2.227
X-7.737 Y2.161
X-7.883 Y2.057
X-8 Y1.921
X-8.081 Y1.801
X-8.184 Y1.651
X-8.298 Y1.5
X-8.438 Y1.35
X-8.473 Y1.319
X-8.634 Y1.199
X-8.85 Y1.049
X-8.925 Y0.998
X-9.154 Y0.844
G3 X-9.286 Y0.587 I0.185 J-0.258 F600
G1 X-9.282 Y0.531
X-9.267 Y0.478
X-9.243 Y0.427
X-9.205 Y0.388 Z8.505
X-9.168 Y0.351 Z8.519
X-9.134 Y0.315 Z8.542
X-9.087 Y0.301 Z8.578
X-9.047 Y0.289 Z8.622
X-9.016 Y0.279 Z8.673
X-8.995 Y0.273 Z8.729
X-8.984 Y0.27 Z8.789
X-8.983 Z8.818
G0 Z20
X0.774 Y32.369
Z9.135
G1 Z8.818 F600
X0.767 Y32.366 Z8.747
X0.746 Y32.356 Z8.68
X0.711 Y32.34 Z8.62
X0.666 Y32.319 Z8.569
X0.611 Y32.294 Z8.531
X0.55 Y32.266 Z8.508
X0.486 Y32.236 Z8.5
G3 X-0.123 Y31.739 I0.665 J-1.436
G1 X-0.226 Y31.589 F1000
X-0.355 Y31.438
X-0.427 Y31.359
X-0.522 Y31.288
X-0.8 Y31.085
X-0.878 Y31.031
X-0.996 Y30.939
X-1.105 Y30.836
X-1.219 Y30.707
X-1.329 Y30.562
X-1.448 Y30.374
X-1.574 Y30.135
X-1.699 Y29.841
X-1.831 Y29.451
X-1.964 Y28.915
X-2.072 Y28.262
X-2.137 Y27.602
X-2.177 Y26.941
X-2.201 Y26.279
X-2.216 Y25.617
X-2.225 Y24.955
X-2.23 Y24.292
X-2.233 Y23.63
X-2.237 Y22.305
X-2.238 Y18.993
Y5.745
X-2.309 Y5.421
X-2.45 Y5.121
X-2.845 Y4.59
X-3.389 Y4.211
X-4 Y3.956
X-4.642 Y3.791
X-5.296 Y3.685
X-5.955 Y3.618
X-6.616 Y3.574
X-6.859 Y3.542
X-7.078 Y3.478
X-7.267 Y3.35
X-7.408 Y3.17
X-7.488 Y2.956
X-7.509 Y2.854
X-7.571 Y2.648
X-7.614 Y2.553
X-7.687 Y2.403
X-7.781 Y2.252
X-7.88 Y2.102
X-8 Y1.921
G3 X-7.923 Y1.502 I0.27 J-0.167 F600
G1 X-7.873 Y1.48 Z8.505
X-7.824 Y1.46 Z8.519
X-7.779 Y1.44 Z8.542
X-7.73 Y1.437 Z8.577
X-7.684 Y1.445 Z8.626
X-7.65 Y1.451 Z8.685
X-7.629 Y1.455 Z8.749
X-7.622 Y1.456 Z8.817
G0 Z20
X0.184 Y31.303
Z9.135
G1 Z8.818 F600
X0.176 Z8.747
X0.152 Y31.301 Z8.68
X0.115 Y31.298 Z8.62
X0.065 Y31.294 Z8.569
X0.005 Y31.29 Z8.531
X-0.062 Y31.285 Z8.508
X-0.133 Y31.28 Z8.5
G3 X-0.878 Y31.031 I0.114 J-1.578
G1 X-0.951 Y30.98 F1000
X-1.252 Y30.78
X-1.407 Y30.686
X-1.553 Y30.61
X-1.703 Y30.555
X-1.842 Y30.497
X-1.97 Y30.419
X-2.089 Y30.328
X-2.214 Y30.214
X-2.334 Y30.084
X-2.463 Y29.922
X-2.605 Y29.709
X-2.739 Y29.468
X-2.884 Y29.152
X-3.025 Y28.763
X-3.17 Y28.235
X-3.293 Y27.584
X-3.372 Y26.926
X-3.422 Y26.266
X-3.454 Y25.604
X-3.474 Y24.942
X-3.487 Y24.28
X-3.495 Y23.617
X-3.5 Y22.955
X-3.503 Y22.293
X-3.506 Y20.968
X-3.508 Y18.318
Y7.057
X-3.581 Y6.734
X-3.722 Y6.434
X-4.112 Y5.899
X-4.651 Y5.514
X-5.26 Y5.253
X-5.899 Y5.077
X-6.457 Y4.939
X-6.796 Y4.826
X-6.862 Y4.798
X-7.046 Y4.686
X-7.19 Y4.525
X-7.281 Y4.33
X-7.312 Y4.116
Y4.058
X-7.319 Y3.907
X-7.333 Y3.757
X-7.358 Y3.606
X-7.478 Y3.005
X-7.488 Y2.956
G3 X-7.257 Y2.597 I0.313 J-0.053 F600
G1 X-7.216 Y2.591 Z8.503
X-7.175 Y2.586 Z8.511
X-7.118 Y2.6 Z8.534
X-7.067 Y2.613 Z8.568
X-7.023 Y2.624 Z8.612
X-6.997 Y2.643 Z8.657
X-6.977 Y2.657 Z8.708
X-6.965 Y2.665 Z8.762
X-6.961 Y2.668 Z8.817
G0 Z9.135
X-0.607 Y30.539
G1 Z8.818 F600
X-0.615 Y30.54 Z8.747
X-0.638 Y30.545 Z8.68
X-0.675 Y30.552 Z8.62
X-0.725 Y30.562 Z8.569
X-0.784 Y30.573 Z8.531
X-0.85 Y30.586 Z8.508
X-0.919 Y30.6 Z8.5
G3 X-1.703 Y30.555 I-0.304 J-1.553
G1 X-1.757 Y30.536 F1000
X-1.854 Y30.513
X-2.305 Y30.418
X-2.455 Y30.388
X-2.601 Y30.352
X-2.743 Y30.303
X-2.878 Y30.238
X-3.006 Y30.16
X-3.141 Y30.061
X-3.273 Y29.948
X-3.416 Y29.801
X-3.572 Y29.615
X-3.719 Y29.407
X-3.886 Y29.127
X-4.039 Y28.814
X-4.203 Y28.398
X-4.361 Y27.877
X-4.502 Y27.23
X-4.596 Y26.574
X-4.659 Y25.915
X-4.7 Y25.254
X-4.727 Y24.592
X-4.745 Y23.93
X-4.757 Y23.267
X-4.765 Y22.605
X-4.77 Y21.943
X-4.773 Y21.28
X-4.776 Y19.955
X-4.778 Y17.306
Y8.694
X-4.792 Y8.363
X-4.862 Y8.039
X-4.998 Y7.738
X-5.381 Y7.197
X-5.903 Y6.789
X-6.478 Y6.459
X-6.88 Y6.23
X-6.989 Y6.156
X-7.124 Y6.037
X-7.227 Y5.89
X-7.291 Y5.722
X-7.312 Y5.543
Y4.116
G3 X-7.015 Y3.811 I0.317 J0.011 F600
G1 X-6.995 Y3.81 Z8.501
X-6.942 Y3.824 Z8.509
X-6.891 Y3.837 Z8.527
X-6.844 Y3.849 Z8.554
X-6.808 Y3.88 Z8.594
X-6.779 Y3.905 Z8.642
X-6.757 Y3.924 Z8.697
X-6.744 Y3.936 Z8.756
X-6.739 Y3.94 Z8.817
G0 Z9.135
X-1.375 Y30.208
G1 Z8.818 F600
X-1.382 Y30.211 Z8.747
X-1.404 Y30.219 Z8.68
X-1.44 Y30.231 Z8.62
X-1.487 Y30.248 Z8.569
X-1.544 Y30.269 Z8.531
X-1.607 Y30.291 Z8.508
X-1.673 Y30.315 Z8.5
G3 X-2.455 Y30.388 I-0.534 J-1.49
G1 X-2.606 Y30.359 F1000
X-2.756 Y30.334
X-3.208 Y30.312
X-3.29
X-3.44 Y30.305
X-3.587 Y30.275
X-3.73 Y30.228
X-3.867 Y30.167
X-4.007 Y30.088
X-4.145 Y29.996
X-4.299 Y29.874
X-4.459 Y29.725
X-4.623 Y29.546
X-4.8 Y29.318
X-4.969 Y29.06
X-5.154 Y28.72
X-5.326 Y28.333
X-5.501 Y27.836
X-5.671 Y27.196
X-5.789 Y26.544
X-5.872 Y25.887
X-5.928 Y25.227
X-5.968 Y24.566
X-5.994 Y23.904
X-6.012 Y23.241
X-6.024 Y22.579
X-6.033 Y21.917
X-6.038 Y21.254
X-6.042 Y20.592
X-6.046 Y19.267
X-6.048 Y16.617
Y9.993
X-6.079 Y9.332
X-6.329 Y8.718
X-6.736 Y8.195
X-7.093 Y7.84
X-7.212 Y7.686
X-7.287 Y7.507
X-7.312 Y7.314
Y5.543
G3 X-7.015 Y5.238 I0.317 J0.011 F600
G1 X-6.995 Y5.237 Z8.501
X-6.942 Y5.251 Z8.509
X-6.891 Y5.264 Z8.527
X-6.844 Y5.276 Z8.554
X-6.808 Y5.307 Z8.594
X-6.779 Y5.332 Z8.642
X-6.757 Y5.351 Z8.697
X-6.744 Y5.363 Z8.756
X-6.739 Y5.367 Z8.817
G0 Z9.135
X-2.264 Y29.929
G1 Z8.818 F600
X-2.271 Y29.933 Z8.747
X-2.291 Y29.945 Z8.68
X-2.323 Y29.964 Z8.62
X-2.367 Y29.99 Z8.569
X-2.418 Y30.021 Z8.531
X-2.476 Y30.055 Z8.508
X-2.537 Y30.091 Z8.5
G3 X-3.29 Y30.312 I-0.809 J-1.36
G1 X-4.261 F1000
X-4.411 Y30.305
X-4.559 Y30.281
X-4.703 Y30.24
X-4.843 Y30.186
X-4.984 Y30.117
X-5.142 Y30.023
X-5.299 Y29.912
X-5.476 Y29.764
X-5.645 Y29.598
X-5.839 Y29.375
X-6.019 Y29.131
X-6.224 Y28.798
X-6.408 Y28.44
X-6.603 Y27.97
X-6.793 Y27.383
X-6.945 Y26.738
X-7.056 Y26.085
X-7.134 Y25.427
X-7.19 Y24.767
X-7.23 Y24.106
X-7.258 Y23.444
X-7.277 Y22.782
X-7.29 Y22.12
X-7.299 Y21.457
X-7.306 Y20.795
X-7.31 Y20.132
X-7.312 Y19.522
Y7.314
G3 X-7.015 Y7.008 I0.317 J0.011 F600
G1 X-6.995 Z8.501
X-6.942 Y7.021 Z8.509
X-6.891 Y7.034 Z8.527
X-6.844 Y7.046 Z8.554
X-6.808 Y7.077 Z8.594
X-6.779 Y7.103 Z8.642
X-6.757 Y7.122 Z8.697
X-6.744 Y7.133 Z8.756
X-6.739 Y7.137 Z8.817
G0 Z9.135
X-3.234 Y29.929
G1 Z8.818 F600
X-3.241 Y29.933 Z8.747
X-3.261 Y29.945 Z8.68
X-3.294 Y29.964 Z8.62
X-3.337 Y29.99 Z8.569
X-3.389 Y30.021 Z8.531
X-3.447 Y30.055 Z8.508
X-3.507 Y30.091 Z8.5
G3 X-4.261 Y30.312 I-0.809 J-1.36
G1 X-5.314 F1000
X-5.464 Y30.305
X-5.612 Y30.284
X-5.758 Y30.247
X-5.899 Y30.197
X-6.052 Y30.127
X-6.209 Y30.04
X-6.379 Y29.926
X-6.555 Y29.787
X-6.742 Y29.614
X-6.937 Y29.401
X-7.137 Y29.144
X-7.191 Y29.061
X-7.258 Y28.935
X-7.299 Y28.797
X-7.312 Y28.655
G3 X-6.984 Y28.349 Z8.7 I0.317 J0.011 F600
G1 X-6.918 Y28.358
X-6.854 Y28.381
X-6.797 Y28.417
X-6.762 Y28.446
X-5.127 Y29.747 F1000
X-5.108 Y29.764
X-5.067 Y29.811 F600
X-5.036 Y29.864
X-5.016 Y29.923
X-5.008 Y29.984
G3 X-5.314 Y30.312 Z8.5 I-0.317 J0.011
G1 X-6.45 F1000
X-6.6 Y30.305
X-6.748 Y30.282
X-6.761 Y30.279
X-6.94 Y30.205
X-7.094 Y30.087
X-7.213 Y29.934
X-7.287 Y29.755
X-7.312 Y29.562
G3 X-6.984 Y29.256 Z8.7 I0.317 J0.011 F600
G1 X-6.918 Y29.266
X-6.855 Y29.289
X-6.798 Y29.324
X-6.762 Y29.353
X-6.264 Y29.746 F1000
X-6.243 Y29.764
X-6.203 Y29.811 F600
X-6.172 Y29.864
X-6.152 Y29.923
X-6.144 Y29.984
G3 X-6.45 Y30.312 Z8.5 I-0.317 J0.011
G1 X-6.668 F1000
X-6.818 Y30.311
X-6.969 Y30.286
X-7.044 Y30.269
X-7.082 Y30.255
X-7.12 Y30.235
X-7.162 Y30.204
X-7.204 Y30.16
X-7.233 Y30.122
X-7.253 Y30.084
X-7.27 Y30.041
X-7.293 Y29.934
X-7.307 Y29.859
X-7.312 Y29.784
Y19.522
G3 X-7.015 Y19.216 I0.317 J0.011 F600
G1 X-6.995 Y19.215 Z8.501
X-6.942 Y19.229 Z8.509
X-6.891 Y19.242 Z8.527
X-6.844 Y19.254 Z8.554
X-6.808 Y19.285 Z8.594
X-6.779 Y19.31 Z8.642
X-6.757 Y19.329 Z8.697
X-6.744 Y19.341 Z8.756
X-6.739 Y19.345 Z8.817
G0 Z20
X-17.301 Y-0.156
Z9.135
G1 Z8.818 F600
X-17.305 Y-0.15 Z8.747
X-17.32 Y-0.131 Z8.68
X-17.342 Y-0.101 Z8.62
X-17.372 Y-0.061 Z8.569
X-17.408 Y-0.012 Z8.531
X-17.448 Y0.041 Z8.508
X-17.491 Y0.098 Z8.5
G3 X-18.102 Y0.591 I-1.268 J-0.947
G1 X-18.118 Y0.598 F1000
X-18.253 Y0.662
X-18.403 Y0.752
X-18.554 Y0.85
X-19.005 Y1.152
X-19.074 Y1.199
X-19.155 Y1.26
X-19.186 Y1.287
X-19.303 Y1.381
X-19.461 Y1.486
X-19.657 Y1.594
X-19.911 Y1.708
X-20.243 Y1.827
X-20.701 Y1.95
X-21.352 Y2.07
X-22.011 Y2.139
X-22.672 Y2.18
X-23.334 Y2.204
X-23.996 Y2.218
X-24.659 Y2.226
X-25.321 Y2.231
X-25.984 Y2.234
X-27.308 Y2.237
X-31.283 Y2.238
X-37.245
X-37.576 Y2.25
X-37.898 Y2.327
X-38.194 Y2.476
X-38.717 Y2.882
X-39.086 Y3.432
X-39.333 Y4.047
X-39.492 Y4.69
X-39.594 Y5.344
X-39.658 Y6.004
X-39.698 Y6.665
X-39.722 Y7.327
X-39.738 Y7.989
X-39.747 Y8.651
X-39.753 Y9.314
X-39.756 Y9.976
X-39.76 Y11.301
X-39.761 Y13.951
X-39.762 Y33.161
Y83.504
Y107.181
X-39.764 Y107.243
X-39.772 Y107.304
X-39.785 Y107.365
X-41.055 Y112.313
G3 X-41.419 Y112.535 I-0.305 J-0.09 F600
G1 X-41.468 Y112.512 Z8.505
X-41.516 Y112.49 Z8.519
X-41.561 Y112.469 Z8.542
X-41.59 Y112.429 Z8.578
X-41.615 Y112.396 Z8.622
X-41.634 Y112.37 Z8.673
X-41.647 Y112.352 Z8.729
X-41.654 Y112.343 Z8.789
Y112.342 Z8.818
G0 Z20
X-18.676 Y0.317
Z9.135
G1 Z8.818 F600
X-18.679 Y0.324 Z8.747
X-18.686 Y0.347 Z8.68
X-18.697 Y0.383 Z8.62
X-18.712 Y0.431 Z8.569
X-18.73 Y0.488 Z8.531
X-18.751 Y0.552 Z8.508
X-18.772 Y0.62 Z8.5
G3 X-19.186 Y1.287 I-1.51 J-0.475
G1 X-19.256 Y1.35 F1000
X-19.306 Y1.396
X-19.401 Y1.5
X-19.456 Y1.567
X-19.518 Y1.651
X-19.757 Y2.008
X-19.82 Y2.102
X-19.91 Y2.222
X-20.013 Y2.332
X-20.143 Y2.45
X-20.29 Y2.562
X-20.481 Y2.686
X-20.72 Y2.815
X-21.015 Y2.944
X-21.402 Y3.078
X-21.928 Y3.214
X-22.581 Y3.328
X-23.24 Y3.397
X-23.901 Y3.44
X-24.562 Y3.467
X-25.225 Y3.483
X-25.887 Y3.493
X-26.549 Y3.499
X-27.212 Y3.503
X-28.537 Y3.506
X-31.186 Y3.508
X-35.823
X-36.154 Y3.513
X-36.48 Y3.573
X-36.786 Y3.701
X-37.333 Y4.074
X-37.731 Y4.603
X-38.001 Y5.208
X-38.18 Y5.846
X-38.294 Y6.499
X-38.368 Y7.157
X-38.414 Y7.818
X-38.443 Y8.479
X-38.462 Y9.142
X-38.473 Y9.804
X-38.48 Y10.466
X-38.485 Y11.129
X-38.487 Y11.791
X-38.49 Y13.116
X-38.491 Y16.428
X-38.492 Y36.301
Y86.644
Y102.232
X-38.494 Y102.294
X-38.502 Y102.356
X-38.515 Y102.417
X-39.785 Y107.365
G3 X-40.149 Y107.587 I-0.305 J-0.09 F600
G1 X-40.198 Y107.564 Z8.505
X-40.246 Y107.542 Z8.519
X-40.291 Y107.521 Z8.542
X-40.32 Y107.481 Z8.578
X-40.345 Y107.447 Z8.622
X-40.364 Y107.421 Z8.673
X-40.377 Y107.403 Z8.729
X-40.384 Y107.395 Z8.789
Y107.393 Z8.818
G0 Z20
X-19.569 Y1.035
Z9.135
G1 Z8.818 F600
X-19.57 Y1.043 Z8.747
X-19.571 Y1.067 Z8.68
X-19.573 Y1.104 Z8.62
X-19.576 Y1.155 Z8.569
X-19.579 Y1.215 Z8.531
X-19.582 Y1.282 Z8.508
X-19.586 Y1.352 Z8.5
G3 X-19.82 Y2.102 I-1.58 J-0.083
G1 X-19.921 Y2.252 F1000
X-20.012 Y2.403
X-20.058 Y2.484
X-20.088 Y2.553
X-20.141 Y2.704
X-20.162 Y2.786
X-20.206 Y2.93
X-20.27 Y3.066
X-20.349 Y3.193
X-20.439 Y3.313
X-20.554 Y3.439
X-20.692 Y3.569
X-20.856 Y3.7
X-21.072 Y3.845
X-21.322 Y3.986
X-21.641 Y4.133
X-22.037 Y4.278
X-22.569 Y4.427
X-23.219 Y4.553
X-23.877 Y4.634
X-24.537 Y4.686
X-25.199 Y4.72
X-25.861 Y4.741
X-26.523 Y4.755
X-27.185 Y4.764
X-27.848 Y4.769
X-28.51 Y4.773
X-29.835 Y4.776
X-32.485 Y4.778
X-34.472
X-34.803 Y4.78
X-35.13 Y4.831
X-35.44 Y4.948
X-36.001 Y5.301
X-36.413 Y5.819
X-36.696 Y6.418
X-36.884 Y7.053
X-37.007 Y7.704
X-37.085 Y8.362
X-37.136 Y9.023
X-37.168 Y9.684
X-37.188 Y10.346
X-37.2 Y11.009
X-37.208 Y11.671
X-37.213 Y12.333
X-37.216 Y12.996
X-37.22 Y14.321
X-37.221 Y16.97
X-37.222 Y38.83
Y89.174
Y97.284
X-37.224 Y97.346
X-37.232 Y97.408
X-37.245 Y97.468
X-38.515 Y102.417
G3 X-38.879 Y102.639 I-0.305 J-0.09 F600
G1 X-38.928 Y102.616 Z8.505
X-38.976 Y102.593 Z8.519
X-39.021 Y102.572 Z8.542
X-39.05 Y102.533 Z8.578
X-39.075 Y102.499 Z8.622
X-39.094 Y102.473 Z8.673
X-39.107 Y102.455 Z8.729
X-39.114 Y102.446 Z8.789
Y102.445 Z8.818
G0 Z20
X-20.284 Y1.697
Z9.135
G1 Z8.818 F600
X-20.282 Y1.705 Z8.747
X-20.275 Y1.728 Z8.68
X-20.264 Y1.764 Z8.62
X-20.25 Y1.812 Z8.569
X-20.233 Y1.87 Z8.531
X-20.213 Y1.934 Z8.508
X-20.193 Y2.002 Z8.5
G3 X-20.162 Y2.786 I-1.516 J0.453
G1 X-20.217 Y3.005 F1000
X-20.252 Y3.155
X-20.342 Y3.606
X-20.359 Y3.712
X-20.391 Y3.858
X-20.445 Y3.998
X-20.513 Y4.132
X-20.593 Y4.259
X-20.699 Y4.398
X-20.821 Y4.536
X-20.976 Y4.684
X-21.173 Y4.844
X-21.395 Y4.996
X-21.693 Y5.168
X-22.023 Y5.324
X-22.462 Y5.49
X-23.026 Y5.652
X-23.675 Y5.784
X-24.331 Y5.873
X-24.991 Y5.932
X-25.652 Y5.972
X-26.314 Y5.998
X-26.977 Y6.016
X-27.639 Y6.027
X-28.301 Y6.035
X-28.964 Y6.04
X-29.626 Y6.043
X-30.951 Y6.046
X-33.601 Y6.048
X-33.925 Y6.115
X-34.228 Y6.248
X-34.774 Y6.624
X-35.17 Y7.154
X-35.442 Y7.758
X-35.623 Y8.396
X-35.741 Y9.047
X-35.818 Y9.705
X-35.867 Y10.366
X-35.898 Y11.028
X-35.918 Y11.69
X-35.93 Y12.352
X-35.938 Y13.014
X-35.943 Y13.677
X-35.946 Y14.339
X-35.95 Y15.664
X-35.951 Y18.314
X-35.952 Y41.498
Y91.842
Y92.336
X-35.954 Y92.398
X-35.962 Y92.459
X-35.975 Y92.52
X-37.245 Y97.468
G3 X-37.609 Y97.691 I-0.305 J-0.09 F600
G1 X-37.658 Y97.667 Z8.505
X-37.706 Y97.645 Z8.519
X-37.751 Y97.624 Z8.542
X-37.78 Y97.585 Z8.578
X-37.805 Y97.551 Z8.622
X-37.824 Y97.525 Z8.673
X-37.837 Y97.507 Z8.729
X-37.844 Y97.498 Z8.789
Y97.497 Z8.818
G0 Z20
X-20.57 Y2.636
Z9.135
G1 Z8.818 F600
X-20.567 Y2.644 Z8.747
X-20.558 Y2.666 Z8.68
X-20.544 Y2.701 Z8.62
X-20.526 Y2.748 Z8.569
X-20.504 Y2.804 Z8.531
X-20.48 Y2.866 Z8.508
X-20.454 Y2.932 Z8.5
G3 X-20.359 Y3.712 I-1.474 J0.576
G1 X-20.367 Y3.757 F1000
X-20.381 Y3.907
X-20.387 Y4.058
Y4.509
X-20.395 Y4.659
X-20.426 Y4.806
X-20.474 Y4.948
X-20.535 Y5.085
X-20.609 Y5.219
X-20.71 Y5.372
X-20.827 Y5.52
X-20.983 Y5.69
X-21.159 Y5.853
X-21.388 Y6.032
X-21.656 Y6.21
X-21.99 Y6.394
X-22.384 Y6.572
X-22.891 Y6.753
X-23.531 Y6.926
X-24.182 Y7.047
X-24.839 Y7.133
X-25.499 Y7.192
X-26.16 Y7.233
X-26.822 Y7.261
X-27.484 Y7.28
X-28.146 Y7.293
X-28.808 Y7.301
X-29.471 Y7.307
X-30.133 Y7.311
X-31.458 Y7.315
X-32.12 Y7.316
X-32.45 Y7.346
X-32.768 Y7.44
X-33.06 Y7.596
X-33.58 Y8.006
X-33.953 Y8.554
X-34.207 Y9.166
X-34.375 Y9.806
X-34.485 Y10.46
X-34.556 Y11.118
X-34.602 Y11.779
X-34.631 Y12.441
X-34.65 Y13.103
X-34.661 Y13.765
X-34.669 Y14.428
X-34.674 Y15.09
X-34.677 Y15.753
X-34.68 Y17.077
X-34.681 Y20.389
X-34.682 Y43.574
Y87.388
X-34.684 Y87.45
X-34.692 Y87.511
X-34.705 Y87.572
X-35.975 Y92.52
G3 X-36.339 Y92.742 I-0.305 J-0.09 F600
G1 X-36.388 Y92.719 Z8.505
X-36.436 Y92.697 Z8.519
X-36.481 Y92.676 Z8.542
X-36.51 Y92.636 Z8.578
X-36.535 Y92.603 Z8.622
X-36.554 Y92.577 Z8.673
X-36.567 Y92.559 Z8.729
X-36.574 Y92.55 Z8.789
Y92.549 Z8.818
G0 Z9.135
X-20.771 Y3.483
G1 Z8.818 F600
X-20.767 Y3.489 Z8.747
X-20.755 Y3.51 Z8.68
X-20.735 Y3.542 Z8.62
X-20.71 Y3.585 Z8.569
X-20.679 Y3.637 Z8.531
X-20.645 Y3.695 Z8.508
X-20.609 Y3.755 Z8.5
G3 X-20.387 Y4.509 I-1.36 J0.809
G1 Y5.494 F1000
X-20.395 Y5.644
X-20.42 Y5.792
X-20.461 Y5.936
X-20.516 Y6.076
X-20.585 Y6.219
X-20.68 Y6.379
X-20.792 Y6.538
X-20.943 Y6.718
X-21.112 Y6.89
X-21.339 Y7.087
X-21.588 Y7.27
X-21.926 Y7.479
X-22.29 Y7.666
X-22.767 Y7.863
X-23.363 Y8.056
X-24.007 Y8.209
X-24.661 Y8.319
X-25.318 Y8.399
X-25.978 Y8.456
X-26.639 Y8.497
X-27.301 Y8.525
X-27.963 Y8.545
X-28.625 Y8.559
X-29.288 Y8.568
X-29.95 Y8.575
X-30.613 Y8.579
X-30.944 Y8.584
X-31.271 Y8.635
X-31.581 Y8.751
X-32.146 Y9.097
X-32.565 Y9.611
X-32.856 Y10.206
X-33.051 Y10.839
X-33.18 Y11.489
X-33.263 Y12.146
X-33.317 Y12.806
X-33.351 Y13.467
X-33.373 Y14.129
X-33.387 Y14.792
X-33.396 Y15.454
X-33.402 Y16.117
X-33.405 Y16.779
X-33.409 Y18.104
X-33.411 Y20.753
X-33.412 Y45.925
Y82.439
X-33.414 Y82.501
X-33.422 Y82.563
X-33.435 Y82.624
X-34.705 Y87.572
G3 X-35.069 Y87.794 I-0.305 J-0.09 F600
G1 X-35.118 Y87.771 Z8.505
X-35.166 Y87.749 Z8.519
X-35.211 Y87.728 Z8.542
X-35.24 Y87.688 Z8.578
X-35.265 Y87.655 Z8.622
X-35.284 Y87.628 Z8.673
X-35.297 Y87.611 Z8.729
X-35.304 Y87.602 Z8.789
Y87.601 Z8.818
G0 Z9.135
X-20.771 Y4.468
G1 Z8.818 F600
X-20.767 Y4.475 Z8.747
X-20.755 Y4.495 Z8.68
X-20.735 Y4.528 Z8.62
X-20.71 Y4.571 Z8.569
X-20.679 Y4.622 Z8.531
X-20.645 Y4.68 Z8.508
X-20.609 Y4.741 Z8.5
G3 X-20.387 Y5.494 I-1.36 J0.809
G1 Y6.615 F1000
X-20.395 Y6.765
X-20.423 Y6.912
X-20.467 Y7.056
X-20.523 Y7.195
X-20.603 Y7.357
X-20.699 Y7.516
X-20.829 Y7.698
X-20.978 Y7.874
X-21.175 Y8.073
X-21.4 Y8.266
X-21.696 Y8.48
X-22.026 Y8.682
X-22.456 Y8.899
X-22.96 Y9.104
X-23.592 Y9.304
X-24.237 Y9.453
X-24.89 Y9.564
X-25.548 Y9.646
X-26.207 Y9.707
X-26.868 Y9.75
X-27.53 Y9.782
X-28.192 Y9.805
X-28.854 Y9.821
X-29.516 Y9.833
X-29.846 Y9.861
X-30.166 Y9.946
X-30.463 Y10.094
X-30.994 Y10.49
X-31.378 Y11.03
X-31.642 Y11.638
X-31.818 Y12.276
X-31.933 Y12.929
X-32.008 Y13.587
X-32.056 Y14.247
X-32.087 Y14.909
X-32.107 Y15.571
X-32.12 Y16.233
X-32.128 Y16.896
X-32.133 Y17.558
X-32.136 Y18.221
X-32.139 Y19.545
X-32.141 Y22.195
X-32.142 Y48.692
Y77.491
X-32.144 Y77.553
X-32.152 Y77.615
X-32.165 Y77.675
X-33.435 Y82.624
G3 X-33.799 Y82.846 I-0.305 J-0.09 F600
G1 X-33.848 Y82.823 Z8.505
X-33.896 Y82.8 Z8.519
X-33.941 Y82.779 Z8.542
X-33.97 Y82.74 Z8.578
X-33.995 Y82.706 Z8.622
X-34.014 Y82.68 Z8.673
X-34.027 Y82.662 Z8.729
X-34.034 Y82.653 Z8.789
Y82.652 Z8.818
G0 Z9.135
X-20.771 Y5.589
G1 Z8.818 F600
X-20.767 Y5.596 Z8.747
X-20.755 Y5.616 Z8.68
X-20.735 Y5.648 Z8.62
X-20.71 Y5.692 Z8.569
X-20.679 Y5.743 Z8.531
X-20.645 Y5.801 Z8.508
X-20.609 Y5.862 Z8.5
G3 X-20.387 Y6.615 I-1.36 J0.809
G1 Y7.668 F1000
X-20.395 Y7.818
X-20.415 Y7.967
X-20.45 Y8.113
X-20.5 Y8.259
X-20.564 Y8.406
X-20.656 Y8.576
X-20.763 Y8.743
X-20.909 Y8.934
X-21.081 Y9.125
X-21.301 Y9.333
X-21.557 Y9.539
X-21.889 Y9.765
X-22.261 Y9.976
X-22.739 Y10.199
X-23.325 Y10.416
X-23.962 Y10.596
X-24.61 Y10.733
X-25.265 Y10.837
X-25.922 Y10.915
X-26.582 Y10.973
X-27.243 Y11.016
X-27.905 Y11.048
X-28.567 Y11.071
X-28.886 Y11.161
X-29.181 Y11.31
X-29.71 Y11.709
X-30.097 Y12.247
X-30.364 Y12.853
X-30.542 Y13.491
X-30.659 Y14.143
X-30.735 Y14.801
X-30.784 Y15.462
X-30.816 Y16.123
X-30.836 Y16.786
X-30.849 Y17.448
X-30.857 Y18.11
X-30.862 Y18.773
X-30.866 Y19.435
X-30.869 Y20.76
X-30.871 Y23.41
X-30.872 Y51.231
Y72.543
X-30.874 Y72.605
X-30.882 Y72.667
X-30.895 Y72.727
X-32.165 Y77.675
G3 X-32.529 Y77.898 I-0.305 J-0.09 F600
G1 X-32.578 Y77.875 Z8.505
X-32.626 Y77.852 Z8.519
X-32.671 Y77.831 Z8.542
X-32.7 Y77.792 Z8.578
X-32.725 Y77.758 Z8.622
X-32.744 Y77.732 Z8.673
X-32.757 Y77.714 Z8.729
X-32.764 Y77.705 Z8.789
Y77.704 Z8.818
G0 Z9.135
X-20.771 Y6.642
G1 Z8.818 F600
X-20.767 Y6.649 Z8.747
X-20.755 Y6.669 Z8.68
X-20.735 Y6.701 Z8.62
X-20.71 Y6.745 Z8.569
X-20.679 Y6.796 Z8.531
X-20.645 Y6.854 Z8.508
X-20.609 Y6.915 Z8.5
G3 X-20.387 Y7.668 I-1.36 J0.809
G1 Y8.872 F1000
X-20.395 Y9.022
X-20.421 Y9.169
X-20.461 Y9.314
X-20.516 Y9.461
X-20.595 Y9.628
X-20.69 Y9.795
X-20.82 Y9.986
X-20.97 Y10.171
X-21.174 Y10.386
X-21.4 Y10.589
X-21.708 Y10.823
X-22.042 Y11.037
X-22.479 Y11.27
X-23.012 Y11.501
X-23.639 Y11.715
X-24.28 Y11.881
X-24.93 Y12.009
X-25.585 Y12.107
X-26.244 Y12.181
X-26.904 Y12.238
X-27.233 Y12.273
X-27.554 Y12.356
X-27.854 Y12.496
X-28.394 Y12.879
X-28.793 Y13.408
X-29.069 Y14.01
X-29.255 Y14.646
X-29.378 Y15.297
X-29.457 Y15.955
X-29.509 Y16.615
X-29.542 Y17.277
X-29.564 Y17.939
X-29.577 Y18.601
X-29.586 Y19.263
X-29.592 Y19.926
X-29.595 Y20.588
X-29.599 Y21.913
X-29.601 Y24.563
X-29.602 Y53.709
Y67.595
X-29.604 Y67.657
X-29.612 Y67.718
X-29.625 Y67.779
X-30.895 Y72.727
G3 X-31.259 Y72.949 I-0.305 J-0.09 F600
G1 X-31.308 Y72.926 Z8.505
X-31.356 Y72.904 Z8.519
X-31.401 Y72.883 Z8.542
X-31.43 Y72.843 Z8.578
X-31.455 Y72.81 Z8.622
X-31.474 Y72.784 Z8.673
X-31.487 Y72.766 Z8.729
X-31.494 Y72.757 Z8.789
Y72.756 Z8.818
G0 Z9.135
X-20.771 Y7.845
G1 Z8.818 F600
X-20.767 Y7.852 Z8.747
X-20.755 Y7.872 Z8.68
X-20.735 Y7.905 Z8.62
X-20.71 Y7.948 Z8.569
X-20.679 Y8 Z8.531
X-20.645 Y8.058 Z8.508
X-20.609 Y8.118 Z8.5
G3 X-20.387 Y8.872 I-1.36 J0.809
G1 Y10.008 F1000
X-20.395 Y10.158
X-20.417 Y10.306
X-20.454 Y10.451
X-20.507 Y10.604
X-20.575 Y10.759
X-20.672 Y10.938
X-20.786 Y11.113
X-20.943 Y11.317
X-21.122 Y11.514
X-21.363 Y11.74
X-21.634 Y11.956
X-21.998 Y12.201
X-22.395 Y12.425
X-22.907 Y12.661
X-23.529 Y12.889
X-24.167 Y13.068
X-24.814 Y13.208
X-25.467 Y13.318
X-26.123 Y13.408
X-26.738 Y13.655
X-27.231 Y14.097
X-27.592 Y14.653
X-27.842 Y15.266
X-28.011 Y15.907
X-28.123 Y16.56
X-28.197 Y17.218
X-28.244 Y17.879
X-28.275 Y18.54
X-28.296 Y19.203
X-28.308 Y19.865
X-28.317 Y20.527
X-28.322 Y21.19
X-28.326 Y21.852
X-28.329 Y23.177
X-28.331 Y25.827
X-28.332 Y55.635
Y62.647
X-28.334 Y62.709
X-28.342 Y62.77
X-28.355 Y62.831
X-29.625 Y67.779
G3 X-29.989 Y68.001 I-0.305 J-0.09 F600
G1 X-30.038 Y67.978 Z8.505
X-30.086 Y67.956 Z8.519
X-30.131 Y67.935 Z8.542
X-30.16 Y67.895 Z8.578
X-30.185 Y67.862 Z8.622
X-30.204 Y67.836 Z8.673
X-30.217 Y67.818 Z8.729
X-30.224 Y67.809 Z8.789
Y67.808 Z8.818
G0 Z9.135
X-20.771 Y8.981
G1 Z8.818 F600
X-20.767 Y8.988 Z8.747
X-20.755 Y9.008 Z8.68
X-20.735 Y9.041 Z8.62
X-20.71 Y9.084 Z8.569
X-20.679 Y9.136 Z8.531
X-20.645 Y9.193 Z8.508
X-20.609 Y9.254 Z8.5
G3 X-20.387 Y10.008 I-1.36 J0.809
G1 Y11.211 F1000
X-20.395 Y11.361
X-20.419 Y11.509
X-20.458 Y11.654
X-20.509 Y11.799
X-20.584 Y11.965
X-20.682 Y12.142
X-20.805 Y12.329
X-20.963 Y12.531
X-21.154 Y12.739
X-21.398 Y12.964
X-21.686 Y13.191
X-22.047 Y13.43
X-22.495 Y13.678
X-23.014 Y13.913
X-23.637 Y14.136
X-24.276 Y14.313
X-24.923 Y14.456
X-25.52 Y14.743
X-25.993 Y15.206
X-26.34 Y15.771
X-26.582 Y16.387
X-26.746 Y17.029
X-26.855 Y17.682
X-26.927 Y18.341
X-26.975 Y19.002
X-27.005 Y19.663
X-27.025 Y20.325
X-27.038 Y20.988
X-27.047 Y21.65
X-27.052 Y22.312
X-27.055 Y22.975
X-27.059 Y24.3
X-27.061 Y26.949
X-27.062 Y57.698
X-27.064 Y57.76
X-27.072 Y57.822
X-27.085 Y57.883
X-28.355 Y62.831
G3 X-28.719 Y63.053 I-0.305 J-0.09 F600
G1 X-28.768 Y63.03 Z8.505
X-28.816 Y63.008 Z8.519
X-28.861 Y62.987 Z8.542
X-28.89 Y62.947 Z8.578
X-28.915 Y62.913 Z8.622
X-28.934 Y62.887 Z8.673
X-28.947 Y62.869 Z8.729
X-28.954 Y62.861 Z8.789
Y62.859 Z8.818
G0 Z9.135
X-20.771 Y10.185
G1 Z8.818 F600
X-20.767 Y10.192 Z8.747
X-20.755 Y10.212 Z8.68
X-20.735 Y10.244 Z8.62
X-20.71 Y10.288 Z8.569
X-20.679 Y10.339 Z8.531
X-20.645 Y10.397 Z8.508
X-20.609 Y10.458 Z8.5
G3 X-20.387 Y11.211 I-1.36 J0.809
G1 Y12.415 F1000
X-20.395 Y12.565
X-20.42 Y12.713
X-20.46 Y12.857
X-20.514 Y13.008
X-20.59 Y13.173
X-20.692 Y13.356
X-20.816 Y13.542
X-20.985 Y13.756
X-21.176 Y13.962
X-21.435 Y14.198
X-21.722 Y14.422
X-22.1 Y14.67
X-22.556 Y14.918
X-23.16 Y15.188
X-23.783 Y15.415
X-24.342 Y15.77
X-24.782 Y16.265
X-25.104 Y16.844
X-25.331 Y17.466
X-25.486 Y18.11
X-25.59 Y18.765
X-25.66 Y19.423
X-25.706 Y20.084
X-25.736 Y20.746
X-25.755 Y21.408
X-25.768 Y22.07
X-25.776 Y22.733
X-25.782 Y23.395
X-25.785 Y24.058
X-25.789 Y25.382
X-25.791 Y28.032
X-25.792 Y52.75
X-25.794 Y52.812
X-25.802 Y52.874
X-25.815 Y52.934
X-27.085 Y57.883
G3 X-27.449 Y58.105 I-0.305 J-0.09 F600
G1 X-27.498 Y58.082 Z8.505
X-27.546 Y58.059 Z8.519
X-27.591 Y58.038 Z8.542
X-27.62 Y57.999 Z8.578
X-27.645 Y57.965 Z8.622
X-27.664 Y57.939 Z8.673
X-27.677 Y57.921 Z8.729
X-27.684 Y57.912 Z8.789
Y57.911 Z8.818
G0 Z9.135
X-20.771 Y11.388
G1 Z8.818 F600
X-20.767 Y11.395 Z8.747
X-20.755 Y11.415 Z8.68
X-20.735 Y11.448 Z8.62
X-20.71 Y11.491 Z8.569
X-20.679 Y11.543 Z8.531
X-20.645 Y11.601 Z8.508
X-20.609 Y11.661 Z8.5
G3 X-20.387 Y12.415 I-1.36 J0.809
G1 Y13.618 F1000
X-20.395 Y13.768
X-20.42 Y13.916
X-20.46 Y14.061
X-20.516 Y14.217
X-20.591 Y14.38
X-20.696 Y14.569
X-20.819 Y14.753
X-20.99 Y14.969
X-21.184 Y15.177
X-21.448 Y15.419
X-21.758 Y15.66
X-22.312 Y16.023
X-22.866 Y16.387
X-23.331 Y16.858
X-23.69 Y17.415
X-23.953 Y18.023
X-24.137 Y18.659
X-24.264 Y19.309
X-24.35 Y19.966
X-24.408 Y20.626
X-24.447 Y21.287
X-24.473 Y21.949
X-24.489 Y22.611
X-24.501 Y23.274
X-24.508 Y23.936
X-24.513 Y24.598
X-24.516 Y25.261
X-24.519 Y26.586
X-24.521 Y29.235
X-24.522 Y47.802
X-24.524 Y47.864
X-24.532 Y47.925
X-24.545 Y47.986
X-25.815 Y52.934
G3 X-26.179 Y53.157 I-0.305 J-0.09 F600
G1 X-26.228 Y53.133 Z8.505
X-26.276 Y53.111 Z8.519
X-26.321 Y53.09 Z8.542
X-26.35 Y53.051 Z8.578
X-26.375 Y53.017 Z8.622
X-26.394 Y52.991 Z8.673
X-26.407 Y52.973 Z8.729
X-26.414 Y52.964 Z8.789
Y52.963 Z8.818
G0 Z9.135
X-20.771 Y12.592
G1 Z8.818 F600
X-20.767 Y12.599 Z8.747
X-20.755 Y12.619 Z8.68
X-20.735 Y12.651 Z8.62
X-20.71 Y12.695 Z8.569
X-20.679 Y12.746 Z8.531
X-20.645 Y12.804 Z8.508
X-20.609 Y12.865 Z8.5
G3 X-20.387 Y13.618 I-1.36 J0.809
G1 Y14.822 F1000
X-20.395 Y14.972
X-20.42 Y15.12
X-20.459 Y15.265
X-20.516 Y15.426
X-20.59 Y15.588
X-20.695 Y15.779
X-20.846 Y16.007
X-21.112 Y16.345
X-21.562 Y16.832
X-21.986 Y17.341
X-22.334 Y17.904
X-22.603 Y18.51
X-22.801 Y19.142
X-22.943 Y19.789
X-23.042 Y20.444
X-23.11 Y21.103
X-23.157 Y21.763
X-23.188 Y22.425
X-23.209 Y23.087
X-23.224 Y23.749
X-23.233 Y24.412
X-23.239 Y25.074
X-23.244 Y25.737
X-23.248 Y27.061
X-23.251 Y29.049
X-23.252 Y37.66
Y42.854
X-23.254 Y42.916
X-23.262 Y42.977
X-23.275 Y43.038
X-24.545 Y47.986
G3 X-24.909 Y48.208 I-0.305 J-0.09 F600
G1 X-24.958 Y48.185 Z8.505
X-25.006 Y48.163 Z8.519
X-25.051 Y48.142 Z8.542
X-25.08 Y48.102 Z8.578
X-25.105 Y48.069 Z8.622
X-25.124 Y48.043 Z8.673
X-25.137 Y48.025 Z8.729
X-25.144 Y48.016 Z8.789
Y48.015 Z8.818
G0 Z20
X-20.771 Y13.795
Z9.135
G1 Z8.818 F600
X-20.767 Y13.802 Z8.747
X-20.755 Y13.823 Z8.68
X-20.735 Y13.855 Z8.62
X-20.71 Y13.898 Z8.569
X-20.679 Y13.95 Z8.531
X-20.645 Y14.008 Z8.508
X-20.609 Y14.068 Z8.5
G3 X-20.387 Y14.822 I-1.36 J0.809
G1 Y16.093 F1000
X-20.395 Y16.243
X-20.423 Y16.424
X-20.478 Y16.652
X-20.624 Y17.1
X-20.88 Y17.712
X-21.132 Y18.324
X-21.349 Y18.95
X-21.523 Y19.589
X-21.655 Y20.238
X-21.752 Y20.894
X-21.822 Y21.552
X-21.872 Y22.213
X-21.907 Y22.874
X-21.931 Y23.536
X-21.947 Y24.199
X-21.958 Y24.861
X-21.966 Y25.523
X-21.971 Y26.186
X-21.975 Y26.848
X-21.979 Y28.173
X-21.981 Y30.823
X-21.982 Y37.905
X-21.984 Y37.967
X-21.992 Y38.029
X-22.005 Y38.09
X-23.275 Y43.038
G3 X-23.639 Y43.26 I-0.305 J-0.09 F600
G1 X-23.688 Y43.237 Z8.505
X-23.736 Y43.215 Z8.519
X-23.781 Y43.194 Z8.542
X-23.81 Y43.154 Z8.578
X-23.835 Y43.121 Z8.622
X-23.854 Y43.094 Z8.673
X-23.867 Y43.077 Z8.729
X-23.874 Y43.068 Z8.789
Y43.067 Z8.818
G0 Z20
X-20.771 Y15.067
Z9.135
G1 Z8.818 F600
X-20.767 Y15.074 Z8.747
X-20.755 Y15.094 Z8.68
X-20.735 Y15.126 Z8.62
X-20.71 Y15.169 Z8.569
X-20.679 Y15.221 Z8.531
X-20.645 Y15.279 Z8.508
X-20.609 Y15.34 Z8.5
G3 X-20.387 Y16.093 I-1.36 J0.809
G1 Y18.952 F1000
X-20.42 Y19.613
X-20.456 Y20.275
X-20.504 Y20.935
X-20.551 Y21.596
X-20.592 Y22.257
X-20.624 Y22.919
X-20.648 Y23.581
X-20.667 Y24.243
X-20.68 Y24.905
X-20.69 Y25.568
X-20.697 Y26.23
X-20.701 Y26.892
X-20.705 Y27.555
X-20.708 Y28.88
X-20.711 Y31.529
Y32.956
X-20.714 Y33.018
X-20.722 Y33.08
X-20.735 Y33.14
X-22.005 Y38.09
G3 X-22.369 Y38.312 I-0.305 J-0.09 F600
G1 X-22.418 Y38.289 Z8.505
X-22.466 Y38.266 Z8.519
X-22.511 Y38.245 Z8.542
X-22.54 Y38.206 Z8.578
X-22.565 Y38.172 Z8.622
X-22.584 Y38.146 Z8.673
X-22.597 Y38.128 Z8.729
X-22.604 Y38.119 Z8.789
Y38.118 Z8.818
G0 Z20
X-20.771 Y17.925
Z9.135
G1 Z8.818 F600
X-20.767 Y17.932 Z8.747
X-20.755 Y17.952 Z8.68
X-20.735 Y17.985 Z8.62
X-20.71 Y18.028 Z8.569
X-20.679 Y18.08 Z8.531
X-20.645 Y18.137 Z8.508
X-20.609 Y18.198 Z8.5
G3 X-20.387 Y18.952 I-1.36 J0.809
G1 Y31.589 F1000
X-20.389 Y31.739
X-20.397 Y31.815
X-20.414 Y31.89
X-20.735 Y33.14
G3 X-21.099 Y33.363 I-0.305 J-0.09 F600
G1 X-21.148 Y33.34 Z8.505
X-21.196 Y33.317 Z8.519
X-21.241 Y33.296 Z8.542
X-21.27 Y33.257 Z8.578
X-21.294 Y33.223 Z8.622
X-21.314 Y33.197 Z8.673
X-21.327 Y33.179 Z8.729
X-21.333 Y33.17 Z8.789
X-21.334 Y33.169 Z8.818
G0 Z20
X3.628 Y-0.311
Z8.635
G1 Z8.318 F600
X3.62 Y-0.31 Z8.247
X3.598 Y-0.304 Z8.18
X3.561 Y-0.294 Z8.12
X3.512 Y-0.282 Z8.069
X3.454 Y-0.267 Z8.031
X3.389 Y-0.25 Z8.008
X3.321 Y-0.233 Z8
G3 X1.592 Y0.016 I-2.011 J-7.852
G1 X1.442 F1000
X0.793 Y-0.117
X0.135 Y-0.194
X-0.526 Y-0.24
X-1.187 Y-0.266
X-1.85 Y-0.281
X-2.512 Y-0.29
X-3.174 Y-0.295
X-3.837 Y-0.298
X-5.162 Y-0.3
X-9.136 Y-0.302
X-40.601
X-40.916 Y-0.2
X-41.184 Y-0.004
X-41.625 Y0.489
X-41.901 Y1.091
X-42.067 Y1.733
X-42.166 Y2.388
X-42.223 Y3.048
X-42.256 Y3.709
X-42.276 Y4.371
X-42.287 Y5.034
X-42.293 Y5.696
X-42.297 Y6.359
X-42.299 Y7.021
X-42.301 Y9.008
X-42.302 Y57.365
Y107.708
Y117.077
X-42.304 Y117.139
X-42.312 Y117.201
X-42.325 Y117.261
X-42.616 Y118.395
X-42.649 Y118.545
X-42.673 Y118.696
X-42.686 Y118.846
X-42.687 Y119.749
Y126.82
X-42.662 Y127.271
X-42.636 Y127.421
X-42.577 Y127.722
X-42.478 Y128.377
X-42.402 Y129.035
X-42.381 Y129.366
X-42.372 Y129.531
X-42.337 Y129.693
X-42.202 Y129.996
X-41.989 Y130.249
X-41.475 Y130.667
X-40.866 Y130.927
X-40.222 Y131.083
X-39.566 Y131.175
X-38.906 Y131.228
X-38.244 Y131.259
X-37.582 Y131.277
X-36.92 Y131.288
X-36.257 Y131.294
X-35.595 Y131.297
X-34.27 Y131.3
X-30.958 Y131.302
X-1.48
X-1.318 Y131.27
X-1.014 Y131.138
X-0.758 Y130.928
X-0.338 Y130.416
X-0.076 Y129.807
X0.081 Y129.164
X0.094 Y129.069
X0.118 Y128.961
X0.157 Y128.858
X0.211 Y128.762
X0.253 Y128.699
X0.296 Y128.625
X0.377 Y128.474
X0.403 Y128.411
X0.436 Y128.324
X0.482 Y128.174
X0.517 Y128.023
X0.636 Y127.421
X0.662 Y127.271
X0.688 Y126.82
Y34.146
X0.685 Y33.996
X0.678 Y33.846
X0.658 Y33.695
X0.63 Y33.545
X0.57 Y33.244
X0.474 Y32.588
X0.399 Y31.93
X0.358 Y31.269
X0.334 Y30.607
X0.32 Y29.945
X0.312 Y29.282
X0.308 Y28.62
X0.305 Y27.958
X0.303 Y26.633
X0.302 Y21.996
Y2.786
X0.218 Y2.465
X0.038 Y2.188
X-0.433 Y1.722
X-1.025 Y1.424
X-1.661 Y1.24
X-2.314 Y1.129
X-2.973 Y1.063
X-3.635 Y1.024
X-4.297 Y1.001
X-4.959 Y0.987
X-5.621 Y0.979
X-6.284 Y0.975
X-6.946 Y0.972
X-8.271 Y0.97
X-8.744 Y0.969
X-8.888 Y0.955
X-9.027 Y0.913
X-9.154 Y0.844
X-9.226 Y0.797
X-9.301 Y0.748
X-9.376 Y0.701
X-9.581 Y0.598
X-9.677 Y0.564
X-9.828 Y0.517
X-10.279 Y0.423
X-10.58 Y0.363
X-10.73 Y0.335
X-10.881 Y0.327
X-11.182 Y0.314
X-11.332 Y0.312
X-16.598 Y0.313
X-16.748 Y0.316
X-16.899 Y0.331
X-17.049 Y0.349
X-17.651 Y0.469
X-17.801 Y0.501
X-17.952 Y0.54
X-18.102 Y0.591
X-18.244 Y0.639
X-18.778 Y0.757
X-19.434 Y0.848
X-20.094 Y0.9
X-20.756 Y0.929
X-21.418 Y0.946
X-22.081 Y0.956
X-22.743 Y0.961
X-23.406 Y0.964
X-24.73 Y0.967
X-28.705 Y0.968
X-38.972
X-39.294 Y1.048
X-39.585 Y1.205
X-40.092 Y1.632
X-40.439 Y2.196
X-40.664 Y2.819
X-40.807 Y3.466
X-40.895 Y4.123
X-40.949 Y4.783
X-40.982 Y5.445
X-41.002 Y6.107
X-41.014 Y6.769
X-41.021 Y7.431
X-41.025 Y8.094
X-41.028 Y8.756
X-41.03 Y10.081
X-41.032 Y14.056
Y29.291
Y79.635
Y112.129
X-41.034 Y112.191
X-41.042 Y112.252
X-41.055 Y112.313
X-42.325 Y117.261
X-42.449 Y117.744 Z8.2 F600
X-42.51 Y117.985
X-42.616 Y118.395 F1000
X-42.649 Y118.545
X-42.673 Y118.696
X-42.686 Y118.846
X-42.687 Y119.297
Y126.82
X-42.679 Y126.97
Y126.984
X-42.664 Y127.232 F600
X-42.662 Y127.271 Z8.184
X-42.636 Y127.421 Z8.123
X-42.577 Y127.722 Z8
X-42.485 Y128.174 F1000
X-42.475 Y128.209
X-42.436 Y128.324
X-42.377 Y128.474
X-42.296 Y128.625
X-42.202 Y128.775
X-41.9 Y129.227
X-41.799 Y129.377
X-41.723 Y129.47
X-41.587 Y129.627
X-41.11 Y129.979
X-40.884 Y130.129
X-40.655 Y130.28
X-40.519 Y130.352
X-40.369 Y130.42
X-40.219 Y130.472
X-40.068 Y130.506
X-39.918 Y130.538
X-39.617 Y130.597
X-39.316 Y130.655
X-39.165 Y130.672
X-38.864 Y130.684
X-38.714 Y130.687
X-3.208
X-2.756 Y130.666
X-2.606 Y130.641
X-2.155 Y130.552
X-2.004 Y130.521
X-1.854 Y130.488
X-1.703 Y130.445
X-1.553 Y130.39
X-1.343 Y130.28
X-0.89 Y129.979
X-0.65 Y129.818
X-0.477 Y129.678
X-0.349 Y129.554
X-0.327 Y129.528
X-0.199 Y129.373
X0.001 Y129.076
X0.211 Y128.762
G3 X0.468 Y128.629 I0.258 J0.185 F600
G1 X0.469
X0.524 Y128.634
X0.578 Y128.649
X0.628 Y128.672
X0.667 Y128.71 Z8.005
X0.705 Y128.747 Z8.019
X0.74 Y128.782 Z8.042
X0.755 Y128.829 Z8.078
X0.767 Y128.868 Z8.122
X0.776 Y128.9 Z8.173
X0.783 Y128.921 Z8.229
X0.786 Y128.931 Z8.289
Y128.933 Z8.318
G0 Z20
X1.147 Y34.176
Z8.635
G1 Z8.318 F600
X1.141 Y34.17 Z8.247
X1.126 Y34.152 Z8.18
X1.1 Y34.124 Z8.12
X1.067 Y34.087 Z8.069
X1.026 Y34.042 Z8.031
X0.981 Y33.992 Z8.008
X0.934 Y33.94 Z8
G3 X0.57 Y33.244 I1.176 J-1.059
G1 X0.51 Y32.943 F1000
X0.472 Y32.792
X0.423 Y32.642
X0.361 Y32.492
X0.253 Y32.304
X0.18 Y32.191
X-0.123 Y31.739
X-0.274 Y31.493
X-0.382 Y31.279
X-0.495 Y31.005
X-0.613 Y30.636
X-0.735 Y30.114
X-0.833 Y29.459
X-0.89 Y28.799
X-0.923 Y28.138
X-0.942 Y27.476
X-0.953 Y26.813
X-0.959 Y26.151
X-0.963 Y25.489
X-0.967 Y24.164
X-0.968 Y21.514
Y4.291
X-1.059 Y3.973
X-1.222 Y3.684
