(adap1_0.5_3)
(T6 D=3.175 CR=0 - ZMIN=0 - flat end mill)
G90 G94
G17
G21
G28 G91 Z0
G90

(Adaptive1 10)
T6
(18 Flat-45 degree helix)
S18000 M3
G17 G90 G94
G54
G0 X3.628 Y-0.311
Z30
G0 Z20
Z7.635
G1 Z7.318 F600
X3.62 Y-0.31 Z7.247
X3.598 Y-0.304 Z7.18
X3.561 Y-0.294 Z7.12
X3.512 Y-0.282 Z7.069
X3.454 Y-0.267 Z7.031
X3.389 Y-0.25 Z7.008
X3.321 Y-0.233 Z7
G3 X1.592 Y0.016 I-2.011 J-7.852
G1 X1.49 F1000
X1.008 Y-0.438
X0.416 Y-0.735
X-0.224 Y-0.906
X-0.881 Y-0.995
X-1.542 Y-1.038
X-2.204 Y-1.057
X-2.866 Y-1.065
X-3.528 Y-1.069
X-4.853 Y-1.071
X-40.955 Y-1.072
X-41.284 Y-1.035
X-41.594 Y-0.918
X-41.873 Y-0.74
X-42.36 Y-0.291
X-42.686 Y0.286
X-42.88 Y0.919
X-42.982 Y1.574
X-43.032 Y2.234
X-43.054 Y2.896
X-43.064 Y3.559
X-43.068 Y4.221
X-43.07 Y4.884
X-43.071 Y5.546
X-43.072 Y27.406
Y55.89
Y106.233
Y130.08
X-43.002 Y130.404
X-42.861 Y130.704
X-42.466 Y131.235
X-41.918 Y131.607
X-41.296 Y131.835
X-40.645 Y131.96
X-39.985 Y132.021
X-39.324 Y132.049
X-38.661 Y132.062
X-37.999 Y132.068
X-37.337 Y132.07
X-35.349 Y132.071
X-17.464 Y132.072
X-0.904
X-0.581 Y131.998
X-0.283 Y131.854
X0.246 Y131.454
X0.614 Y130.904
X0.839 Y130.281
X0.961 Y129.63
X1.022 Y128.97
X1.05 Y128.308
X1.062 Y127.646
X1.068 Y126.983
X1.07 Y126.321
X1.071 Y124.334
X1.072 Y99.162
Y48.818
Y1.787
X1.034 Y1.458
X0.93 Y1.143
X0.613 Y0.561
X0.121 Y0.118
X-0.469 Y-0.183
X-1.105 Y-0.367
X-1.76 Y-0.47
X-2.42 Y-0.523
X-3.082 Y-0.549
X-3.744 Y-0.561
X-4.407 Y-0.567
X-5.069 Y-0.569
X-6.394 Y-0.571
X-40.177 Y-0.572
X-40.827 Y-0.446
X-41.398 Y-0.108
X-41.84 Y0.385
X-42.148 Y0.971
X-42.343 Y1.604
X-42.455 Y2.257
X-42.514 Y2.917
X-42.544 Y3.579
X-42.559 Y4.241
X-42.566 Y4.903
X-42.569 Y5.566
X-42.571 Y6.89
X-42.572 Y9.54
Y59.884
Y110.228
Y118.064
X-42.576 Y118.169
X-42.589 Y118.273
X-42.611 Y118.376
X-42.626 Y118.44
X-42.649 Y118.545
X-42.673 Y118.696
X-42.686 Y118.846
X-42.687 Y119.749
Y126.82
X-42.662 Y127.271
X-42.654 Y127.316
X-42.636 Y127.465
X-42.598 Y128.127
X-42.583 Y128.789
X-42.566 Y129.451
X-42.352 Y130.078
X-41.943 Y130.599
X-41.405 Y130.986
X-40.795 Y131.243
X-40.151 Y131.398
X-39.494 Y131.484
X-38.833 Y131.529
X-38.171 Y131.552
X-37.509 Y131.562
X-36.846 Y131.567
X-36.184 Y131.57
X-34.197 Y131.571
X-1.738 Y131.572
X-1.093 Y131.421
X-0.535 Y131.064
X-0.11 Y130.557
X0.181 Y129.961
X0.362 Y129.324
X0.465 Y128.67
X0.514 Y128.082
X0.518 Y128.035
X0.525 Y127.988
X0.533 Y127.941
X0.636 Y127.421
X0.662 Y127.271
X0.688 Y126.82
Y34.146
X0.685 Y33.996
X0.678 Y33.846
X0.672 Y33.8
X0.617 Y33.14
X0.591 Y32.478
X0.58 Y31.816
X0.575 Y31.153
X0.573 Y30.491
X0.572 Y27.841
Y2.669
X0.51 Y2.01
X0.256 Y1.398
X-0.174 Y0.894
X-0.721 Y0.52
X-1.334 Y0.269
X-1.977 Y0.113
X-2.634 Y0.024
X-3.295 Y-0.024
X-3.956 Y-0.048
X-4.619 Y-0.06
X-5.281 Y-0.066
X-5.944 Y-0.069
X-7.268 Y-0.071
X-17.205 Y-0.072
X-39.064
X-39.727 Y-0.053
X-40.363 Y0.131
X-40.91 Y0.504
X-41.334 Y1.013
X-41.634 Y1.604
X-41.827 Y2.238
X-41.941 Y2.89
X-42.004 Y3.55
X-42.038 Y4.211
X-42.055 Y4.874
X-42.063 Y5.536
X-42.068 Y6.198
X-42.07 Y6.861
X-42.071 Y8.848
X-42.072 Y26.733
Y77.077
Y116.116
X-42.076 Y116.221
X-42.089 Y116.325
X-42.111 Y116.428
X-42.611 Y118.376
G3 X-42.767 Y118.576 I-0.308 J-0.079 F600
G1 X-42.814 Y118.607
X-42.854 Y118.645
X-42.887 Y118.69
X-42.917 Y118.753 Z7.008
X-42.926 Y118.803 Z7.024
X-42.934 Y118.85 Z7.048
X-42.935 Y118.9 Z7.087
X-42.936 Y118.942 Z7.136
Y118.973 Z7.192
X-42.937 Y118.992 Z7.254
Y118.999 Z7.318
G0 Z20
X1.187 Y34.767
Z7.635
G1 Z7.318 F600
X1.182 Y34.761 Z7.247
X1.168 Y34.742 Z7.18
X1.144 Y34.713 Z7.12
X1.113 Y34.673 Z7.069
X1.076 Y34.626 Z7.031
X1.034 Y34.573 Z7.008
X0.991 Y34.518 Z7
G3 X0.672 Y33.8 I1.242 J-0.981
G1 X0.658 Y33.695 F1000
X0.63 Y33.545
X0.51 Y32.943
X0.472 Y32.792
X0.423 Y32.642
X0.412 Y32.614
X0.363 Y32.473
X0.32 Y32.329
X0.281 Y32.169
X0.24 Y31.964
X0.197 Y31.689
X0.152 Y31.293
X0.105 Y30.634
X0.086 Y29.972
X0.078 Y29.31
X0.074 Y28.647
X0.072 Y27.322
Y3.475
X0.045 Y2.813
X-0.149 Y2.18
X-0.521 Y1.632
X-1.027 Y1.204
X-1.615 Y0.899
X-2.246 Y0.699
X-2.897 Y0.577
X-3.556 Y0.507
X-4.217 Y0.469
X-4.879 Y0.449
X-5.542 Y0.438
X-6.204 Y0.433
X-6.867 Y0.431
X-8.191 Y0.429
X-10.128 Y0.428
X-10.21 Y0.426
X-10.291 Y0.418
X-10.372 Y0.404
X-10.58 Y0.363
X-10.73 Y0.335
X-10.881 Y0.327
X-11.182 Y0.314
X-11.332 Y0.312
X-16.598 Y0.313
X-16.748 Y0.316
X-16.899 Y0.331
X-17.56 Y0.376
X-18.221 Y0.407
X-18.884 Y0.419
X-19.546 Y0.425
X-20.208 Y0.427
X-22.196 Y0.428
X-38.094
X-38.756 Y0.432
X-39.414 Y0.511
X-40.021 Y0.776
X-40.527 Y1.204
X-40.91 Y1.744
X-41.177 Y2.35
X-41.348 Y2.99
X-41.45 Y3.645
X-41.508 Y4.305
X-41.539 Y4.966
X-41.555 Y5.629
X-41.563 Y6.291
X-41.567 Y6.953
X-41.57 Y7.616
X-41.571 Y9.603
X-41.572 Y27.488
Y77.832
Y114.168
X-41.576 Y114.273
X-41.589 Y114.377
X-41.611 Y114.48
X-42.111 Y116.428
G3 X-42.475 Y116.65 I-0.305 J-0.09 F600
G1 X-42.524 Y116.627 Z7.005
X-42.572 Y116.605 Z7.019
X-42.617 Y116.584 Z7.042
X-42.646 Y116.544 Z7.078
X-42.671 Y116.511 Z7.122
X-42.69 Y116.484 Z7.173
X-42.703 Y116.467 Z7.229
X-42.71 Y116.458 Z7.289
Y116.457 Z7.318
G0 Z20
X-16.214 Y0.05
Z7.518
G1 Z7.2 F600
X-16.318 Y0.119
X-16.426 Y0.179
G3 X-16.899 Y0.331 Z7 I-0.714 J-1.412
G1 X-17.049 Y0.349 F1000
X-17.651 Y0.469
X-17.801 Y0.501
X-17.952 Y0.54
X-18.102 Y0.591
X-18.118 Y0.598
X-18.257 Y0.655
X-18.402 Y0.694
X-18.58 Y0.735
X-18.809 Y0.776
X-19.127 Y0.821
X-19.602 Y0.866
X-20.264 Y0.902
X-20.926 Y0.917
X-21.588 Y0.924
X-22.251 Y0.926
X-23.576 Y0.928
X-37.486
X-38.149 Y0.93
X-38.807 Y1.004
X-39.42 Y1.256
X-39.939 Y1.667
X-40.34 Y2.194
X-40.624 Y2.793
X-40.81 Y3.429
X-40.925 Y4.081
X-40.992 Y4.74
X-41.029 Y5.401
X-41.05 Y6.063
X-41.06 Y6.726
X-41.066 Y7.388
X-41.069 Y8.051
X-41.071 Y9.375
X-41.072 Y18.649
Y29.91
Y80.254
Y112.22
X-41.076 Y112.325
X-41.089 Y112.429
X-41.111 Y112.532
X-41.611 Y114.48
G3 X-41.975 Y114.702 I-0.305 J-0.09 F600
G1 X-42.024 Y114.679 Z7.005
X-42.072 Y114.657 Z7.019
X-42.117 Y114.636 Z7.042
X-42.146 Y114.596 Z7.078
X-42.171 Y114.562 Z7.122
X-42.19 Y114.536 Z7.173
X-42.203 Y114.518 Z7.229
X-42.21 Y114.51 Z7.289
Y114.508 Z7.318
G0 Z20
X-17.562 Y0.11
Z7.518
G1 Z7.2 F600
X-17.638 Y0.208
X-17.721 Y0.301
G3 X-18.118 Y0.598 Z7 I-1.134 J-1.104
G1 X-18.253 Y0.662 F1000
X-18.403 Y0.752
X-18.593 Y0.877
X-18.722 Y0.954
X-18.858 Y1.018
X-18.997 Y1.073
X-19.14 Y1.119
X-19.314 Y1.167
X-19.504 Y1.211
X-19.755 Y1.259
X-20.088 Y1.307
X-20.57 Y1.356
X-21.232 Y1.396
X-21.894 Y1.414
X-22.556 Y1.422
X-23.219 Y1.425
X-24.543 Y1.428
X-37.129 Y1.429
X-37.792 Y1.443
X-38.442 Y1.567
X-39.035 Y1.863
X-39.526 Y2.308
X-39.898 Y2.856
X-40.16 Y3.464
X-40.331 Y4.104
X-40.436 Y4.758
X-40.497 Y5.418
X-40.531 Y6.079
X-40.55 Y6.742
X-40.56 Y7.404
X-40.566 Y8.066
X-40.569 Y8.729
X-40.571 Y10.054
X-40.572 Y18.003
Y31.251
Y81.595
Y110.272
X-40.576 Y110.377
X-40.589 Y110.481
X-40.611 Y110.583
X-41.111 Y112.532
G3 X-41.475 Y112.754 I-0.305 J-0.09 F600
G1 X-41.524 Y112.731 Z7.005
X-41.572 Y112.708 Z7.019
X-41.617 Y112.687 Z7.042
X-41.646 Y112.648 Z7.078
X-41.671 Y112.614 Z7.122
X-41.69 Y112.588 Z7.173
X-41.703 Y112.57 Z7.229
X-41.71 Y112.561 Z7.289
Y112.56 Z7.318
G0 Z20
X-17.953 Y-0.013
Z7.635
G1 Z7.318 F600
X-17.957 Y-0.005 Z7.247
X-17.967 Y0.016 Z7.18
X-17.983 Y0.05 Z7.12
X-18.005 Y0.095 Z7.069
X-18.031 Y0.15 Z7.031
X-18.059 Y0.21 Z7.008
X-18.09 Y0.274 Z7
G3 X-18.593 Y0.877 I-1.428 J-0.682
G1 X-19.005 Y1.152 F1000
X-19.074 Y1.199
X-19.155 Y1.26
X-19.276 Y1.349
X-19.407 Y1.422
X-19.543 Y1.485
X-19.683 Y1.539
X-19.825 Y1.587
X-19.996 Y1.636
X-20.222 Y1.691
X-20.468 Y1.739
X-20.81 Y1.792
X-21.266 Y1.842
X-21.927 Y1.888
X-22.589 Y1.909
X-23.252 Y1.919
X-23.914 Y1.924
X-24.576 Y1.926
X-26.564 Y1.928
X-36.5
X-37.162 Y1.937
X-37.817 Y2.04
X-38.42 Y2.313
X-38.929 Y2.736
X-39.324 Y3.269
X-39.605 Y3.868
X-39.793 Y4.503
X-39.911 Y5.155
X-39.982 Y5.814
X-40.022 Y6.475
X-40.045 Y7.137
X-40.057 Y7.799
X-40.064 Y8.462
X-40.068 Y9.124
X-40.071 Y10.449
X-40.072 Y15.086
Y32.971
Y83.315
Y108.324
X-40.076 Y108.428
X-40.089 Y108.533
X-40.111 Y108.635
X-40.611 Y110.583
G3 X-40.975 Y110.806 I-0.305 J-0.09 F600
G1 X-41.024 Y110.783 Z7.005
X-41.072 Y110.76 Z7.019
X-41.117 Y110.739 Z7.042
X-41.146 Y110.7 Z7.078
X-41.171 Y110.666 Z7.122
X-41.19 Y110.64 Z7.173
X-41.203 Y110.622 Z7.229
X-41.21 Y110.613 Z7.289
Y110.612 Z7.318
G0 Z20
X-18.646 Y0.29
Z7.635
G1 Z7.318 F600
X-18.648 Y0.297 Z7.247
X-18.655 Y0.32 Z7.18
X-18.667 Y0.356 Z7.12
X-18.682 Y0.404 Z7.069
X-18.7 Y0.461 Z7.031
X-18.72 Y0.525 Z7.008
X-18.741 Y0.592 Z7
G3 X-19.155 Y1.26 I-1.51 J-0.475
G1 X-19.256 Y1.35 F1000
X-19.306 Y1.396
X-19.401 Y1.5
X-19.432 Y1.537
X-19.533 Y1.648
X-19.651 Y1.74
X-19.778 Y1.819
X-19.911 Y1.889
X-20.048 Y1.95
X-20.188 Y2.004
X-20.355 Y2.06
X-20.532 Y2.111
X-20.767 Y2.169
X-21.048 Y2.225
X-21.397 Y2.28
X-21.872 Y2.335
X-22.533 Y2.382
X-23.195 Y2.405
X-23.857 Y2.417
X-24.519 Y2.423
X-25.182 Y2.426
X-26.507 Y2.428
X-35.78
X-36.443 Y2.432
X-37.102 Y2.499
X-37.726 Y2.722
X-38.267 Y3.104
X-38.698 Y3.607
X-39.014 Y4.189
X-39.232 Y4.814
X-39.372 Y5.462
X-39.458 Y6.119
X-39.508 Y6.779
X-39.537 Y7.441
X-39.553 Y8.103
X-39.561 Y8.766
X-39.566 Y9.428
X-39.569 Y10.09
X-39.571 Y11.415
X-39.572 Y19.364
Y33.937
Y84.281
Y106.375
X-39.576 Y106.48
X-39.589 Y106.585
X-39.611 Y106.687
X-40.111 Y108.635
G3 X-40.475 Y108.858 I-0.305 J-0.09 F600
G1 X-40.524 Y108.835 Z7.005
X-40.572 Y108.812 Z7.019
X-40.617 Y108.791 Z7.042
X-40.646 Y108.752 Z7.078
X-40.671 Y108.718 Z7.122
X-40.69 Y108.692 Z7.173
X-40.703 Y108.674 Z7.229
X-40.71 Y108.665 Z7.289
Y108.664 Z7.318
G0 Z20
X-19.073 Y0.501
Z7.635
G1 Z7.318 F600
X-19.075 Y0.509 Z7.247
X-19.078 Y0.532 Z7.18
X-19.084 Y0.57 Z7.12
X-19.092 Y0.619 Z7.069
X-19.101 Y0.679 Z7.031
X-19.111 Y0.745 Z7.008
X-19.122 Y0.815 Z7
G3 X-19.432 Y1.537 I-1.564 J-0.243
G1 X-19.456 Y1.567 F1000
X-19.518 Y1.651
X-19.65 Y1.847
X-19.739 Y1.967
X-19.847 Y2.071
X-19.966 Y2.163
X-20.092 Y2.244
X-20.224 Y2.316
X-20.359 Y2.38
X-20.503 Y2.439
X-20.654 Y2.494
X-20.852 Y2.557
X-21.061 Y2.614
X-21.332 Y2.676
X-21.661 Y2.737
X-22.084 Y2.796
X-22.656 Y2.852
X-23.318 Y2.889
X-23.98 Y2.908
X-24.642 Y2.918
X-25.305 Y2.923
X-25.967 Y2.926
X-27.292 Y2.928
X-35.241
X-35.903 Y2.932
X-36.562 Y2.998
X-37.187 Y3.217
X-37.733 Y3.593
X-38.17 Y4.091
X-38.493 Y4.67
X-38.715 Y5.293
X-38.86 Y5.94
X-38.949 Y6.596
X-39.003 Y7.256
X-39.033 Y7.918
X-39.051 Y8.58
X-39.06 Y9.243
X-39.065 Y9.905
X-39.068 Y10.567
X-39.071 Y11.892
X-39.072 Y17.854
Y35.077
Y85.421
Y104.427
X-39.076 Y104.532
X-39.089 Y104.636
X-39.111 Y104.739
X-39.611 Y106.687
G3 X-39.975 Y106.909 I-0.305 J-0.09 F600
G1 X-40.024 Y106.886 Z7.005
X-40.072 Y106.864 Z7.019
X-40.117 Y106.843 Z7.042
X-40.146 Y106.803 Z7.078
X-40.171 Y106.77 Z7.122
X-40.19 Y106.744 Z7.173
X-40.203 Y106.726 Z7.229
X-40.21 Y106.717 Z7.289
Y106.716 Z7.318
G0 Z20
X-19.398 Y0.78
Z7.635
G1 Z7.318 F600
X-19.399 Y0.788 Z7.247
X-19.4 Y0.811 Z7.18
X-19.402 Y0.849 Z7.12
X-19.405 Y0.899 Z7.069
X-19.408 Y0.959 Z7.031
X-19.411 Y1.027 Z7.008
X-19.415 Y1.097 Z7
G3 X-19.65 Y1.847 I-1.58 J-0.083
G1 X-19.908 Y2.233 F1000
X-19.997 Y2.354
X-20.099 Y2.464
X-20.213 Y2.56
X-20.336 Y2.647
X-20.465 Y2.724
X-20.597 Y2.794
X-20.734 Y2.857
X-20.876 Y2.915
X-21.056 Y2.98
X-21.252 Y3.041
X-21.497 Y3.107
X-21.781 Y3.171
X-22.134 Y3.234
X-22.573 Y3.295
X-23.204 Y3.354
X-23.865 Y3.389
X-24.527 Y3.408
X-25.19 Y3.417
X-25.852 Y3.423
X-26.515 Y3.425
X-27.839 Y3.428
X-34.464
X-35.126 Y3.43
X-35.788 Y3.458
X-36.432 Y3.611
X-37.014 Y3.928
X-37.495 Y4.383
X-37.864 Y4.934
X-38.127 Y5.542
X-38.302 Y6.18
X-38.414 Y6.833
X-38.481 Y7.492
X-38.521 Y8.154
X-38.543 Y8.816
X-38.556 Y9.478
X-38.563 Y10.14
X-38.567 Y10.803
X-38.57 Y12.127
X-38.572 Y15.44
Y36.637
Y86.981
Y102.479
X-38.576 Y102.584
X-38.589 Y102.688
X-38.611 Y102.791
X-39.111 Y104.739
G3 X-39.475 Y104.961 I-0.305 J-0.09 F600
G1 X-39.524 Y104.938 Z7.005
X-39.572 Y104.916 Z7.019
X-39.617 Y104.895 Z7.042
X-39.646 Y104.855 Z7.078
X-39.671 Y104.822 Z7.122
X-39.69 Y104.796 Z7.173
X-39.703 Y104.778 Z7.229
X-39.71 Y104.769 Z7.289
Y104.768 Z7.318
G0 Z20
X-19.659 Y1.166
Z7.635
G1 Z7.318 F600
Y1.174 Z7.247
X-19.661 Y1.197 Z7.18
X-19.662 Y1.235 Z7.12
X-19.665 Y1.285 Z7.069
X-19.668 Y1.345 Z7.031
X-19.671 Y1.412 Z7.008
X-19.675 Y1.483 Z7
G3 X-19.908 Y2.233 I-1.581 J-0.079
G1 X-19.921 Y2.252 F1000
X-20.012 Y2.403
X-20.058 Y2.484
X-20.088 Y2.553
X-20.148 Y2.691
X-20.241 Y2.808
X-20.348 Y2.914
X-20.465 Y3.008
X-20.588 Y3.094
X-20.716 Y3.171
X-20.849 Y3.242
X-20.984 Y3.306
X-21.148 Y3.374
X-21.32 Y3.438
X-21.54 Y3.51
X-21.769 Y3.574
X-22.079 Y3.646
X-22.415 Y3.71
X-22.867 Y3.777
X-23.46 Y3.839
X-24.122 Y3.88
X-24.784 Y3.902
X-25.446 Y3.914
X-26.108 Y3.921
X-26.771 Y3.924
X-28.095 Y3.927
X-32.07 Y3.928
X-34.057
X-34.72 Y3.932
X-35.381 Y3.975
X-36.018 Y4.157
X-36.587 Y4.496
X-37.053 Y4.966
X-37.407 Y5.526
X-37.655 Y6.14
X-37.82 Y6.782
X-37.924 Y7.436
X-37.987 Y8.096
X-38.023 Y8.757
X-38.045 Y9.419
X-38.057 Y10.081
X-38.063 Y10.744
X-38.067 Y11.406
X-38.07 Y12.731
X-38.072 Y16.043
Y37.241
Y87.584
Y100.531
X-38.076 Y100.636
X-38.089 Y100.74
X-38.111 Y100.843
X-38.611 Y102.791
G3 X-38.975 Y103.013 I-0.305 J-0.09 F600
G1 X-39.024 Y102.99 Z7.005
X-39.072 Y102.968 Z7.019
X-39.117 Y102.947 Z7.042
X-39.146 Y102.907 Z7.078
X-39.171 Y102.874 Z7.122
X-39.19 Y102.848 Z7.173
X-39.203 Y102.83 Z7.229
X-39.21 Y102.821 Z7.289
Y102.82 Z7.318
G0 Z20
X-20.109 Y1.458
Z7.635
G1 Z7.318 F600
X-20.107 Y1.465 Z7.247
X-20.103 Y1.489 Z7.18
X-20.095 Y1.526 Z7.12
X-20.086 Y1.575 Z7.069
X-20.074 Y1.634 Z7.031
X-20.061 Y1.7 Z7.008
X-20.047 Y1.769 Z7
G3 X-20.088 Y2.553 I-1.552 J0.311
G1 X-20.141 Y2.704 F1000
X-20.172 Y2.824
X-20.215 Y2.967
X-20.292 Y3.096
X-20.387 Y3.213
X-20.493 Y3.318
X-20.608 Y3.415
X-20.73 Y3.503
X-20.856 Y3.583
X-20.987 Y3.657
X-21.13 Y3.729
X-21.279 Y3.797
X-21.463 Y3.871
X-21.658 Y3.94
X-21.903 Y4.015
X-22.172 Y4.085
X-22.513 Y4.16
X-22.909 Y4.229
X-23.41 Y4.294
X-24.07 Y4.353
X-24.731 Y4.386
X-25.393 Y4.405
X-26.056 Y4.415
X-26.718 Y4.421
X-27.381 Y4.424
X-28.705 Y4.427
X-33.342 Y4.428
X-34.005 Y4.43
X-34.667 Y4.451
X-35.316 Y4.582
X-35.91 Y4.875
X-36.41 Y5.31
X-36.799 Y5.846
X-37.079 Y6.447
X-37.27 Y7.081
X-37.392 Y7.732
X-37.467 Y8.39
X-37.512 Y9.051
X-37.538 Y9.713
X-37.553 Y10.375
X-37.561 Y11.038
X-37.566 Y11.7
X-37.568 Y12.362
X-37.571 Y13.687
X-37.572 Y19.649
Y38.197
Y88.54
Y98.583
X-37.576 Y98.688
X-37.589 Y98.792
X-37.611 Y98.895
X-38.111 Y100.843
G3 X-38.475 Y101.065 I-0.305 J-0.09 F600
G1 X-38.524 Y101.042 Z7.005
X-38.572 Y101.02 Z7.019
X-38.617 Y100.999 Z7.042
X-38.646 Y100.959 Z7.078
X-38.671 Y100.926 Z7.122
X-38.69 Y100.899 Z7.173
X-38.703 Y100.882 Z7.229
X-38.71 Y100.873 Z7.289
Y100.872 Z7.318
G0 Z20
X-20.293 Y1.735
Z7.635
G1 Z7.318 F600
X-20.291 Y1.742 Z7.247
X-20.284 Y1.765 Z7.18
X-20.274 Y1.801 Z7.12
X-20.259 Y1.849 Z7.069
X-20.242 Y1.907 Z7.031
X-20.223 Y1.971 Z7.008
X-20.203 Y2.039 Z7
G3 X-20.172 Y2.824 I-1.516 J0.453
G1 X-20.217 Y3.005 F1000
X-20.252 Y3.155
X-20.289 Y3.301
X-20.358 Y3.434
X-20.445 Y3.556
X-20.545 Y3.667
X-20.655 Y3.77
X-20.771 Y3.864
X-20.894 Y3.951
X-21.021 Y4.031
X-21.151 Y4.105
X-21.296 Y4.179
X-21.462 Y4.255
X-21.646 Y4.33
X-21.87 Y4.411
X-22.103 Y4.484
X-22.404 Y4.565
X-22.726 Y4.637
X-23.148 Y4.712
X-23.665 Y4.783
X-24.324 Y4.845
X-24.986 Y4.88
X-25.648 Y4.901
X-26.31 Y4.913
X-26.973 Y4.92
X-27.635 Y4.923
X-28.96 Y4.927
X-32.272 Y4.928
X-32.934
X-33.597 Y4.931
X-34.258 Y4.965
X-34.902 Y5.122
X-35.485 Y5.436
X-35.971 Y5.887
X-36.344 Y6.434
X-36.611 Y7.04
X-36.79 Y7.678
X-36.904 Y8.33
X-36.974 Y8.989
X-37.016 Y9.65
X-37.04 Y10.312
X-37.054 Y10.974
X-37.062 Y11.637
X-37.066 Y12.299
X-37.069 Y12.962
X-37.071 Y14.286
X-37.072 Y20.911
Y39.458
Y89.802
Y96.635
X-37.076 Y96.74
X-37.089 Y96.844
X-37.111 Y96.947
X-37.611 Y98.895
G3 X-37.975 Y99.117 I-0.305 J-0.09 F600
G1 X-38.024 Y99.094 Z7.005
X-38.072 Y99.072 Z7.019
X-38.117 Y99.051 Z7.042
X-38.146 Y99.011 Z7.078
X-38.171 Y98.978 Z7.122
X-38.19 Y98.951 Z7.173
X-38.203 Y98.934 Z7.229
X-38.21 Y98.925 Z7.289
Y98.923 Z7.318
G0 Z20
X-20.428 Y2.073
Z7.635
G1 Z7.318 F600
X-20.426 Y2.081 Z7.247
X-20.418 Y2.103 Z7.18
X-20.405 Y2.139 Z7.12
X-20.388 Y2.186 Z7.069
X-20.368 Y2.243 Z7.031
X-20.346 Y2.306 Z7.008
X-20.322 Y2.373 Z7
G3 X-20.252 Y3.155 I-1.492 J0.528
G1 X-20.321 Y3.501 F1000
X-20.357 Y3.647
X-20.418 Y3.784
X-20.499 Y3.91
X-20.594 Y4.027
X-20.698 Y4.135
X-20.81 Y4.234
X-20.928 Y4.327
X-21.052 Y4.412
X-21.179 Y4.491
X-21.31 Y4.565
X-21.47 Y4.646
X-21.641 Y4.725
X-21.837 Y4.804
X-22.07 Y4.888
X-22.32 Y4.966
X-22.64 Y5.052
X-22.98 Y5.128
X-23.419 Y5.206
X-23.954 Y5.279
X-24.614 Y5.34
X-25.275 Y5.377
X-25.938 Y5.398
X-26.6 Y5.411
X-27.262 Y5.418
X-27.925 Y5.423
X-28.587 Y5.425
X-29.912 Y5.427
X-32.562 Y5.429
X-33.224 Y5.435
X-33.884 Y5.485
X-34.519 Y5.674
X-35.086 Y6.017
X-35.55 Y6.489
X-35.902 Y7.051
X-36.15 Y7.665
X-36.315 Y8.307
X-36.419 Y8.961
X-36.483 Y9.62
X-36.521 Y10.281
X-36.543 Y10.943
X-36.555 Y11.606
X-36.562 Y12.268
X-36.566 Y12.931
X-36.569 Y13.593
X-36.571 Y15.58
X-36.572 Y40.752
Y91.096
Y94.687
X-36.576 Y94.792
X-36.589 Y94.896
X-36.611 Y94.999
X-37.111 Y96.947
G3 X-37.475 Y97.169 I-0.305 J-0.09 F600
G1 X-37.524 Y97.146 Z7.005
X-37.572 Y97.123 Z7.019
X-37.617 Y97.103 Z7.042
X-37.646 Y97.063 Z7.078
X-37.671 Y97.029 Z7.122
X-37.69 Y97.003 Z7.173
X-37.703 Y96.985 Z7.229
X-37.71 Y96.977 Z7.289
Y96.975 Z7.318
G0 Z20
X-20.5 Y2.42
Z7.635
G1 Z7.318 F600
X-20.497 Y2.428 Z7.247
X-20.489 Y2.45 Z7.18
X-20.477 Y2.486 Z7.12
X-20.46 Y2.533 Z7.069
X-20.439 Y2.59 Z7.031
X-20.417 Y2.653 Z7.008
X-20.393 Y2.719 Z7
G3 X-20.321 Y3.501 I-1.491 J0.532
G1 X-20.342 Y3.606 F1000
X-20.367 Y3.757
X-20.374 Y3.84
X-20.396 Y3.988
X-20.451 Y4.128
X-20.525 Y4.258
X-20.614 Y4.379
X-20.713 Y4.491
X-20.821 Y4.596
X-20.935 Y4.694
X-21.054 Y4.784
X-21.178 Y4.869
X-21.306 Y4.947
X-21.451 Y5.029
X-21.62 Y5.115
X-21.801 Y5.197
X-22.016 Y5.284
X-22.252 Y5.369
X-22.526 Y5.454
X-22.866 Y5.544
X-23.216 Y5.621
X-23.68 Y5.703
X-24.239 Y5.778
X-24.898 Y5.838
X-25.56 Y5.874
X-26.222 Y5.896
X-26.884 Y5.909
X-27.546 Y5.917
X-28.209 Y5.922
X-28.871 Y5.925
X-30.196 Y5.927
X-32.183 Y5.929
X-32.846 Y5.939
X-33.504 Y6.009
X-34.13 Y6.228
X-34.679 Y6.598
X-35.123 Y7.09
X-35.454 Y7.664
X-35.685 Y8.284
X-35.837 Y8.929
X-35.932 Y9.585
X-35.991 Y10.244
X-36.025 Y10.906
X-36.045 Y11.568
X-36.057 Y12.23
X-36.063 Y12.893
X-36.067 Y13.555
X-36.07 Y14.88
X-36.072 Y18.192
Y41.377
Y91.72
Y92.739
X-36.076 Y92.844
X-36.089 Y92.948
X-36.111 Y93.05
X-36.611 Y94.999
G3 X-36.975 Y95.221 I-0.305 J-0.09 F600
G1 X-37.024 Y95.198 Z7.005
X-37.072 Y95.175 Z7.019
X-37.117 Y95.154 Z7.042
X-37.146 Y95.115 Z7.078
X-37.171 Y95.081 Z7.122
X-37.19 Y95.055 Z7.173
X-37.203 Y95.037 Z7.229
X-37.21 Y95.028 Z7.289
Y95.027 Z7.318
G0 Z20
X-20.658 Y2.781
Z7.635
G1 Z7.318 F600
X-20.654 Y2.788 Z7.247
X-20.644 Y2.81 Z7.18
X-20.628 Y2.844 Z7.12
X-20.607 Y2.889 Z7.069
X-20.581 Y2.944 Z7.031
X-20.553 Y3.004 Z7.008
X-20.523 Y3.068 Z7
G3 X-20.374 Y3.84 I-1.432 J0.675
G1 X-20.381 Y3.907 F1000
X-20.387 Y4.058
Y4.135
X-20.395 Y4.285
X-20.438 Y4.429
X-20.502 Y4.564
X-20.582 Y4.691
X-20.674 Y4.81
X-20.774 Y4.921
X-20.882 Y5.025
X-20.997 Y5.122
X-21.116 Y5.213
X-21.239 Y5.299
X-21.375 Y5.384
X-21.53 Y5.473
X-21.694 Y5.558
X-21.893 Y5.65
X-22.108 Y5.74
X-22.347 Y5.827
X-22.643 Y5.922
X-22.953 Y6.007
X-23.335 Y6.095
X-23.809 Y6.183
X-24.332 Y6.257
X-24.991 Y6.323
X-25.652 Y6.364
X-26.314 Y6.389
X-26.976 Y6.405
X-27.638 Y6.414
X-28.301 Y6.42
X-28.963 Y6.424
X-30.288 Y6.427
X-31.613 Y6.428
X-32.275 Y6.435
X-32.935 Y6.498
X-33.565 Y6.7
X-34.123 Y7.057
X-34.578 Y7.539
X-34.92 Y8.106
X-35.161 Y8.723
X-35.321 Y9.366
X-35.422 Y10.021
X-35.484 Y10.68
X-35.521 Y11.342
X-35.543 Y12.004
X-35.555 Y12.666
X-35.562 Y13.328
X-35.566 Y13.991
X-35.57 Y15.316
X-35.571 Y17.965
X-35.572 Y42.475
Y90.791
X-35.576 Y90.895
X-35.589 Y91
X-35.611 Y91.102
X-36.111 Y93.05
G3 X-36.475 Y93.273 I-0.305 J-0.09 F600
G1 X-36.524 Y93.25 Z7.005
X-36.572 Y93.227 Z7.019
X-36.617 Y93.206 Z7.042
X-36.646 Y93.167 Z7.078
X-36.671 Y93.133 Z7.122
X-36.69 Y93.107 Z7.173
X-36.703 Y93.089 Z7.229
X-36.71 Y93.08 Z7.289
Y93.079 Z7.318
G0 Z20
X-20.771 Y3.109
Z7.635
G1 Z7.318 F600
X-20.767 Y3.115 Z7.247
X-20.755 Y3.136 Z7.18
X-20.735 Y3.168 Z7.12
X-20.71 Y3.211 Z7.069
X-20.679 Y3.263 Z7.031
X-20.645 Y3.321 Z7.008
X-20.609 Y3.381 Z7
G3 X-20.387 Y4.135 I-1.36 J0.809
G1 Y4.479 F1000
X-20.395 Y4.628
X-20.432 Y4.774
X-20.491 Y4.911
X-20.566 Y5.041
X-20.653 Y5.164
X-20.75 Y5.278
X-20.854 Y5.387
X-20.964 Y5.488
X-21.08 Y5.583
X-21.2 Y5.673
X-21.326 Y5.759
X-21.47 Y5.849
X-21.639 Y5.944
X-21.815 Y6.034
X-22.021 Y6.128
X-22.258 Y6.226
X-22.509 Y6.316
X-22.821 Y6.414
X-23.172 Y6.508
X-23.553 Y6.594
X-24.043 Y6.682
X-24.626 Y6.762
X-25.286 Y6.824
X-25.947 Y6.864
X-26.609 Y6.888
X-27.271 Y6.904
X-27.933 Y6.914
X-28.596 Y6.92
X-29.258 Y6.923
X-31.245 Y6.928
X-31.908 Y6.942
X-32.565 Y7.027
X-33.184 Y7.262
X-33.723 Y7.647
X-34.155 Y8.149
X-34.476 Y8.729
X-34.699 Y9.353
X-34.845 Y9.999
X-34.937 Y10.655
X-34.993 Y11.315
X-35.026 Y11.976
X-35.046 Y12.638
X-35.057 Y13.301
X-35.063 Y13.963
X-35.067 Y14.625
X-35.07 Y15.95
X-35.072 Y19.262
Y43.109
Y88.842
X-35.076 Y88.947
X-35.089 Y89.051
X-35.111 Y89.154
X-35.611 Y91.102
G3 X-35.975 Y91.325 I-0.305 J-0.09 F600
G1 X-36.024 Y91.301 Z7.005
X-36.072 Y91.279 Z7.019
X-36.117 Y91.258 Z7.042
X-36.146 Y91.219 Z7.078
X-36.171 Y91.185 Z7.122
X-36.19 Y91.159 Z7.173
X-36.203 Y91.141 Z7.229
X-36.21 Y91.132 Z7.289
Y91.131 Z7.318
G0 Z20
X-20.771 Y3.452
Z7.635
G1 Z7.318 F600
X-20.767 Y3.459 Z7.247
X-20.755 Y3.479 Z7.18
X-20.735 Y3.512 Z7.12
X-20.71 Y3.555 Z7.069
X-20.679 Y3.607 Z7.031
X-20.645 Y3.664 Z7.008
X-20.609 Y3.725 Z7
G3 X-20.387 Y4.479 I-1.36 J0.809
G1 Y4.855 F1000
X-20.395 Y5.005
X-20.43 Y5.151
X-20.488 Y5.29
X-20.56 Y5.421
X-20.644 Y5.545
X-20.738 Y5.662
X-20.84 Y5.772
X-20.948 Y5.876
X-21.061 Y5.975
X-21.179 Y6.067
X-21.312 Y6.162
X-21.45 Y6.253
X-21.61 Y6.348
X-21.796 Y6.449
X-21.99 Y6.543
X-22.221 Y6.644
X-22.485 Y6.746
X-22.758 Y6.839
X-23.096 Y6.938
X-23.499 Y7.038
X-23.918 Y7.124
X-24.457 Y7.211
X-25.115 Y7.288
X-25.776 Y7.339
X-26.437 Y7.372
X-27.099 Y7.393
X-27.762 Y7.407
X-28.424 Y7.415
X-29.086 Y7.42
X-29.749 Y7.424
X-30.411 Y7.426
X-31.074 Y7.431
X-31.735 Y7.465
X-32.379 Y7.623
X-32.962 Y7.936
X-33.448 Y8.386
X-33.824 Y8.932
X-34.094 Y9.537
X-34.277 Y10.173
X-34.395 Y10.825
X-34.468 Y11.483
X-34.512 Y12.144
X-34.537 Y12.806
X-34.552 Y13.469
X-34.56 Y14.131
X-34.565 Y14.793
X-34.568 Y15.456
X-34.57 Y16.781
X-34.572 Y21.418
Y43.94
Y86.894
X-34.576 Y86.999
X-34.589 Y87.103
X-34.611 Y87.206
X-35.111 Y89.154
G3 X-35.475 Y89.376 I-0.305 J-0.09 F600
G1 X-35.524 Y89.353 Z7.005
X-35.572 Y89.331 Z7.019
X-35.617 Y89.31 Z7.042
X-35.646 Y89.27 Z7.078
X-35.671 Y89.237 Z7.122
X-35.69 Y89.211 Z7.173
X-35.703 Y89.193 Z7.229
X-35.71 Y89.184 Z7.289
Y89.183 Z7.318
G0 Z20
X-20.771 Y3.829
Z7.635
G1 Z7.318 F600
X-20.767 Y3.836 Z7.247
X-20.755 Y3.856 Z7.18
X-20.735 Y3.889 Z7.12
X-20.71 Y3.932 Z7.069
X-20.679 Y3.983 Z7.031
X-20.645 Y4.041 Z7.008
X-20.609 Y4.102 Z7
G3 X-20.387 Y4.855 I-1.36 J0.809
G1 Y5.261 F1000
X-20.395 Y5.411
X-20.432 Y5.556
X-20.489 Y5.695
X-20.562 Y5.827
X-20.645 Y5.951
X-20.738 Y6.069
X-20.838 Y6.18
X-20.945 Y6.286
X-21.057 Y6.386
X-21.173 Y6.48
X-21.305 Y6.578
X-21.447 Y6.674
X-21.607 Y6.772
X-21.79 Y6.875
X-21.988 Y6.975
X-22.21 Y7.076
X-22.476 Y7.184
X-22.762 Y7.286
X-23.077 Y7.384
X-23.464 Y7.487
X-23.904 Y7.584
X-24.4 Y7.671
X-25.034 Y7.756
X-25.694 Y7.816
X-26.355 Y7.856
X-27.017 Y7.882
X-27.679 Y7.899
X-28.342 Y7.91
X-29.004 Y7.917
X-30.329 Y7.926
X-30.991 Y7.942
X-31.645 Y8.047
X-32.255 Y8.305
X-32.779 Y8.71
X-33.195 Y9.225
X-33.503 Y9.812
X-33.716 Y10.439
X-33.856 Y11.087
X-33.944 Y11.743
X-33.998 Y12.403
X-34.029 Y13.065
X-34.047 Y13.727
X-34.058 Y14.39
X-34.064 Y15.052
X-34.067 Y15.714
X-34.07 Y17.039
X-34.072 Y20.351
Y45.523
Y84.946
X-34.076 Y85.051
X-34.089 Y85.155
X-34.111 Y85.258
X-34.611 Y87.206
G3 X-34.975 Y87.428 I-0.305 J-0.09 F600
G1 X-35.024 Y87.405 Z7.005
X-35.072 Y87.383 Z7.019
X-35.117 Y87.362 Z7.042
X-35.146 Y87.322 Z7.078
X-35.171 Y87.289 Z7.122
X-35.19 Y87.263 Z7.173
X-35.203 Y87.245 Z7.229
X-35.21 Y87.236 Z7.289
Y87.235 Z7.318
G0 Z20
X-20.771 Y4.235
Z7.635
G1 Z7.318 F600
X-20.767 Y4.242 Z7.247
X-20.755 Y4.262 Z7.18
X-20.735 Y4.294 Z7.12
X-20.71 Y4.338 Z7.069
X-20.679 Y4.389 Z7.031
X-20.645 Y4.447 Z7.008
X-20.609 Y4.508 Z7
G3 X-20.387 Y5.261 I-1.36 J0.809
G1 Y5.645 F1000
X-20.395 Y5.795
X-20.427 Y5.941
X-20.481 Y6.081
X-20.549 Y6.215
X-20.63 Y6.341
X-20.72 Y6.461
X-20.818 Y6.575
X-20.922 Y6.683
X-21.032 Y6.785
X-21.146 Y6.882
X-21.275 Y6.982
X-21.411 Y7.078
X-21.57 Y7.181
X-21.752 Y7.288
X-21.942 Y7.389
X-22.16 Y7.495
X-22.419 Y7.606
X-22.689 Y7.709
X-23.005 Y7.815
X-23.378 Y7.922
X-23.788 Y8.022
X-24.261 Y8.116
X-24.844 Y8.207
X-25.502 Y8.281
X-26.162 Y8.331
X-26.824 Y8.365
X-27.486 Y8.388
X-28.148 Y8.402
X-28.811 Y8.412
X-29.473 Y8.419
X-30.135 Y8.427
X-30.796 Y8.471
X-31.435 Y8.646
X-32.01 Y8.976
X-32.485 Y9.438
X-32.849 Y9.991
X-33.111 Y10.599
X-33.288 Y11.237
X-33.402 Y11.89
X-33.472 Y12.549
X-33.514 Y13.21
X-33.539 Y13.872
X-33.553 Y14.534
X-33.561 Y15.196
X-33.566 Y15.859
X-33.568 Y16.521
X-33.571 Y17.846
X-33.572 Y23.145
Y46.33
Y82.998
X-33.576 Y83.103
X-33.589 Y83.207
X-33.611 Y83.31
X-34.111 Y85.258
G3 X-34.475 Y85.48 I-0.305 J-0.09 F600
G1 X-34.524 Y85.457 Z7.005
X-34.572 Y85.435 Z7.019
X-34.617 Y85.414 Z7.042
X-34.646 Y85.374 Z7.078
X-34.671 Y85.341 Z7.122
X-34.69 Y85.315 Z7.173
X-34.703 Y85.297 Z7.229
X-34.71 Y85.288 Z7.289
Y85.287 Z7.318
G0 Z20
X-20.771 Y4.618
Z7.635
G1 Z7.318 F600
X-20.767 Y4.625 Z7.247
X-20.755 Y4.645 Z7.18
X-20.735 Y4.678 Z7.12
X-20.71 Y4.721 Z7.069
X-20.679 Y4.773 Z7.031
X-20.645 Y4.831 Z7.008
X-20.609 Y4.891 Z7
G3 X-20.387 Y5.645 I-1.36 J0.809
G1 Y6.059 F1000
X-20.395 Y6.209
X-20.427 Y6.355
X-20.48 Y6.496
X-20.547 Y6.63
X-20.627 Y6.757
X-20.716 Y6.878
X-20.813 Y6.992
X-20.916 Y7.101
X-21.024 Y7.205
X-21.137 Y7.303
X-21.264 Y7.404
X-21.405 Y7.507
X-21.56 Y7.61
X-21.738 Y7.718
X-21.936 Y7.827
X-22.149 Y7.933
X-22.402 Y8.046
X-22.69 Y8.16
X-22.989 Y8.264
X-23.346 Y8.372
X-23.776 Y8.482
X-24.231 Y8.579
X-24.786 Y8.672
X-25.443 Y8.755
X-26.103 Y8.812
X-26.765 Y8.851
X-27.427 Y8.878
X-28.089 Y8.896
X-28.751 Y8.908
X-29.413 Y8.917
X-30.075 Y8.94
X-30.726 Y9.067
X-31.325 Y9.348
X-31.836 Y9.77
X-32.237 Y10.297
X-32.532 Y10.89
X-32.735 Y11.521
X-32.868 Y12.17
X-32.952 Y12.827
X-33.002 Y13.487
X-33.032 Y14.149
X-33.049 Y14.811
X-33.059 Y15.474
X-33.064 Y16.136
X-33.067 Y16.798
X-33.07 Y18.123
X-33.072 Y22.098
Y47.27
Y81.05
X-33.076 Y81.155
X-33.089 Y81.259
X-33.111 Y81.362
X-33.611 Y83.31
G3 X-33.975 Y83.532 I-0.305 J-0.09 F600
G1 X-34.024 Y83.509 Z7.005
X-34.072 Y83.487 Z7.019
X-34.117 Y83.466 Z7.042
X-34.146 Y83.426 Z7.078
X-34.171 Y83.393 Z7.122
X-34.19 Y83.366 Z7.173
X-34.203 Y83.349 Z7.229
X-34.21 Y83.34 Z7.289
Y83.338 Z7.318
G0 Z20
X-20.771 Y5.033
Z7.635
G1 Z7.318 F600
X-20.767 Y5.039 Z7.247
X-20.755 Y5.06 Z7.18
X-20.735 Y5.092 Z7.12
X-20.71 Y5.135 Z7.069
X-20.679 Y5.187 Z7.031
X-20.645 Y5.245 Z7.008
X-20.609 Y5.305 Z7
G3 X-20.387 Y6.059 I-1.36 J0.809
G1 Y6.51 F1000
X-20.395 Y6.66
X-20.432 Y6.805
X-20.488 Y6.945
X-20.558 Y7.077
X-20.639 Y7.204
X-20.728 Y7.324
X-20.826 Y7.438
X-20.929 Y7.547
X-21.037 Y7.651
X-21.15 Y7.749
X-21.278 Y7.851
X-21.426 Y7.96
X-21.581 Y8.064
X-21.763 Y8.175
X-21.97 Y8.29
X-22.187 Y8.398
X-22.437 Y8.51
X-22.735 Y8.629
X-23.053 Y8.741
X-23.405 Y8.849
X-23.83 Y8.959
X-24.335 Y9.068
X-24.874 Y9.16
X-25.531 Y9.245
X-26.191 Y9.304
X-26.852 Y9.345
X-27.514 Y9.373
X-28.176 Y9.392
X-28.838 Y9.406
X-29.5 Y9.43
X-30.154 Y9.54
X-30.76 Y9.806
X-31.282 Y10.214
X-31.696 Y10.731
X-32.002 Y11.319
X-32.215 Y11.946
X-32.355 Y12.593
X-32.443 Y13.25
X-32.496 Y13.91
X-32.528 Y14.572
X-32.547 Y15.234
X-32.557 Y15.896
X-32.564 Y16.559
X-32.567 Y17.221
X-32.57 Y18.546
X-32.572 Y21.858
Y48.355
Y79.102
X-32.576 Y79.207
X-32.589 Y79.311
X-32.611 Y79.414
X-33.111 Y81.362
G3 X-33.475 Y81.584 I-0.305 J-0.09 F600
G1 X-33.524 Y81.561 Z7.005
X-33.572 Y81.539 Z7.019
X-33.617 Y81.518 Z7.042
X-33.646 Y81.478 Z7.078
X-33.671 Y81.444 Z7.122
X-33.69 Y81.418 Z7.173
X-33.703 Y81.4 Z7.229
X-33.71 Y81.392 Z7.289
Y81.39 Z7.318
G0 Z20
X-20.771 Y5.484
Z7.635
G1 Z7.318 F600
X-20.767 Y5.491 Z7.247
X-20.755 Y5.511 Z7.18
X-20.735 Y5.543 Z7.12
X-20.71 Y5.587 Z7.069
X-20.679 Y5.638 Z7.031
X-20.645 Y5.696 Z7.008
X-20.609 Y5.757 Z7
G3 X-20.387 Y6.51 I-1.36 J0.809
G1 Y6.916 F1000
X-20.395 Y7.066
X-20.428 Y7.212
X-20.48 Y7.353
X-20.547 Y7.487
X-20.625 Y7.615
X-20.713 Y7.737
X-20.808 Y7.853
X-20.91 Y7.963
X-21.016 Y8.069
X-21.129 Y8.169
X-21.258 Y8.276
X-21.395 Y8.38
X-21.551 Y8.488
X-21.735 Y8.604
X-21.929 Y8.715
X-22.149 Y8.83
X-22.403 Y8.948
X-22.684 Y9.065
X-22.989 Y9.178
X-23.359 Y9.297
X-23.785 Y9.414
X-24.227 Y9.516
X-24.768 Y9.618
X-25.424 Y9.712
X-26.083 Y9.779
X-26.743 Y9.827
X-27.405 Y9.86
X-28.067 Y9.883
X-28.729 Y9.904
X-29.388 Y9.972
X-30.02 Y10.171
X-30.579 Y10.526
X-31.038 Y11.004
X-31.387 Y11.567
X-31.636 Y12.18
X-31.803 Y12.821
X-31.911 Y13.475
X-31.977 Y14.134
X-32.017 Y14.795
X-32.04 Y15.457
X-32.054 Y16.12
X-32.061 Y16.782
X-32.066 Y17.444
X-32.068 Y18.107
X-32.071 Y19.432
X-32.072 Y24.731
Y49.24
Y77.154
X-32.076 Y77.259
X-32.089 Y77.363
X-32.111 Y77.465
X-32.611 Y79.414
G3 X-32.975 Y79.636 I-0.305 J-0.09 F600
G1 X-33.024 Y79.613 Z7.005
X-33.072 Y79.59 Z7.019
X-33.117 Y79.569 Z7.042
X-33.146 Y79.53 Z7.078
X-33.171 Y79.496 Z7.122
X-33.19 Y79.47 Z7.173
X-33.203 Y79.452 Z7.229
X-33.21 Y79.443 Z7.289
Y79.442 Z7.318
G0 Z20
X-20.771 Y5.89
Z7.635
G1 Z7.318 F600
X-20.767 Y5.897 Z7.247
X-20.755 Y5.917 Z7.18
X-20.735 Y5.949 Z7.12
X-20.71 Y5.992 Z7.069
X-20.679 Y6.044 Z7.031
X-20.645 Y6.102 Z7.008
X-20.609 Y6.163 Z7
G3 X-20.387 Y6.916 I-1.36 J0.809
G1 Y7.337 F1000
X-20.395 Y7.487
X-20.425 Y7.634
X-20.476 Y7.775
X-20.541 Y7.91
X-20.618 Y8.039
X-20.704 Y8.162
X-20.797 Y8.279
X-20.898 Y8.39
X-21.003 Y8.497
X-21.114 Y8.599
X-21.241 Y8.706
X-21.38 Y8.813
X-21.534 Y8.923
X-21.714 Y9.039
X-21.911 Y9.155
X-22.124 Y9.269
X-22.377 Y9.391
X-22.665 Y9.515
X-22.969 Y9.631
X-23.321 Y9.748
X-23.735 Y9.868
X-24.195 Y9.98
X-24.711 Y10.082
X-25.35 Y10.182
X-26.008 Y10.256
X-26.668 Y10.309
X-27.33 Y10.347
X-27.992 Y10.375
X-28.653 Y10.419
X-29.298 Y10.57
X-29.887 Y10.873
X-30.383 Y11.311
X-30.771 Y11.848
X-31.055 Y12.447
X-31.249 Y13.08
X-31.377 Y13.73
X-31.456 Y14.388
X-31.504 Y15.048
X-31.533 Y15.71
X-31.549 Y16.372
X-31.559 Y17.035
X-31.564 Y17.697
X-31.568 Y18.36
X-31.57 Y19.684
X-31.572 Y23.659
Y50.156
Y75.206
X-31.576 Y75.31
X-31.589 Y75.415
X-31.611 Y75.517
X-32.111 Y77.465
G3 X-32.475 Y77.688 I-0.305 J-0.09 F600
G1 X-32.524 Y77.665 Z7.005
X-32.572 Y77.642 Z7.019
X-32.617 Y77.621 Z7.042
X-32.646 Y77.582 Z7.078
X-32.671 Y77.548 Z7.122
X-32.69 Y77.522 Z7.173
X-32.703 Y77.504 Z7.229
X-32.71 Y77.495 Z7.289
Y77.494 Z7.318
G0 Z20
X-20.771 Y6.311
Z7.635
G1 Z7.318 F600
X-20.767 Y6.317 Z7.247
X-20.755 Y6.338 Z7.18
X-20.735 Y6.37 Z7.12
X-20.71 Y6.413 Z7.069
X-20.679 Y6.465 Z7.031
X-20.645 Y6.523 Z7.008
X-20.609 Y6.583 Z7
G3 X-20.387 Y7.337 I-1.36 J0.809
G1 Y7.788 F1000
X-20.395 Y7.938
X-20.427 Y8.085
X-20.479 Y8.225
X-20.545 Y8.36
X-20.623 Y8.489
X-20.709 Y8.611
X-20.802 Y8.728
X-20.903 Y8.84
X-21.008 Y8.947
X-21.118 Y9.049
X-21.244 Y9.156
X-21.389 Y9.269
X-21.542 Y9.378
X-21.724 Y9.497
X-21.93 Y9.619
X-22.144 Y9.735
X-22.394 Y9.856
X-22.687 Y9.983
X-23 Y10.104
X-23.351 Y10.223
X-23.762 Y10.342
X-24.252 Y10.463
X-24.762 Y10.567
X-25.397 Y10.668
X-26.055 Y10.744
X-26.715 Y10.8
X-27.376 Y10.84
X-28.037 Y10.885
X-28.687 Y11.016
X-29.287 Y11.295
X-29.801 Y11.713
X-30.208 Y12.236
X-30.509 Y12.826
X-30.718 Y13.455
X-30.856 Y14.102
X-30.943 Y14.759
X-30.996 Y15.419
X-31.028 Y16.081
X-31.047 Y16.743
X-31.057 Y17.406
X-31.063 Y18.068
X-31.067 Y18.73
X-31.07 Y20.055
X-31.072 Y23.367
Y51.189
Y73.257
X-31.076 Y73.362
X-31.089 Y73.467
X-31.111 Y73.569
X-31.611 Y75.517
G3 X-31.975 Y75.74 I-0.305 J-0.09 F600
G1 X-32.024 Y75.717 Z7.005
X-32.072 Y75.694 Z7.019
X-32.117 Y75.673 Z7.042
X-32.146 Y75.634 Z7.078
X-32.171 Y75.6 Z7.122
X-32.19 Y75.574 Z7.173
X-32.203 Y75.556 Z7.229
X-32.21 Y75.547 Z7.289
Y75.546 Z7.318
G0 Z20
X-20.771 Y6.762
Z7.635
G1 Z7.318 F600
X-20.767 Y6.769 Z7.247
X-20.755 Y6.789 Z7.18
X-20.735 Y6.821 Z7.12
X-20.71 Y6.865 Z7.069
X-20.679 Y6.916 Z7.031
X-20.645 Y6.974 Z7.008
X-20.609 Y7.035 Z7
G3 X-20.387 Y7.788 I-1.36 J0.809
G1 Y8.24 F1000
X-20.395 Y8.39
X-20.429 Y8.536
X-20.482 Y8.676
X-20.548 Y8.81
X-20.625 Y8.939
X-20.711 Y9.062
X-20.805 Y9.179
X-20.905 Y9.291
X-21.01 Y9.398
X-21.121 Y9.501
X-21.249 Y9.611
X-21.394 Y9.724
X-21.549 Y9.836
X-21.732 Y9.957
X-21.939 Y10.08
X-22.157 Y10.199
X-22.41 Y10.323
X-22.706 Y10.452
X-23.018 Y10.574
X-23.381 Y10.698
X-23.798 Y10.821
X-24.291 Y10.945
X-24.8 Y11.05
X-25.438 Y11.154
X-26.095 Y11.233
X-26.755 Y11.291
X-27.416 Y11.341
X-28.068 Y11.458
X-28.679 Y11.712
X-29.21 Y12.108
X-29.637 Y12.614
X-29.957 Y13.194
X-30.183 Y13.817
X-30.333 Y14.463
X-30.428 Y15.118
X-30.487 Y15.778
X-30.522 Y16.439
X-30.543 Y17.102
X-30.555 Y17.764
X-30.562 Y18.426
X-30.566 Y19.089
X-30.57 Y20.413
X-30.571 Y23.063
X-30.572 Y52.209
Y71.309
X-30.576 Y71.414
X-30.589 Y71.518
X-30.611 Y71.621
X-31.111 Y73.569
G3 X-31.475 Y73.791 I-0.305 J-0.09 F600
G1 X-31.524 Y73.768 Z7.005
X-31.572 Y73.746 Z7.019
X-31.617 Y73.725 Z7.042
X-31.646 Y73.685 Z7.078
X-31.671 Y73.652 Z7.122
X-31.69 Y73.626 Z7.173
X-31.703 Y73.608 Z7.229
X-31.71 Y73.599 Z7.289
Y73.598 Z7.318
G0 Z20
X-20.771 Y7.213
Z7.635
G1 Z7.318 F600
X-20.767 Y7.22 Z7.247
X-20.755 Y7.24 Z7.18
X-20.735 Y7.273 Z7.12
X-20.71 Y7.316 Z7.069
X-20.679 Y7.368 Z7.031
X-20.645 Y7.425 Z7.008
X-20.609 Y7.486 Z7
G3 X-20.387 Y8.24 I-1.36 J0.809
G1 Y8.691 F1000
X-20.395 Y8.841
X-20.429 Y8.987
X-20.483 Y9.127
X-20.549 Y9.261
X-20.626 Y9.39
X-20.712 Y9.513
X-20.806 Y9.63
X-20.905 Y9.743
X-21.01 Y9.85
X-21.122 Y9.955
X-21.252 Y10.067
X-21.396 Y10.181
X-21.553 Y10.295
X-21.739 Y10.418
X-21.946 Y10.542
X-22.166 Y10.663
X-22.424 Y10.79
X-22.724 Y10.923
X-23.037 Y11.046
X-23.406 Y11.174
X-23.826 Y11.3
X-24.322 Y11.426
X-24.833 Y11.533
X-25.477 Y11.64
X-26.134 Y11.721
X-26.794 Y11.785
X-27.447 Y11.894
X-28.068 Y12.124
X-28.615 Y12.498
X-29.062 Y12.987
X-29.401 Y13.556
X-29.643 Y14.173
X-29.806 Y14.815
X-29.911 Y15.469
X-29.977 Y16.128
X-30.016 Y16.789
X-30.039 Y17.451
X-30.053 Y18.114
X-30.061 Y18.776
X-30.066 Y19.438
X-30.068 Y20.101
X-30.071 Y21.426
X-30.072 Y26.063
Y53.222
Y69.361
X-30.076 Y69.466
X-30.089 Y69.57
X-30.111 Y69.673
X-30.611 Y71.621
G3 X-30.975 Y71.843 I-0.305 J-0.09 F600
G1 X-31.024 Y71.82 Z7.005
X-31.072 Y71.798 Z7.019
X-31.117 Y71.777 Z7.042
X-31.146 Y71.737 Z7.078
X-31.171 Y71.704 Z7.122
X-31.19 Y71.678 Z7.173
X-31.203 Y71.66 Z7.229
X-31.21 Y71.651 Z7.289
Y71.65 Z7.318
G0 Z20
X-20.771 Y7.665
Z7.635
G1 Z7.318 F600
X-20.767 Y7.671 Z7.247
X-20.755 Y7.692 Z7.18
X-20.735 Y7.724 Z7.12
X-20.71 Y7.767 Z7.069
X-20.679 Y7.819 Z7.031
X-20.645 Y7.877 Z7.008
X-20.609 Y7.937 Z7
G3 X-20.387 Y8.691 I-1.36 J0.809
G1 Y9.142 F1000
X-20.395 Y9.292
X-20.43 Y9.438
X-20.483 Y9.578
X-20.549 Y9.713
X-20.626 Y9.842
X-20.712 Y9.965
X-20.805 Y10.082
X-20.904 Y10.195
X-21.008 Y10.303
X-21.121 Y10.409
X-21.252 Y10.523
X-21.395 Y10.637
X-21.554 Y10.753
X-21.743 Y10.879
X-21.948 Y11.004
X-22.171 Y11.127
X-22.432 Y11.258
X-22.735 Y11.393
X-23.047 Y11.517
X-23.421 Y11.648
X-23.845 Y11.777
X-24.343 Y11.906
X-24.854 Y12.015
X-25.507 Y12.126
X-26.164 Y12.211
X-26.818 Y12.317
X-27.447 Y12.525
X-28.009 Y12.876
X-28.475 Y13.346
X-28.836 Y13.902
X-29.096 Y14.511
X-29.275 Y15.148
X-29.391 Y15.801
X-29.464 Y16.459
X-29.508 Y17.12
X-29.535 Y17.782
X-29.55 Y18.444
X-29.559 Y19.106
X-29.565 Y19.769
X-29.568 Y20.431
X-29.57 Y21.756
X-29.572 Y25.731
Y54.214
Y67.413
X-29.576 Y67.518
X-29.589 Y67.622
X-29.611 Y67.725
X-30.111 Y69.673
G3 X-30.475 Y69.895 I-0.305 J-0.09 F600
G1 X-30.524 Y69.872 Z7.005
X-30.572 Y69.85 Z7.019
X-30.617 Y69.829 Z7.042
X-30.646 Y69.789 Z7.078
X-30.671 Y69.756 Z7.122
X-30.69 Y69.73 Z7.173
X-30.703 Y69.712 Z7.229
X-30.71 Y69.703 Z7.289
Y69.702 Z7.318
G0 Z20
X-20.771 Y8.116
Z7.635
G1 Z7.318 F600
X-20.767 Y8.123 Z7.247
X-20.755 Y8.143 Z7.18
X-20.735 Y8.175 Z7.12
X-20.71 Y8.219 Z7.069
X-20.679 Y8.27 Z7.031
X-20.645 Y8.328 Z7.008
X-20.609 Y8.389 Z7
G3 X-20.387 Y9.142 I-1.36 J0.809
G1 Y9.594 F1000
X-20.395 Y9.743
X-20.429 Y9.889
X-20.482 Y10.03
X-20.548 Y10.165
X-20.624 Y10.294
X-20.71 Y10.417
X-20.802 Y10.535
X-20.901 Y10.648
X-21.005 Y10.756
X-21.118 Y10.864
X-21.249 Y10.979
X-21.391 Y11.093
X-21.552 Y11.212
X-21.742 Y11.34
X-21.946 Y11.465
X-22.171 Y11.591
X-22.435 Y11.724
X-22.737 Y11.861
X-23.051 Y11.987
X-23.428 Y12.121
X-23.855 Y12.253
X-24.352 Y12.383
X-24.878 Y12.498
X-25.531 Y12.612
X-26.183 Y12.724
X-26.817 Y12.917
X-27.394 Y13.243
X-27.88 Y13.693
X-28.262 Y14.234
X-28.543 Y14.834
X-28.738 Y15.467
X-28.867 Y16.116
X-28.949 Y16.774
X-28.999 Y17.434
X-29.029 Y18.096
X-29.047 Y18.758
X-29.057 Y19.421
X-29.063 Y20.083
X-29.067 Y20.745
X-29.07 Y22.07
X-29.072 Y25.382
Y54.529
Y65.465
X-29.076 Y65.57
X-29.089 Y65.674
X-29.111 Y65.777
X-29.611 Y67.725
G3 X-29.975 Y67.947 I-0.305 J-0.09 F600
G1 X-30.024 Y67.924 Z7.005
X-30.072 Y67.902 Z7.019
X-30.117 Y67.881 Z7.042
X-30.146 Y67.841 Z7.078
X-30.171 Y67.808 Z7.122
X-30.19 Y67.781 Z7.173
X-30.203 Y67.764 Z7.229
X-30.21 Y67.755 Z7.289
Y67.754 Z7.318
G0 Z20
X-20.771 Y8.567
Z7.635
G1 Z7.318 F600
X-20.767 Y8.574 Z7.247
X-20.755 Y8.594 Z7.18
X-20.735 Y8.627 Z7.12
X-20.71 Y8.67 Z7.069
X-20.679 Y8.722 Z7.031
X-20.645 Y8.779 Z7.008
X-20.609 Y8.84 Z7
G3 X-20.387 Y9.594 I-1.36 J0.809
G1 Y10.045 F1000
X-20.395 Y10.195
X-20.428 Y10.341
X-20.48 Y10.482
X-20.546 Y10.617
X-20.622 Y10.746
X-20.706 Y10.87
X-20.798 Y10.988
X-20.897 Y11.102
X-21 Y11.21
X-21.113 Y11.319
X-21.244 Y11.435
X-21.386 Y11.55
X-21.547 Y11.67
X-21.738 Y11.8
X-21.941 Y11.926
X-22.166 Y12.053
X-22.431 Y12.189
X-22.733 Y12.327
X-23.048 Y12.456
X-23.427 Y12.593
X-23.859 Y12.728
X-24.353 Y12.86
X-25 Y13.005
X-25.649 Y13.137
X-26.281 Y13.335
X-26.858 Y13.66
X-27.348 Y14.106
X-27.736 Y14.643
X-28.023 Y15.24
X-28.223 Y15.871
X-28.357 Y16.52
X-28.442 Y17.177
X-28.495 Y17.838
X-28.526 Y18.499
X-28.545 Y19.161
X-28.556 Y19.824
X-28.563 Y20.486
X-28.567 Y21.148
X-28.57 Y22.473
X-28.572 Y25.785
Y55.594
Y63.517
X-28.576 Y63.622
X-28.589 Y63.726
X-28.611 Y63.829
X-29.111 Y65.777
G3 X-29.475 Y65.999 I-0.305 J-0.09 F600
G1 X-29.524 Y65.976 Z7.005
X-29.572 Y65.954 Z7.019
X-29.617 Y65.933 Z7.042
X-29.646 Y65.893 Z7.078
X-29.671 Y65.859 Z7.122
X-29.69 Y65.833 Z7.173
X-29.703 Y65.816 Z7.229
X-29.71 Y65.807 Z7.289
Y65.805 Z7.318
G0 Z20
X-20.771 Y9.019
Z7.635
G1 Z7.318 F600
X-20.767 Y9.025 Z7.247
X-20.755 Y9.046 Z7.18
X-20.735 Y9.078 Z7.12
X-20.71 Y9.121 Z7.069
X-20.679 Y9.173 Z7.031
X-20.645 Y9.231 Z7.008
X-20.609 Y9.291 Z7
G3 X-20.387 Y10.045 I-1.36 J0.809
G1 Y10.496 F1000
X-20.395 Y10.646
X-20.427 Y10.793
X-20.478 Y10.934
X-20.543 Y11.069
X-20.618 Y11.199
X-20.702 Y11.323
X-20.793 Y11.442
X-20.891 Y11.556
X-20.994 Y11.665
X-21.106 Y11.774
X-21.237 Y11.891
X-21.378 Y12.007
X-21.539 Y12.128
X-21.729 Y12.259
X-21.931 Y12.386
X-22.157 Y12.515
X-22.423 Y12.653
X-22.723 Y12.792
X-23.041 Y12.924
X-23.421 Y13.063
X-23.894 Y13.214
X-24.533 Y13.389
X-25.177 Y13.548
X-25.803 Y13.763
X-26.373 Y14.101
X-26.857 Y14.553
X-27.24 Y15.093
X-27.524 Y15.692
X-27.723 Y16.324
X-27.856 Y16.973
X-27.941 Y17.63
X-27.993 Y18.29
X-28.026 Y18.952
X-28.045 Y19.614
X-28.056 Y20.276
X-28.063 Y20.938
X-28.066 Y21.601
X-28.07 Y22.926
X-28.071 Y25.575
X-28.072 Y56.709
Y61.569
X-28.076 Y61.674
X-28.089 Y61.778
X-28.111 Y61.881
X-28.611 Y63.829
G3 X-28.975 Y64.051 I-0.305 J-0.09 F600
G1 X-29.024 Y64.028 Z7.005
X-29.072 Y64.005 Z7.019
X-29.117 Y63.984 Z7.042
X-29.146 Y63.945 Z7.078
X-29.171 Y63.911 Z7.122
X-29.19 Y63.885 Z7.173
X-29.203 Y63.867 Z7.229
X-29.21 Y63.858 Z7.289
Y63.857 Z7.318
G0 Z20
X-20.771 Y9.47
Z7.635
G1 Z7.318 F600
X-20.767 Y9.477 Z7.247
X-20.755 Y9.497 Z7.18
X-20.735 Y9.529 Z7.12
X-20.71 Y9.573 Z7.069
X-20.679 Y9.624 Z7.031
X-20.645 Y9.682 Z7.008
X-20.609 Y9.743 Z7
G3 X-20.387 Y10.496 I-1.36 J0.809
G1 Y10.948 F1000
X-20.395 Y11.097
X-20.426 Y11.244
X-20.476 Y11.386
X-20.539 Y11.522
X-20.614 Y11.652
X-20.697 Y11.777
X-20.787 Y11.896
X-20.884 Y12.011
X-20.987 Y12.12
X-21.098 Y12.23
X-21.228 Y12.348
X-21.368 Y12.464
X-21.529 Y12.586
X-21.718 Y12.718
X-21.919 Y12.846
X-22.145 Y12.977
X-22.411 Y13.116
X-22.709 Y13.257
X-23.041 Y13.396
X-23.484 Y13.562
X-24.114 Y13.767
X-24.75 Y13.954
X-25.366 Y14.197
X-25.923 Y14.555
X-26.394 Y15.021
X-26.765 Y15.57
X-27.04 Y16.172
X-27.233 Y16.806
X-27.361 Y17.456
X-27.443 Y18.113
X-27.495 Y18.774
X-27.526 Y19.435
X-27.545 Y20.097
X-27.556 Y20.76
X-27.563 Y21.422
X-27.566 Y22.085
X-27.57 Y23.409
X-27.571 Y26.059
X-27.572 Y57.855
Y59.621
X-27.576 Y59.726
X-27.589 Y59.83
X-27.611 Y59.932
X-28.111 Y61.881
G3 X-28.475 Y62.103 I-0.305 J-0.09 F600
G1 X-28.524 Y62.08 Z7.005
X-28.572 Y62.057 Z7.019
X-28.617 Y62.036 Z7.042
X-28.646 Y61.997 Z7.078
X-28.671 Y61.963 Z7.122
X-28.69 Y61.937 Z7.173
X-28.703 Y61.919 Z7.229
X-28.71 Y61.91 Z7.289
Y61.909 Z7.318
G0 Z20
X-20.771 Y9.921
Z7.635
G1 Z7.318 F600
X-20.767 Y9.928 Z7.247
X-20.755 Y9.948 Z7.18
X-20.735 Y9.981 Z7.12
X-20.71 Y10.024 Z7.069
X-20.679 Y10.076 Z7.031
X-20.645 Y10.133 Z7.008
X-20.609 Y10.194 Z7
G3 X-20.387 Y10.948 I-1.36 J0.809
G1 Y11.399 F1000
X-20.395 Y11.549
X-20.424 Y11.696
X-20.472 Y11.838
X-20.535 Y11.974
X-20.608 Y12.105
X-20.691 Y12.23
X-20.781 Y12.351
X-20.877 Y12.466
X-20.978 Y12.576
X-21.088 Y12.686
X-21.218 Y12.804
X-21.357 Y12.921
X-21.517 Y13.044
X-21.705 Y13.177
X-21.904 Y13.305
X-22.132 Y13.439
X-22.415 Y13.589
X-22.711 Y13.731
X-23.123 Y13.908
X-23.742 Y14.142
X-24.367 Y14.362
X-24.968 Y14.64
X-25.506 Y15.026
X-25.957 Y15.512
X-26.31 Y16.072
X-26.57 Y16.682
X-26.752 Y17.319
X-26.872 Y17.97
X-26.95 Y18.628
X-26.998 Y19.288
X-27.028 Y19.95
X-27.046 Y20.612
X-27.057 Y21.275
X-27.063 Y21.937
X-27.066 Y22.6
X-27.07 Y23.924
X-27.071 Y26.574
X-27.072 Y57.672
X-27.076 Y57.777
X-27.089 Y57.882
X-27.111 Y57.984
X-27.611 Y59.932
G3 X-27.975 Y60.155 I-0.305 J-0.09 F600
G1 X-28.024 Y60.132 Z7.005
X-28.072 Y60.109 Z7.019
X-28.117 Y60.088 Z7.042
X-28.146 Y60.049 Z7.078
X-28.171 Y60.015 Z7.122
X-28.19 Y59.989 Z7.173
X-28.203 Y59.971 Z7.229
X-28.21 Y59.962 Z7.289
Y59.961 Z7.318
G0 Z20
X-20.771 Y10.373
Z7.635
G1 Z7.318 F600
X-20.767 Y10.379 Z7.247
X-20.755 Y10.4 Z7.18
X-20.735 Y10.432 Z7.12
X-20.71 Y10.475 Z7.069
X-20.679 Y10.527 Z7.031
X-20.645 Y10.585 Z7.008
X-20.609 Y10.645 Z7
G3 X-20.387 Y11.399 I-1.36 J0.809
G1 Y11.85 F1000
X-20.395 Y12
X-20.422 Y12.148
X-20.469 Y12.29
X-20.53 Y12.427
X-20.602 Y12.559
X-20.684 Y12.685
X-20.773 Y12.805
X-20.868 Y12.921
X-20.969 Y13.032
X-21.078 Y13.142
X-21.206 Y13.261
X-21.344 Y13.378
X-21.506 Y13.504
X-21.695 Y13.64
X-21.894 Y13.77
X-22.142 Y13.917
X-22.43 Y14.073
X-22.817 Y14.261
X-23.424 Y14.525
X-24.035 Y14.781
X-24.614 Y15.103
X-25.125 Y15.524
X-25.548 Y16.034
X-25.876 Y16.61
X-26.114 Y17.228
X-26.28 Y17.869
X-26.39 Y18.522
X-26.46 Y19.181
X-26.505 Y19.842
X-26.532 Y20.504
X-26.548 Y21.166
X-26.558 Y21.828
X-26.563 Y22.491
X-26.567 Y23.153
X-26.57 Y24.478
X-26.572 Y27.79
Y55.724
X-26.576 Y55.829
X-26.589 Y55.933
X-26.611 Y56.036
X-27.111 Y57.984
G3 X-27.475 Y58.207 I-0.305 J-0.09 F600
G1 X-27.524 Y58.183 Z7.005
X-27.572 Y58.161 Z7.019
X-27.617 Y58.14 Z7.042
X-27.646 Y58.101 Z7.078
X-27.671 Y58.067 Z7.122
X-27.69 Y58.041 Z7.173
X-27.703 Y58.023 Z7.229
X-27.71 Y58.014 Z7.289
Y58.013 Z7.318
G0 Z20
X-20.771 Y10.824
Z7.635
G1 Z7.318 F600
X-20.767 Y10.831 Z7.247
X-20.755 Y10.851 Z7.18
X-20.735 Y10.883 Z7.12
X-20.71 Y10.927 Z7.069
X-20.679 Y10.978 Z7.031
X-20.645 Y11.036 Z7.008
X-20.609 Y11.097 Z7
G3 X-20.387 Y11.85 I-1.36 J0.809
G1 Y12.332 F1000
X-20.395 Y12.482
X-20.425 Y12.629
X-20.474 Y12.771
X-20.536 Y12.907
X-20.609 Y13.038
X-20.692 Y13.164
X-20.781 Y13.284
X-20.877 Y13.399
X-20.978 Y13.51
X-21.087 Y13.62
X-21.219 Y13.742
X-21.363 Y13.864
X-21.53 Y13.994
X-21.733 Y14.139
X-21.952 Y14.282
X-22.253 Y14.46
X-22.664 Y14.681
X-23.26 Y14.97
X-23.846 Y15.278
X-24.384 Y15.665
X-24.847 Y16.139
X-25.219 Y16.686
X-25.5 Y17.286
X-25.7 Y17.918
X-25.836 Y18.566
X-25.926 Y19.223
X-25.982 Y19.882
X-26.018 Y20.544
X-26.039 Y21.206
X-26.052 Y21.868
X-26.06 Y22.531
X-26.065 Y23.193
X-26.068 Y23.855
X-26.07 Y25.18
X-26.072 Y29.155
Y53.776
X-26.076 Y53.881
X-26.089 Y53.985
X-26.111 Y54.088
X-26.611 Y56.036
G3 X-26.975 Y56.258 I-0.305 J-0.09 F600
G1 X-27.024 Y56.235 Z7.005
X-27.072 Y56.213 Z7.019
X-27.117 Y56.192 Z7.042
X-27.146 Y56.152 Z7.078
X-27.171 Y56.119 Z7.122
X-27.19 Y56.093 Z7.173
X-27.203 Y56.075 Z7.229
X-27.21 Y56.066 Z7.289
Y56.065 Z7.318
G0 Z20
X-20.771 Y11.306
Z7.635
G1 Z7.318 F600
X-20.767 Y11.312 Z7.247
X-20.755 Y11.333 Z7.18
X-20.735 Y11.365 Z7.12
X-20.71 Y11.408 Z7.069
X-20.679 Y11.46 Z7.031
X-20.645 Y11.518 Z7.008
X-20.609 Y11.579 Z7
G3 X-20.387 Y12.332 I-1.36 J0.809
G1 Y12.783 F1000
X-20.395 Y12.933
X-20.422 Y13.081
X-20.469 Y13.223
X-20.53 Y13.36
X-20.602 Y13.492
X-20.683 Y13.618
X-20.771 Y13.739
X-20.866 Y13.856
X-20.966 Y13.967
X-21.081 Y14.084
X-21.211 Y14.207
X-21.363 Y14.338
X-21.546 Y14.483
X-21.756 Y14.636
X-22.025 Y14.814
X-22.592 Y15.157
X-23.169 Y15.482
X-23.714 Y15.858
X-24.197 Y16.311
X-24.596 Y16.84
X-24.905 Y17.426
X-25.131 Y18.049
X-25.289 Y18.692
X-25.394 Y19.346
X-25.462 Y20.005
X-25.505 Y20.666
X-25.532 Y21.328
X-25.548 Y21.99
X-25.557 Y22.652
X-25.563 Y23.315
X-25.567 Y23.977
X-25.57 Y25.302
X-25.572 Y28.614
Y51.828
X-25.576 Y51.933
X-25.589 Y52.037
X-25.611 Y52.14
X-26.111 Y54.088
G3 X-26.475 Y54.31 I-0.305 J-0.09 F600
G1 X-26.524 Y54.287 Z7.005
X-26.572 Y54.265 Z7.019
X-26.617 Y54.244 Z7.042
X-26.646 Y54.204 Z7.078
X-26.671 Y54.171 Z7.122
X-26.69 Y54.145 Z7.173
X-26.703 Y54.127 Z7.229
X-26.71 Y54.118 Z7.289
Y54.117 Z7.318
G0 Z20
X-20.771 Y11.757
Z7.635
G1 Z7.318 F600
X-20.767 Y11.764 Z7.247
X-20.755 Y11.784 Z7.18
X-20.735 Y11.817 Z7.12
X-20.71 Y11.86 Z7.069
X-20.679 Y11.911 Z7.031
X-20.645 Y11.969 Z7.008
X-20.609 Y12.03 Z7
G3 X-20.387 Y12.783 I-1.36 J0.809
G1 Y13.28 F1000
X-20.395 Y13.43
X-20.427 Y13.577
X-20.477 Y13.718
X-20.54 Y13.854
X-20.613 Y13.985
X-20.695 Y14.111
X-20.785 Y14.231
X-20.88 Y14.347
X-20.98 Y14.459
X-21.106 Y14.587
X-21.242 Y14.715
X-21.427 Y14.876
X-21.66 Y15.061
X-21.981 Y15.294
X-22.533 Y15.661
X-23.072 Y16.045
X-23.564 Y16.489
X-23.982 Y17.003
X-24.313 Y17.576
X-24.562 Y18.19
X-24.74 Y18.829
X-24.861 Y19.48
X-24.94 Y20.137
X-24.991 Y20.798
X-25.023 Y21.46
X-25.042 Y22.122
X-25.054 Y22.784
X-25.061 Y23.446
X-25.065 Y24.109
X-25.068 Y24.771
X-25.07 Y26.096
X-25.072 Y30.733
Y49.88
X-25.076 Y49.985
X-25.089 Y50.089
X-25.111 Y50.192
X-25.611 Y52.14
G3 X-25.975 Y52.362 I-0.305 J-0.09 F600
G1 X-26.024 Y52.339 Z7.005
X-26.072 Y52.317 Z7.019
X-26.117 Y52.296 Z7.042
X-26.146 Y52.256 Z7.078
X-26.171 Y52.223 Z7.122
X-26.19 Y52.197 Z7.173
X-26.203 Y52.179 Z7.229
X-26.21 Y52.17 Z7.289
Y52.169 Z7.318
G0 Z20
X-20.771 Y12.254
Z7.635
G1 Z7.318 F600
X-20.767 Y12.261 Z7.247
X-20.755 Y12.281 Z7.18
X-20.735 Y12.313 Z7.12
X-20.71 Y12.357 Z7.069
X-20.679 Y12.408 Z7.031
X-20.645 Y12.466 Z7.008
X-20.609 Y12.527 Z7
G3 X-20.387 Y13.28 I-1.36 J0.809
G1 Y13.732 F1000
X-20.395 Y13.881
X-20.423 Y14.029
X-20.47 Y14.171
X-20.531 Y14.308
X-20.602 Y14.44
X-20.682 Y14.567
X-20.769 Y14.689
X-20.862 Y14.807
X-20.971 Y14.933
X-21.101 Y15.072
X-21.255 Y15.223
X-21.482 Y15.427
X-21.992 Y15.85
X-22.512 Y16.26
X-22.997 Y16.711
X-23.418 Y17.223
X-23.757 Y17.792
X-24.016 Y18.401
X-24.205 Y19.036
X-24.336 Y19.686
X-24.423 Y20.342
X-24.48 Y21.002
X-24.515 Y21.664
X-24.537 Y22.326
X-24.551 Y22.988
X-24.559 Y23.65
X-24.564 Y24.313
X-24.567 Y24.975
X-24.57 Y26.3
X-24.572 Y29.612
Y47.932
X-24.576 Y48.037
X-24.589 Y48.141
X-24.611 Y48.244
X-25.111 Y50.192
G3 X-25.475 Y50.414 I-0.305 J-0.09 F600
G1 X-25.524 Y50.391 Z7.005
X-25.572 Y50.369 Z7.019
X-25.617 Y50.348 Z7.042
X-25.646 Y50.308 Z7.078
X-25.671 Y50.275 Z7.122
X-25.69 Y50.248 Z7.173
X-25.703 Y50.231 Z7.229
X-25.71 Y50.222 Z7.289
Y50.22 Z7.318
G0 Z20
X-20.771 Y12.705
Z7.635
G1 Z7.318 F600
X-20.767 Y12.712 Z7.247
X-20.755 Y12.732 Z7.18
X-20.735 Y12.765 Z7.12
X-20.71 Y12.808 Z7.069
X-20.679 Y12.86 Z7.031
X-20.645 Y12.917 Z7.008
X-20.609 Y12.978 Z7
G3 X-20.387 Y13.732 I-1.36 J0.809
G1 Y14.22 F1000
X-20.395 Y14.37
X-20.425 Y14.517
X-20.472 Y14.659
X-20.532 Y14.797
X-20.603 Y14.929
X-20.681 Y15.057
X-20.766 Y15.18
X-20.868 Y15.314
X-21.007 Y15.481
X-21.175 Y15.668
X-21.485 Y15.983
X-21.969 Y16.436
X-22.438 Y16.903
X-22.856 Y17.418
X-23.201 Y17.983
X-23.469 Y18.589
X-23.668 Y19.221
X-23.808 Y19.868
X-23.904 Y20.524
X-23.967 Y21.183
X-24.007 Y21.844
X-24.032 Y22.506
X-24.048 Y23.168
X-24.057 Y23.831
X-24.063 Y24.493
X-24.066 Y25.156
X-24.07 Y26.48
X-24.071 Y29.13
X-24.072 Y45.984
X-24.076 Y46.089
X-24.089 Y46.193
X-24.111 Y46.296
X-24.611 Y48.244
G3 X-24.975 Y48.466 I-0.305 J-0.09 F600
G1 X-25.024 Y48.443 Z7.005
X-25.072 Y48.421 Z7.019
X-25.117 Y48.4 Z7.042
X-25.146 Y48.36 Z7.078
X-25.171 Y48.326 Z7.122
X-25.19 Y48.3 Z7.173
X-25.203 Y48.282 Z7.229
X-25.21 Y48.274 Z7.289
Y48.272 Z7.318
G0 Z20
X-20.771 Y13.194
Z7.635
G1 Z7.318 F600
X-20.767 Y13.201 Z7.247
X-20.755 Y13.221 Z7.18
X-20.735 Y13.253 Z7.12
X-20.71 Y13.296 Z7.069
X-20.679 Y13.348 Z7.031
X-20.645 Y13.406 Z7.008
X-20.609 Y13.467 Z7
G3 X-20.387 Y14.22 I-1.36 J0.809
G1 Y14.709 F1000
X-20.395 Y14.859
X-20.423 Y15.006
X-20.469 Y15.149
X-20.526 Y15.287
X-20.593 Y15.421
X-20.668 Y15.552
X-20.748 Y15.678
X-20.854 Y15.831
X-21.007 Y16.033
X-21.429 Y16.544
X-21.871 Y17.038
X-22.28 Y17.559
X-22.629 Y18.122
X-22.909 Y18.722
X-23.12 Y19.35
X-23.273 Y19.994
X-23.379 Y20.648
X-23.449 Y21.307
X-23.495 Y21.968
X-23.524 Y22.63
X-23.543 Y23.292
X-23.554 Y23.954
X-23.561 Y24.616
X-23.565 Y25.279
X-23.568 Y25.941
X-23.57 Y27.266
X-23.572 Y31.241
Y44.036
X-23.576 Y44.141
X-23.589 Y44.245
X-23.611 Y44.347
X-24.111 Y46.296
G3 X-24.475 Y46.518 I-0.305 J-0.09 F600
G1 X-24.524 Y46.495 Z7.005
X-24.572 Y46.472 Z7.019
X-24.617 Y46.451 Z7.042
X-24.646 Y46.412 Z7.078
X-24.671 Y46.378 Z7.122
X-24.69 Y46.352 Z7.173
X-24.703 Y46.334 Z7.229
X-24.71 Y46.325 Z7.289
Y46.324 Z7.318
G0 Z20
X-20.771 Y13.682
Z7.635
G1 Z7.318 F600
X-20.767 Y13.689 Z7.247
X-20.755 Y13.709 Z7.18
X-20.735 Y13.742 Z7.12
X-20.71 Y13.785 Z7.069
X-20.679 Y13.837 Z7.031
X-20.645 Y13.894 Z7.008
X-20.609 Y13.955 Z7
G3 X-20.387 Y14.709 I-1.36 J0.809
G1 Y15.236 F1000
X-20.395 Y15.386
X-20.423 Y15.533
X-20.466 Y15.677
X-20.52 Y15.817
X-20.582 Y15.953
X-20.657 Y16.1
X-20.748 Y16.259
X-20.875 Y16.463
X-21.249 Y17.01
X-21.638 Y17.546
X-21.992 Y18.106
X-22.289 Y18.698
X-22.524 Y19.318
X-22.7 Y19.956
X-22.825 Y20.607
X-22.912 Y21.263
X-22.97 Y21.923
X-23.008 Y22.585
X-23.032 Y23.247
X-23.047 Y23.909
X-23.057 Y24.571
X-23.063 Y25.234
X-23.066 Y25.896
X-23.07 Y27.221
X-23.071 Y29.87
X-23.072 Y42.088
X-23.076 Y42.192
X-23.089 Y42.297
X-23.111 Y42.399
X-23.611 Y44.347
G3 X-23.975 Y44.57 I-0.305 J-0.09 F600
G1 X-24.024 Y44.547 Z7.005
X-24.072 Y44.524 Z7.019
X-24.117 Y44.503 Z7.042
X-24.146 Y44.464 Z7.078
X-24.171 Y44.43 Z7.122
X-24.19 Y44.404 Z7.173
X-24.203 Y44.386 Z7.229
X-24.21 Y44.377 Z7.289
Y44.376 Z7.318
G0 Z20
X-20.771 Y14.21
Z7.635
G1 Z7.318 F600
X-20.767 Y14.216 Z7.247
X-20.755 Y14.237 Z7.18
X-20.735 Y14.269 Z7.12
X-20.71 Y14.312 Z7.069
X-20.679 Y14.364 Z7.031
X-20.645 Y14.422 Z7.008
X-20.609 Y14.482 Z7
G3 X-20.387 Y15.236 I-1.36 J0.809
G1 Y15.792 F1000
X-20.395 Y15.942
X-20.417 Y16.09
X-20.454 Y16.236
X-20.501 Y16.378
X-20.554 Y16.519
X-20.624 Y16.681
X-20.725 Y16.888
X-21.037 Y17.472
X-21.368 Y18.046
X-21.668 Y18.637
X-21.918 Y19.25
X-22.114 Y19.883
X-22.261 Y20.529
X-22.365 Y21.183
X-22.437 Y21.842
X-22.486 Y22.502
X-22.517 Y23.164
X-22.538 Y23.826
X-22.551 Y24.488
X-22.559 Y25.151
X-22.564 Y25.813
X-22.567 Y26.475
X-22.57 Y27.8
X-22.571 Y31.112
X-22.572 Y40.139
X-22.576 Y40.244
X-22.589 Y40.349
X-22.611 Y40.451
X-23.111 Y42.399
G3 X-23.475 Y42.622 I-0.305 J-0.09 F600
G1 X-23.524 Y42.599 Z7.005
X-23.572 Y42.576 Z7.019
X-23.617 Y42.555 Z7.042
X-23.646 Y42.516 Z7.078
X-23.671 Y42.482 Z7.122
X-23.69 Y42.456 Z7.173
X-23.703 Y42.438 Z7.229
X-23.71 Y42.429 Z7.289
Y42.428 Z7.318
G0 Z20
X-20.771 Y14.766
Z7.635
G1 Z7.318 F600
X-20.767 Y14.773 Z7.247
X-20.755 Y14.793 Z7.18
X-20.735 Y14.825 Z7.12
X-20.71 Y14.869 Z7.069
X-20.679 Y14.92 Z7.031
X-20.645 Y14.978 Z7.008
X-20.609 Y15.039 Z7
G3 X-20.387 Y15.792 I-1.36 J0.809
G1 Y16.477 F1000
X-20.395 Y16.627
X-20.415 Y16.775
X-20.446 Y16.922
X-20.485 Y17.067
X-20.539 Y17.238
X-20.643 Y17.525
X-20.894 Y18.138
X-21.159 Y18.745
X-21.395 Y19.364
X-21.588 Y19.998
X-21.736 Y20.644
X-21.845 Y21.297
X-21.922 Y21.955
X-21.974 Y22.615
X-22.009 Y23.277
X-22.032 Y23.939
X-22.047 Y24.601
X-22.056 Y25.263
X-22.062 Y25.926
X-22.066 Y26.588
X-22.069 Y27.913
X-22.071 Y30.563
X-22.072 Y38.191
X-22.076 Y38.296
X-22.089 Y38.4
X-22.111 Y38.503
X-22.611 Y40.451
G3 X-22.975 Y40.673 I-0.305 J-0.09 F600
G1 X-23.024 Y40.65 Z7.005
X-23.072 Y40.628 Z7.019
X-23.117 Y40.607 Z7.042
X-23.146 Y40.567 Z7.078
X-23.171 Y40.534 Z7.122
X-23.19 Y40.508 Z7.173
X-23.203 Y40.49 Z7.229
X-23.21 Y40.481 Z7.289
Y40.48 Z7.318
G0 Z20
X-20.771 Y15.45
Z7.635
G1 Z7.318 F600
X-20.767 Y15.457 Z7.247
X-20.755 Y15.477 Z7.18
X-20.735 Y15.51 Z7.12
X-20.71 Y15.553 Z7.069
X-20.679 Y15.605 Z7.031
X-20.645 Y15.663 Z7.008
X-20.609 Y15.723 Z7
G3 X-20.387 Y16.477 I-1.36 J0.809
G1 Y17.297 F1000
X-20.396 Y17.474
X-20.41 Y17.623
X-20.432 Y17.771
X-20.467 Y17.949
X-20.546 Y18.275
X-20.728 Y18.912
X-20.925 Y19.545
X-21.098 Y20.184
X-21.236 Y20.832
X-21.341 Y21.486
X-21.416 Y22.144
X-21.469 Y22.805
X-21.505 Y23.466
X-21.529 Y24.128
X-21.545 Y24.79
X-21.555 Y25.453
X-21.561 Y26.115
X-21.565 Y26.777
X-21.569 Y28.102
X-21.571 Y30.752
X-21.572 Y36.243
X-21.576 Y36.348
X-21.589 Y36.452
X-21.611 Y36.555
X-22.111 Y38.503
G3 X-22.475 Y38.725 I-0.305 J-0.09 F600
G1 X-22.524 Y38.702 Z7.005
X-22.572 Y38.68 Z7.019
X-22.617 Y38.659 Z7.042
X-22.646 Y38.619 Z7.078
X-22.671 Y38.586 Z7.122
X-22.69 Y38.56 Z7.173
X-22.703 Y38.542 Z7.229
X-22.71 Y38.533 Z7.289
Y38.532 Z7.318
G0 Z20
X-20.771 Y16.27
Z7.635
G1 Z7.318 F600
X-20.767 Y16.277 Z7.247
X-20.755 Y16.297 Z7.18
X-20.735 Y16.33 Z7.12
X-20.71 Y16.373 Z7.069
X-20.679 Y16.425 Z7.031
X-20.645 Y16.482 Z7.008
X-20.609 Y16.543 Z7
G3 X-20.387 Y17.297 I-1.36 J0.809
G1 Y18.583 F1000
X-20.399 Y18.82
X-20.421 Y19.059
X-20.482 Y19.507
X-20.598 Y20.159
X-20.716 Y20.811
X-20.816 Y21.466
X-20.894 Y22.124
X-20.951 Y22.784
X-20.991 Y23.445
X-21.019 Y24.107
X-21.038 Y24.769
X-21.05 Y25.431
X-21.058 Y26.094
X-21.063 Y26.756
X-21.066 Y27.418
X-21.07 Y28.743
X-21.071 Y31.393
X-21.072 Y34.295
X-21.076 Y34.4
X-21.089 Y34.504
X-21.111 Y34.607
X-21.611 Y36.555
G3 X-21.975 Y36.777 I-0.305 J-0.09 F600
G1 X-22.024 Y36.754 Z7.005
X-22.072 Y36.732 Z7.019
X-22.117 Y36.711 Z7.042
X-22.146 Y36.671 Z7.078
X-22.171 Y36.638 Z7.122
X-22.19 Y36.612 Z7.173
X-22.203 Y36.594 Z7.229
X-22.21 Y36.585 Z7.289
Y36.584 Z7.318
G0 Z20
X-20.771 Y17.557
Z7.635
G1 Z7.318 F600
X-20.767 Y17.563 Z7.247
X-20.755 Y17.584 Z7.18
X-20.735 Y17.616 Z7.12
X-20.71 Y17.659 Z7.069
X-20.679 Y17.711 Z7.031
X-20.645 Y17.769 Z7.008
X-20.609 Y17.829 Z7
G3 X-20.387 Y18.583 I-1.36 J0.809
G1 Y21.058 F1000
X-20.42 Y21.719
X-20.44 Y22.382
X-20.471 Y23.043
X-20.5 Y23.705
X-20.523 Y24.367
X-20.539 Y25.029
X-20.55 Y25.692
X-20.558 Y26.354
X-20.563 Y27.016
X-20.566 Y27.679
X-20.569 Y29.004
X-20.571 Y31.653
Y32.346
X-20.576 Y32.451
X-20.589 Y32.555
X-20.611 Y32.658
X-21.111 Y34.607
G3 X-21.475 Y34.829 I-0.305 J-0.09 F600
G1 X-21.524 Y34.806 Z7.005
X-21.572 Y34.784 Z7.019
X-21.617 Y34.763 Z7.042
X-21.646 Y34.723 Z7.078
X-21.671 Y34.689 Z7.122
X-21.69 Y34.663 Z7.173
X-21.703 Y34.645 Z7.229
X-21.71 Y34.637 Z7.289
Y34.635 Z7.318
G0 Z20
X-20.771 Y20.031
Z7.635
G1 Z7.318 F600
X-20.767 Y20.038 Z7.247
X-20.755 Y20.058 Z7.18
X-20.735 Y20.091 Z7.12
X-20.71 Y20.134 Z7.069
X-20.679 Y20.186 Z7.031
X-20.645 Y20.244 Z7.008
X-20.609 Y20.304 Z7
G3 X-20.387 Y21.058 I-1.36 J0.809
G1 Y31.589 F1000
X-20.389 Y31.739
X-20.397 Y31.815
X-20.414 Y31.89
X-20.611 Y32.658
G3 X-20.975 Y32.88 I-0.305 J-0.09 F600
G1 X-21.024 Y32.857 Z7.005
X-21.072 Y32.835 Z7.019
X-21.117 Y32.814 Z7.042
X-21.146 Y32.774 Z7.078
X-21.171 Y32.741 Z7.122
X-21.19 Y32.715 Z7.173
X-21.203 Y32.697 Z7.229
X-21.21 Y32.688 Z7.289
Y32.687 Z7.318
G0 Z20
X1.153 Y33.422
Z7.635
G1 Z7.318 F600
X1.147 Y33.417 Z7.247
X1.128 Y33.403 Z7.18
X1.098 Y33.38 Z7.12
X1.058 Y33.349 Z7.069
X1.01 Y33.313 Z7.031
X0.957 Y33.272 Z7.008
X0.901 Y33.23 Z7
G3 X0.412 Y32.614 I0.957 J-1.261
G1 X0.361 Y32.492 F1000
X0.253 Y32.304
X0.18 Y32.191
X0.137 Y32.127
X0.06 Y31.998
X-0.007 Y31.864
X-0.062 Y31.725
X-0.11 Y31.582
X-0.154 Y31.431
X-0.198 Y31.249
X-0.247 Y31.008
X-0.294 Y30.709
X-0.343 Y30.277
X-0.39 Y29.617
X-0.411 Y28.954
X-0.42 Y28.292
X-0.425 Y27.63
X-0.427 Y26.967
X-0.428 Y24.98
Y4.445
X-0.433 Y3.783
X-0.519 Y3.126
X-0.784 Y2.519
X-1.208 Y2.01
X-1.745 Y1.622
X-2.349 Y1.349
X-2.987 Y1.171
X-3.64 Y1.062
X-4.3 Y1
X-4.961 Y0.966
X-5.623 Y0.948
X-6.286 Y0.938
X-6.948 Y0.933
X-7.61 Y0.931
X-8.652 Y0.929
X-8.885 Y0.907
X-9.109 Y0.843
X-9.317 Y0.738
X-9.376 Y0.701
X-9.581 Y0.598
X-9.677 Y0.564
X-9.828 Y0.517
X-10.33 Y0.413
X-10.372 Y0.404
G3 X-10.581 Y0.259 I0.062 J-0.311 F600
G1 X-10.614 Y0.214
X-10.654 Y0.176
X-10.701 Y0.145
X-10.765 Y0.12 Z7.008
X-10.804 Y0.113 Z7.019
X-10.842 Y0.108 Z7.036
X-10.899 Y0.106 Z7.075
X-10.947 Y0.105 Z7.125
X-10.982 Y0.104 Z7.184
X-11.005 Y0.103 Z7.249
X-11.012 Z7.318
G0 Z20
X1.026 Y32.767
Z7.635
G1 Z7.318 F600
X1.019 Y32.764 Z7.247
X0.998 Y32.754 Z7.18
X0.964 Y32.737 Z7.12
X0.918 Y32.716 Z7.069
X0.864 Y32.69 Z7.031
X0.804 Y32.661 Z7.008
X0.74 Y32.63 Z7
G3 X0.137 Y32.127 I0.682 J-1.428
G1 X-0.123 Y31.739 F1000
X-0.226 Y31.589
X-0.246 Y31.565
X-0.338 Y31.446
X-0.413 Y31.316
X-0.477 Y31.181
X-0.532 Y31.041
X-0.58 Y30.899
X-0.632 Y30.721
X-0.684 Y30.509
X-0.733 Y30.266
X-0.786 Y29.934
X-0.837 Y29.493
X-0.886 Y28.832
X-0.908 Y28.17
X-0.919 Y27.508
X-0.924 Y26.846
X-0.926 Y26.183
X-0.928 Y24.196
Y4.986
X-0.935 Y4.323
X-1.028 Y3.668
X-1.293 Y3.061
X-1.713 Y2.549
X-2.246 Y2.154
X-2.846 Y1.875
X-3.483 Y1.691
X-4.135 Y1.577
X-4.794 Y1.51
X-5.456 Y1.472
X-6.118 Y1.452
X-6.78 Y1.441
X-7.442 Y1.435
X-7.908 Y1.433
X-8.16 Y1.406
X-8.402 Y1.329
X-8.624 Y1.206
X-8.85 Y1.049
X-8.925 Y0.998
X-9.226 Y0.797
X-9.317 Y0.738
G3 X-9.461 Y0.528 I0.169 J-0.269 F600
G1 X-9.476 Y0.474
X-9.5 Y0.424
X-9.533 Y0.379
X-9.583 Y0.332 Z7.008
X-9.637 Y0.31 Z7.027
X-9.685 Y0.29 Z7.057
X-9.728 Y0.272 Z7.096
X-9.758 Y0.269 Z7.132
X-9.791 Y0.268 Z7.189
X-9.811 Y0.267 Z7.252
X-9.818 Z7.318
G0 Z20
X0.714 Y32.094
Z7.635
G1 Z7.318 F600
X0.706 Y32.091 Z7.247
X0.684 Y32.083 Z7.18
X0.648 Y32.071 Z7.12
X0.6 Y32.055 Z7.069
X0.543 Y32.036 Z7.031
X0.48 Y32.015 Z7.008
X0.413 Y31.992 Z7
G3 X-0.246 Y31.565 I0.505 J-1.5
G1 X-0.355 Y31.438 F1000
X-0.427 Y31.359
X-0.5 Y31.304
X-0.616 Y31.21
X-0.713 Y31.095
X-0.796 Y30.97
X-0.868 Y30.839
X-0.932 Y30.703
X-0.988 Y30.564
X-1.044 Y30.403
X-1.095 Y30.235
X-1.152 Y30.014
X-1.21 Y29.744
X-1.263 Y29.427
X-1.318 Y28.994
X-1.373 Y28.352
X-1.401 Y27.69
X-1.415 Y27.028
X-1.422 Y26.366
X-1.425 Y25.703
X-1.428 Y24.379
Y17.092
Y5.831
X-1.43 Y5.168
X-1.468 Y4.507
X-1.651 Y3.87
X-2.002 Y3.309
X-2.486 Y2.856
X-3.057 Y2.52
X-3.677 Y2.288
X-4.322 Y2.138
X-4.978 Y2.047
X-5.639 Y1.993
X-6.3 Y1.963
X-7.328 Y1.937
X-7.399 Y1.933
X-7.65 Y1.891
X-7.89 Y1.803
X-8.108 Y1.671
X-8.298 Y1.5
X-8.438 Y1.35
X-8.473 Y1.319
X-8.624 Y1.206
G3 X-8.69 Y0.785 I0.199 J-0.247 F600
G1 X-8.65 Y0.748 Z7.005
X-8.612 Y0.712 Z7.019
X-8.575 Y0.679 Z7.042
X-8.53 Y0.668 Z7.076
X-8.491 Y0.658 Z7.117
X-8.46 Y0.65 Z7.165
X-8.437 Y0.644 Z7.218
X-8.425 Y0.641 Z7.274
X-8.422 Z7.318
G0 Z20
X0.556 Y31.599
Z7.635
G1 Z7.318 F600
X0.548 Y31.598 Z7.247
X0.525 Y31.596 Z7.18
X0.487 Y31.592 Z7.12
X0.437 Y31.588 Z7.069
X0.377 Y31.582 Z7.031
X0.31 Y31.576 Z7.008
X0.24 Y31.569 Z7
G3 X-0.5 Y31.304 I0.147 J-1.576
G1 X-0.8 Y31.085 F1000
X-0.843 Y31.055
X-0.962 Y30.964
X-1.067 Y30.857
X-1.16 Y30.739
X-1.241 Y30.613
X-1.314 Y30.482
X-1.378 Y30.346
X-1.436 Y30.208
X-1.495 Y30.046
X-1.554 Y29.862
X-1.613 Y29.646
X-1.679 Y29.359
X-1.734 Y29.059
X-1.794 Y28.639
X-1.851 Y28.065
X-1.889 Y27.404
X-1.908 Y26.741
X-1.918 Y26.079
X-1.923 Y25.417
X-1.926 Y24.754
X-1.928 Y23.429
Y9.519
X-1.929 Y6.207
X-1.935 Y5.544
X-1.999 Y4.885
X-2.223 Y4.261
X-2.605 Y3.72
X-3.109 Y3.291
X-3.692 Y2.975
X-4.318 Y2.76
X-4.966 Y2.622
X-5.623 Y2.538
X-6.284 Y2.49
X-6.733 Y2.467
X-6.934 Y2.448
X-7.111 Y2.424
X-7.264 Y2.397
X-7.491 Y2.323
X-7.7 Y2.208
X-7.884 Y2.054
X-8.035 Y1.869
X-8.081 Y1.801
X-8.184 Y1.651
X-8.298 Y1.5
G3 X-8.245 Y1.077 I0.26 J-0.183 F600
G1 X-8.197 Y1.053 Z7.005
X-8.149 Y1.029 Z7.019
X-8.105 Y1.007 Z7.042
X-8.07 Y1.003 Z7.066
X-8.038 Y1 Z7.094
X-8 Y1.006 Z7.142
X-7.971 Y1.01 Z7.197
X-7.953 Y1.012 Z7.256
X-7.948 Y1.013 Z7.317
G0 Z20
X0.219 Y31.327
Z7.635
G1 Z7.318 F600
X0.211 Z7.247
X0.187 Y31.325 Z7.18
X0.149 Y31.322 Z7.12
X0.099 Y31.319 Z7.069
X0.039 Y31.314 Z7.031
X-0.028 Y31.31 Z7.008
X-0.098 Y31.304 Z7
G3 X-0.843 Y31.055 I0.114 J-1.578
G1 X-0.951 Y30.98 F1000
X-1.252 Y30.78
X-1.376 Y30.696
X-1.482 Y30.59
X-1.577 Y30.474
X-1.661 Y30.35
X-1.737 Y30.22
X-1.805 Y30.087
X-1.868 Y29.948
X-1.926 Y29.801
X-1.993 Y29.612
X-2.053 Y29.416
X-2.121 Y29.153
X-2.182 Y28.87
X-2.248 Y28.485
X-2.307 Y28.032
X-2.364 Y27.372
X-2.394 Y26.711
X-2.41 Y26.048
X-2.419 Y25.386
X-2.423 Y24.724
X-2.426 Y24.061
X-2.428 Y22.736
Y10.151
Y6.838
X-2.431 Y6.176
X-2.483 Y5.516
X-2.679 Y4.883
X-3.036 Y4.325
X-3.521 Y3.874
X-4.092 Y3.537
X-4.712 Y3.304
X-5.356 Y3.151
X-6.012 Y3.056
X-6.482 Y3.001
X-6.728 Y2.962
X-6.88 Y2.931
X-6.95 Y2.914
X-7.177 Y2.834
X-7.385 Y2.712
X-7.566 Y2.552
X-7.713 Y2.361
X-7.781 Y2.252
X-7.88 Y2.102
X-8.035 Y1.869
G3 X-7.957 Y1.45 I0.27 J-0.167 F600
G1 X-7.907 Y1.429 Z7.005
X-7.859 Y1.408 Z7.019
X-7.813 Y1.389 Z7.042
X-7.765 Y1.385 Z7.077
X-7.719 Y1.393 Z7.126
X-7.685 Y1.399 Z7.185
X-7.664 Y1.403 Z7.249
X-7.656 Y1.404 Z7.317
G0 Z20
X-0.176 Y30.987
Z7.635
G1 Z7.318 F600
X-0.184 Z7.247
X-0.207 Z7.18
X-0.245 Y30.986 Z7.12
X-0.295 Z7.069
X-0.355 Y30.985 Z7.031
X-0.422 Y30.984 Z7.008
X-0.493 Y30.983 Z7
G3 X-1.252 Y30.78 I0.017 J-1.582
G1 X-1.407 Y30.686 F1000
X-1.553 Y30.61
X-1.598 Y30.594
X-1.736 Y30.535
X-1.848 Y30.435
X-1.949 Y30.324
X-2.04 Y30.205
X-2.122 Y30.079
X-2.197 Y29.949
X-2.265 Y29.815
X-2.328 Y29.677
X-2.396 Y29.506
X-2.462 Y29.321
X-2.534 Y29.09
X-2.598 Y28.845
X-2.67 Y28.516
X-2.734 Y28.152
X-2.798 Y27.662
X-2.857 Y27.002
X-2.89 Y26.34
X-2.907 Y25.678
X-2.917 Y25.016
X-2.922 Y24.353
X-2.925 Y23.691
X-2.927 Y22.366
X-2.928 Y16.404
X-2.929 Y7.131
X-2.941 Y6.468
X-3.036 Y5.813
X-3.286 Y5.199
X-3.69 Y4.675
X-4.208 Y4.261
X-4.797 Y3.959
X-5.426 Y3.75
X-6.072 Y3.606
X-6.395 Y3.537
X-6.572 Y3.491
X-6.727 Y3.444
X-6.849 Y3.401
X-7.092 Y3.282
X-7.3 Y3.111
X-7.463 Y2.895
X-7.571 Y2.648
X-7.614 Y2.553
X-7.687 Y2.403
X-7.713 Y2.361
G3 X-7.623 Y1.944 I0.275 J-0.159 F600
G1 X-7.572 Y1.924 Z7.005
X-7.523 Y1.905 Z7.019
X-7.477 Y1.887 Z7.042
X-7.438 Y1.885 Z7.069
X-7.389 Y1.894 Z7.119
X-7.352 Y1.901 Z7.179
X-7.329 Y1.906 Z7.246
X-7.321 Y1.907 Z7.317
G0 Z20
X-0.502 Y30.589
Z7.635
G1 Z7.318 F600
X-0.51 Y30.591 Z7.247
X-0.533 Y30.595 Z7.18
X-0.571 Y30.602 Z7.12
X-0.62 Y30.611 Z7.069
X-0.679 Y30.622 Z7.031
X-0.745 Y30.634 Z7.008
X-0.815 Y30.647 Z7
G3 X-1.598 Y30.594 I-0.288 J-1.556
G1 X-1.757 Y30.536 F1000
X-1.854 Y30.513
X-1.999 Y30.474
X-2.125 Y30.393
X-2.239 Y30.296
X-2.343 Y30.188
X-2.437 Y30.071
X-2.523 Y29.948
X-2.602 Y29.821
X-2.674 Y29.689
X-2.743 Y29.549
X-2.814 Y29.388
X-2.887 Y29.202
X-2.957 Y28.998
X-3.033 Y28.742
X-3.101 Y28.47
X-3.179 Y28.096
X-3.243 Y27.706
X-3.309 Y27.161
X-3.361 Y26.501
X-3.391 Y25.839
X-3.407 Y25.177
X-3.417 Y24.515
X-3.422 Y23.852
X-3.425 Y23.19
X-3.427 Y21.865
X-3.428 Y16.566
X-3.429 Y7.954
X-3.432 Y7.292
X-3.474 Y6.631
X-3.648 Y5.992
X-3.985 Y5.422
X-4.454 Y4.954
X-5.012 Y4.596
X-5.62 Y4.334
X-6.249 Y4.125
X-6.503 Y4.032
X-6.642 Y3.974
X-6.778 Y3.91
X-6.826 Y3.885
X-7.057 Y3.73
X-7.248 Y3.527
X-7.389 Y3.287
X-7.474 Y3.022
X-7.509 Y2.854
X-7.571 Y2.648
G3 X-7.375 Y2.269 I0.307 J-0.082 F600
G1 X-7.318 Y2.259 Z7.005
X-7.264 Y2.249 Z7.021
X-7.204 Y2.264 Z7.053
X-7.153 Y2.277 Z7.098
X-7.112 Y2.288 Z7.153
X-7.091 Y2.301 Z7.205
X-7.078 Y2.31 Z7.26
X-7.074 Y2.313 Z7.317
G0 Z20
X-0.77 Y30.35
Z7.635
G1 Z7.318 F600
X-0.777 Y30.353 Z7.247
X-0.8 Y30.36 Z7.18
X-0.835 Y30.373 Z7.12
X-0.883 Y30.389 Z7.069
X-0.94 Y30.408 Z7.031
X-1.004 Y30.43 Z7.008
X-1.071 Y30.453 Z7
G3 X-1.854 Y30.513 I-0.509 J-1.498
G1 X-2.155 Y30.449 F1000
X-2.3 Y30.411
X-2.434 Y30.344
X-2.556 Y30.257
X-2.668 Y30.157
X-2.771 Y30.048
X-2.865 Y29.931
X-2.952 Y29.809
X-3.033 Y29.682
X-3.107 Y29.552
X-3.183 Y29.403
X-3.254 Y29.247
X-3.334 Y29.052
X-3.409 Y28.843
X-3.485 Y28.6
X-3.564 Y28.307
X-3.637 Y27.982
X-3.714 Y27.551
X-3.781 Y27.06
X-3.843 Y26.4
X-3.879 Y25.739
X-3.9 Y25.076
X-3.912 Y24.414
X-3.919 Y23.752
X-3.923 Y23.089
X-3.927 Y21.765
X-3.928 Y18.452
Y8.516
X-3.931 Y7.854
X-3.969 Y7.193
X-4.133 Y6.551
X-4.457 Y5.973
X-4.913 Y5.492
X-5.456 Y5.112
X-6.044 Y4.808
X-6.363 Y4.657
X-6.583 Y4.541
X-6.713 Y4.466
X-6.843 Y4.381
X-6.854 Y4.374
X-7.035 Y4.218
X-7.183 Y4.031
X-7.293 Y3.82
X-7.361 Y3.591
X-7.474 Y3.022
G3 X-7.243 Y2.663 I0.313 J-0.052 F600
G1 X-7.202 Y2.658 Z7.003
X-7.162 Y2.653 Z7.011
X-7.161
X-7.105 Y2.667 Z7.034
X-7.053 Y2.68 Z7.068
X-7.01 Y2.691 Z7.111
X-6.983 Y2.71 Z7.157
X-6.963 Y2.724 Z7.207
X-6.952 Y2.732 Z7.261
X-6.947 Y2.735 Z7.317
G0 Z20
X-1.072 Y30.282
Z7.635
G1 Z7.318 F600
X-1.079 Y30.284 Z7.247
X-1.101 Y30.292 Z7.18
X-1.137 Y30.304 Z7.12
X-1.185 Y30.321 Z7.069
X-1.241 Y30.34 Z7.031
X-1.305 Y30.362 Z7.008
X-1.372 Y30.385 Z7
G3 X-2.155 Y30.449 I-0.516 J-1.496
G1 X-2.305 Y30.418 F1000
X-2.511 Y30.377
X-2.657 Y30.341
X-2.793 Y30.279
X-2.919 Y30.197
X-3.035 Y30.102
X-3.143 Y29.997
X-3.242 Y29.885
X-3.334 Y29.766
X-3.419 Y29.643
X-3.497 Y29.515
X-3.571 Y29.383
X-3.652 Y29.224
X-3.731 Y29.049
X-3.81 Y28.854
X-3.895 Y28.615
X-3.973 Y28.365
X-4.056 Y28.049
X-4.133 Y27.7
X-4.21 Y27.263
X-4.283 Y26.719
X-4.342 Y26.059
X-4.378 Y25.397
X-4.399 Y24.735
X-4.411 Y24.073
X-4.419 Y23.411
X-4.423 Y22.748
X-4.425 Y22.086
X-4.427 Y20.761
X-4.428 Y14.799
X-4.429 Y8.837
X-4.437 Y8.175
X-4.5 Y7.516
X-4.709 Y6.887
X-5.065 Y6.328
X-5.534 Y5.86
X-6.069 Y5.47
X-6.494 Y5.198
X-6.678 Y5.07
X-6.8 Y4.977
X-6.864 Y4.923
X-7.047 Y4.735
X-7.186 Y4.515
X-7.277 Y4.27
X-7.314 Y4.011
X-7.319 Y3.907
X-7.333 Y3.757
X-7.361 Y3.591
X-7.365 Y3.541 F600
G3 X-7.128 Y3.233 I0.318 J0
G1 X-7.088 Y3.228 Z7.003
X-7.048 Y3.223 Z7.011
X-6.991 Y3.237 Z7.033
X-6.94 Y3.25 Z7.066
X-6.896 Y3.262 Z7.109
X-6.869 Y3.281 Z7.155
X-6.849 Y3.295 Z7.206
X-6.837 Y3.304 Z7.261
X-6.833 Y3.307 Z7.317
G0 Z20
X-1.431 Y30.197
Z7.635
G1 Z7.318 F600
X-1.438 Y30.2 Z7.247
X-1.46 Y30.208 Z7.18
X-1.496 Y30.221 Z7.12
X-1.543 Y30.238 Z7.069
X-1.6 Y30.258 Z7.031
X-1.663 Y30.28 Z7.008
X-1.729 Y30.304 Z7
G3 X-2.511 Y30.377 I-0.534 J-1.49
G1 X-2.606 Y30.359 F1000
X-2.756 Y30.334
X-2.802 Y30.332
X-2.951 Y30.317
X-3.093 Y30.269
X-3.226 Y30.199
X-3.349 Y30.114
X-3.464 Y30.017
X-3.57 Y29.911
X-3.67 Y29.799
X-3.762 Y29.68
X-3.848 Y29.558
X-3.928 Y29.431
X-4.012 Y29.286
X-4.093 Y29.13
X-4.177 Y28.949
X-4.265 Y28.738
X-4.347 Y28.518
X-4.435 Y28.244
X-4.518 Y27.941
X-4.601 Y27.585
X-4.686 Y27.131
X-4.758 Y26.63
X-4.825 Y25.971
X-4.866 Y25.31
X-4.891 Y24.648
X-4.907 Y23.986
X-4.916 Y23.324
X-4.921 Y22.661
X-4.924 Y21.999
X-4.927 Y20.674
X-4.928 Y17.362
X-4.929 Y9.413
X-4.933 Y8.75
X-4.989 Y8.09
X-5.174 Y7.454
X-5.5 Y6.878
X-5.931 Y6.375
X-6.426 Y5.935
X-6.707 Y5.698
X-6.833 Y5.583
X-6.955 Y5.46
X-6.981 Y5.432
X-7.122 Y5.247
X-7.227 Y5.038
X-7.291 Y4.815
X-7.312 Y4.583
Y4.058
X-7.314 Y4.011
G3 X-7.03 Y3.693 I0.317 J-0.002 F600
G1 X-6.998 Y3.692 Z7.002
X-6.997
X-6.943 Y3.705 Z7.013
X-6.892 Y3.718 Z7.034
X-6.845 Y3.73 Z7.064
X-6.812 Y3.758 Z7.103
X-6.785 Y3.78 Z7.15
X-6.765 Y3.797 Z7.203
X-6.753 Y3.807 Z7.259
X-6.749 Y3.811 Z7.317
G0 Z20
X-1.758 Y29.998
Z7.635
G1 Z7.318 F600
X-1.765 Y30.002 Z7.247
X-1.786 Y30.013 Z7.18
X-1.819 Y30.03 Z7.12
X-1.864 Y30.054 Z7.069
X-1.917 Y30.082 Z7.031
X-1.976 Y30.114 Z7.008
X-2.038 Y30.147 Z7
G3 X-2.802 Y30.332 I-0.742 J-1.398
G1 X-3.177 Y30.314 F1000
X-3.327 Y30.3
X-3.468 Y30.25
X-3.601 Y30.18
X-3.726 Y30.097
X-3.842 Y30.003
X-3.951 Y29.9
X-4.053 Y29.79
X-4.149 Y29.674
X-4.239 Y29.554
X-4.324 Y29.426
X-4.407 Y29.291
X-4.495 Y29.134
X-4.586 Y28.953
X-4.672 Y28.764
X-4.763 Y28.537
X-4.854 Y28.28
X-4.942 Y27.992
X-5.034 Y27.641
X-5.118 Y27.258
X-5.199 Y26.788
X-5.276 Y26.2
X-5.335 Y25.54
X-5.371 Y24.878
X-5.394 Y24.216
X-5.407 Y23.554
X-5.416 Y22.892
X-5.421 Y22.229
X-5.424 Y21.567
X-5.427 Y20.242
X-5.428 Y16.93
Y10.306
X-5.429 Y9.643
X-5.446 Y8.981
X-5.543 Y8.326
X-5.77 Y7.704
X-6.115 Y7.138
X-6.539 Y6.629
X-6.87 Y6.278
X-6.996 Y6.133
X-7.039 Y6.079
X-7.188 Y5.841
X-7.281 Y5.576
X-7.312 Y5.298
Y4.583
G3 X-7.015 Y4.277 I0.317 J0.011 F600
G1 X-6.995 Y4.276 Z7.001
X-6.942 Y4.29 Z7.009
X-6.891 Y4.303 Z7.027
X-6.844 Y4.315 Z7.054
X-6.808 Y4.346 Z7.094
X-6.779 Y4.372 Z7.142
X-6.757 Y4.39 Z7.197
X-6.744 Y4.402 Z7.256
X-6.739 Y4.406 Z7.317
G0 Z20
X-2.134 Y29.977
Z7.635
G1 Z7.318 F600
X-2.141 Y29.981 Z7.247
X-2.162 Y29.992 Z7.18
X-2.196 Y30.01 Z7.12
X-2.24 Y30.034 Z7.069
X-2.293 Y30.062 Z7.031
X-2.352 Y30.094 Z7.008
X-2.414 Y30.127 Z7
G3 X-3.177 Y30.314 I-0.746 J-1.395
G1 X-3.208 Y30.312 F1000
X-3.478
X-3.628 Y30.305
X-3.773 Y30.269
X-3.912 Y30.21
X-4.042 Y30.135
X-4.164 Y30.049
X-4.279 Y29.952
X-4.387 Y29.848
X-4.489 Y29.738
X-4.584 Y29.622
X-4.674 Y29.502
X-4.761 Y29.375
X-4.854 Y29.225
X-4.943 Y29.067
X-5.035 Y28.886
X-5.134 Y28.671
X-5.224 Y28.449
X-5.319 Y28.186
X-5.417 Y27.873
X-5.504 Y27.55
X-5.596 Y27.138
X-5.685 Y26.643
X-5.762 Y26.079
X-5.824 Y25.419
X-5.863 Y24.758
X-5.888 Y24.096
X-5.904 Y23.434
X-5.913 Y22.771
X-5.919 Y22.109
X-5.923 Y21.447
X-5.927 Y20.122
X-5.928 Y17.472
X-5.929 Y10.185
X-5.943 Y9.523
X-6.025 Y8.866
X-6.218 Y8.232
X-6.52 Y7.643
X-6.898 Y7.099
X-7.072 Y6.86
X-7.204 Y6.633
X-7.285 Y6.383
X-7.312 Y6.122
Y5.298
G3 X-7.015 Y4.992 I0.317 J0.011 F600
G1 X-6.995 Y4.991 Z7.001
X-6.942 Y5.005 Z7.009
X-6.891 Y5.018 Z7.027
X-6.844 Y5.03 Z7.054
X-6.808 Y5.061 Z7.094
X-6.779 Y5.086 Z7.142
X-6.757 Y5.105 Z7.197
X-6.744 Y5.117 Z7.256
X-6.739 Y5.121 Z7.317
G0 Z20
X-2.452 Y29.929
Z7.635
G1 Z7.318 F600
X-2.458 Y29.933 Z7.247
X-2.479 Y29.945 Z7.18
X-2.511 Y29.964 Z7.12
X-2.554 Y29.99 Z7.069
X-2.606 Y30.021 Z7.031
X-2.664 Y30.055 Z7.008
X-2.725 Y30.091 Z7
G3 X-3.478 Y30.312 I-0.809 J-1.36
G1 X-3.855 F1000
X-4.005 Y30.305
X-4.151 Y30.27
X-4.29 Y30.213
X-4.421 Y30.141
X-4.545 Y30.057
X-4.662 Y29.963
X-4.773 Y29.862
X-4.877 Y29.754
X-4.975 Y29.641
X-5.068 Y29.523
X-5.162 Y29.391
X-5.252 Y29.254
X-5.348 Y29.094
X-5.448 Y28.909
X-5.543 Y28.715
X-5.642 Y28.489
X-5.744 Y28.226
X-5.837 Y27.951
X-5.938 Y27.61
X-6.037 Y27.211
X-6.122 Y26.795
X-6.209 Y26.258
X-6.287 Y25.6
X-6.338 Y24.94
X-6.371 Y24.278
X-6.393 Y23.616
X-6.406 Y22.954
X-6.415 Y22.291
X-6.42 Y21.629
X-6.423 Y20.967
X-6.427 Y19.642
X-6.428 Y16.33
X-6.429 Y11.03
X-6.433 Y10.368
X-6.465 Y9.706
X-6.579 Y9.054
X-6.795 Y8.428
X-7.095 Y7.837
X-7.149 Y7.741
X-7.239 Y7.545
X-7.294 Y7.336
X-7.312 Y7.122
Y6.122
G3 X-7.015 Y5.816 I0.317 J0.011 F600
G1 X-6.995 Z7.001
X-6.942 Y5.829 Z7.009
X-6.891 Y5.842 Z7.027
X-6.844 Y5.854 Z7.054
X-6.808 Y5.885 Z7.094
X-6.779 Y5.911 Z7.142
X-6.757 Y5.93 Z7.197
X-6.744 Y5.941 Z7.256
X-6.739 Y5.945 Z7.317
G0 Z20
X-2.829 Y29.929
Z7.635
G1 Z7.318 F600
X-2.835 Y29.933 Z7.247
X-2.856 Y29.945 Z7.18
X-2.888 Y29.964 Z7.12
X-2.931 Y29.99 Z7.069
X-2.983 Y30.021 Z7.031
X-3.041 Y30.055 Z7.008
X-3.101 Y30.091 Z7
G3 X-3.855 Y30.312 I-0.809 J-1.36
G1 X-4.261 F1000
X-4.411 Y30.305
X-4.556 Y30.268
X-4.695 Y30.211
X-4.827 Y30.139
X-4.951 Y30.056
X-5.069 Y29.963
X-5.181 Y29.863
X-5.286 Y29.756
X-5.386 Y29.645
X-5.481 Y29.528
X-5.577 Y29.397
X-5.674 Y29.256
X-5.772 Y29.097
X-5.874 Y28.915
X-5.975 Y28.716
X-6.076 Y28.494
X-6.183 Y28.229
X-6.286 Y27.943
X-6.383 Y27.63
X-6.485 Y27.245
X-6.583 Y26.803
X-6.67 Y26.31
X-6.755 Y25.678
X-6.815 Y25.018
X-6.855 Y24.357
X-6.882 Y23.695
X-6.899 Y23.033
X-6.91 Y22.37
X-6.917 Y21.708
X-6.921 Y21.046
X-6.924 Y20.383
X-6.927 Y19.058
X-6.928 Y15.746
Y11.772
X-6.93 Y11.109
X-6.944 Y10.447
X-7.008 Y9.788
X-7.159 Y9.143
X-7.236 Y8.934
X-7.278 Y8.793
X-7.304 Y8.649
X-7.312 Y8.502
Y7.122
G3 X-7.015 Y6.816 I0.317 J0.011 F600
G1 X-6.995 Y6.815 Z7.001
X-6.942 Y6.829 Z7.009
X-6.891 Y6.842 Z7.027
X-6.844 Y6.854 Z7.054
X-6.808 Y6.885 Z7.094
X-6.779 Y6.911 Z7.142
X-6.757 Y6.93 Z7.197
X-6.744 Y6.941 Z7.256
X-6.739 Y6.945 Z7.317
G0 Z7.635
X-3.234 Y29.929
G1 Z7.318 F600
X-3.241 Y29.933 Z7.247
X-3.261 Y29.945 Z7.18
X-3.294 Y29.964 Z7.12
X-3.337 Y29.99 Z7.069
X-3.389 Y30.021 Z7.031
X-3.447 Y30.055 Z7.008
X-3.507 Y30.091 Z7
G3 X-4.261 Y30.312 I-0.809 J-1.36
G1 X-4.644 F1000
X-4.794 Y30.305
X-4.941 Y30.273
X-5.081 Y30.22
X-5.215 Y30.151
X-5.341 Y30.071
X-5.461 Y29.981
X-5.575 Y29.883
X-5.683 Y29.779
X-5.785 Y29.67
X-5.882 Y29.555
X-5.982 Y29.426
X-6.078 Y29.291
X-6.181 Y29.132
X-6.288 Y28.95
X-6.39 Y28.761
X-6.495 Y28.543
X-6.606 Y28.285
X-6.709 Y28.015
X-6.814 Y27.699
X-6.921 Y27.328
X-7.021 Y26.917
X-7.115 Y26.446
X-7.206 Y25.864
X-7.28 Y25.206
X-7.311 Y24.802
X-7.312 Y24.738
G3 X-6.984 Y24.432 Z7.2 I0.317 J0.011 F600
G1 X-6.923 Y24.44
X-6.864 Y24.46
X-6.811 Y24.491
X-6.764 Y24.532
X-6.731 Y24.574 F1000
X-6.705 Y24.62
X-4.417 Y29.751
X-4.366 Y29.866 F600
X-4.346 Y29.924
X-4.338 Y29.984
G3 X-4.644 Y30.312 Z7 I-0.317 J0.011
G1 X-5.059 F1000
X-5.208 Y30.305
X-5.355 Y30.273
X-5.496 Y30.221
X-5.629 Y30.153
X-5.757 Y30.074
X-5.878 Y29.985
X-5.992 Y29.889
X-6.102 Y29.785
X-6.205 Y29.677
X-6.304 Y29.564
X-6.404 Y29.437
X-6.507 Y29.297
X-6.609 Y29.143
X-6.717 Y28.965
X-6.827 Y28.767
X-6.932 Y28.554
X-7.045 Y28.302
X-7.159 Y28.015
X-7.243 Y27.775
X-7.281 Y27.64
X-7.305 Y27.502
X-7.312 Y27.362
G3 X-6.984 Y27.055 Z7.2 I0.317 J0.011 F600
G1 X-6.923 Y27.064
X-6.864 Y27.084
X-6.811 Y27.114
X-6.764 Y27.155
X-6.739 Y27.185 F1000
X-4.848 Y29.76
X-4.814 Y29.807 F600
X-4.782 Y29.862
X-4.761 Y29.922
X-4.752 Y29.984
G3 X-5.059 Y30.312 Z7 I-0.317 J0.011
G1 X-5.51 F1000
X-5.66 Y30.305
X-5.805 Y30.268
X-5.944 Y30.212
X-6.077 Y30.142
X-6.204 Y30.062
X-6.324 Y29.972
X-6.438 Y29.875
X-6.547 Y29.772
X-6.651 Y29.664
X-6.749 Y29.551
X-6.851 Y29.423
X-6.96 Y29.276
X-7.063 Y29.121
X-7.128 Y29.014
X-7.23 Y28.809
X-7.292 Y28.588
X-7.312 Y28.36
G3 X-6.984 Y28.054 Z7.2 I0.317 J0.011 F600
G1 X-6.923 Y28.062
X-6.864 Y28.082
X-6.811 Y28.113
X-6.764 Y28.154
X-6.76 Y28.158 F1000
X-5.303 Y29.763
X-5.286 Y29.782 F600
X-5.252 Y29.826
X-5.227 Y29.876
X-5.21 Y29.929
X-5.204 Y29.984
G3 X-5.51 Y30.312 Z7 I-0.317 J0.011
G1 X-5.916 F1000
X-6.066 Y30.305
X-6.212 Y30.272
X-6.353 Y30.22
X-6.487 Y30.153
X-6.615 Y30.075
X-6.737 Y29.988
X-6.853 Y29.893
X-6.906 Y29.844
X-7.078 Y29.65
X-7.206 Y29.424
X-7.286 Y29.177
X-7.312 Y28.919
G3 X-6.984 Y28.613 Z7.2 I0.317 J0.011 F600
G1 X-6.925 Y28.621
X-6.869 Y28.639
X-6.817 Y28.668
X-6.771 Y28.706
X-6.764 Y28.713
X-5.709 Y29.764 F1000
X-5.703 Y29.77 F600
X-5.665 Y29.816
X-5.636 Y29.868
X-5.617 Y29.925
X-5.61 Y29.984
G3 X-5.916 Y30.312 Z7 I-0.317 J0.011
G1 X-6.337 F1000
X-6.486 Y30.305
X-6.633 Y30.275
X-6.858 Y30.16
X-7.048 Y29.994
X-7.192 Y29.787
X-7.282 Y29.552
X-7.312 Y29.302
G3 X-6.984 Y28.996 Z7.2 I0.317 J0.011 F600
G1 X-6.923 Y29.004
X-6.865 Y29.023
X-6.811 Y29.054
X-6.765 Y29.094
X-6.764 Y29.095
X-6.13 Y29.764 F1000
X-6.117 Y29.777 F600
X-6.082 Y29.822
X-6.055 Y29.873
X-6.038 Y29.927
X-6.03 Y29.984
G3 X-6.337 Y30.312 Z7 I-0.317 J0.011
G1 X-6.714 F1000
X-6.745
X-6.786
X-6.833 Y30.309
G3 X-7.002 Y30.089 I0.043 J-0.208 F600
X-6.581 Y30.113 I0.21 J0.012
X-6.786 Y30.312 I-0.21 J-0.012
G1 X-6.818 Y30.311 F1000
X-6.864 Y30.304
X-6.896 Y30.298
X-6.936 Y30.291
X-7.059 Y30.264
X-7.07 Y30.237 Z7.012 F600
G3 X-6.926 Y29.834 Z7.2 I0.293 J-0.123
G1 X-6.899 Y29.821
X-6.697 Y29.738
X-6.391 Y29.611 F1000
G3 X-5.975 Y29.786 I0.122 J0.293
X-6.156 Y30.2 I-0.295 J0.118
G1 X-6.2 Y30.217
X-6.319 Y30.253 F600
X-6.44 Y30.28
G3 X-6.936 Y30.291 Z7 I-0.284 J-1.557
G1 X-6.969 Y30.286 F1000
X-7.044 Y30.269
X-7.082 Y30.255
X-7.119 Y30.236
X-7.12 Y30.235
X-7.166 Y30.197
X-7.186 Y30.179
X-7.204 Y30.16
G3 X-7.185 Y29.839 I0.212 J-0.148 F600
X-6.801 Y30.183 I0.192 J0.172
X-7.12 Y30.235 I-0.192 J-0.172
G1 X-7.162 Y30.204 F1000
X-7.204 Y30.16
X-7.233 Y30.122
X-7.253 Y30.084
X-7.27 Y30.041
X-7.293 Y29.934
X-7.307 Y29.859
X-7.312 Y29.784
Y8.502
G3 X-7.015 Y8.196 I0.317 J0.011 F600
G1 X-6.995 Z7.001
X-6.942 Y8.209 Z7.009
X-6.891 Y8.222 Z7.027
X-6.844 Y8.234 Z7.054
X-6.808 Y8.265 Z7.094
X-6.779 Y8.291 Z7.142
X-6.757 Y8.31 Z7.197
X-6.744 Y8.321 Z7.256
X-6.739 Y8.325 Z7.317
G0 Z20
X-42.969 Y126.647
Z7.518
G1 Z7.2 F600
X-42.895 Y126.747
X-42.83 Y126.852
G3 X-42.654 Y127.316 Z7 I-1.374 J0.785
G1 X-42.636 Y127.421 F1000
X-42.546 Y127.873
X-42.485 Y128.174
X-42.475 Y128.209
X-42.436 Y128.324
X-42.377 Y128.474
X-42.137 Y129.092
X-41.82 Y129.674
X-41.359 Y130.149
X-40.798 Y130.501
X-40.18 Y130.74
X-39.534 Y130.889
X-38.878 Y130.975
X-38.217 Y131.022
X-37.555 Y131.047
X-36.893 Y131.059
X-36.23 Y131.066
X-35.568 Y131.069
X-34.243 Y131.071
X-20.995 Y131.072
X-2.447
X-1.798 Y130.941
X-1.22 Y130.616
X-0.762 Y130.138
X-0.612 Y129.877
X-0.55 Y129.78
X-0.479 Y129.688
X-0.4 Y129.603
X-0.349 Y129.554
X-0.327 Y129.528
X-0.199 Y129.373
X0.001 Y129.076
X0.253 Y128.699
X0.296 Y128.625
X0.377 Y128.474
X0.403 Y128.411
X0.436 Y128.324
X0.482 Y128.174
X0.517 Y128.023
X0.533 Y127.941
G3 X1.13 Y127.879 I0.309 J0.073 F600
G1 X1.16 Y127.943 Z7.008
X1.188 Y128.004 Z7.031
X1.214 Y128.059 Z7.069
X1.235 Y128.104 Z7.12
X1.251 Y128.138 Z7.18
X1.261 Y128.16 Z7.247
X1.264 Y128.167 Z7.318
G0 Z20
X-43.204 Y127.755
Z7.635
G1 Z7.318 F600
X-43.197 Y127.759 Z7.247
X-43.177 Y127.771 Z7.18
X-43.144 Y127.79 Z7.12
X-43.101 Y127.816 Z7.069
X-43.049 Y127.847 Z7.031
X-42.992 Y127.881 Z7.008
X-42.931 Y127.918 Z7
G3 X-42.377 Y128.474 I-0.81 J1.359
G1 X-42.296 Y128.625 F1000
X-42.202 Y128.775
X-41.9 Y129.227
X-41.799 Y129.377
X-41.723 Y129.47
X-41.587 Y129.627
X-41.11 Y129.979
X-40.884 Y130.129
X-40.655 Y130.28
X-40.519 Y130.352
X-40.369 Y130.42
X-40.219 Y130.472
X-40.068 Y130.506
X-39.918 Y130.538
X-39.617 Y130.597
X-39.316 Y130.655
X-39.165 Y130.672
X-38.864 Y130.684
X-38.714 Y130.687
X-3.208
X-2.756 Y130.666
X-2.606 Y130.641
X-2.155 Y130.552
X-2.004 Y130.521
X-1.854 Y130.488
X-1.703 Y130.445
X-1.553 Y130.39
X-1.343 Y130.28
X-0.89 Y129.979
X-0.65 Y129.818
X-0.477 Y129.678
X-0.4 Y129.603
G3 X0.026 Y129.603 I0.214 J0.235 F600
G1 X0.056 Y129.648 Z7.005
X0.086 Y129.692 Z7.019
X0.113 Y129.733 Z7.042
X0.12 Y129.773 Z7.07
X0.126 Y129.809 Z7.104
X0.131 Y129.838 Z7.143
X0.129 Y129.867 Z7.197
X0.127 Y129.884 Z7.256
Y129.89 Z7.317
G0 Z20
X3.628 Y-0.311
Z4.635
G1 Z4.318 F600
X3.62 Y-0.31 Z4.247
X3.598 Y-0.304 Z4.18
X3.561 Y-0.294 Z4.12
X3.512 Y-0.282 Z4.069
X3.454 Y-0.267 Z4.031
X3.389 Y-0.25 Z4.008
X3.321 Y-0.233 Z4
G3 X1.592 Y0.016 I-2.011 J-7.852
G1 X1.49 F1000
X1.008 Y-0.438
X0.416 Y-0.735
X-0.224 Y-0.906
X-0.881 Y-0.995
X-1.542 Y-1.038
X-2.204 Y-1.057
X-2.866 Y-1.065
X-3.528 Y-1.069
X-4.853 Y-1.071
X-40.955 Y-1.072
X-41.284 Y-1.035
X-41.594 Y-0.918
X-41.873 Y-0.74
X-42.36 Y-0.291
X-42.686 Y0.286
X-42.88 Y0.919
X-42.982 Y1.574
X-43.032 Y2.234
X-43.054 Y2.896
X-43.064 Y3.559
X-43.068 Y4.221
X-43.07 Y4.884
X-43.071 Y5.546
X-43.072 Y27.406
Y55.89
Y106.233
Y130.08
X-43.002 Y130.404
X-42.861 Y130.704
X-42.466 Y131.235
X-41.918 Y131.607
X-41.296 Y131.835
X-40.645 Y131.96
X-39.985 Y132.021
X-39.324 Y132.049
X-38.661 Y132.062
X-37.999 Y132.068
X-37.337 Y132.07
X-35.349 Y132.071
X-17.464 Y132.072
X-0.904
X-0.581 Y131.998
X-0.283 Y131.854
X0.246 Y131.454
X0.614 Y130.904
X0.839 Y130.281
X0.961 Y129.63
X1.022 Y128.97
X1.05 Y128.308
X1.062 Y127.646
X1.068 Y126.983
X1.07 Y126.321
X1.071 Y124.334
X1.072 Y99.162
Y48.818
Y1.787
X1.034 Y1.458
X0.93 Y1.143
X0.613 Y0.561
X0.121 Y0.118
X-0.469 Y-0.183
X-1.105 Y-0.367
X-1.76 Y-0.47
X-2.42 Y-0.523
X-3.082 Y-0.549
X-3.744 Y-0.561
X-4.407 Y-0.567
X-5.069 Y-0.569
X-6.394 Y-0.571
X-40.177 Y-0.572
X-40.827 Y-0.446
X-41.398 Y-0.108
X-41.84 Y0.385
X-42.148 Y0.971
X-42.343 Y1.604
X-42.455 Y2.257
X-42.514 Y2.917
X-42.544 Y3.579
X-42.559 Y4.241
X-42.566 Y4.903
X-42.569 Y5.566
X-42.571 Y6.89
X-42.572 Y9.54
Y59.884
Y110.228
Y118.064
X-42.576 Y118.169
X-42.589 Y118.273
X-42.611 Y118.376
X-42.626 Y118.44
X-42.649 Y118.545
X-42.673 Y118.696
X-42.686 Y118.846
X-42.687 Y119.749
Y126.82
X-42.662 Y127.271
X-42.654 Y127.316
X-42.636 Y127.465
X-42.598 Y128.127
X-42.583 Y128.789
X-42.566 Y129.451
X-42.352 Y130.078
X-41.943 Y130.599
X-41.405 Y130.986
X-40.795 Y131.243
X-40.151 Y131.398
X-39.494 Y131.484
X-38.833 Y131.529
X-38.171 Y131.552
X-37.509 Y131.562
X-36.846 Y131.567
X-36.184 Y131.57
X-34.197 Y131.571
X-1.738 Y131.572
X-1.093 Y131.421
X-0.535 Y131.064
X-0.11 Y130.557
X0.181 Y129.961
X0.362 Y129.324
X0.465 Y128.67
X0.514 Y128.082
X0.518 Y128.035
X0.525 Y127.988
X0.533 Y127.941
X0.636 Y127.421
X0.662 Y127.271
X0.688 Y126.82
Y34.146
X0.685 Y33.996
X0.678 Y33.846
X0.672 Y33.8
X0.617 Y33.14
X0.591 Y32.478
X0.58 Y31.816
X0.575 Y31.153
X0.573 Y30.491
X0.572 Y27.841
Y2.669
X0.51 Y2.01
X0.256 Y1.398
X-0.174 Y0.894
X-0.721 Y0.52
X-1.334 Y0.269
X-1.977 Y0.113
X-2.634 Y0.024
X-3.295 Y-0.024
X-3.956 Y-0.048
X-4.619 Y-0.06
X-5.281 Y-0.066
X-5.944 Y-0.069
X-7.268 Y-0.071
X-17.205 Y-0.072
X-39.064
X-39.727 Y-0.053
X-40.363 Y0.131
X-40.91 Y0.504
X-41.334 Y1.013
X-41.634 Y1.604
X-41.827 Y2.238
X-41.941 Y2.89
X-42.004 Y3.55
X-42.038 Y4.211
X-42.055 Y4.874
X-42.063 Y5.536
X-42.068 Y6.198
X-42.07 Y6.861
X-42.071 Y8.848
X-42.072 Y26.733
Y77.077
Y116.116
X-42.076 Y116.221
X-42.089 Y116.325
X-42.111 Y116.428
X-42.611 Y118.376
G3 X-42.767 Y118.576 I-0.308 J-0.079 F600
G1 X-42.814 Y118.607
X-42.854 Y118.645
X-42.887 Y118.69
X-42.917 Y118.753 Z4.008
X-42.926 Y118.803 Z4.024
X-42.934 Y118.85 Z4.048
X-42.935 Y118.9 Z4.087
X-42.936 Y118.942 Z4.136
Y118.973 Z4.192
X-42.937 Y118.992 Z4.254
Y118.999 Z4.318
G0 Z20
X1.187 Y34.767
Z4.635
G1 Z4.318 F600
X1.182 Y34.761 Z4.247
X1.168 Y34.742 Z4.18
X1.144 Y34.713 Z4.12
X1.113 Y34.673 Z4.069
X1.076 Y34.626 Z4.031
X1.034 Y34.573 Z4.008
X0.991 Y34.518 Z4
G3 X0.672 Y33.8 I1.242 J-0.981
G1 X0.658 Y33.695 F1000
X0.63 Y33.545
X0.51 Y32.943
X0.472 Y32.792
X0.423 Y32.642
X0.412 Y32.614
X0.363 Y32.473
X0.32 Y32.329
X0.281 Y32.169
X0.24 Y31.964
X0.197 Y31.689
X0.152 Y31.293
X0.105 Y30.634
X0.086 Y29.972
X0.078 Y29.31
X0.074 Y28.647
X0.072 Y27.322
Y3.475
X0.045 Y2.813
X-0.149 Y2.18
X-0.521 Y1.632
X-1.027 Y1.204
X-1.615 Y0.899
X-2.246 Y0.699
X-2.897 Y0.577
X-3.556 Y0.507
X-4.217 Y0.469
X-4.879 Y0.449
X-5.542 Y0.438
X-6.204 Y0.433
X-6.867 Y0.431
X-8.191 Y0.429
X-10.128 Y0.428
X-10.21 Y0.426
X-10.291 Y0.418
X-10.372 Y0.404
X-10.58 Y0.363
X-10.73 Y0.335
X-10.881 Y0.327
X-11.182 Y0.314
X-11.332 Y0.312
X-16.598 Y0.313
X-16.748 Y0.316
X-16.899 Y0.331
X-17.56 Y0.376
X-18.221 Y0.407
X-18.884 Y0.419
X-19.546 Y0.425
X-20.208 Y0.427
X-22.196 Y0.428
X-38.094
X-38.756 Y0.432
X-39.414 Y0.511
X-40.021 Y0.776
X-40.527 Y1.204
X-40.91 Y1.744
X-41.177 Y2.35
X-41.348 Y2.99
X-41.45 Y3.645
X-41.508 Y4.305
X-41.539 Y4.966
X-41.555 Y5.629
X-41.563 Y6.291
X-41.567 Y6.953
X-41.57 Y7.616
X-41.571 Y9.603
X-41.572 Y27.488
Y77.832
Y114.168
X-41.576 Y114.273
X-41.589 Y114.377
X-41.611 Y114.48
X-42.111 Y116.428
G3 X-42.475 Y116.65 I-0.305 J-0.09 F600
G1 X-42.524 Y116.627 Z4.005
X-42.572 Y116.605 Z4.019
X-42.617 Y116.584 Z4.042
X-42.646 Y116.544 Z4.078
X-42.671 Y116.511 Z4.122
X-42.69 Y116.484 Z4.173
X-42.703 Y116.467 Z4.229
X-42.71 Y116.458 Z4.289
Y116.457 Z4.318
G0 Z20
X-16.214 Y0.05
Z4.518
G1 Z4.2 F600
X-16.318 Y0.119
X-16.426 Y0.179
G3 X-16.899 Y0.331 Z4 I-0.714 J-1.412
G1 X-17.049 Y0.349 F1000
X-17.651 Y0.469
X-17.801 Y0.501
X-17.952 Y0.54
X-18.102 Y0.591
X-18.118 Y0.598
X-18.257 Y0.655
X-18.402 Y0.694
X-18.58 Y0.735
X-18.809 Y0.776
X-19.127 Y0.821
X-19.602 Y0.866
X-20.264 Y0.902
X-20.926 Y0.917
X-21.588 Y0.924
X-22.251 Y0.926
X-23.576 Y0.928
X-37.486
X-38.149 Y0.93
X-38.807 Y1.004
X-39.42 Y1.256
X-39.939 Y1.667
X-40.34 Y2.194
X-40.624 Y2.793
X-40.81 Y3.429
X-40.925 Y4.081
X-40.992 Y4.74
X-41.029 Y5.401
X-41.05 Y6.063
X-41.06 Y6.726
X-41.066 Y7.388
X-41.069 Y8.051
X-41.071 Y9.375
X-41.072 Y18.649
Y29.91
Y80.254
Y112.22
X-41.076 Y112.325
X-41.089 Y112.429
X-41.111 Y112.532
X-41.611 Y114.48
G3 X-41.975 Y114.702 I-0.305 J-0.09 F600
G1 X-42.024 Y114.679 Z4.005
X-42.072 Y114.657 Z4.019
X-42.117 Y114.636 Z4.042
X-42.146 Y114.596 Z4.078
X-42.171 Y114.562 Z4.122
X-42.19 Y114.536 Z4.173
X-42.203 Y114.518 Z4.229
X-42.21 Y114.51 Z4.289
Y114.508 Z4.318
G0 Z20
X-17.562 Y0.11
Z4.518
G1 Z4.2 F600
X-17.638 Y0.208
X-17.721 Y0.301
G3 X-18.118 Y0.598 Z4 I-1.134 J-1.104
G1 X-18.253 Y0.662 F1000
X-18.403 Y0.752
X-18.593 Y0.877
X-18.722 Y0.954
X-18.858 Y1.018
X-18.997 Y1.073
X-19.14 Y1.119
X-19.314 Y1.167
X-19.504 Y1.211
X-19.755 Y1.259
X-20.088 Y1.307
X-20.57 Y1.356
X-21.232 Y1.396
X-21.894 Y1.414
X-22.556 Y1.422
X-23.219 Y1.425
X-24.543 Y1.428
X-37.129 Y1.429
X-37.792 Y1.443
X-38.442 Y1.567
X-39.035 Y1.863
X-39.526 Y2.308
X-39.898 Y2.856
X-40.16 Y3.464
X-40.331 Y4.104
X-40.436 Y4.758
X-40.497 Y5.418
X-40.531 Y6.079
X-40.55 Y6.742
X-40.56 Y7.404
X-40.566 Y8.066
X-40.569 Y8.729
X-40.571 Y10.054
X-40.572 Y18.003
Y31.251
Y81.595
Y110.272
X-40.576 Y110.377
X-40.589 Y110.481
X-40.611 Y110.583
X-41.111 Y112.532
G3 X-41.475 Y112.754 I-0.305 J-0.09 F600
G1 X-41.524 Y112.731 Z4.005
X-41.572 Y112.708 Z4.019
X-41.617 Y112.687 Z4.042
X-41.646 Y112.648 Z4.078
X-41.671 Y112.614 Z4.122
X-41.69 Y112.588 Z4.173
X-41.703 Y112.57 Z4.229
X-41.71 Y112.561 Z4.289
Y112.56 Z4.318
G0 Z20
X-17.953 Y-0.013
Z4.635
G1 Z4.318 F600
X-17.957 Y-0.005 Z4.247
X-17.967 Y0.016 Z4.18
X-17.983 Y0.05 Z4.12
X-18.005 Y0.095 Z4.069
X-18.031 Y0.15 Z4.031
X-18.059 Y0.21 Z4.008
X-18.09 Y0.274 Z4
G3 X-18.593 Y0.877 I-1.428 J-0.682
G1 X-19.005 Y1.152 F1000
X-19.074 Y1.199
X-19.155 Y1.26
X-19.276 Y1.349
X-19.407 Y1.422
X-19.543 Y1.485
X-19.683 Y1.539
X-19.825 Y1.587
X-19.996 Y1.636
X-20.222 Y1.691
X-20.468 Y1.739
X-20.81 Y1.792
X-21.266 Y1.842
X-21.927 Y1.888
X-22.589 Y1.909
X-23.252 Y1.919
X-23.914 Y1.924
X-24.576 Y1.926
X-26.564 Y1.928
X-36.5
X-37.162 Y1.937
X-37.817 Y2.04
X-38.42 Y2.313
X-38.929 Y2.736
X-39.324 Y3.269
X-39.605 Y3.868
X-39.793 Y4.503
X-39.911 Y5.155
X-39.982 Y5.814
X-40.022 Y6.475
X-40.045 Y7.137
X-40.057 Y7.799
X-40.064 Y8.462
X-40.068 Y9.124
X-40.071 Y10.449
X-40.072 Y15.086
Y32.971
Y83.315
Y108.324
X-40.076 Y108.428
X-40.089 Y108.533
X-40.111 Y108.635
X-40.611 Y110.583
G3 X-40.975 Y110.806 I-0.305 J-0.09 F600
G1 X-41.024 Y110.783 Z4.005
X-41.072 Y110.76 Z4.019
X-41.117 Y110.739 Z4.042
X-41.146 Y110.7 Z4.078
X-41.171 Y110.666 Z4.122
X-41.19 Y110.64 Z4.173
X-41.203 Y110.622 Z4.229
X-41.21 Y110.613 Z4.289
Y110.612 Z4.318
G0 Z20
X-18.646 Y0.29
Z4.635
G1 Z4.318 F600
X-18.648 Y0.297 Z4.247
X-18.655 Y0.32 Z4.18
X-18.667 Y0.356 Z4.12
X-18.682 Y0.404 Z4.069
X-18.7 Y0.461 Z4.031
X-18.72 Y0.525 Z4.008
X-18.741 Y0.592 Z4
G3 X-19.155 Y1.26 I-1.51 J-0.475
G1 X-19.256 Y1.35 F1000
X-19.306 Y1.396
X-19.401 Y1.5
X-19.432 Y1.537
X-19.533 Y1.648
X-19.651 Y1.74
X-19.778 Y1.819
X-19.911 Y1.889
X-20.048 Y1.95
X-20.188 Y2.004
X-20.355 Y2.06
X-20.532 Y2.111
X-20.767 Y2.169
X-21.048 Y2.225
X-21.397 Y2.28
X-21.872 Y2.335
X-22.533 Y2.382
X-23.195 Y2.405
X-23.857 Y2.417
X-24.519 Y2.423
X-25.182 Y2.426
X-26.507 Y2.428
X-35.78
X-36.443 Y2.432
X-37.102 Y2.499
X-37.726 Y2.722
X-38.267 Y3.104
X-38.698 Y3.607
X-39.014 Y4.189
X-39.232 Y4.814
X-39.372 Y5.462
X-39.458 Y6.119
X-39.508 Y6.779
X-39.537 Y7.441
X-39.553 Y8.103
X-39.561 Y8.766
X-39.566 Y9.428
X-39.569 Y10.09
X-39.571 Y11.415
X-39.572 Y19.364
Y33.937
Y84.281
Y106.375
X-39.576 Y106.48
X-39.589 Y106.585
X-39.611 Y106.687
X-40.111 Y108.635
G3 X-40.475 Y108.858 I-0.305 J-0.09 F600
G1 X-40.524 Y108.835 Z4.005
X-40.572 Y108.812 Z4.019
X-40.617 Y108.791 Z4.042
X-40.646 Y108.752 Z4.078
X-40.671 Y108.718 Z4.122
X-40.69 Y108.692 Z4.173
X-40.703 Y108.674 Z4.229
X-40.71 Y108.665 Z4.289
Y108.664 Z4.318
G0 Z20
X-19.073 Y0.501
Z4.635
G1 Z4.318 F600
X-19.075 Y0.509 Z4.247
X-19.078 Y0.532 Z4.18
X-19.084 Y0.57 Z4.12
X-19.092 Y0.619 Z4.069
X-19.101 Y0.679 Z4.031
X-19.111 Y0.745 Z4.008
X-19.122 Y0.815 Z4
G3 X-19.432 Y1.537 I-1.564 J-0.243
G1 X-19.456 Y1.567 F1000
X-19.518 Y1.651
X-19.65 Y1.847
X-19.739 Y1.967
X-19.847 Y2.071
X-19.966 Y2.163
X-20.092 Y2.244
X-20.224 Y2.316
X-20.359 Y2.38
X-20.503 Y2.439
X-20.654 Y2.494
X-20.852 Y2.557
X-21.061 Y2.614
X-21.332 Y2.676
X-21.661 Y2.737
X-22.084 Y2.796
X-22.656 Y2.852
X-23.318 Y2.889
X-23.98 Y2.908
X-24.642 Y2.918
X-25.305 Y2.923
X-25.967 Y2.926
X-27.292 Y2.928
X-35.241
X-35.903 Y2.932
X-36.562 Y2.998
X-37.187 Y3.217
X-37.733 Y3.593
X-38.17 Y4.091
X-38.493 Y4.67
X-38.715 Y5.293
X-38.86 Y5.94
X-38.949 Y6.596
X-39.003 Y7.256
X-39.033 Y7.918
X-39.051 Y8.58
X-39.06 Y9.243
X-39.065 Y9.905
X-39.068 Y10.567
X-39.071 Y11.892
X-39.072 Y17.854
Y35.077
Y85.421
Y104.427
X-39.076 Y104.532
X-39.089 Y104.636
X-39.111 Y104.739
X-39.611 Y106.687
G3 X-39.975 Y106.909 I-0.305 J-0.09 F600
G1 X-40.024 Y106.886 Z4.005
X-40.072 Y106.864 Z4.019
X-40.117 Y106.843 Z4.042
X-40.146 Y106.803 Z4.078
X-40.171 Y106.77 Z4.122
X-40.19 Y106.744 Z4.173
X-40.203 Y106.726 Z4.229
X-40.21 Y106.717 Z4.289
Y106.716 Z4.318
G0 Z20
X-19.398 Y0.78
Z4.635
G1 Z4.318 F600
X-19.399 Y0.788 Z4.247
X-19.4 Y0.811 Z4.18
X-19.402 Y0.849 Z4.12
X-19.405 Y0.899 Z4.069
X-19.408 Y0.959 Z4.031
X-19.411 Y1.027 Z4.008
X-19.415 Y1.097 Z4
G3 X-19.65 Y1.847 I-1.58 J-0.083
G1 X-19.908 Y2.233 F1000
X-19.997 Y2.354
X-20.099 Y2.464
X-20.213 Y2.56
X-20.336 Y2.647
X-20.465 Y2.724
X-20.597 Y2.794
X-20.734 Y2.857
X-20.876 Y2.915
X-21.056 Y2.98
X-21.252 Y3.041
X-21.497 Y3.107
X-21.781 Y3.171
X-22.134 Y3.234
X-22.573 Y3.295
X-23.204 Y3.354
X-23.865 Y3.389
X-24.527 Y3.408
X-25.19 Y3.417
X-25.852 Y3.423
X-26.515 Y3.425
X-27.839 Y3.428
X-34.464
X-35.126 Y3.43
X-35.788 Y3.458
X-36.432 Y3.611
X-37.014 Y3.928
X-37.495 Y4.383
X-37.864 Y4.934
X-38.127 Y5.542
X-38.302 Y6.18
X-38.414 Y6.833
X-38.481 Y7.492
X-38.521 Y8.154
X-38.543 Y8.816
X-38.556 Y9.478
X-38.563 Y10.14
X-38.567 Y10.803
X-38.57 Y12.127
X-38.572 Y15.44
Y36.637
Y86.981
Y102.479
X-38.576 Y102.584
X-38.589 Y102.688
X-38.611 Y102.791
X-39.111 Y104.739
G3 X-39.475 Y104.961 I-0.305 J-0.09 F600
G1 X-39.524 Y104.938 Z4.005
X-39.572 Y104.916 Z4.019
X-39.617 Y104.895 Z4.042
X-39.646 Y104.855 Z4.078
X-39.671 Y104.822 Z4.122
X-39.69 Y104.796 Z4.173
X-39.703 Y104.778 Z4.229
X-39.71 Y104.769 Z4.289
Y104.768 Z4.318
G0 Z20
X-19.659 Y1.166
Z4.635
G1 Z4.318 F600
Y1.174 Z4.247
X-19.661 Y1.197 Z4.18
X-19.662 Y1.235 Z4.12
X-19.665 Y1.285 Z4.069
X-19.668 Y1.345 Z4.031
X-19.671 Y1.412 Z4.008
X-19.675 Y1.483 Z4
G3 X-19.908 Y2.233 I-1.581 J-0.079
G1 X-19.921 Y2.252 F1000
X-20.012 Y2.403
X-20.058 Y2.484
X-20.088 Y2.553
X-20.148 Y2.691
X-20.241 Y2.808
X-20.348 Y2.914
X-20.465 Y3.008
X-20.588 Y3.094
X-20.716 Y3.171
X-20.849 Y3.242
X-20.984 Y3.306
X-21.148 Y3.374
X-21.32 Y3.438
X-21.54 Y3.51
X-21.769 Y3.574
X-22.079 Y3.646
X-22.415 Y3.71
X-22.867 Y3.777
X-23.46 Y3.839
X-24.122 Y3.88
X-24.784 Y3.902
X-25.446 Y3.914
X-26.108 Y3.921
X-26.771 Y3.924
X-28.095 Y3.927
X-32.07 Y3.928
X-34.057
X-34.72 Y3.932
X-35.381 Y3.975
X-36.018 Y4.157
X-36.587 Y4.496
X-37.053 Y4.966
X-37.407 Y5.526
X-37.655 Y6.14
X-37.82 Y6.782
X-37.924 Y7.436
X-37.987 Y8.096
X-38.023 Y8.757
X-38.045 Y9.419
X-38.057 Y10.081
X-38.063 Y10.744
X-38.067 Y11.406
X-38.07 Y12.731
X-38.072 Y16.043
Y37.241
Y87.584
Y100.531
X-38.076 Y100.636
X-38.089 Y100.74
X-38.111 Y100.843
X-38.611 Y102.791
G3 X-38.975 Y103.013 I-0.305 J-0.09 F600
G1 X-39.024 Y102.99 Z4.005
X-39.072 Y102.968 Z4.019
X-39.117 Y102.947 Z4.042
X-39.146 Y102.907 Z4.078
X-39.171 Y102.874 Z4.122
X-39.19 Y102.848 Z4.173
X-39.203 Y102.83 Z4.229
X-39.21 Y102.821 Z4.289
Y102.82 Z4.318
G0 Z20
X-20.109 Y1.458
Z4.635
G1 Z4.318 F600
X-20.107 Y1.465 Z4.247
X-20.103 Y1.489 Z4.18
X-20.095 Y1.526 Z4.12
X-20.086 Y1.575 Z4.069
X-20.074 Y1.634 Z4.031
X-20.061 Y1.7 Z4.008
X-20.047 Y1.769 Z4
G3 X-20.088 Y2.553 I-1.552 J0.311
G1 X-20.141 Y2.704 F1000
X-20.172 Y2.824
X-20.215 Y2.967
X-20.292 Y3.096
X-20.387 Y3.213
X-20.493 Y3.318
X-20.608 Y3.415
X-20.73 Y3.503
X-20.856 Y3.583
X-20.987 Y3.657
X-21.13 Y3.729
X-21.279 Y3.797
X-21.463 Y3.871
X-21.658 Y3.94
X-21.903 Y4.015
X-22.172 Y4.085
X-22.513 Y4.16
X-22.909 Y4.229
X-23.41 Y4.294
X-24.07 Y4.353
X-24.731 Y4.386
X-25.393 Y4.405
X-26.056 Y4.415
X-26.718 Y4.421
X-27.381 Y4.424
X-28.705 Y4.427
X-33.342 Y4.428
X-34.005 Y4.43
X-34.667 Y4.451
X-35.316 Y4.582
X-35.91 Y4.875
X-36.41 Y5.31
X-36.799 Y5.846
X-37.079 Y6.447
X-37.27 Y7.081
X-37.392 Y7.732
X-37.467 Y8.39
X-37.512 Y9.051
X-37.538 Y9.713
X-37.553 Y10.375
X-37.561 Y11.038
X-37.566 Y11.7
X-37.568 Y12.362
X-37.571 Y13.687
X-37.572 Y19.649
Y38.197
Y88.54
Y98.583
X-37.576 Y98.688
X-37.589 Y98.792
X-37.611 Y98.895
X-38.111 Y100.843
G3 X-38.475 Y101.065 I-0.305 J-0.09 F600
G1 X-38.524 Y101.042 Z4.005
X-38.572 Y101.02 Z4.019
X-38.617 Y100.999 Z4.042
X-38.646 Y100.959 Z4.078
X-38.671 Y100.926 Z4.122
X-38.69 Y100.899 Z4.173
X-38.703 Y100.882 Z4.229
X-38.71 Y100.873 Z4.289
Y100.872 Z4.318
G0 Z20
X-20.293 Y1.735
Z4.635
G1 Z4.318 F600
X-20.291 Y1.742 Z4.247
X-20.284 Y1.765 Z4.18
X-20.274 Y1.801 Z4.12
X-20.259 Y1.849 Z4.069
X-20.242 Y1.907 Z4.031
X-20.223 Y1.971 Z4.008
X-20.203 Y2.039 Z4
G3 X-20.172 Y2.824 I-1.516 J0.453
G1 X-20.217 Y3.005 F1000
X-20.252 Y3.155
X-20.289 Y3.301
X-20.358 Y3.434
X-20.445 Y3.556
X-20.545 Y3.667
X-20.655 Y3.77
X-20.771 Y3.864
X-20.894 Y3.951
X-21.021 Y4.031
X-21.151 Y4.105
X-21.296 Y4.179
X-21.462 Y4.255
X-21.646 Y4.33
X-21.87 Y4.411
X-22.103 Y4.484
X-22.404 Y4.565
X-22.726 Y4.637
X-23.148 Y4.712
X-23.665 Y4.783
X-24.324 Y4.845
X-24.986 Y4.88
X-25.648 Y4.901
X-26.31 Y4.913
X-26.973 Y4.92
X-27.635 Y4.923
X-28.96 Y4.927
X-32.272 Y4.928
X-32.934
X-33.597 Y4.931
X-34.258 Y4.965
X-34.902 Y5.122
X-35.485 Y5.436
X-35.971 Y5.887
X-36.344 Y6.434
X-36.611 Y7.04
X-36.79 Y7.678
X-36.904 Y8.33
X-36.974 Y8.989
X-37.016 Y9.65
X-37.04 Y10.312
X-37.054 Y10.974
X-37.062 Y11.637
X-37.066 Y12.299
X-37.069 Y12.962
X-37.071 Y14.286
X-37.072 Y20.911
Y39.458
Y89.802
Y96.635
X-37.076 Y96.74
X-37.089 Y96.844
X-37.111 Y96.947
X-37.611 Y98.895
G3 X-37.975 Y99.117 I-0.305 J-0.09 F600
G1 X-38.024 Y99.094 Z4.005
X-38.072 Y99.072 Z4.019
X-38.117 Y99.051 Z4.042
X-38.146 Y99.011 Z4.078
X-38.171 Y98.978 Z4.122
X-38.19 Y98.951 Z4.173
X-38.203 Y98.934 Z4.229
X-38.21 Y98.925 Z4.289
Y98.923 Z4.318
G0 Z20
X-20.428 Y2.073
Z4.635
G1 Z4.318 F600
X-20.426 Y2.081 Z4.247
X-20.418 Y2.103 Z4.18
X-20.405 Y2.139 Z4.12
X-20.388 Y2.186 Z4.069
X-20.368 Y2.243 Z4.031
X-20.346 Y2.306 Z4.008
X-20.322 Y2.373 Z4
G3 X-20.252 Y3.155 I-1.492 J0.528
G1 X-20.321 Y3.501 F1000
X-20.357 Y3.647
X-20.418 Y3.784
X-20.499 Y3.91
X-20.594 Y4.027
X-20.698 Y4.135
X-20.81 Y4.234
X-20.928 Y4.327
X-21.052 Y4.412
X-21.179 Y4.491
X-21.31 Y4.565
X-21.47 Y4.646
X-21.641 Y4.725
X-21.837 Y4.804
X-22.07 Y4.888
X-22.32 Y4.966
X-22.64 Y5.052
X-22.98 Y5.128
X-23.419 Y5.206
X-23.954 Y5.279
X-24.614 Y5.34
X-25.275 Y5.377
X-25.938 Y5.398
X-26.6 Y5.411
X-27.262 Y5.418
X-27.925 Y5.423
X-28.587 Y5.425
X-29.912 Y5.427
X-32.562 Y5.429
X-33.224 Y5.435
X-33.884 Y5.485
X-34.519 Y5.674
X-35.086 Y6.017
X-35.55 Y6.489
X-35.902 Y7.051
X-36.15 Y7.665
X-36.315 Y8.307
X-36.419 Y8.961
X-36.483 Y9.62
X-36.521 Y10.281
X-36.543 Y10.943
X-36.555 Y11.606
X-36.562 Y12.268
X-36.566 Y12.931
X-36.569 Y13.593
X-36.571 Y15.58
X-36.572 Y40.752
Y91.096
Y94.687
X-36.576 Y94.792
X-36.589 Y94.896
X-36.611 Y94.999
X-37.111 Y96.947
G3 X-37.475 Y97.169 I-0.305 J-0.09 F600
G1 X-37.524 Y97.146 Z4.005
X-37.572 Y97.123 Z4.019
X-37.617 Y97.103 Z4.042
X-37.646 Y97.063 Z4.078
X-37.671 Y97.029 Z4.122
X-37.69 Y97.003 Z4.173
X-37.703 Y96.985 Z4.229
X-37.71 Y96.977 Z4.289
Y96.975 Z4.318
G0 Z20
X-20.5 Y2.42
Z4.635
G1 Z4.318 F600
X-20.497 Y2.428 Z4.247
X-20.489 Y2.45 Z4.18
X-20.477 Y2.486 Z4.12
X-20.46 Y2.533 Z4.069
X-20.439 Y2.59 Z4.031
X-20.417 Y2.653 Z4.008
X-20.393 Y2.719 Z4
G3 X-20.321 Y3.501 I-1.491 J0.532
G1 X-20.342 Y3.606 F1000
X-20.367 Y3.757
X-20.374 Y3.84
X-20.396 Y3.988
X-20.451 Y4.128
X-20.525 Y4.258
X-20.614 Y4.379
X-20.713 Y4.491
X-20.821 Y4.596
X-20.935 Y4.694
X-21.054 Y4.784
X-21.178 Y4.869
X-21.306 Y4.947
X-21.451 Y5.029
X-21.62 Y5.115
X-21.801 Y5.197
X-22.016 Y5.284
X-22.252 Y5.369
X-22.526 Y5.454
X-22.866 Y5.544
X-23.216 Y5.621
X-23.68 Y5.703
X-24.239 Y5.778
X-24.898 Y5.838
X-25.56 Y5.874
X-26.222 Y5.896
X-26.884 Y5.909
X-27.546 Y5.917
X-28.209 Y5.922
X-28.871 Y5.925
X-30.196 Y5.927
X-32.183 Y5.929
X-32.846 Y5.939
X-33.504 Y6.009
X-34.13 Y6.228
X-34.679 Y6.598
X-35.123 Y7.09
X-35.454 Y7.664
X-35.685 Y8.284
X-35.837 Y8.929
X-35.932 Y9.585
X-35.991 Y10.244
X-36.025 Y10.906
X-36.045 Y11.568
X-36.057 Y12.23
X-36.063 Y12.893
X-36.067 Y13.555
X-36.07 Y14.88
X-36.072 Y18.192
Y41.377
Y91.72
Y92.739
X-36.076 Y92.844
X-36.089 Y92.948
X-36.111 Y93.05
X-36.611 Y94.999
G3 X-36.975 Y95.221 I-0.305 J-0.09 F600
G1 X-37.024 Y95.198 Z4.005
X-37.072 Y95.175 Z4.019
X-37.117 Y95.154 Z4.042
X-37.146 Y95.115 Z4.078
X-37.171 Y95.081 Z4.122
X-37.19 Y95.055 Z4.173
X-37.203 Y95.037 Z4.229
X-37.21 Y95.028 Z4.289
Y95.027 Z4.318
G0 Z7.2
X-20.658 Y2.781
Z4.635
G1 Z4.318 F600
X-20.654 Y2.788 Z4.247
X-20.644 Y2.81 Z4.18
X-20.628 Y2.844 Z4.12
X-20.607 Y2.889 Z4.069
X-20.581 Y2.944 Z4.031
X-20.553 Y3.004 Z4.008
X-20.523 Y3.068 Z4
G3 X-20.374 Y3.84 I-1.432 J0.675
G1 X-20.381 Y3.907 F1000
X-20.387 Y4.058
Y4.135
X-20.395 Y4.285
X-20.438 Y4.429
X-20.502 Y4.564
X-20.582 Y4.691
X-20.674 Y4.81
X-20.774 Y4.921
X-20.882 Y5.025
X-20.997 Y5.122
X-21.116 Y5.213
X-21.239 Y5.299
X-21.375 Y5.384
X-21.53 Y5.473
X-21.694 Y5.558
X-21.893 Y5.65
X-22.108 Y5.74
X-22.347 Y5.827
X-22.643 Y5.922
X-22.953 Y6.007
X-23.335 Y6.095
X-23.809 Y6.183
X-24.332 Y6.257
X-24.991 Y6.323
X-25.652 Y6.364
X-26.314 Y6.389
X-26.976 Y6.405
X-27.638 Y6.414
X-28.301 Y6.42
X-28.963 Y6.424
X-30.288 Y6.427
X-31.613 Y6.428
X-32.275 Y6.435
X-32.935 Y6.498
X-33.565 Y6.7
X-34.123 Y7.057
X-34.578 Y7.539
X-34.92 Y8.106
X-35.161 Y8.723
X-35.321 Y9.366
X-35.422 Y10.021
X-35.484 Y10.68
X-35.521 Y11.342
X-35.543 Y12.004
X-35.555 Y12.666
X-35.562 Y13.328
X-35.566 Y13.991
X-35.57 Y15.316
X-35.571 Y17.965
X-35.572 Y42.475
Y90.791
X-35.576 Y90.895
X-35.589 Y91
X-35.611 Y91.102
X-36.111 Y93.05
G3 X-36.475 Y93.273 I-0.305 J-0.09 F600
G1 X-36.524 Y93.25 Z4.005
X-36.572 Y93.227 Z4.019
X-36.617 Y93.206 Z4.042
X-36.646 Y93.167 Z4.078
X-36.671 Y93.133 Z4.122
X-36.69 Y93.107 Z4.173
X-36.703 Y93.089 Z4.229
X-36.71 Y93.08 Z4.289
Y93.079 Z4.318
G0 Z7.2
X-20.771 Y3.109
Z4.635
G1 Z4.318 F600
X-20.767 Y3.115 Z4.247
X-20.755 Y3.136 Z4.18
X-20.735 Y3.168 Z4.12
X-20.71 Y3.211 Z4.069
X-20.679 Y3.263 Z4.031
X-20.645 Y3.321 Z4.008
X-20.609 Y3.381 Z4
G3 X-20.387 Y4.135 I-1.36 J0.809
G1 Y4.479 F1000
X-20.395 Y4.628
X-20.432 Y4.774
X-20.491 Y4.911
X-20.566 Y5.041
X-20.653 Y5.164
X-20.75 Y5.278
X-20.854 Y5.387
X-20.964 Y5.488
X-21.08 Y5.583
X-21.2 Y5.673
X-21.326 Y5.759
X-21.47 Y5.849
X-21.639 Y5.944
X-21.815 Y6.034
X-22.021 Y6.128
X-22.258 Y6.226
X-22.509 Y6.316
X-22.821 Y6.414
X-23.172 Y6.508
X-23.553 Y6.594
X-24.043 Y6.682
X-24.626 Y6.762
X-25.286 Y6.824
X-25.947 Y6.864
X-26.609 Y6.888
X-27.271 Y6.904
X-27.933 Y6.914
X-28.596 Y6.92
X-29.258 Y6.923
X-31.245 Y6.928
X-31.908 Y6.942
X-32.565 Y7.027
X-33.184 Y7.262
X-33.723 Y7.647
X-34.155 Y8.149
X-34.476 Y8.729
X-34.699 Y9.353
X-34.845 Y9.999
X-34.937 Y10.655
X-34.993 Y11.315
X-35.026 Y11.976
X-35.046 Y12.638
X-35.057 Y13.301
X-35.063 Y13.963
X-35.067 Y14.625
X-35.07 Y15.95
X-35.072 Y19.262
Y43.109
Y88.842
X-35.076 Y88.947
X-35.089 Y89.051
X-35.111 Y89.154
X-35.611 Y91.102
G3 X-35.975 Y91.325 I-0.305 J-0.09 F600
G1 X-36.024 Y91.301 Z4.005
X-36.072 Y91.279 Z4.019
X-36.117 Y91.258 Z4.042
X-36.146 Y91.219 Z4.078
X-36.171 Y91.185 Z4.122
X-36.19 Y91.159 Z4.173
X-36.203 Y91.141 Z4.229
X-36.21 Y91.132 Z4.289
Y91.131 Z4.318
G0 Z7.2
X-20.771 Y3.452
Z4.635
G1 Z4.318 F600
X-20.767 Y3.459 Z4.247
X-20.755 Y3.479 Z4.18
X-20.735 Y3.512 Z4.12
X-20.71 Y3.555 Z4.069
X-20.679 Y3.607 Z4.031
X-20.645 Y3.664 Z4.008
X-20.609 Y3.725 Z4
G3 X-20.387 Y4.479 I-1.36 J0.809
G1 Y4.855 F1000
X-20.395 Y5.005
X-20.43 Y5.151
X-20.488 Y5.29
X-20.56 Y5.421
X-20.644 Y5.545
X-20.738 Y5.662
X-20.84 Y5.772
X-20.948 Y5.876
X-21.061 Y5.975
X-21.179 Y6.067
X-21.312 Y6.162
X-21.45 Y6.253
X-21.61 Y6.348
X-21.796 Y6.449
X-21.99 Y6.543
X-22.221 Y6.644
X-22.485 Y6.746
X-22.758 Y6.839
X-23.096 Y6.938
X-23.499 Y7.038
X-23.918 Y7.124
X-24.457 Y7.211
X-25.115 Y7.288
X-25.776 Y7.339
X-26.437 Y7.372
X-27.099 Y7.393
X-27.762 Y7.407
X-28.424 Y7.415
X-29.086 Y7.42
X-29.749 Y7.424
X-30.411 Y7.426
X-31.074 Y7.431
X-31.735 Y7.465
X-32.379 Y7.623
X-32.962 Y7.936
X-33.448 Y8.386
X-33.824 Y8.932
X-34.094 Y9.537
X-34.277 Y10.173
X-34.395 Y10.825
X-34.468 Y11.483
X-34.512 Y12.144
X-34.537 Y12.806
X-34.552 Y13.469
X-34.56 Y14.131
X-34.565 Y14.793
X-34.568 Y15.456
X-34.57 Y16.781
X-34.572 Y21.418
Y43.94
Y86.894
X-34.576 Y86.999
X-34.589 Y87.103
X-34.611 Y87.206
X-35.111 Y89.154
G3 X-35.475 Y89.376 I-0.305 J-0.09 F600
