(bore1)
(T6 D=3.175 CR=0 - ZMIN=0 - flat end mill)
G90 G94
G17
G21
G28 G91 Z0
G90

(Bore1 9)
T6
(18 Flat-45 degree helix)
S18000 M3
G17 G90 G94
G54
G0 X-36.476 Y123.768
Z28
G0 Z12
G1 Z10.318 F500
G19 G2 Y123.451 Z10 J-0.318 K0
G1 Y123.292
G17 G3 X-36.158 Y122.975 I0.317 J0
X-36.158 Y124.8 Z9.913 I0 J0.913
X-36.158 Y122.975 Z9.825 I0 J-0.913
X-36.158 Y124.8 Z9.738 I0 J0.913
X-36.158 Y122.975 Z9.651 I0 J-0.913
X-36.158 Y124.8 Z9.563 I0 J0.913
X-36.158 Y122.975 Z9.476 I0 J-0.913
X-36.158 Y124.8 Z9.389 I0 J0.913
X-36.158 Y122.975 Z9.302 I0 J-0.913
X-36.158 Y124.8 Z9.214 I0 J0.913
X-36.158 Y122.975 Z9.127 I0 J-0.913
X-36.158 Y124.8 Z9.04 I0 J0.913
X-36.158 Y122.975 Z8.952 I0 J-0.913
X-36.158 Y124.8 Z8.865 I0 J0.913
X-36.158 Y122.975 Z8.778 I0 J-0.913
X-36.158 Y124.8 Z8.69 I0 J0.913
X-36.158 Y122.975 Z8.603 I0 J-0.913
X-36.158 Y124.8 Z8.516 I0 J0.913
X-36.158 Y122.975 Z8.429 I0 J-0.913
X-36.158 Y124.8 Z8.341 I0 J0.913
X-36.158 Y122.975 Z8.254 I0 J-0.913
X-36.158 Y124.8 Z8.167 I0 J0.913
X-36.158 Y122.975 Z8.079 I0 J-0.913
X-36.158 Y124.8 Z7.992 I0 J0.913
X-36.158 Y122.975 Z7.905 I0 J-0.913
X-36.158 Y124.8 Z7.817 I0 J0.913
X-36.158 Y122.975 Z7.73 I0 J-0.913
X-36.158 Y124.8 Z7.643 I0 J0.913
X-36.158 Y122.975 Z7.556 I0 J-0.913
X-36.158 Y124.8 Z7.468 I0 J0.913
X-36.158 Y122.975 Z7.381 I0 J-0.913
X-36.158 Y124.8 Z7.294 I0 J0.913
X-36.158 Y122.975 Z7.206 I0 J-0.913
X-36.158 Y124.8 Z7.119 I0 J0.913
X-36.158 Y122.975 Z7.032 I0 J-0.913
X-36.158 Y124.8 Z6.944 I0 J0.913
X-36.158 Y122.975 Z6.857 I0 J-0.913
X-36.158 Y124.8 Z6.77 I0 J0.913
X-36.158 Y122.975 Z6.683 I0 J-0.913
X-36.158 Y124.8 Z6.595 I0 J0.913
X-36.158 Y122.975 Z6.508 I0 J-0.913
X-36.158 Y124.8 Z6.421 I0 J0.913
X-36.158 Y122.975 Z6.333 I0 J-0.913
X-36.158 Y124.8 Z6.246 I0 J0.913
X-36.158 Y122.975 Z6.159 I0 J-0.913
X-36.158 Y124.8 Z6.071 I0 J0.913
X-36.158 Y122.975 Z5.984 I0 J-0.913
X-36.158 Y124.8 Z5.897 I0 J0.913
X-36.158 Y122.975 Z5.81 I0 J-0.913
X-36.158 Y124.8 Z5.722 I0 J0.913
X-36.158 Y122.975 Z5.635 I0 J-0.913
X-36.158 Y124.8 Z5.548 I0 J0.913
X-36.158 Y122.975 Z5.46 I0 J-0.913
X-36.158 Y124.8 Z5.373 I0 J0.913
X-36.158 Y122.975 Z5.286 I0 J-0.913
X-36.158 Y124.8 Z5.198 I0 J0.913
X-36.158 Y122.975 Z5.111 I0 J-0.913
X-36.158 Y124.8 Z5.024 I0 J0.913
X-36.158 Y122.975 Z4.936 I0 J-0.913
X-36.158 Y124.8 Z4.849 I0 J0.913
X-36.158 Y122.975 Z4.762 I0 J-0.913
X-36.158 Y124.8 Z4.675 I0 J0.913
X-36.158 Y122.975 Z4.587 I0 J-0.913
X-36.158 Y124.8 Z4.5 I0 J0.913
X-36.158 Y122.975 Z4.413 I0 J-0.913
X-36.158 Y124.8 Z4.325 I0 J0.913
X-36.158 Y122.975 Z4.238 I0 J-0.913
X-36.158 Y124.8 Z4.151 I0 J0.913
X-36.158 Y122.975 Z4.063 I0 J-0.913
X-36.158 Y124.8 Z3.976 I0 J0.913
X-36.158 Y122.975 Z3.889 I0 J-0.913
X-36.158 Y124.8 Z3.802 I0 J0.913
X-36.158 Y122.975 Z3.714 I0 J-0.913
X-36.158 Y124.8 Z3.627 I0 J0.913
X-36.158 Y122.975 Z3.54 I0 J-0.913
X-36.158 Y124.8 Z3.452 I0 J0.913
X-36.158 Y122.975 Z3.365 I0 J-0.913
X-36.158 Y124.8 Z3.278 I0 J0.913
X-36.158 Y122.975 Z3.19 I0 J-0.913
X-36.158 Y124.8 Z3.103 I0 J0.913
X-36.158 Y122.975 Z3.016 I0 J-0.913
X-36.158 Y124.8 Z2.929 I0 J0.913
X-36.158 Y122.975 Z2.841 I0 J-0.913
X-36.158 Y124.8 Z2.754 I0 J0.913
X-36.158 Y122.975 Z2.667 I0 J-0.913
X-36.158 Y124.8 Z2.579 I0 J0.913
X-36.158 Y122.975 Z2.492 I0 J-0.913
X-36.158 Y124.8 Z2.405 I0 J0.913
X-36.158 Y122.975 Z2.317 I0 J-0.913
X-36.158 Y124.8 Z2.23 I0 J0.913
X-36.158 Y122.975 Z2.143 I0 J-0.913
X-36.158 Y124.8 Z2.056 I0 J0.913
X-36.158 Y122.975 Z1.968 I0 J-0.913
X-36.158 Y124.8 Z1.881 I0 J0.913
X-36.158 Y122.975 Z1.794 I0 J-0.913
X-36.158 Y124.8 Z1.706 I0 J0.913
X-36.158 Y122.975 Z1.619 I0 J-0.913
X-36.158 Y124.8 Z1.532 I0 J0.913
X-36.158 Y122.975 Z1.444 I0 J-0.913
X-36.158 Y124.8 Z1.357 I0 J0.913
X-36.158 Y122.975 Z1.27 I0 J-0.913
X-36.158 Y124.8 Z1.183 I0 J0.913
X-36.158 Y122.975 Z1.095 I0 J-0.913
X-36.158 Y124.8 Z1.008 I0 J0.913
X-36.158 Y122.975 Z0.921 I0 J-0.913
X-36.158 Y124.8 Z0.833 I0 J0.913
X-36.158 Y122.975 Z0.746 I0 J-0.913
X-36.158 Y124.8 Z0.659 I0 J0.913
X-36.158 Y122.975 Z0.571 I0 J-0.913
X-36.158 Y124.8 Z0.484 I0 J0.913
X-36.158 Y122.975 Z0.397 I0 J-0.913
X-36.158 Y124.8 Z0.309 I0 J0.913
X-36.158 Y122.975 Z0.222 I0 J-0.913
X-36.158 Y124.8 Z0.135 I0 J0.913
X-36.158 Y122.975 Z0.048 I0 J-0.913
X-35.255 Y124.016 Z0 I0 J0.913
X-37.062 Y123.758 I-0.903 J-0.129
X-35.255 Y124.016 I0.903 J0.129
X-35.614 Y124.285 I-0.314 J-0.045
G1 X-35.771 Y124.263
X-35.841 Y124.253 Z0.008
X-35.908 Y124.244 Z0.031
X-35.967 Y124.235 Z0.069
X-36.017 Y124.228 Z0.12
X-36.054 Y124.223 Z0.18
X-36.078 Y124.219 Z0.247
X-36.086 Y124.218 Z0.317
G0 Z18
X-6.476 Y123.768
Z12
G1 Z10.318 F500
G19 G2 Y123.451 Z10 J-0.318 K0
G1 Y123.292
G17 G3 X-6.158 Y122.975 I0.318 J0
X-6.158 Y124.8 Z9.913 I0 J0.913
X-6.158 Y122.975 Z9.825 I0 J-0.913
X-6.158 Y124.8 Z9.738 I0 J0.913
X-6.158 Y122.975 Z9.651 I0 J-0.913
X-6.158 Y124.8 Z9.563 I0 J0.913
X-6.158 Y122.975 Z9.476 I0 J-0.913
X-6.158 Y124.8 Z9.389 I0 J0.913
X-6.158 Y122.975 Z9.302 I0 J-0.913
X-6.158 Y124.8 Z9.214 I0 J0.913
X-6.158 Y122.975 Z9.127 I0 J-0.913
X-6.158 Y124.8 Z9.04 I0 J0.913
X-6.158 Y122.975 Z8.952 I0 J-0.913
X-6.158 Y124.8 Z8.865 I0 J0.913
X-6.158 Y122.975 Z8.778 I0 J-0.913
X-6.158 Y124.8 Z8.69 I0 J0.913
X-6.158 Y122.975 Z8.603 I0 J-0.913
X-6.158 Y124.8 Z8.516 I0 J0.913
X-6.158 Y122.975 Z8.429 I0 J-0.913
X-6.158 Y124.8 Z8.341 I0 J0.913
X-6.158 Y122.975 Z8.254 I0 J-0.913
X-6.158 Y124.8 Z8.167 I0 J0.913
X-6.158 Y122.975 Z8.079 I0 J-0.913
X-6.158 Y124.8 Z7.992 I0 J0.913
X-6.158 Y122.975 Z7.905 I0 J-0.913
X-6.158 Y124.8 Z7.817 I0 J0.913
X-6.158 Y122.975 Z7.73 I0 J-0.913
X-6.158 Y124.8 Z7.643 I0 J0.913
X-6.158 Y122.975 Z7.556 I0 J-0.913
X-6.158 Y124.8 Z7.468 I0 J0.913
X-6.158 Y122.975 Z7.381 I0 J-0.913
X-6.158 Y124.8 Z7.294 I0 J0.913
X-6.158 Y122.975 Z7.206 I0 J-0.913
X-6.158 Y124.8 Z7.119 I0 J0.913
X-6.158 Y122.975 Z7.032 I0 J-0.913
X-6.158 Y124.8 Z6.944 I0 J0.913
X-6.158 Y122.975 Z6.857 I0 J-0.913
X-6.158 Y124.8 Z6.77 I0 J0.913
X-6.158 Y122.975 Z6.683 I0 J-0.913
X-6.158 Y124.8 Z6.595 I0 J0.913
X-6.158 Y122.975 Z6.508 I0 J-0.913
X-6.158 Y124.8 Z6.421 I0 J0.913
X-6.158 Y122.975 Z6.333 I0 J-0.913
X-6.158 Y124.8 Z6.246 I0 J0.913
X-6.158 Y122.975 Z6.159 I0 J-0.913
X-6.158 Y124.8 Z6.071 I0 J0.913
X-6.158 Y122.975 Z5.984 I0 J-0.913
X-6.158 Y124.8 Z5.897 I0 J0.913
X-6.158 Y122.975 Z5.81 I0 J-0.913
X-6.158 Y124.8 Z5.722 I0 J0.913
X-6.158 Y122.975 Z5.635 I0 J-0.913
X-6.158 Y124.8 Z5.548 I0 J0.913
X-6.158 Y122.975 Z5.46 I0 J-0.913
X-6.158 Y124.8 Z5.373 I0 J0.913
X-6.158 Y122.975 Z5.286 I0 J-0.913
X-6.158 Y124.8 Z5.198 I0 J0.913
X-6.158 Y122.975 Z5.111 I0 J-0.913
X-6.158 Y124.8 Z5.024 I0 J0.913
X-6.158 Y122.975 Z4.936 I0 J-0.913
X-6.158 Y124.8 Z4.849 I0 J0.913
X-6.158 Y122.975 Z4.762 I0 J-0.913
X-6.158 Y124.8 Z4.675 I0 J0.913
X-6.158 Y122.975 Z4.587 I0 J-0.913
X-6.158 Y124.8 Z4.5 I0 J0.913
X-6.158 Y122.975 Z4.413 I0 J-0.913
X-6.158 Y124.8 Z4.325 I0 J0.913
X-6.158 Y122.975 Z4.238 I0 J-0.913
X-6.158 Y124.8 Z4.151 I0 J0.913
X-6.158 Y122.975 Z4.063 I0 J-0.913
X-6.158 Y124.8 Z3.976 I0 J0.913
X-6.158 Y122.975 Z3.889 I0 J-0.913
X-6.158 Y124.8 Z3.802 I0 J0.913
X-6.158 Y122.975 Z3.714 I0 J-0.913
X-6.158 Y124.8 Z3.627 I0 J0.913
X-6.158 Y122.975 Z3.54 I0 J-0.913
X-6.158 Y124.8 Z3.452 I0 J0.913
X-6.158 Y122.975 Z3.365 I0 J-0.913
X-6.158 Y124.8 Z3.278 I0 J0.913
X-6.158 Y122.975 Z3.19 I0 J-0.913
X-6.158 Y124.8 Z3.103 I0 J0.913
X-6.158 Y122.975 Z3.016 I0 J-0.913
X-6.158 Y124.8 Z2.929 I0 J0.913
X-6.158 Y122.975 Z2.841 I0 J-0.913
X-6.158 Y124.8 Z2.754 I0 J0.913
X-6.158 Y122.975 Z2.667 I0 J-0.913
X-6.158 Y124.8 Z2.579 I0 J0.913
X-6.158 Y122.975 Z2.492 I0 J-0.913
X-6.158 Y124.8 Z2.405 I0 J0.913
X-6.158 Y122.975 Z2.317 I0 J-0.913
X-6.158 Y124.8 Z2.23 I0 J0.913
X-6.158 Y122.975 Z2.143 I0 J-0.913
X-6.158 Y124.8 Z2.056 I0 J0.913
X-6.158 Y122.975 Z1.968 I0 J-0.913
X-6.158 Y124.8 Z1.881 I0 J0.913
X-6.158 Y122.975 Z1.794 I0 J-0.913
X-6.158 Y124.8 Z1.706 I0 J0.913
X-6.158 Y122.975 Z1.619 I0 J-0.913
X-6.158 Y124.8 Z1.532 I0 J0.913
X-6.158 Y122.975 Z1.444 I0 J-0.913
X-6.158 Y124.8 Z1.357 I0 J0.913
X-6.158 Y122.975 Z1.27 I0 J-0.913
X-6.158 Y124.8 Z1.183 I0 J0.913
X-6.158 Y122.975 Z1.095 I0 J-0.913
X-6.158 Y124.8 Z1.008 I0 J0.913
X-6.158 Y122.975 Z0.921 I0 J-0.913
X-6.158 Y124.8 Z0.833 I0 J0.913
X-6.158 Y122.975 Z0.746 I0 J-0.913
X-6.158 Y124.8 Z0.659 I0 J0.912
X-6.158 Y122.975 Z0.571 I0 J-0.912
X-6.158 Y124.8 Z0.484 I0 J0.912
X-6.158 Y122.975 Z0.397 I0 J-0.912
X-6.158 Y124.8 Z0.309 I0 J0.912
X-6.158 Y122.975 Z0.222 I0 J-0.912
X-6.158 Y124.8 Z0.135 I0 J0.912
X-6.158 Y122.975 Z0.048 I0 J-0.912
X-5.255 Y124.016 Z0 I0 J0.912
X-7.062 Y123.758 I-0.903 J-0.129
X-5.255 Y124.016 I0.903 J0.129
X-5.614 Y124.285 I-0.314 J-0.045
G1 X-5.771 Y124.263
X-5.841 Y124.253 Z0.008
X-5.908 Y124.244 Z0.031
X-5.967 Y124.235 Z0.069
X-6.017 Y124.228 Z0.12
X-6.054 Y124.223 Z0.18
X-6.078 Y124.219 Z0.247
X-6.086 Y124.218 Z0.317
G0 Z18
X-6.733 Y84.856
Z12
G1 Z10.318 F500
G19 G2 Y84.539 Z10 J-0.317 K0
G1 Y84.38
G17 G3 X-6.527 Y84.174 I0.206 J0
X-6.527 Y84.999 Z9.93 I0 J0.412
X-6.527 Y84.174 Z9.86 I0 J-0.412
X-6.527 Y84.999 Z9.79 I0 J0.412
X-6.527 Y84.174 Z9.721 I0 J-0.412
X-6.527 Y84.999 Z9.651 I0 J0.412
X-6.527 Y84.174 Z9.581 I0 J-0.412
X-6.527 Y84.999 Z9.511 I0 J0.412
X-6.527 Y84.174 Z9.441 I0 J-0.412
X-6.527 Y84.999 Z9.371 I0 J0.412
X-6.527 Y84.174 Z9.302 I0 J-0.412
X-6.527 Y84.999 Z9.232 I0 J0.412
X-6.527 Y84.174 Z9.162 I0 J-0.412
X-6.527 Y84.999 Z9.092 I0 J0.412
X-6.527 Y84.174 Z9.022 I0 J-0.412
X-6.527 Y84.999 Z8.952 I0 J0.412
X-6.527 Y84.174 Z8.883 I0 J-0.412
X-6.527 Y84.999 Z8.813 I0 J0.412
X-6.527 Y84.174 Z8.743 I0 J-0.412
X-6.527 Y84.999 Z8.673 I0 J0.412
X-6.527 Y84.174 Z8.603 I0 J-0.412
X-6.527 Y84.999 Z8.533 I0 J0.412
X-6.527 Y84.174 Z8.463 I0 J-0.412
X-6.527 Y84.999 Z8.394 I0 J0.412
X-6.527 Y84.174 Z8.324 I0 J-0.412
X-6.527 Y84.999 Z8.254 I0 J0.412
X-6.527 Y84.174 Z8.184 I0 J-0.412
X-6.527 Y84.999 Z8.114 I0 J0.412
X-6.527 Y84.174 Z8.044 I0 J-0.412
X-6.527 Y84.999 Z7.975 I0 J0.412
X-6.527 Y84.174 Z7.905 I0 J-0.412
X-6.527 Y84.999 Z7.835 I0 J0.412
X-6.527 Y84.174 Z7.765 I0 J-0.412
X-6.527 Y84.999 Z7.695 I0 J0.412
X-6.527 Y84.174 Z7.625 I0 J-0.412
X-6.527 Y84.999 Z7.556 I0 J0.412
X-6.527 Y84.174 Z7.486 I0 J-0.412
X-6.527 Y84.999 Z7.416 I0 J0.412
X-6.527 Y84.174 Z7.346 I0 J-0.412
X-6.527 Y84.999 Z7.276 I0 J0.412
X-6.527 Y84.174 Z7.206 I0 J-0.412
X-6.527 Y84.999 Z7.136 I0 J0.412
X-6.527 Y84.174 Z7.067 I0 J-0.412
X-6.527 Y84.999 Z6.997 I0 J0.412
X-6.527 Y84.174 Z6.927 I0 J-0.412
X-6.527 Y84.999 Z6.857 I0 J0.412
X-6.527 Y84.174 Z6.787 I0 J-0.412
X-6.527 Y84.999 Z6.717 I0 J0.412
X-6.527 Y84.174 Z6.648 I0 J-0.412
X-6.527 Y84.999 Z6.578 I0 J0.412
X-6.527 Y84.174 Z6.508 I0 J-0.412
X-6.527 Y84.999 Z6.438 I0 J0.412
X-6.527 Y84.174 Z6.368 I0 J-0.412
X-6.527 Y84.999 Z6.298 I0 J0.412
X-6.527 Y84.174 Z6.229 I0 J-0.412
X-6.527 Y84.999 Z6.159 I0 J0.412
X-6.527 Y84.174 Z6.089 I0 J-0.412
X-6.527 Y84.999 Z6.019 I0 J0.412
X-6.527 Y84.174 Z5.949 I0 J-0.412
X-6.527 Y84.999 Z5.879 I0 J0.412
X-6.527 Y84.174 Z5.81 I0 J-0.412
X-6.527 Y84.999 Z5.74 I0 J0.412
X-6.527 Y84.174 Z5.67 I0 J-0.412
X-6.527 Y84.999 Z5.6 I0 J0.412
X-6.527 Y84.174 Z5.53 I0 J-0.412
X-6.527 Y84.999 Z5.46 I0 J0.412
X-6.527 Y84.174 Z5.39 I0 J-0.412
X-6.527 Y84.999 Z5.321 I0 J0.412
X-6.527 Y84.174 Z5.251 I0 J-0.412
X-6.527 Y84.999 Z5.181 I0 J0.412
X-6.527 Y84.174 Z5.111 I0 J-0.412
X-6.527 Y84.999 Z5.041 I0 J0.412
X-6.527 Y84.174 Z4.971 I0 J-0.412
X-6.527 Y84.999 Z4.902 I0 J0.412
X-6.527 Y84.174 Z4.832 I0 J-0.412
X-6.527 Y84.999 Z4.762 I0 J0.412
X-6.527 Y84.174 Z4.692 I0 J-0.412
X-6.527 Y84.999 Z4.622 I0 J0.412
X-6.527 Y84.174 Z4.552 I0 J-0.412
X-6.527 Y84.999 Z4.483 I0 J0.412
X-6.527 Y84.174 Z4.413 I0 J-0.412
X-6.527 Y84.999 Z4.343 I0 J0.412
X-6.527 Y84.174 Z4.273 I0 J-0.412
X-6.527 Y84.999 Z4.203 I0 J0.412
X-6.527 Y84.174 Z4.133 I0 J-0.412
X-6.527 Y84.999 Z4.063 I0 J0.412
X-6.527 Y84.174 Z3.994 I0 J-0.412
X-6.527 Y84.999 Z3.924 I0 J0.412
X-6.527 Y84.174 Z3.854 I0 J-0.412
X-6.527 Y84.999 Z3.784 I0 J0.412
X-6.527 Y84.174 Z3.714 I0 J-0.413
X-6.527 Y84.999 Z3.644 I0 J0.413
X-6.527 Y84.174 Z3.575 I0 J-0.413
X-6.527 Y84.999 Z3.505 I0 J0.413
X-6.527 Y84.174 Z3.435 I0 J-0.413
X-6.527 Y84.999 Z3.365 I0 J0.413
X-6.527 Y84.174 Z3.295 I0 J-0.413
X-6.527 Y84.999 Z3.225 I0 J0.413
X-6.527 Y84.174 Z3.156 I0 J-0.413
X-6.527 Y84.999 Z3.086 I0 J0.413
X-6.527 Y84.174 Z3.016 I0 J-0.413
X-6.527 Y84.999 Z2.946 I0 J0.413
X-6.527 Y84.174 Z2.876 I0 J-0.413
X-6.527 Y84.999 Z2.806 I0 J0.413
X-6.527 Y84.174 Z2.736 I0 J-0.413
X-6.527 Y84.999 Z2.667 I0 J0.413
X-6.527 Y84.174 Z2.597 I0 J-0.413
X-6.527 Y84.999 Z2.527 I0 J0.413
X-6.527 Y84.174 Z2.457 I0 J-0.413
X-6.527 Y84.999 Z2.387 I0 J0.413
X-6.527 Y84.174 Z2.317 I0 J-0.413
X-6.527 Y84.999 Z2.248 I0 J0.413
X-6.527 Y84.174 Z2.178 I0 J-0.413
X-6.527 Y84.999 Z2.108 I0 J0.413
X-6.527 Y84.174 Z2.038 I0 J-0.413
X-6.527 Y84.999 Z1.968 I0 J0.413
X-6.527 Y84.174 Z1.898 I0 J-0.413
X-6.527 Y84.999 Z1.829 I0 J0.413
X-6.527 Y84.174 Z1.759 I0 J-0.413
X-6.527 Y84.999 Z1.689 I0 J0.413
X-6.527 Y84.174 Z1.619 I0 J-0.413
X-6.527 Y84.999 Z1.549 I0 J0.413
X-6.527 Y84.174 Z1.479 I0 J-0.413
X-6.527 Y84.999 Z1.409 I0 J0.413
X-6.527 Y84.174 Z1.34 I0 J-0.413
X-6.527 Y84.999 Z1.27 I0 J0.413
X-6.527 Y84.174 Z1.2 I0 J-0.413
X-6.527 Y84.999 Z1.13 I0 J0.413
X-6.527 Y84.174 Z1.06 I0 J-0.413
X-6.527 Y84.999 Z0.99 I0 J0.413
X-6.527 Y84.174 Z0.921 I0 J-0.413
X-6.527 Y84.999 Z0.851 I0 J0.413
X-6.527 Y84.174 Z0.781 I0 J-0.413
X-6.527 Y84.999 Z0.711 I0 J0.413
X-6.527 Y84.174 Z0.641 I0 J-0.413
X-6.527 Y84.999 Z0.571 I0 J0.413
X-6.527 Y84.174 Z0.502 I0 J-0.413
X-6.527 Y84.999 Z0.432 I0 J0.413
X-6.527 Y84.174 Z0.362 I0 J-0.413
X-6.527 Y84.999 Z0.292 I0 J0.413
X-6.527 Y84.174 Z0.222 I0 J-0.413
X-6.527 Y84.999 Z0.152 I0 J0.413
X-6.527 Y84.174 Z0.083 I0 J-0.413
X-6.527 Y84.999 Z0.013 I0 J0.413
X-6.749 Y84.933 Z0 I0 J-0.413
X-6.304 Y84.239 I0.222 J-0.347
X-6.749 Y84.933 I-0.222 J0.347
X-6.811 Y84.649 I0.111 J-0.174
G1 X-6.726 Y84.515
X-6.688 Y84.455 Z0.008
X-6.652 Y84.399 Z0.031
X-6.619 Y84.348 Z0.069
X-6.592 Y84.306 Z0.12
X-6.572 Y84.274 Z0.18
X-6.559 Y84.254 Z0.247
X-6.555 Y84.247 Z0.317
G0 Z18
X-14.733 Y84.856
Z12
G1 Z10.318 F500
G19 G2 Y84.539 Z10 J-0.317 K0
G1 Y84.38
G17 G3 X-14.527 Y84.174 I0.206 J0
X-14.527 Y84.999 Z9.93 I0 J0.412
X-14.527 Y84.174 Z9.86 I0 J-0.412
X-14.527 Y84.999 Z9.79 I0 J0.412
X-14.527 Y84.174 Z9.721 I0 J-0.412
X-14.527 Y84.999 Z9.651 I0 J0.412
X-14.527 Y84.174 Z9.581 I0 J-0.412
X-14.527 Y84.999 Z9.511 I0 J0.412
X-14.527 Y84.174 Z9.441 I0 J-0.412
X-14.527 Y84.999 Z9.371 I0 J0.412
X-14.527 Y84.174 Z9.302 I0 J-0.412
X-14.527 Y84.999 Z9.232 I0 J0.412
X-14.527 Y84.174 Z9.162 I0 J-0.412
X-14.527 Y84.999 Z9.092 I0 J0.412
X-14.527 Y84.174 Z9.022 I0 J-0.412
X-14.527 Y84.999 Z8.952 I0 J0.412
X-14.527 Y84.174 Z8.883 I0 J-0.412
X-14.527 Y84.999 Z8.813 I0 J0.412
X-14.527 Y84.174 Z8.743 I0 J-0.412
X-14.527 Y84.999 Z8.673 I0 J0.412
X-14.527 Y84.174 Z8.603 I0 J-0.412
X-14.527 Y84.999 Z8.533 I0 J0.412
X-14.527 Y84.174 Z8.463 I0 J-0.412
X-14.527 Y84.999 Z8.394 I0 J0.412
X-14.527 Y84.174 Z8.324 I0 J-0.412
X-14.527 Y84.999 Z8.254 I0 J0.412
X-14.527 Y84.174 Z8.184 I0 J-0.412
X-14.527 Y84.999 Z8.114 I0 J0.412
X-14.527 Y84.174 Z8.044 I0 J-0.412
X-14.527 Y84.999 Z7.975 I0 J0.412
X-14.527 Y84.174 Z7.905 I0 J-0.412
X-14.527 Y84.999 Z7.835 I0 J0.412
X-14.527 Y84.174 Z7.765 I0 J-0.412
X-14.527 Y84.999 Z7.695 I0 J0.412
X-14.527 Y84.174 Z7.625 I0 J-0.412
X-14.527 Y84.999 Z7.556 I0 J0.412
X-14.527 Y84.174 Z7.486 I0 J-0.412
X-14.527 Y84.999 Z7.416 I0 J0.412
X-14.527 Y84.174 Z7.346 I0 J-0.412
X-14.527 Y84.999 Z7.276 I0 J0.412
X-14.527 Y84.174 Z7.206 I0 J-0.412
X-14.527 Y84.999 Z7.136 I0 J0.412
X-14.527 Y84.174 Z7.067 I0 J-0.412
X-14.527 Y84.999 Z6.997 I0 J0.412
X-14.527 Y84.174 Z6.927 I0 J-0.412
X-14.527 Y84.999 Z6.857 I0 J0.412
X-14.527 Y84.174 Z6.787 I0 J-0.412
X-14.527 Y84.999 Z6.717 I0 J0.412
X-14.527 Y84.174 Z6.648 I0 J-0.412
X-14.527 Y84.999 Z6.578 I0 J0.412
X-14.527 Y84.174 Z6.508 I0 J-0.412
X-14.527 Y84.999 Z6.438 I0 J0.412
X-14.527 Y84.174 Z6.368 I0 J-0.412
X-14.527 Y84.999 Z6.298 I0 J0.412
X-14.527 Y84.174 Z6.229 I0 J-0.412
X-14.527 Y84.999 Z6.159 I0 J0.412
X-14.527 Y84.174 Z6.089 I0 J-0.412
X-14.527 Y84.999 Z6.019 I0 J0.412
X-14.527 Y84.174 Z5.949 I0 J-0.412
X-14.527 Y84.999 Z5.879 I0 J0.412
X-14.527 Y84.174 Z5.81 I0 J-0.412
X-14.527 Y84.999 Z5.74 I0 J0.412
X-14.527 Y84.174 Z5.67 I0 J-0.412
X-14.527 Y84.999 Z5.6 I0 J0.412
X-14.527 Y84.174 Z5.53 I0 J-0.412
X-14.527 Y84.999 Z5.46 I0 J0.412
X-14.527 Y84.174 Z5.39 I0 J-0.412
X-14.527 Y84.999 Z5.321 I0 J0.412
X-14.527 Y84.174 Z5.251 I0 J-0.412
X-14.527 Y84.999 Z5.181 I0 J0.412
X-14.527 Y84.174 Z5.111 I0 J-0.412
X-14.527 Y84.999 Z5.041 I0 J0.412
X-14.527 Y84.174 Z4.971 I0 J-0.412
X-14.527 Y84.999 Z4.902 I0 J0.412
X-14.527 Y84.174 Z4.832 I0 J-0.412
X-14.527 Y84.999 Z4.762 I0 J0.412
X-14.527 Y84.174 Z4.692 I0 J-0.412
X-14.527 Y84.999 Z4.622 I0 J0.412
X-14.527 Y84.174 Z4.552 I0 J-0.412
X-14.527 Y84.999 Z4.483 I0 J0.412
X-14.527 Y84.174 Z4.413 I0 J-0.412
X-14.527 Y84.999 Z4.343 I0 J0.412
X-14.527 Y84.174 Z4.273 I0 J-0.412
X-14.527 Y84.999 Z4.203 I0 J0.412
X-14.527 Y84.174 Z4.133 I0 J-0.412
X-14.527 Y84.999 Z4.063 I0 J0.412
X-14.527 Y84.174 Z3.994 I0 J-0.412
X-14.527 Y84.999 Z3.924 I0 J0.412
X-14.527 Y84.174 Z3.854 I0 J-0.412
X-14.527 Y84.999 Z3.784 I0 J0.412
X-14.527 Y84.174 Z3.714 I0 J-0.413
X-14.527 Y84.999 Z3.644 I0 J0.413
X-14.527 Y84.174 Z3.575 I0 J-0.413
X-14.527 Y84.999 Z3.505 I0 J0.413
X-14.527 Y84.174 Z3.435 I0 J-0.413
X-14.527 Y84.999 Z3.365 I0 J0.413
X-14.527 Y84.174 Z3.295 I0 J-0.413
X-14.527 Y84.999 Z3.225 I0 J0.413
X-14.527 Y84.174 Z3.156 I0 J-0.413
X-14.527 Y84.999 Z3.086 I0 J0.413
X-14.527 Y84.174 Z3.016 I0 J-0.413
X-14.527 Y84.999 Z2.946 I0 J0.413
X-14.527 Y84.174 Z2.876 I0 J-0.413
X-14.527 Y84.999 Z2.806 I0 J0.413
X-14.527 Y84.174 Z2.736 I0 J-0.413
X-14.527 Y84.999 Z2.667 I0 J0.413
X-14.527 Y84.174 Z2.597 I0 J-0.413
X-14.527 Y84.999 Z2.527 I0 J0.413
X-14.527 Y84.174 Z2.457 I0 J-0.413
X-14.527 Y84.999 Z2.387 I0 J0.413
X-14.527 Y84.174 Z2.317 I0 J-0.413
X-14.527 Y84.999 Z2.248 I0 J0.413
X-14.527 Y84.174 Z2.178 I0 J-0.413
X-14.527 Y84.999 Z2.108 I0 J0.413
X-14.527 Y84.174 Z2.038 I0 J-0.413
X-14.527 Y84.999 Z1.968 I0 J0.413
X-14.527 Y84.174 Z1.898 I0 J-0.413
X-14.527 Y84.999 Z1.829 I0 J0.413
X-14.527 Y84.174 Z1.759 I0 J-0.413
X-14.527 Y84.999 Z1.689 I0 J0.413
X-14.527 Y84.174 Z1.619 I0 J-0.413
X-14.527 Y84.999 Z1.549 I0 J0.413
X-14.527 Y84.174 Z1.479 I0 J-0.413
X-14.527 Y84.999 Z1.409 I0 J0.413
X-14.527 Y84.174 Z1.34 I0 J-0.413
X-14.527 Y84.999 Z1.27 I0 J0.413
X-14.527 Y84.174 Z1.2 I0 J-0.413
X-14.527 Y84.999 Z1.13 I0 J0.413
X-14.527 Y84.174 Z1.06 I0 J-0.413
X-14.527 Y84.999 Z0.99 I0 J0.413
X-14.527 Y84.174 Z0.921 I0 J-0.413
X-14.527 Y84.999 Z0.851 I0 J0.413
X-14.527 Y84.174 Z0.781 I0 J-0.413
X-14.527 Y84.999 Z0.711 I0 J0.413
X-14.527 Y84.174 Z0.641 I0 J-0.413
X-14.527 Y84.999 Z0.571 I0 J0.413
X-14.527 Y84.174 Z0.502 I0 J-0.413
X-14.527 Y84.999 Z0.432 I0 J0.413
X-14.527 Y84.174 Z0.362 I0 J-0.413
X-14.527 Y84.999 Z0.292 I0 J0.413
X-14.527 Y84.174 Z0.222 I0 J-0.413
X-14.527 Y84.999 Z0.152 I0 J0.413
X-14.527 Y84.174 Z0.083 I0 J-0.413
X-14.527 Y84.999 Z0.013 I0 J0.413
X-14.749 Y84.933 Z0 I0 J-0.413
X-14.304 Y84.239 I0.222 J-0.347
X-14.749 Y84.933 I-0.222 J0.347
X-14.811 Y84.649 I0.111 J-0.174
G1 X-14.726 Y84.515
X-14.688 Y84.455 Z0.008
X-14.652 Y84.399 Z0.031
X-14.619 Y84.348 Z0.069
X-14.592 Y84.306 Z0.12
X-14.572 Y84.274 Z0.18
X-14.559 Y84.254 Z0.247
X-14.555 Y84.247 Z0.317
G0 Z18
X-14.733 Y39.856
Z12
G1 Z10.318 F500
G19 G2 Y39.539 Z10 J-0.318 K0
G1 Y39.38
G17 G3 X-14.527 Y39.174 I0.206 J0
X-14.527 Y39.999 Z9.93 I0 J0.412
X-14.527 Y39.174 Z9.86 I0 J-0.412
X-14.527 Y39.999 Z9.79 I0 J0.412
X-14.527 Y39.174 Z9.721 I0 J-0.412
X-14.527 Y39.999 Z9.651 I0 J0.412
X-14.527 Y39.174 Z9.581 I0 J-0.412
X-14.527 Y39.999 Z9.511 I0 J0.412
X-14.527 Y39.174 Z9.441 I0 J-0.412
X-14.527 Y39.999 Z9.371 I0 J0.412
X-14.527 Y39.174 Z9.302 I0 J-0.412
X-14.527 Y39.999 Z9.232 I0 J0.412
X-14.527 Y39.174 Z9.162 I0 J-0.412
X-14.527 Y39.999 Z9.092 I0 J0.412
X-14.527 Y39.174 Z9.022 I0 J-0.412
X-14.527 Y39.999 Z8.952 I0 J0.412
X-14.527 Y39.174 Z8.883 I0 J-0.412
X-14.527 Y39.999 Z8.813 I0 J0.412
X-14.527 Y39.174 Z8.743 I0 J-0.412
X-14.527 Y39.999 Z8.673 I0 J0.412
X-14.527 Y39.174 Z8.603 I0 J-0.412
X-14.527 Y39.999 Z8.533 I0 J0.412
X-14.527 Y39.174 Z8.463 I0 J-0.412
X-14.527 Y39.999 Z8.394 I0 J0.412
X-14.527 Y39.174 Z8.324 I0 J-0.412
X-14.527 Y39.999 Z8.254 I0 J0.412
X-14.527 Y39.174 Z8.184 I0 J-0.412
X-14.527 Y39.999 Z8.114 I0 J0.412
X-14.527 Y39.174 Z8.044 I0 J-0.412
X-14.527 Y39.999 Z7.975 I0 J0.412
X-14.527 Y39.174 Z7.905 I0 J-0.412
X-14.527 Y39.999 Z7.835 I0 J0.412
X-14.527 Y39.174 Z7.765 I0 J-0.412
X-14.527 Y39.999 Z7.695 I0 J0.412
X-14.527 Y39.174 Z7.625 I0 J-0.412
X-14.527 Y39.999 Z7.556 I0 J0.412
X-14.527 Y39.174 Z7.486 I0 J-0.412
X-14.527 Y39.999 Z7.416 I0 J0.412
X-14.527 Y39.174 Z7.346 I0 J-0.412
X-14.527 Y39.999 Z7.276 I0 J0.412
X-14.527 Y39.174 Z7.206 I0 J-0.412
X-14.527 Y39.999 Z7.136 I0 J0.412
X-14.527 Y39.174 Z7.067 I0 J-0.412
X-14.527 Y39.999 Z6.997 I0 J0.412
X-14.527 Y39.174 Z6.927 I0 J-0.412
X-14.527 Y39.999 Z6.857 I0 J0.412
X-14.527 Y39.174 Z6.787 I0 J-0.412
X-14.527 Y39.999 Z6.717 I0 J0.412
X-14.527 Y39.174 Z6.648 I0 J-0.412
X-14.527 Y39.999 Z6.578 I0 J0.412
X-14.527 Y39.174 Z6.508 I0 J-0.412
X-14.527 Y39.999 Z6.438 I0 J0.412
X-14.527 Y39.174 Z6.368 I0 J-0.412
X-14.527 Y39.999 Z6.298 I0 J0.412
X-14.527 Y39.174 Z6.229 I0 J-0.412
X-14.527 Y39.999 Z6.159 I0 J0.412
X-14.527 Y39.174 Z6.089 I0 J-0.412
X-14.527 Y39.999 Z6.019 I0 J0.412
X-14.527 Y39.174 Z5.949 I0 J-0.412
X-14.527 Y39.999 Z5.879 I0 J0.412
X-14.527 Y39.174 Z5.81 I0 J-0.412
X-14.527 Y39.999 Z5.74 I0 J0.412
X-14.527 Y39.174 Z5.67 I0 J-0.412
X-14.527 Y39.999 Z5.6 I0 J0.412
X-14.527 Y39.174 Z5.53 I0 J-0.412
X-14.527 Y39.999 Z5.46 I0 J0.412
X-14.527 Y39.174 Z5.39 I0 J-0.412
X-14.527 Y39.999 Z5.321 I0 J0.412
X-14.527 Y39.174 Z5.251 I0 J-0.412
X-14.527 Y39.999 Z5.181 I0 J0.412
X-14.527 Y39.174 Z5.111 I0 J-0.412
X-14.527 Y39.999 Z5.041 I0 J0.412
X-14.527 Y39.174 Z4.971 I0 J-0.412
X-14.527 Y39.999 Z4.902 I0 J0.412
X-14.527 Y39.174 Z4.832 I0 J-0.412
X-14.527 Y39.999 Z4.762 I0 J0.412
X-14.527 Y39.174 Z4.692 I0 J-0.412
X-14.527 Y39.999 Z4.622 I0 J0.412
X-14.527 Y39.174 Z4.552 I0 J-0.412
X-14.527 Y39.999 Z4.483 I0 J0.412
X-14.527 Y39.174 Z4.413 I0 J-0.412
X-14.527 Y39.999 Z4.343 I0 J0.412
X-14.527 Y39.174 Z4.273 I0 J-0.412
X-14.527 Y39.999 Z4.203 I0 J0.412
X-14.527 Y39.174 Z4.133 I0 J-0.412
X-14.527 Y39.999 Z4.063 I0 J0.412
X-14.527 Y39.174 Z3.994 I0 J-0.412
X-14.527 Y39.999 Z3.924 I0 J0.412
X-14.527 Y39.174 Z3.854 I0 J-0.412
X-14.527 Y39.999 Z3.784 I0 J0.412
X-14.527 Y39.174 Z3.714 I0 J-0.413
X-14.527 Y39.999 Z3.644 I0 J0.413
X-14.527 Y39.174 Z3.575 I0 J-0.413
X-14.527 Y39.999 Z3.505 I0 J0.413
X-14.527 Y39.174 Z3.435 I0 J-0.413
X-14.527 Y39.999 Z3.365 I0 J0.413
X-14.527 Y39.174 Z3.295 I0 J-0.413
X-14.527 Y39.999 Z3.225 I0 J0.413
X-14.527 Y39.174 Z3.156 I0 J-0.413
X-14.527 Y39.999 Z3.086 I0 J0.413
X-14.527 Y39.174 Z3.016 I0 J-0.413
X-14.527 Y39.999 Z2.946 I0 J0.413
X-14.527 Y39.174 Z2.876 I0 J-0.413
X-14.527 Y39.999 Z2.806 I0 J0.413
X-14.527 Y39.174 Z2.736 I0 J-0.413
X-14.527 Y39.999 Z2.667 I0 J0.413
X-14.527 Y39.174 Z2.597 I0 J-0.413
X-14.527 Y39.999 Z2.527 I0 J0.413
X-14.527 Y39.174 Z2.457 I0 J-0.413
X-14.527 Y39.999 Z2.387 I0 J0.413
X-14.527 Y39.174 Z2.317 I0 J-0.413
X-14.527 Y39.999 Z2.248 I0 J0.413
X-14.527 Y39.174 Z2.178 I0 J-0.413
X-14.527 Y39.999 Z2.108 I0 J0.413
X-14.527 Y39.174 Z2.038 I0 J-0.413
X-14.527 Y39.999 Z1.968 I0 J0.413
X-14.527 Y39.174 Z1.898 I0 J-0.413
X-14.527 Y39.999 Z1.829 I0 J0.413
X-14.527 Y39.174 Z1.759 I0 J-0.413
X-14.527 Y39.999 Z1.689 I0 J0.413
X-14.527 Y39.174 Z1.619 I0 J-0.413
X-14.527 Y39.999 Z1.549 I0 J0.413
X-14.527 Y39.174 Z1.479 I0 J-0.413
X-14.527 Y39.999 Z1.409 I0 J0.413
X-14.527 Y39.174 Z1.34 I0 J-0.413
X-14.527 Y39.999 Z1.27 I0 J0.413
X-14.527 Y39.174 Z1.2 I0 J-0.413
X-14.527 Y39.999 Z1.13 I0 J0.413
X-14.527 Y39.174 Z1.06 I0 J-0.413
X-14.527 Y39.999 Z0.99 I0 J0.413
X-14.527 Y39.174 Z0.921 I0 J-0.413
X-14.527 Y39.999 Z0.851 I0 J0.413
X-14.527 Y39.174 Z0.781 I0 J-0.413
X-14.527 Y39.999 Z0.711 I0 J0.413
X-14.527 Y39.174 Z0.641 I0 J-0.413
X-14.527 Y39.999 Z0.571 I0 J0.413
X-14.527 Y39.174 Z0.502 I0 J-0.413
X-14.527 Y39.999 Z0.432 I0 J0.413
X-14.527 Y39.174 Z0.362 I0 J-0.413
X-14.527 Y39.999 Z0.292 I0 J0.413
X-14.527 Y39.174 Z0.222 I0 J-0.413
X-14.527 Y39.999 Z0.152 I0 J0.413
X-14.527 Y39.174 Z0.083 I0 J-0.413
X-14.527 Y39.999 Z0.013 I0 J0.413
X-14.749 Y39.933 Z0 I0 J-0.413
X-14.304 Y39.239 I0.222 J-0.347
X-14.749 Y39.933 I-0.222 J0.347
X-14.811 Y39.649 I0.111 J-0.174
G1 X-14.726 Y39.515
X-14.688 Y39.455 Z0.008
X-14.652 Y39.399 Z0.031
X-14.619 Y39.348 Z0.069
X-14.592 Y39.306 Z0.12
X-14.572 Y39.274 Z0.18
X-14.559 Y39.254 Z0.247
X-14.555 Y39.247 Z0.317
G0 Z18
X-6.733 Y39.856
Z12
G1 Z10.318 F500
G19 G2 Y39.539 Z10 J-0.318 K0
G1 Y39.38
G17 G3 X-6.527 Y39.174 I0.206 J0
X-6.527 Y39.999 Z9.93 I0 J0.412
X-6.527 Y39.174 Z9.86 I0 J-0.412
X-6.527 Y39.999 Z9.79 I0 J0.412
X-6.527 Y39.174 Z9.721 I0 J-0.412
X-6.527 Y39.999 Z9.651 I0 J0.412
X-6.527 Y39.174 Z9.581 I0 J-0.412
X-6.527 Y39.999 Z9.511 I0 J0.412
X-6.527 Y39.174 Z9.441 I0 J-0.412
X-6.527 Y39.999 Z9.371 I0 J0.412
X-6.527 Y39.174 Z9.302 I0 J-0.412
X-6.527 Y39.999 Z9.232 I0 J0.412
X-6.527 Y39.174 Z9.162 I0 J-0.412
X-6.527 Y39.999 Z9.092 I0 J0.412
X-6.527 Y39.174 Z9.022 I0 J-0.412
X-6.527 Y39.999 Z8.952 I0 J0.412
X-6.527 Y39.174 Z8.883 I0 J-0.412
X-6.527 Y39.999 Z8.813 I0 J0.412
X-6.527 Y39.174 Z8.743 I0 J-0.412
X-6.527 Y39.999 Z8.673 I0 J0.412
X-6.527 Y39.174 Z8.603 I0 J-0.412
X-6.527 Y39.999 Z8.533 I0 J0.412
X-6.527 Y39.174 Z8.463 I0 J-0.412
X-6.527 Y39.999 Z8.394 I0 J0.412
X-6.527 Y39.174 Z8.324 I0 J-0.412
X-6.527 Y39.999 Z8.254 I0 J0.412
X-6.527 Y39.174 Z8.184 I0 J-0.412
X-6.527 Y39.999 Z8.114 I0 J0.412
X-6.527 Y39.174 Z8.044 I0 J-0.412
X-6.527 Y39.999 Z7.975 I0 J0.412
X-6.527 Y39.174 Z7.905 I0 J-0.412
X-6.527 Y39.999 Z7.835 I0 J0.412
X-6.527 Y39.174 Z7.765 I0 J-0.412
X-6.527 Y39.999 Z7.695 I0 J0.412
X-6.527 Y39.174 Z7.625 I0 J-0.412
X-6.527 Y39.999 Z7.556 I0 J0.412
X-6.527 Y39.174 Z7.486 I0 J-0.412
X-6.527 Y39.999 Z7.416 I0 J0.412
X-6.527 Y39.174 Z7.346 I0 J-0.412
X-6.527 Y39.999 Z7.276 I0 J0.412
X-6.527 Y39.174 Z7.206 I0 J-0.412
X-6.527 Y39.999 Z7.136 I0 J0.412
X-6.527 Y39.174 Z7.067 I0 J-0.412
X-6.527 Y39.999 Z6.997 I0 J0.412
X-6.527 Y39.174 Z6.927 I0 J-0.412
X-6.527 Y39.999 Z6.857 I0 J0.412
X-6.527 Y39.174 Z6.787 I0 J-0.412
X-6.527 Y39.999 Z6.717 I0 J0.412
X-6.527 Y39.174 Z6.648 I0 J-0.412
X-6.527 Y39.999 Z6.578 I0 J0.412
X-6.527 Y39.174 Z6.508 I0 J-0.412
X-6.527 Y39.999 Z6.438 I0 J0.412
X-6.527 Y39.174 Z6.368 I0 J-0.412
X-6.527 Y39.999 Z6.298 I0 J0.412
X-6.527 Y39.174 Z6.229 I0 J-0.412
X-6.527 Y39.999 Z6.159 I0 J0.412
X-6.527 Y39.174 Z6.089 I0 J-0.412
X-6.527 Y39.999 Z6.019 I0 J0.412
X-6.527 Y39.174 Z5.949 I0 J-0.412
X-6.527 Y39.999 Z5.879 I0 J0.412
X-6.527 Y39.174 Z5.81 I0 J-0.412
X-6.527 Y39.999 Z5.74 I0 J0.412
X-6.527 Y39.174 Z5.67 I0 J-0.412
X-6.527 Y39.999 Z5.6 I0 J0.412
X-6.527 Y39.174 Z5.53 I0 J-0.412
X-6.527 Y39.999 Z5.46 I0 J0.412
X-6.527 Y39.174 Z5.39 I0 J-0.412
X-6.527 Y39.999 Z5.321 I0 J0.412
X-6.527 Y39.174 Z5.251 I0 J-0.412
X-6.527 Y39.999 Z5.181 I0 J0.412
X-6.527 Y39.174 Z5.111 I0 J-0.412
X-6.527 Y39.999 Z5.041 I0 J0.412
X-6.527 Y39.174 Z4.971 I0 J-0.412
X-6.527 Y39.999 Z4.902 I0 J0.412
X-6.527 Y39.174 Z4.832 I0 J-0.412
X-6.527 Y39.999 Z4.762 I0 J0.412
X-6.527 Y39.174 Z4.692 I0 J-0.412
X-6.527 Y39.999 Z4.622 I0 J0.412
X-6.527 Y39.174 Z4.552 I0 J-0.412
X-6.527 Y39.999 Z4.483 I0 J0.412
X-6.527 Y39.174 Z4.413 I0 J-0.412
X-6.527 Y39.999 Z4.343 I0 J0.412
X-6.527 Y39.174 Z4.273 I0 J-0.412
X-6.527 Y39.999 Z4.203 I0 J0.412
X-6.527 Y39.174 Z4.133 I0 J-0.412
X-6.527 Y39.999 Z4.063 I0 J0.412
X-6.527 Y39.174 Z3.994 I0 J-0.412
X-6.527 Y39.999 Z3.924 I0 J0.412
X-6.527 Y39.174 Z3.854 I0 J-0.412
X-6.527 Y39.999 Z3.784 I0 J0.412
X-6.527 Y39.174 Z3.714 I0 J-0.413
X-6.527 Y39.999 Z3.644 I0 J0.413
X-6.527 Y39.174 Z3.575 I0 J-0.413
X-6.527 Y39.999 Z3.505 I0 J0.413
X-6.527 Y39.174 Z3.435 I0 J-0.413
X-6.527 Y39.999 Z3.365 I0 J0.413
X-6.527 Y39.174 Z3.295 I0 J-0.413
X-6.527 Y39.999 Z3.225 I0 J0.413
X-6.527 Y39.174 Z3.156 I0 J-0.413
X-6.527 Y39.999 Z3.086 I0 J0.413
X-6.527 Y39.174 Z3.016 I0 J-0.413
X-6.527 Y39.999 Z2.946 I0 J0.413
X-6.527 Y39.174 Z2.876 I0 J-0.413
X-6.527 Y39.999 Z2.806 I0 J0.413
X-6.527 Y39.174 Z2.736 I0 J-0.413
X-6.527 Y39.999 Z2.667 I0 J0.413
X-6.527 Y39.174 Z2.597 I0 J-0.413
X-6.527 Y39.999 Z2.527 I0 J0.413
X-6.527 Y39.174 Z2.457 I0 J-0.413
X-6.527 Y39.999 Z2.387 I0 J0.413
X-6.527 Y39.174 Z2.317 I0 J-0.413
X-6.527 Y39.999 Z2.248 I0 J0.413
X-6.527 Y39.174 Z2.178 I0 J-0.413
X-6.527 Y39.999 Z2.108 I0 J0.413
X-6.527 Y39.174 Z2.038 I0 J-0.413
X-6.527 Y39.999 Z1.968 I0 J0.413
X-6.527 Y39.174 Z1.898 I0 J-0.413
X-6.527 Y39.999 Z1.829 I0 J0.413
X-6.527 Y39.174 Z1.759 I0 J-0.413
X-6.527 Y39.999 Z1.689 I0 J0.413
X-6.527 Y39.174 Z1.619 I0 J-0.413
X-6.527 Y39.999 Z1.549 I0 J0.413
X-6.527 Y39.174 Z1.479 I0 J-0.413
X-6.527 Y39.999 Z1.409 I0 J0.413
X-6.527 Y39.174 Z1.34 I0 J-0.413
X-6.527 Y39.999 Z1.27 I0 J0.413
X-6.527 Y39.174 Z1.2 I0 J-0.413
X-6.527 Y39.999 Z1.13 I0 J0.413
X-6.527 Y39.174 Z1.06 I0 J-0.413
X-6.527 Y39.999 Z0.99 I0 J0.413
X-6.527 Y39.174 Z0.921 I0 J-0.413
X-6.527 Y39.999 Z0.851 I0 J0.413
X-6.527 Y39.174 Z0.781 I0 J-0.413
X-6.527 Y39.999 Z0.711 I0 J0.413
X-6.527 Y39.174 Z0.641 I0 J-0.413
X-6.527 Y39.999 Z0.571 I0 J0.413
X-6.527 Y39.174 Z0.502 I0 J-0.413
X-6.527 Y39.999 Z0.432 I0 J0.413
X-6.527 Y39.174 Z0.362 I0 J-0.413
X-6.527 Y39.999 Z0.292 I0 J0.413
X-6.527 Y39.174 Z0.222 I0 J-0.413
X-6.527 Y39.999 Z0.152 I0 J0.413
X-6.527 Y39.174 Z0.083 I0 J-0.413
X-6.527 Y39.999 Z0.013 I0 J0.413
X-6.749 Y39.933 Z0 I0 J-0.413
X-6.304 Y39.239 I0.222 J-0.347
X-6.749 Y39.933 I-0.222 J0.347
X-6.811 Y39.649 I0.111 J-0.174
G1 X-6.726 Y39.515
X-6.688 Y39.455 Z0.008
X-6.652 Y39.399 Z0.031
X-6.619 Y39.348 Z0.069
X-6.592 Y39.306 Z0.12
X-6.572 Y39.274 Z0.18
X-6.559 Y39.254 Z0.247
X-6.555 Y39.247 Z0.317
G0 Z28
G28 G91 Z0
G90
G28 G91 X0 Y0
G90
M5
M30
