(contour1)
(T6 D=3.175 CR=0 - ZMIN=0 - flat end mill)
G90 G94
G17
G21
G28 G91 Z0
G90

(2D Contour2 7)
T6
(18 Flat-45 degree helix)
S18000 M3
G17 G90 G94
G54
G0 X-2.067 Y-3.898
Z30
G0 Z13
G1 Z7.317 F600
X-2.073 Y-3.892 Z7.247
X-2.09 Y-3.876 Z7.18
X-2.118 Y-3.85 Z7.12
X-2.155 Y-3.816 Z7.069
X-2.199 Y-3.775 Z7.031
X-2.248 Y-3.729 Z7.008
X-2.299 Y-3.681 Z7
X-7.928 Y1.569
G3 X-8.377 Y1.553 I-0.217 J-0.232
G2 X-11 Y0.412 I-2.623 J2.447 F1000
G1 X-16.7
G2 X-20.287 Y4 I0 J3.588
G1 Y31.747
X-20.29 Y31.799
X-20.3 Y31.85
X-42.538 Y118.492
G2 X-42.588 Y118.887 I1.538 J0.395
G1 Y127
G2 X-39 Y130.587 I3.588 J0
G1 X-3
G2 X0.587 Y127 I0 J-3.587
G1 Y34
G2 X-3 Y30.413 I-3.587 J0
G1 X-7
G3 X-7.412 Y30 I0 J-0.413
G1 Y4
G2 X-8.377 Y1.553 I-3.588 J0
G3 X-8.361 Y1.104 I0.232 J-0.217 F600
G1 X-8.129 Y0.888
X-8.077 Y0.84 Z7.008
X-8.028 Y0.794 Z7.031
X-7.984 Y0.753 Z7.069
X-7.947 Y0.718 Z7.12
X-7.92 Y0.693 Z7.18
X-7.902 Y0.677 Z7.247
X-7.897 Y0.671 Z7.317
X-2.067 Y-3.898 F1000
Z4.317 F600
X-2.073 Y-3.892 Z4.247
X-2.09 Y-3.876 Z4.18
X-2.118 Y-3.85 Z4.12
X-2.155 Y-3.816 Z4.069
X-2.199 Y-3.775 Z4.031
X-2.248 Y-3.729 Z4.008
X-2.299 Y-3.681 Z4
X-7.928 Y1.569
G3 X-8.377 Y1.553 I-0.217 J-0.232
G2 X-11 Y0.412 I-2.623 J2.447 F1000
G1 X-16.7
G2 X-20.287 Y4 I0 J3.588
G1 Y31.747
X-20.29 Y31.799
X-20.3 Y31.85
X-42.538 Y118.492
G2 X-42.588 Y118.887 I1.538 J0.395
G1 Y127
G2 X-39 Y130.587 I3.588 J0
G1 X-3
G2 X0.587 Y127 I0 J-3.587
G1 Y34
G2 X-3 Y30.413 I-3.587 J0
G1 X-7
G3 X-7.412 Y30 I0 J-0.413
G1 Y4
G2 X-8.377 Y1.553 I-3.588 J0
G3 X-8.361 Y1.104 I0.232 J-0.217 F600
G1 X-8.129 Y0.888
X-8.077 Y0.84 Z4.008
X-8.028 Y0.794 Z4.031
X-7.984 Y0.753 Z4.069
X-7.947 Y0.718 Z4.12
X-7.92 Y0.693 Z4.18
X-7.902 Y0.677 Z4.247
X-7.897 Y0.671 Z4.317
X-2.067 Y-3.898 F1000
Z1.317 F600
X-2.073 Y-3.892 Z1.247
X-2.09 Y-3.876 Z1.18
X-2.118 Y-3.85 Z1.12
X-2.155 Y-3.816 Z1.069
X-2.199 Y-3.775 Z1.031
X-2.248 Y-3.729 Z1.008
X-2.299 Y-3.681 Z1
X-7.928 Y1.569
G3 X-8.377 Y1.553 I-0.217 J-0.232
G2 X-11 Y0.412 I-2.623 J2.447 F1000
G1 X-16.7
G2 X-20.287 Y4 I0 J3.588
G1 Y31.747
X-20.29 Y31.799
X-20.3 Y31.85
X-42.538 Y118.492
G2 X-42.588 Y118.887 I1.538 J0.395
G1 Y127
G2 X-39 Y130.587 I3.588 J0
G1 X-3
G2 X0.587 Y127 I0 J-3.587
G1 Y34
G2 X-3 Y30.413 I-3.587 J0
G1 X-7
G3 X-7.412 Y30 I0 J-0.413
G1 Y4
G2 X-8.377 Y1.553 I-3.588 J0
G3 X-8.361 Y1.104 I0.232 J-0.217 F600
G1 X-8.129 Y0.888
X-8.077 Y0.84 Z1.008
X-8.028 Y0.794 Z1.031
X-7.984 Y0.753 Z1.069
X-7.947 Y0.718 Z1.12
X-7.92 Y0.693 Z1.18
X-7.902 Y0.677 Z1.247
X-7.897 Y0.671 Z1.317
X-2.067 Y-3.898 F1000
Z0.317 F600
X-2.073 Y-3.892 Z0.247
X-2.09 Y-3.876 Z0.18
X-2.118 Y-3.85 Z0.12
X-2.155 Y-3.816 Z0.069
X-2.199 Y-3.775 Z0.031
X-2.248 Y-3.729 Z0.008
X-2.299 Y-3.681 Z0
X-7.928 Y1.569
G3 X-8.377 Y1.553 I-0.217 J-0.232
G2 X-11 Y0.412 I-2.623 J2.447 F1000
G1 X-16.7
G2 X-20.287 Y4 I0 J3.588
G1 Y31.747
X-20.29 Y31.799
X-20.3 Y31.85
X-42.538 Y118.492
G2 X-42.588 Y118.887 I1.538 J0.395
G1 Y127
G2 X-39 Y130.587 I3.588 J0
G1 X-3
G2 X0.587 Y127 I0 J-3.587
G1 Y34
G2 X-3 Y30.413 I-3.587 J0
G1 X-7
G3 X-7.412 Y30 I0 J-0.413
G1 Y4
G2 X-8.377 Y1.553 I-3.588 J0
G3 X-8.361 Y1.104 I0.232 J-0.217 F600
G1 X-8.129 Y0.888
X-8.077 Y0.84 Z0.008
X-8.028 Y0.794 Z0.031
X-7.984 Y0.753 Z0.069
X-7.947 Y0.718 Z0.12
X-7.92 Y0.693 Z0.18
X-7.902 Y0.677 Z0.247
X-7.897 Y0.671 Z0.317
G0 Z30
G28 G91 Z0
G90
G28 G91 X0 Y0
G90
M5
M30
