(face)
(T3 D=16.4 CR=0 - ZMIN=10 - face mill)
G90 G94
G17
G21
G28 G91 Z0
G90

(Face3)
T3
S12000 M3
G17 G90 G94
G54
G0 X-2.46 Y141.66
Z25
G0 Z15
G1 Z11.64 F166.7
G19 G2 Y140.02 Z10 J-1.64 K0 F500
G1 Y139.21
Y-8.21
G2 Y-9.85 Z11.64 J0 K1.64
G0 Z15
X-13.005 Y141.66
G1 Z11.64 F166.7
G2 Y140.02 Z10 J-1.64 K0 F500
G1 Y139.21
Y-8.21
G2 Y-9.85 Z11.64 J0 K1.64
G0 Z15
X-23.55 Y141.66
G1 Z11.64 F166.7
G2 Y140.02 Z10 J-1.64 K0 F500
G1 Y139.21
Y-8.21
G2 Y-9.85 Z11.64 J0 K1.64
G0 Z15
X-34.095 Y141.66
G1 Z11.64 F166.7
G2 Y140.02 Z10 J-1.64 K0 F500
G1 Y139.21
Y-8.21
G2 Y-9.85 Z11.64 J0 K1.64
G0 Z25
G17
G28 G91 Z0
G90
G28 G91 X0 Y0
G90
M5
M30
