(xcar_adap_1)
(T1  D=6 CR=0 - ZMIN=0 - flat end mill)
G90 G94
G17
G21
G28 G91 Z0
G90

(Adaptive2)
T1
S18000 M3
G54
G0 X-47.071 Y76.579
Z25.2
Z20.2
Z10.9
G1 Z10.3 F600
X-47.07 Y76.572 Z10.206
X-47.067 Y76.55 Z10.115
X-47.062 Y76.514 Z10.028
X-47.056 Y76.465 Z9.947
X-47.048 Y76.405 Z9.876
X-47.039 Y76.334 Z9.815
X-47.029 Y76.254 Z9.765
X-47.017 Y76.168 Z9.729
X-47.006 Y76.077 Z9.707
X-46.994 Y75.984 Z9.7
G3 X-46.219 Y72.776 I15.191 J1.969
G1 X-46.191 Y72.704 F1300
X-46.141 Y72.563
X-46.078 Y72.427
X-46.003 Y72.297
X-45.919 Y72.172
X-45.828 Y72.053
X-45.73 Y71.94
X-45.626 Y71.832
X-45.517 Y71.728
X-45.404 Y71.63
X-45.287 Y71.536
X-45.167 Y71.446
X-45.043 Y71.361
X-44.917 Y71.28
X-44.789 Y71.203
X-44.658 Y71.129
X-44.526 Y71.059
X-44.391 Y70.992
X-44.255 Y70.928
X-44.118 Y70.868
X-43.98 Y70.81
X-43.84 Y70.755
X-43.699 Y70.703
X-43.558 Y70.654
X-43.415 Y70.607
X-43.272 Y70.562
X-43.128 Y70.519
X-42.984 Y70.478
X-42.839 Y70.44
X-42.694 Y70.403
X-42.548 Y70.368
X-42.402 Y70.335
X-42.255 Y70.303
X-42.108 Y70.273
X-41.961 Y70.245
X-41.812 Y70.217
X-41.655 Y70.19
X-41.49 Y70.163
X-41.314 Y70.135
X-41.126 Y70.108
X-40.926 Y70.081
X-40.712 Y70.053
X-40.48 Y70.026
X-40.229 Y69.998
X-39.954 Y69.971
X-39.652 Y69.943
X-39.315 Y69.916
X-38.936 Y69.889
X-38.501 Y69.861
X-37.993 Y69.834
X-37.381 Y69.806
X-36.612 Y69.779
X-35.711 Y69.755
X-34.811 Y69.739
X-33.91 Y69.727
X-33.009 Y69.719
X-32.108 Y69.713
X-31.207 Y69.709
X-29.405 Y69.704
X-26.703 Y69.702
X-19.496 Y69.7
X-14.357
X-14.157 Y69.72
X-13.966 Y69.78
X-13.79 Y69.877
X-13.206 Y70.279
X-13.162 Y70.309
X-12.957 Y70.433
X-12.752 Y70.553
X-12.548 Y70.667
X-12.343 Y70.752
X-12.138 Y70.818
X-11.933 Y70.872
X-11.524 Y70.957
X-11.319 Y70.996
X-10.91 Y71.062
X-10.705 Y71.089
X-10.091 Y71.1
X40.275
X40.385 Y71.097
X40.889 Y71.068
X41.094 Y71.039
X41.503 Y70.96
X41.708 Y70.916
X42.118 Y70.819
X42.322 Y70.758
X42.505 Y70.688
X42.732 Y70.575
X42.889 Y70.484
X43.141 Y70.323
X43.346 Y70.186
X43.504 Y70.075
X44.002 Y69.705
X44.023 Y69.686
X44.044 Y69.665
X44.237 Y69.461
X44.37 Y69.298
X44.401 Y69.256
X44.548 Y69.052
X44.822 Y68.642
X44.955 Y68.438
X45.075 Y68.233
X45.174 Y68.029
X45.189 Y67.995
X45.257 Y67.824
X45.393 Y67.333
X45.42 Y67.21
X45.501 Y66.801
X45.54 Y66.596
X45.573 Y66.392
X45.59 Y66.187
X45.598 Y66.075
X45.599 Y65.983
X45.6 Y64.141
Y-65.777
X45.599 Y-65.981
X45.598 Y-66.074
X45.591 Y-66.186
X45.573 Y-66.391
X45.54 Y-66.595
X45.502 Y-66.8
X45.42 Y-67.209
X45.393 Y-67.332
X45.258 Y-67.823
X45.189 Y-67.995
X45.174 Y-68.027
X45.075 Y-68.232
X44.955 Y-68.437
X44.823 Y-68.641
X44.549 Y-69.05
X44.402 Y-69.255
X44.37 Y-69.298
X44.238 Y-69.46
X44.045 Y-69.664
X44.024 Y-69.686
X44.002 Y-69.705
X43.506 Y-70.073
X43.346 Y-70.186
X43.141 Y-70.323
X42.891 Y-70.482
X42.732 Y-70.575
X42.508 Y-70.687
X42.322 Y-70.758
X42.118 Y-70.819
X41.708 Y-70.916
X41.503 Y-70.96
X41.094 Y-71.039
X40.889 Y-71.068
X40.406 Y-71.096
X40.275 Y-71.1
X-10.091
X-10.705 Y-71.089
X-10.91 Y-71.062
X-11.319 Y-70.996
X-11.524 Y-70.957
X-11.933 Y-70.872
X-12.138 Y-70.818
X-12.343 Y-70.752
X-12.794 Y-70.606
X-13.675 Y-70.415
X-14.565 Y-70.281
X-15.461 Y-70.188
X-16.36 Y-70.122
X-17.26 Y-70.077
X-18.16 Y-70.045
X-19.061 Y-70.022
X-19.961 Y-70.007
X-20.862 Y-69.996
X-21.763 Y-69.988
X-22.664 Y-69.983
X-23.565 Y-69.979
X-25.367 Y-69.974
X-28.069 Y-69.971
X-36.177 Y-69.97
X-42.033
X-42.254 Y-69.924
X-42.663 Y-69.736
X-43.356 Y-69.16
X-43.84 Y-68.401
X-44.18 Y-67.566
X-44.417 Y-66.697
X-44.583 Y-65.811
X-44.699 Y-64.918
X-44.781 Y-64.021
X-44.837 Y-63.122
X-44.877 Y-62.222
X-44.905 Y-61.321
X-44.917 Y-60.754
X-44.937 Y-60.579
X-44.987 Y-60.41
X-45.067 Y-60.253
X-45.167 Y-60.048
X-45.251 Y-59.844
X-45.306 Y-59.663
X-45.412 Y-59.23
X-45.456 Y-59.025
X-45.536 Y-58.616
X-45.564 Y-58.411
X-45.592 Y-58.002
X-45.6 Y-57.798
Y57.799
X-45.592 Y58.003
X-45.564 Y58.413
X-45.536 Y58.617
X-45.511 Y58.747
X-45.383 Y59.639
X-45.259 Y60.531
X-45.172 Y61.428
X-45.111 Y62.327
X-45.069 Y63.227
X-45.039 Y64.127
X-45.029 Y64.577
X-45.02 Y65.028
X-44.966 Y65.246
X-44.864 Y65.447
X-44.72 Y65.62
X-44.002 Y66.165
X-43.145 Y66.441
X-42.259 Y66.603
X-41.362 Y66.694
X-40.463 Y66.741
X-39.562 Y66.761
X-38.661 Y66.765
X-37.76 Y66.762
X-36.859 Y66.755
X-35.058 Y66.738
X-34.157 Y66.73
X-33.256 Y66.724
X-32.355 Y66.719
X-30.553 Y66.711
X-28.752 Y66.706
X-26.049 Y66.703
X-20.644 Y66.7
X-17.04
X-16.329 Y66.704
X-16.066 Y66.741
X-15.822 Y66.846
X-15.614 Y67.011
X-15.457 Y67.225
X-15.362 Y67.473
X-15.327 Y67.619
X-15.258 Y67.824
X-15.209 Y67.947
X-15.073 Y68.233
X-15.005 Y68.358
X-14.956 Y68.438
X-14.8 Y68.675
X-14.548 Y69.052
G3 X-14.622 Y69.778 I-0.51 J0.316 F600
G1 X-14.686 Y69.847 Z9.707
X-14.749 Y69.913 Z9.729
X-14.808 Y69.977 Z9.765
X-14.863 Y70.035 Z9.815
X-14.912 Y70.087 Z9.876
X-14.954 Y70.132 Z9.947
X-14.988 Y70.168 Z10.028
X-15.013 Y70.194 Z10.115
X-15.028 Y70.21 Z10.206
X-15.033 Y70.215 Z10.3
G0 Z20.2
X-46.272 Y57.602
Z10.9
G1 Z10.3 F600
X-46.267 Y57.608 Z10.206
X-46.252 Y57.624 Z10.115
X-46.228 Y57.651 Z10.028
X-46.195 Y57.688 Z9.947
X-46.155 Y57.733 Z9.876
X-46.107 Y57.787 Z9.815
X-46.054 Y57.847 Z9.765
X-45.996 Y57.912 Z9.729
X-45.935 Y57.98 Z9.707
X-45.872 Y58.05 Z9.7
G3 X-45.511 Y58.747 I-1.18 J1.054
G1 X-45.456 Y59.026 F1300
X-45.412 Y59.231
X-45.306 Y59.662
X-45.25 Y59.845
X-45.167 Y60.049
X-45.066 Y60.254
X-44.938 Y60.459
X-44.67 Y60.868
X-44.533 Y61.072
X-44.487 Y61.141
X-44.386 Y61.277
X-44.214 Y61.482
X-44.077 Y61.627
X-43.873 Y61.813
X-43.769 Y61.891
X-43.463 Y62.104
X-43.258 Y62.244
X-43.17 Y62.3
X-42.644 Y62.616
X-42.439 Y62.709
X-42.235 Y62.791
X-42.03 Y62.851
X-41.166 Y63.105
X-40.287 Y63.303
X-39.396 Y63.44
X-38.5 Y63.533
X-37.602 Y63.596
X-36.702 Y63.637
X-35.801 Y63.664
X-34.9 Y63.681
X-34 Y63.692
X-33.099 Y63.698
X-32.198 Y63.702
X-31.297 Y63.703
X-29.495 Y63.704
X-20.486 Y63.701
X-18.684
X-17.784 Y63.72
X-17.04 Y63.795
X-16.459 Y63.912
X-16.306 Y63.96
X-16.075 Y64.064
X-15.877 Y64.224
X-15.727 Y64.428
X-15.632 Y64.664
X-15.6 Y64.915
X-15.599 Y65.983
X-15.59 Y66.187
X-15.573 Y66.392
X-15.54 Y66.596
X-15.501 Y66.801
X-15.414 Y67.24
X-15.368 Y67.447
X-15.362 Y67.473
G3 X-15.684 Y68.129 I-0.588 J0.118 F600
G1 X-15.768 Y68.17 Z9.707
X-15.85 Y68.211 Z9.729
X-15.928 Y68.25 Z9.765
X-16 Y68.285 Z9.815
X-16.064 Y68.317 Z9.876
X-16.118 Y68.344 Z9.947
X-16.163 Y68.366 Z10.028
X-16.195 Y68.382 Z10.115
X-16.215 Y68.392 Z10.206
X-16.221 Y68.395 Z10.3
G0 Z20.2
X-43.38 Y63.111
Z10.9
G1 Z10.3 F600
X-43.373 Y63.109 Z10.206
X-43.352 Y63.102 Z10.115
X-43.318 Y63.09 Z10.028
X-43.272 Y63.074 Z9.947
X-43.214 Y63.054 Z9.876
X-43.146 Y63.031 Z9.815
X-43.07 Y63.004 Z9.765
X-42.988 Y62.976 Z9.729
X-42.902 Y62.946 Z9.707
X-42.813 Y62.915 Z9.7
G3 X-42.03 Y62.851 I0.517 J1.496
G1 X-41.416 Y62.978 F1300
X-41.211 Y63.013
X-40.802 Y63.081
X-40.597 Y63.091
X-40.187 Y63.099
X-39.983 Y63.1
X-17.052
X-16.847 Y63.106
X-16.642 Y63.124
X-16.438 Y63.149
X-16.233 Y63.19
X-16.131 Y63.233
X-16.028 Y63.289
X-15.981 Y63.323
X-15.902 Y63.395
X-15.823 Y63.48
X-15.79 Y63.527
X-15.734 Y63.63
X-15.69 Y63.732
X-15.649 Y63.937
X-15.633 Y64.141
X-15.609 Y64.55
X-15.6 Y64.755
Y64.915
G3 X-16.065 Y65.479 I-0.6 J-0.021 F600
G1 X-16.156 Y65.5 Z9.707
X-16.245 Y65.521 Z9.729
X-16.33 Y65.54 Z9.765
X-16.408 Y65.558 Z9.815
X-16.478 Y65.574 Z9.876
X-16.538 Y65.588 Z9.947
X-16.586 Y65.599 Z10.028
X-16.621 Y65.607 Z10.115
X-16.642 Y65.612 Z10.206
X-16.649 Y65.614 Z10.3
G0 Z20.2
X-11.372 Y-71.725
Z10.9
G1 Z10.3 F600
X-11.376 Y-71.719 Z10.206
X-11.389 Y-71.701 Z10.115
X-11.411 Y-71.672 Z10.028
X-11.44 Y-71.633 Z9.947
X-11.477 Y-71.584 Z9.876
X-11.52 Y-71.527 Z9.815
X-11.568 Y-71.462 Z9.765
X-11.62 Y-71.393 Z9.729
X-11.675 Y-71.319 Z9.707
X-11.731 Y-71.244 Z9.7
G3 X-12.343 Y-70.752 I-1.267 J-0.948
G1 X-12.548 Y-70.667 F1300
X-12.752 Y-70.553
X-12.957 Y-70.433
X-13.162 Y-70.309
X-13.571 Y-70.027
X-13.801 Y-69.869
X-13.981 Y-69.724
X-14.186 Y-69.519
X-14.241 Y-69.46
X-14.39 Y-69.276
X-14.533 Y-69.118
X-14.81 Y-68.866
X-15.168 Y-68.599
X-15.638 Y-68.318
X-16.259 Y-68.025
X-17.106 Y-67.725
X-17.98 Y-67.509
X-18.868 Y-67.354
X-19.762 Y-67.244
X-20.66 Y-67.165
X-21.559 Y-67.109
X-22.459 Y-67.069
X-23.359 Y-67.041
X-24.26 Y-67.02
X-25.161 Y-67.006
X-26.061 Y-66.995
X-26.962 Y-66.988
X-27.863 Y-66.983
X-28.764 Y-66.979
X-30.566 Y-66.975
X-33.268 Y-66.972
X-38.674 Y-66.97
X-39.098 Y-66.82
X-39.86 Y-66.339
X-40.433 Y-65.643
X-40.855 Y-64.848
X-41.164 Y-64.001
X-41.274 Y-63.573
X-41.352 Y-63.367
X-41.473 Y-63.184
X-41.632 Y-63.032
X-41.821 Y-62.919
X-42.03 Y-62.851
X-42.235 Y-62.791
X-42.444 Y-62.708
X-42.644 Y-62.616
X-43.172 Y-62.299
X-43.258 Y-62.244
X-43.478 Y-62.094
X-43.771 Y-61.889
X-43.873 Y-61.813
X-44.077 Y-61.627
X-44.215 Y-61.48
X-44.387 Y-61.276
X-44.487 Y-61.141
X-44.534 Y-61.071
X-44.692 Y-60.835
X-44.939 Y-60.457
X-45.067 Y-60.253
G3 X-45.759 Y-60.02 I-0.498 J-0.335 F600
G1 X-45.848 Y-60.05 Z9.707
X-45.934 Y-60.08 Z9.729
X-46.017 Y-60.108 Z9.765
X-46.093 Y-60.134 Z9.815
X-46.16 Y-60.158 Z9.876
X-46.218 Y-60.177 Z9.947
X-46.265 Y-60.193 Z10.028
X-46.299 Y-60.205 Z10.115
X-46.32 Y-60.212 Z10.206
X-46.327 Y-60.215 Z10.3
G0 Z20.2
X-13.998 Y-70.594
Z10.9
G1 Z10.3 F600
X-14 Y-70.586 Z10.206
X-14.003 Y-70.565 Z10.115
X-14.008 Y-70.529 Z10.028
X-14.015 Y-70.48 Z9.947
X-14.024 Y-70.42 Z9.876
X-14.035 Y-70.349 Z9.815
X-14.046 Y-70.27 Z9.765
X-14.059 Y-70.184 Z9.729
X-14.073 Y-70.093 Z9.707
X-14.086 Y-70 Z9.7
G3 X-14.39 Y-69.276 I-1.566 J-0.231
G1 X-14.407 Y-69.255 F1300
X-14.549 Y-69.05
X-14.823 Y-68.641
X-14.957 Y-68.437
X-15.005 Y-68.358
X-15.074 Y-68.232
X-15.209 Y-67.946
X-15.258 Y-67.823
X-15.327 Y-67.618
X-15.375 Y-67.476
X-15.481 Y-67.247
X-15.633 Y-66.988
X-15.824 Y-66.727
X-16.084 Y-66.436
X-16.411 Y-66.136
X-16.839 Y-65.816
X-17.373 Y-65.493
X-18.077 Y-65.159
X-18.925 Y-64.854
X-19.796 Y-64.626
X-20.681 Y-64.456
X-21.573 Y-64.329
X-22.469 Y-64.235
X-23.367 Y-64.165
X-24.266 Y-64.113
X-25.167 Y-64.075
X-26.067 Y-64.047
X-26.968 Y-64.026
X-27.868 Y-64.011
X-28.769 Y-64
X-29.67 Y-63.992
X-30.571 Y-63.986
X-31.472 Y-63.982
X-33.274 Y-63.976
X-35.075 Y-63.973
X-35.524 Y-63.933
X-36.371 Y-63.627
X-36.811 Y-63.299
X-36.994 Y-63.19
X-37.197 Y-63.123
X-37.409 Y-63.1
X-39.983
X-40.187 Y-63.099
X-40.597 Y-63.091
X-40.802 Y-63.081
X-41.211 Y-63.013
X-41.416 Y-62.978
X-42.03 Y-62.851
G3 X-42.676 Y-63.192 I-0.101 J-0.591 F600
G1 X-42.715 Y-63.277 Z9.707
X-42.754 Y-63.361 Z9.729
X-42.79 Y-63.44 Z9.765
X-42.823 Y-63.513 Z9.815
X-42.853 Y-63.578 Z9.876
X-42.879 Y-63.633 Z9.947
X-42.899 Y-63.678 Z10.028
X-42.914 Y-63.711 Z10.115
X-42.924 Y-63.731 Z10.206
X-42.927 Y-63.737 Z10.3
G0 Z20.2
X-15.548 Y-68.975
Z10.9
G1 Z10.3 F600
X-15.546 Y-68.968 Z10.206
X-15.539 Y-68.947 Z10.115
X-15.529 Y-68.913 Z10.028
X-15.514 Y-68.866 Z9.947
X-15.496 Y-68.807 Z9.876
X-15.474 Y-68.739 Z9.815
X-15.45 Y-68.662 Z9.765
X-15.424 Y-68.579 Z9.729
X-15.397 Y-68.492 Z9.707
X-15.369 Y-68.402 Z9.7
G3 X-15.327 Y-67.618 I-1.51 J0.473
G1 X-15.376 Y-67.414 F1300
X-15.414 Y-67.24
X-15.502 Y-66.8
X-15.54 Y-66.595
X-15.573 Y-66.391
X-15.591 Y-66.186
X-15.599 Y-65.981
Y-65.869
X-15.607 Y-65.719
X-15.646 Y-65.496
X-15.72 Y-65.233
X-15.826 Y-64.962
X-15.976 Y-64.667
X-16.19 Y-64.334
X-16.447 Y-64.01
X-16.798 Y-63.648
X-17.219 Y-63.292
X-17.242 Y-63.276
X-17.417 Y-63.18
X-17.609 Y-63.12
X-17.809 Y-63.1
G3 X-18.368 Y-63.548 Z9.863 I0.021 J-0.6 F600
G1 X-18.384 Y-63.633 Z9.882 F1300
X-18.387 Y-63.72 Z9.9
G3 X-18.27 Y-64.056 I0.6 J0.02
G1 X-16.682 Y-66.205
G3 X-16.219 Y-66.448 I0.482 J0.357
G1 X-16.132 Y-66.445 Z9.882
X-16.047 Y-66.429 Z9.863
G3 X-15.599 Y-65.869 Z9.7 I-0.152 J0.58 F600
G1 X-15.6 Y-64.754 F1300
X-15.609 Y-64.549
X-15.633 Y-64.14
X-15.649 Y-63.935
X-15.69 Y-63.731
X-15.734 Y-63.629
X-15.791 Y-63.526
X-15.823 Y-63.48
X-15.903 Y-63.394
X-15.983 Y-63.322
X-16.028 Y-63.289
X-16.131 Y-63.233
X-16.233 Y-63.19
X-16.438 Y-63.149
X-16.642 Y-63.124
X-16.847 Y-63.106
X-17.052 Y-63.1
X-37.409
X-37.501 Y-63.11 F600
X-37.591 Y-63.135
X-37.655 Y-63.172 Z9.705
X-37.717 Y-63.208 Z9.718
X-37.778 Y-63.244 Z9.741
X-37.828 Y-63.305 Z9.779
X-37.874 Y-63.362 Z9.829
X-37.915 Y-63.412 Z9.888
X-37.935 Y-63.465 Z9.959
X-37.951 Y-63.508 Z10.037
X-37.963 Y-63.539 Z10.121
X-37.971 Y-63.558 Z10.209
X-37.973 Y-63.565 Z10.3
G0 Z20.2
X-43.099 Y-66.596
Z11.2
G1 Z10.6 F600
X-43.097 Y-66.589 Z10.506
X-43.09 Y-66.568 Z10.415
X-43.079 Y-66.533 Z10.328
X-43.064 Y-66.486 Z10.247
X-43.046 Y-66.428 Z10.176
X-43.024 Y-66.36 Z10.115
X-43 Y-66.283 Z10.065
X-42.974 Y-66.2 Z10.029
X-42.946 Y-66.113 Z10.007
X-42.918 Y-66.024 Z10
G3 X-42.268 Y-62.788 I-14.606 J4.617
G1 X-42.265 Y-62.73 F1300
X-42.29 Y-62.677
X-42.338 Y-62.643
X-42.439 Y-62.603
X-42.646 Y-62.503
X-43.054 Y-62.253
X-43.258 Y-62.122
X-43.668 Y-61.833
X-43.873 Y-61.684
X-44.083 Y-61.48
X-44.263 Y-61.276
X-44.415 Y-61.071
X-44.551 Y-60.866
X-44.896 Y-60.345
X-44.949 Y-60.253
X-45.057 Y-60.048
X-45.142 Y-59.844
X-45.207 Y-59.639
X-45.309 Y-59.23
X-45.355 Y-59.025
X-45.435 Y-58.616
X-45.463 Y-58.411
X-45.492 Y-58.002
X-45.5 Y-57.798
Y57.799
X-45.492 Y58.003
X-45.463 Y58.413
X-45.434 Y58.617
X-45.354 Y59.026
X-45.306 Y59.244
X-45.207 Y59.64
X-45.141 Y59.845
X-45.057 Y60.049
X-44.949 Y60.254
X-44.896 Y60.345
X-44.487 Y60.964
X-44.414 Y61.072
X-44.262 Y61.277
X-44.077 Y61.486
X-43.871 Y61.686
X-43.668 Y61.833
X-43.258 Y62.122
X-43.054 Y62.253
X-42.644 Y62.504
X-42.439 Y62.603
X-42.235 Y62.683
X-42.03 Y62.748
X-41.825 Y62.794
X-41.416 Y62.877
X-41.006 Y62.946
X-40.802 Y62.98
X-40.597 Y62.99
X-40.187 Y62.999
X-39.983 Y63
X-17.052
X-16.847 Y63.006
X-16.642 Y63.023
X-16.438 Y63.047
X-16.233 Y63.084
X-16.138 Y63.118
X-16.028 Y63.173
X-15.93 Y63.234
X-15.833 Y63.323
X-15.823 Y63.332
X-15.736 Y63.43
X-15.702 Y63.479
X-15.674 Y63.527
X-15.619 Y63.637
X-15.584 Y63.732
X-15.547 Y63.937
X-15.532 Y64.141
X-15.509 Y64.55
X-15.5 Y64.755
X-15.499 Y65.983
X-15.482 Y66.187
X-15.434 Y66.596
X-15.414 Y66.728
X-15.318 Y67.21
X-15.273 Y67.415
X-15.223 Y67.619
X-15.151 Y67.824
X-15.067 Y68.029
X-15.005 Y68.147
X-14.834 Y68.438
X-14.8 Y68.496
X-14.39 Y69.108
X-14.274 Y69.256
X-14.186 Y69.367
X-14.102 Y69.461
X-13.89 Y69.665
X-13.776 Y69.758
X-13.326 Y70.075
X-13.162 Y70.189
X-12.957 Y70.325
X-12.684 Y70.484
X-12.548 Y70.557
X-12.343 Y70.645
X-12.219 Y70.688
X-12.138 Y70.713
X-11.933 Y70.769
X-11.319 Y70.896
X-11.114 Y70.937
X-10.91 Y70.966
X-10.705 Y70.989
X-10.091 Y71
X40.275
X40.48 Y70.992
X40.889 Y70.967
X41.094 Y70.941
X41.503 Y70.859
X41.708 Y70.814
X42.226 Y70.688
X42.322 Y70.651
X42.527 Y70.567
X42.732 Y70.461
X42.936 Y70.339
X43.346 Y70.066
X43.551 Y69.922
X43.755 Y69.773
X43.894 Y69.665
X43.96 Y69.604
X44.103 Y69.461
X44.165 Y69.393
X44.278 Y69.256
X44.37 Y69.137
X44.779 Y68.526
X44.836 Y68.438
X44.984 Y68.194
X45.064 Y68.029
X45.15 Y67.824
X45.22 Y67.619
X45.274 Y67.415
X45.318 Y67.21
X45.399 Y66.801
X45.434 Y66.596
X45.482 Y66.187
X45.499 Y65.983
X45.5 Y64.346
Y-65.777
X45.499 Y-65.981
X45.482 Y-66.186
X45.435 Y-66.595
X45.4 Y-66.8
X45.318 Y-67.209
X45.274 Y-67.414
X45.22 Y-67.618
X45.151 Y-67.823
X45.064 Y-68.027
X44.984 Y-68.194
X44.837 Y-68.437
X44.779 Y-68.526
X44.37 Y-69.137
X44.279 Y-69.255
X44.165 Y-69.393
X44.104 Y-69.46
X43.96 Y-69.604
X43.895 Y-69.664
X43.755 Y-69.773
X43.551 Y-69.922
X43.334 Y-70.073
X42.936 Y-70.339
X42.732 Y-70.461
X42.527 Y-70.567
X42.322 Y-70.651
X42.229 Y-70.687
X41.913 Y-70.764
X41.708 Y-70.814
X41.503 Y-70.859
X41.094 Y-70.94
X40.889 Y-70.967
X40.48 Y-70.992
X40.275 Y-71
X-10.091
X-10.705 Y-70.989
X-10.91 Y-70.966
X-11.114 Y-70.937
X-11.34 Y-70.892
X-11.933 Y-70.769
X-12.138 Y-70.713
X-12.223 Y-70.687
X-12.343 Y-70.645
X-12.548 Y-70.557
X-12.686 Y-70.482
X-12.957 Y-70.325
X-13.162 Y-70.189
X-13.571 Y-69.902
X-13.776 Y-69.758
X-13.891 Y-69.664
X-14.103 Y-69.46
X-14.186 Y-69.367
X-14.275 Y-69.255
X-14.39 Y-69.108
X-14.8 Y-68.496
X-14.835 Y-68.437
X-15.005 Y-68.147
X-15.067 Y-68.027
X-15.151 Y-67.823
X-15.223 Y-67.618
X-15.273 Y-67.414
X-15.318 Y-67.209
X-15.414 Y-66.728
X-15.435 Y-66.595
X-15.482 Y-66.186
X-15.499 Y-65.981
X-15.5 Y-64.754
X-15.509 Y-64.549
X-15.532 Y-64.14
X-15.548 Y-63.935
X-15.584 Y-63.731
X-15.619 Y-63.636
X-15.674 Y-63.526
X-15.702 Y-63.478
X-15.737 Y-63.429
X-15.823 Y-63.332
X-15.834 Y-63.322
X-15.931 Y-63.233
X-16.028 Y-63.173
X-16.14 Y-63.117
X-16.233 Y-63.084
X-16.438 Y-63.047
X-16.642 Y-63.023
X-16.847 Y-63.006
X-17.052 Y-63
X-39.983
X-40.187 Y-62.999
X-40.597 Y-62.99
X-40.802 Y-62.98
X-41.211 Y-62.912
X-41.416 Y-62.877
X-41.825 Y-62.794
X-42.03 Y-62.748
X-42.235 Y-62.683
X-42.338 Y-62.643
X-42.427 Y-62.619 F600
X-42.519 Y-62.61
X-42.536 Y-62.609
X-42.609 Y-62.623 Z10.007
X-42.68 Y-62.636 Z10.023
X-42.749 Y-62.649 Z10.048
X-42.817 Y-62.69 Z10.089
X-42.88 Y-62.728 Z10.143
X-42.935 Y-62.761 Z10.206
X-42.968 Y-62.8 Z10.275
X-42.996 Y-62.831 Z10.35
X-43.015 Y-62.853 Z10.43
X-43.027 Y-62.867 Z10.514
X-43.031 Y-62.872 Z10.6
G0 Z20.2
X-47.071 Y76.579
Z10.4
G1 Z9.8 F600
X-47.07 Y76.572 Z9.706
X-47.067 Y76.55 Z9.615
X-47.062 Y76.514 Z9.528
X-47.056 Y76.465 Z9.447
X-47.048 Y76.405 Z9.376
X-47.039 Y76.334 Z9.315
X-47.029 Y76.254 Z9.265
X-47.017 Y76.168 Z9.229
X-47.006 Y76.077 Z9.207
X-46.994 Y75.984 Z9.2
G3 X-46.219 Y72.776 I15.191 J1.969
G1 X-46.191 Y72.704 F1300
X-46.141 Y72.563
X-46.078 Y72.427
X-46.003 Y72.297
X-45.919 Y72.172
X-45.828 Y72.053
X-45.73 Y71.94
X-45.626 Y71.832
X-45.517 Y71.728
X-45.404 Y71.63
X-45.287 Y71.536
X-45.167 Y71.446
X-45.043 Y71.361
X-44.917 Y71.28
X-44.789 Y71.203
X-44.658 Y71.129
X-44.526 Y71.059
X-44.391 Y70.992
X-44.255 Y70.928
X-44.118 Y70.868
X-43.98 Y70.81
X-43.84 Y70.755
X-43.699 Y70.703
X-43.558 Y70.654
X-43.415 Y70.607
X-43.272 Y70.562
X-43.128 Y70.519
X-42.984 Y70.478
X-42.839 Y70.44
X-42.694 Y70.403
X-42.548 Y70.368
X-42.402 Y70.335
X-42.255 Y70.303
X-42.108 Y70.273
X-41.961 Y70.245
X-41.812 Y70.217
X-41.655 Y70.19
X-41.49 Y70.163
X-41.314 Y70.135
X-41.126 Y70.108
X-40.926 Y70.081
X-40.712 Y70.053
X-40.48 Y70.026
X-40.229 Y69.998
X-39.954 Y69.971
X-39.652 Y69.943
X-39.315 Y69.916
X-38.936 Y69.889
X-38.501 Y69.861
X-37.993 Y69.834
X-37.381 Y69.806
X-36.612 Y69.779
X-35.711 Y69.755
X-34.811 Y69.739
X-33.91 Y69.727
X-33.009 Y69.719
X-32.108 Y69.713
X-31.207 Y69.709
X-29.405 Y69.704
X-26.703 Y69.702
X-19.496 Y69.7
X-14.357
X-14.157 Y69.72
X-13.966 Y69.78
X-13.79 Y69.877
X-13.206 Y70.279
X-13.162 Y70.309
X-12.957 Y70.433
X-12.752 Y70.553
X-12.548 Y70.667
X-12.343 Y70.752
X-12.138 Y70.818
X-11.933 Y70.872
X-11.524 Y70.957
X-11.319 Y70.996
X-10.91 Y71.062
X-10.705 Y71.089
X-10.091 Y71.1
X40.275
X40.385 Y71.097
X40.889 Y71.068
X41.094 Y71.039
X41.503 Y70.96
X41.708 Y70.916
X42.118 Y70.819
X42.322 Y70.758
X42.505 Y70.688
X42.732 Y70.575
X42.889 Y70.484
X43.141 Y70.323
X43.346 Y70.186
X43.504 Y70.075
X44.002 Y69.705
X44.023 Y69.686
X44.044 Y69.665
X44.237 Y69.461
X44.37 Y69.298
X44.401 Y69.256
X44.548 Y69.052
X44.822 Y68.642
X44.955 Y68.438
X45.075 Y68.233
X45.174 Y68.029
X45.189 Y67.995
X45.257 Y67.824
X45.393 Y67.333
X45.42 Y67.21
X45.501 Y66.801
X45.54 Y66.596
X45.573 Y66.392
X45.59 Y66.187
X45.598 Y66.075
X45.599 Y65.983
X45.6 Y64.141
Y-65.777
X45.599 Y-65.981
X45.598 Y-66.074
X45.591 Y-66.186
X45.573 Y-66.391
X45.54 Y-66.595
X45.502 Y-66.8
X45.42 Y-67.209
X45.393 Y-67.332
X45.258 Y-67.823
X45.189 Y-67.995
X45.174 Y-68.027
X45.075 Y-68.232
X44.955 Y-68.437
X44.823 Y-68.641
X44.549 Y-69.05
X44.402 Y-69.255
X44.37 Y-69.298
X44.238 Y-69.46
X44.045 Y-69.664
X44.024 Y-69.686
X44.002 Y-69.705
X43.506 Y-70.073
X43.346 Y-70.186
X43.141 Y-70.323
X42.891 Y-70.482
X42.732 Y-70.575
X42.508 Y-70.687
X42.322 Y-70.758
X42.118 Y-70.819
X41.708 Y-70.916
X41.503 Y-70.96
X41.094 Y-71.039
X40.889 Y-71.068
X40.406 Y-71.096
X40.275 Y-71.1
X-10.091
X-10.705 Y-71.089
X-10.91 Y-71.062
X-11.319 Y-70.996
X-11.524 Y-70.957
X-11.933 Y-70.872
X-12.138 Y-70.818
X-12.343 Y-70.752
X-12.794 Y-70.606
X-13.675 Y-70.415
X-14.565 Y-70.281
X-15.461 Y-70.188
X-16.36 Y-70.122
X-17.26 Y-70.077
X-18.16 Y-70.045
X-19.061 Y-70.022
X-19.961 Y-70.007
X-20.862 Y-69.996
X-21.763 Y-69.988
X-22.664 Y-69.983
X-23.565 Y-69.979
X-25.367 Y-69.974
X-28.069 Y-69.971
X-36.177 Y-69.97
X-42.033
X-42.254 Y-69.924
X-42.663 Y-69.736
X-43.356 Y-69.16
X-43.84 Y-68.401
X-44.18 Y-67.566
X-44.417 Y-66.697
X-44.583 Y-65.811
X-44.699 Y-64.918
X-44.781 Y-64.021
X-44.837 Y-63.122
X-44.877 Y-62.222
X-44.905 Y-61.321
X-44.917 Y-60.754
X-44.937 Y-60.579
X-44.987 Y-60.41
X-45.067 Y-60.253
X-45.167 Y-60.048
X-45.251 Y-59.844
X-45.306 Y-59.663
X-45.412 Y-59.23
X-45.456 Y-59.025
X-45.536 Y-58.616
X-45.564 Y-58.411
X-45.592 Y-58.002
X-45.6 Y-57.798
Y57.799
X-45.592 Y58.003
X-45.564 Y58.413
X-45.536 Y58.617
X-45.511 Y58.747
X-45.383 Y59.639
X-45.259 Y60.531
X-45.172 Y61.428
X-45.111 Y62.327
X-45.069 Y63.227
X-45.039 Y64.127
X-45.029 Y64.577
X-45.02 Y65.028
X-44.966 Y65.246
X-44.864 Y65.447
X-44.72 Y65.62
X-44.002 Y66.165
X-43.145 Y66.441
X-42.259 Y66.603
X-41.362 Y66.694
X-40.463 Y66.741
X-39.562 Y66.761
X-38.661 Y66.765
X-37.76 Y66.762
X-36.859 Y66.755
X-35.058 Y66.738
X-34.157 Y66.73
X-33.256 Y66.724
X-32.355 Y66.719
X-30.553 Y66.711
X-28.752 Y66.706
X-26.049 Y66.703
X-20.644 Y66.7
X-17.04
X-16.329 Y66.704
X-16.066 Y66.741
X-15.822 Y66.846
X-15.614 Y67.011
X-15.457 Y67.225
X-15.362 Y67.473
X-15.327 Y67.619
X-15.258 Y67.824
X-15.209 Y67.947
X-15.073 Y68.233
X-15.005 Y68.358
X-14.956 Y68.438
X-14.8 Y68.675
X-14.548 Y69.052
G3 X-14.622 Y69.778 I-0.51 J0.316 F600
G1 X-14.686 Y69.847 Z9.207
X-14.749 Y69.913 Z9.229
X-14.808 Y69.977 Z9.265
X-14.863 Y70.035 Z9.315
X-14.912 Y70.087 Z9.376
X-14.954 Y70.132 Z9.447
X-14.988 Y70.168 Z9.528
X-15.013 Y70.194 Z9.615
X-15.028 Y70.21 Z9.706
X-15.033 Y70.215 Z9.8
G0 Z20.2
X-46.272 Y57.602
Z10.4
G1 Z9.8 F600
X-46.267 Y57.608 Z9.706
X-46.252 Y57.624 Z9.615
X-46.228 Y57.651 Z9.528
X-46.195 Y57.688 Z9.447
X-46.155 Y57.733 Z9.376
X-46.107 Y57.787 Z9.315
X-46.054 Y57.847 Z9.265
X-45.996 Y57.912 Z9.229
X-45.935 Y57.98 Z9.207
X-45.872 Y58.05 Z9.2
G3 X-45.511 Y58.747 I-1.18 J1.054
G1 X-45.456 Y59.026 F1300
X-45.412 Y59.231
X-45.306 Y59.662
X-45.25 Y59.845
X-45.167 Y60.049
X-45.066 Y60.254
X-44.938 Y60.459
X-44.67 Y60.868
X-44.533 Y61.072
X-44.487 Y61.141
X-44.386 Y61.277
X-44.214 Y61.482
X-44.077 Y61.627
X-43.873 Y61.813
X-43.769 Y61.891
X-43.463 Y62.104
X-43.258 Y62.244
X-43.17 Y62.3
X-42.644 Y62.616
X-42.439 Y62.709
X-42.235 Y62.791
X-42.03 Y62.851
X-41.166 Y63.105
X-40.287 Y63.303
X-39.396 Y63.44
X-38.5 Y63.533
X-37.602 Y63.596
X-36.702 Y63.637
X-35.801 Y63.664
X-34.9 Y63.681
X-34 Y63.692
X-33.099 Y63.698
X-32.198 Y63.702
X-31.297 Y63.703
X-29.495 Y63.704
X-20.486 Y63.701
X-18.684
X-17.784 Y63.72
X-17.04 Y63.795
X-16.459 Y63.912
X-16.306 Y63.96
X-16.075 Y64.064
X-15.877 Y64.224
X-15.727 Y64.428
X-15.632 Y64.664
X-15.6 Y64.915
X-15.599 Y65.983
X-15.59 Y66.187
X-15.573 Y66.392
X-15.54 Y66.596
X-15.501 Y66.801
X-15.414 Y67.24
X-15.368 Y67.447
X-15.362 Y67.473
G3 X-15.684 Y68.129 I-0.588 J0.118 F600
G1 X-15.768 Y68.17 Z9.207
X-15.85 Y68.211 Z9.229
X-15.928 Y68.25 Z9.265
X-16 Y68.285 Z9.315
X-16.064 Y68.317 Z9.376
X-16.118 Y68.344 Z9.447
X-16.163 Y68.366 Z9.528
X-16.195 Y68.382 Z9.615
X-16.215 Y68.392 Z9.706
X-16.221 Y68.395 Z9.8
G0 Z20.2
X-43.38 Y63.111
Z10.4
G1 Z9.8 F600
X-43.373 Y63.109 Z9.706
X-43.352 Y63.102 Z9.615
X-43.318 Y63.09 Z9.528
X-43.272 Y63.074 Z9.447
X-43.214 Y63.054 Z9.376
X-43.146 Y63.031 Z9.315
X-43.07 Y63.004 Z9.265
X-42.988 Y62.976 Z9.229
X-42.902 Y62.946 Z9.207
X-42.813 Y62.915 Z9.2
G3 X-42.03 Y62.851 I0.517 J1.496
G1 X-41.416 Y62.978 F1300
X-41.211 Y63.013
X-40.802 Y63.081
X-40.597 Y63.091
X-40.187 Y63.099
X-39.983 Y63.1
X-17.052
X-16.847 Y63.106
X-16.642 Y63.124
X-16.438 Y63.149
X-16.233 Y63.19
X-16.131 Y63.233
X-16.028 Y63.289
X-15.981 Y63.323
X-15.902 Y63.395
X-15.823 Y63.48
X-15.79 Y63.527
X-15.734 Y63.63
X-15.69 Y63.732
X-15.649 Y63.937
X-15.633 Y64.141
X-15.609 Y64.55
X-15.6 Y64.755
Y64.915
G3 X-16.065 Y65.479 I-0.6 J-0.021 F600
G1 X-16.156 Y65.5 Z9.207
X-16.245 Y65.521 Z9.229
X-16.33 Y65.54 Z9.265
X-16.408 Y65.558 Z9.315
X-16.478 Y65.574 Z9.376
X-16.538 Y65.588 Z9.447
X-16.586 Y65.599 Z9.528
X-16.621 Y65.607 Z9.615
X-16.642 Y65.612 Z9.706
X-16.649 Y65.614 Z9.8
G0 Z20.2
X-11.372 Y-71.725
Z10.4
G1 Z9.8 F600
X-11.376 Y-71.719 Z9.706
X-11.389 Y-71.701 Z9.615
X-11.411 Y-71.672 Z9.528
X-11.44 Y-71.633 Z9.447
X-11.477 Y-71.584 Z9.376
X-11.52 Y-71.527 Z9.315
X-11.568 Y-71.462 Z9.265
X-11.62 Y-71.393 Z9.229
X-11.675 Y-71.319 Z9.207
X-11.731 Y-71.244 Z9.2
G3 X-12.343 Y-70.752 I-1.267 J-0.948
G1 X-12.548 Y-70.667 F1300
X-12.752 Y-70.553
X-12.957 Y-70.433
X-13.162 Y-70.309
X-13.571 Y-70.027
X-13.801 Y-69.869
X-13.981 Y-69.724
X-14.186 Y-69.519
X-14.241 Y-69.46
X-14.39 Y-69.276
X-14.533 Y-69.118
X-14.81 Y-68.866
X-15.168 Y-68.599
X-15.638 Y-68.318
X-16.259 Y-68.025
X-17.106 Y-67.725
X-17.98 Y-67.509
X-18.868 Y-67.354
X-19.762 Y-67.244
X-20.66 Y-67.165
X-21.559 Y-67.109
X-22.459 Y-67.069
X-23.359 Y-67.041
X-24.26 Y-67.02
X-25.161 Y-67.006
X-26.061 Y-66.995
X-26.962 Y-66.988
X-27.863 Y-66.983
X-28.764 Y-66.979
X-30.566 Y-66.975
X-33.268 Y-66.972
X-38.674 Y-66.97
X-39.098 Y-66.82
X-39.86 Y-66.339
X-40.433 Y-65.643
X-40.855 Y-64.848
X-41.164 Y-64.001
X-41.274 Y-63.573
X-41.352 Y-63.367
X-41.473 Y-63.184
X-41.632 Y-63.032
X-41.821 Y-62.919
X-42.03 Y-62.851
X-42.235 Y-62.791
X-42.444 Y-62.708
X-42.644 Y-62.616
X-43.172 Y-62.299
X-43.258 Y-62.244
X-43.478 Y-62.094
X-43.771 Y-61.889
X-43.873 Y-61.813
X-44.077 Y-61.627
X-44.215 Y-61.48
X-44.387 Y-61.276
X-44.487 Y-61.141
X-44.534 Y-61.071
X-44.692 Y-60.835
X-44.939 Y-60.457
X-45.067 Y-60.253
G3 X-45.759 Y-60.02 I-0.498 J-0.335 F600
G1 X-45.848 Y-60.05 Z9.207
X-45.934 Y-60.08 Z9.229
X-46.017 Y-60.108 Z9.265
X-46.093 Y-60.134 Z9.315
X-46.16 Y-60.158 Z9.376
X-46.218 Y-60.177 Z9.447
X-46.265 Y-60.193 Z9.528
X-46.299 Y-60.205 Z9.615
X-46.32 Y-60.212 Z9.706
X-46.327 Y-60.215 Z9.8
G0 Z20.2
X-13.998 Y-70.594
Z10.4
G1 Z9.8 F600
X-14 Y-70.586 Z9.706
X-14.003 Y-70.565 Z9.615
X-14.008 Y-70.529 Z9.528
X-14.015 Y-70.48 Z9.447
X-14.024 Y-70.42 Z9.376
X-14.035 Y-70.349 Z9.315
X-14.046 Y-70.27 Z9.265
X-14.059 Y-70.184 Z9.229
X-14.073 Y-70.093 Z9.207
X-14.086 Y-70 Z9.2
G3 X-14.39 Y-69.276 I-1.566 J-0.231
G1 X-14.407 Y-69.255 F1300
X-14.549 Y-69.05
X-14.823 Y-68.641
X-14.957 Y-68.437
X-15.005 Y-68.358
X-15.074 Y-68.232
X-15.209 Y-67.946
X-15.258 Y-67.823
X-15.327 Y-67.618
X-15.375 Y-67.476
X-15.481 Y-67.247
X-15.633 Y-66.988
X-15.824 Y-66.727
X-16.084 Y-66.436
X-16.411 Y-66.136
X-16.839 Y-65.816
X-17.373 Y-65.493
X-18.077 Y-65.159
X-18.925 Y-64.854
X-19.796 Y-64.626
X-20.681 Y-64.456
X-21.573 Y-64.329
X-22.469 Y-64.235
X-23.367 Y-64.165
X-24.266 Y-64.113
X-25.167 Y-64.075
X-26.067 Y-64.047
X-26.968 Y-64.026
X-27.868 Y-64.011
X-28.769 Y-64
X-29.67 Y-63.992
X-30.571 Y-63.986
X-31.472 Y-63.982
X-33.274 Y-63.976
X-35.075 Y-63.973
X-35.524 Y-63.933
X-36.371 Y-63.627
X-36.811 Y-63.299
X-36.994 Y-63.19
X-37.197 Y-63.123
X-37.409 Y-63.1
X-39.983
X-40.187 Y-63.099
X-40.597 Y-63.091
X-40.802 Y-63.081
X-41.211 Y-63.013
X-41.416 Y-62.978
X-42.03 Y-62.851
G3 X-42.676 Y-63.192 I-0.101 J-0.591 F600
G1 X-42.715 Y-63.277 Z9.207
X-42.754 Y-63.361 Z9.229
X-42.79 Y-63.44 Z9.265
X-42.823 Y-63.513 Z9.315
X-42.853 Y-63.578 Z9.376
X-42.879 Y-63.633 Z9.447
X-42.899 Y-63.678 Z9.528
X-42.914 Y-63.711 Z9.615
X-42.924 Y-63.731 Z9.706
X-42.927 Y-63.737 Z9.8
G0 Z20.2
X-15.548 Y-68.975
Z10.4
G1 Z9.8 F600
X-15.546 Y-68.968 Z9.706
X-15.539 Y-68.947 Z9.615
X-15.529 Y-68.913 Z9.528
X-15.514 Y-68.866 Z9.447
X-15.496 Y-68.807 Z9.376
X-15.474 Y-68.739 Z9.315
X-15.45 Y-68.662 Z9.265
X-15.424 Y-68.579 Z9.229
X-15.397 Y-68.492 Z9.207
X-15.369 Y-68.402 Z9.2
G3 X-15.327 Y-67.618 I-1.51 J0.473
G1 X-15.376 Y-67.414 F1300
X-15.414 Y-67.24
X-15.502 Y-66.8
X-15.54 Y-66.595
X-15.573 Y-66.391
X-15.591 Y-66.186
X-15.599 Y-65.981
Y-65.869
X-15.607 Y-65.719
X-15.646 Y-65.496
X-15.72 Y-65.233
X-15.826 Y-64.962
X-15.976 Y-64.667
X-16.19 Y-64.334
X-16.447 Y-64.01
X-16.798 Y-63.648
X-17.219 Y-63.292
X-17.242 Y-63.276
X-17.417 Y-63.18
X-17.609 Y-63.12
X-17.809 Y-63.1
G3 X-18.368 Y-63.548 Z9.363 I0.021 J-0.6 F600
G1 X-18.384 Y-63.633 Z9.382 F1300
X-18.387 Y-63.72 Z9.4
G3 X-18.27 Y-64.056 I0.6 J0.02
G1 X-16.682 Y-66.205
G3 X-16.219 Y-66.448 I0.482 J0.357
G1 X-16.132 Y-66.445 Z9.382
X-16.047 Y-66.429 Z9.363
G3 X-15.599 Y-65.869 Z9.2 I-0.152 J0.58 F600
G1 X-15.6 Y-64.754 F1300
X-15.609 Y-64.549
X-15.633 Y-64.14
X-15.649 Y-63.935
X-15.69 Y-63.731
X-15.734 Y-63.629
X-15.791 Y-63.526
X-15.823 Y-63.48
X-15.903 Y-63.394
X-15.983 Y-63.322
X-16.028 Y-63.289
X-16.131 Y-63.233
X-16.233 Y-63.19
X-16.438 Y-63.149
X-16.642 Y-63.124
X-16.847 Y-63.106
X-17.052 Y-63.1
X-37.409
X-37.501 Y-63.11 F600
X-37.591 Y-63.135
X-37.655 Y-63.172 Z9.205
X-37.717 Y-63.208 Z9.218
X-37.778 Y-63.244 Z9.241
X-37.828 Y-63.305 Z9.279
X-37.874 Y-63.362 Z9.329
X-37.915 Y-63.412 Z9.388
X-37.935 Y-63.465 Z9.459
X-37.951 Y-63.508 Z9.537
X-37.963 Y-63.539 Z9.621
X-37.971 Y-63.558 Z9.709
X-37.973 Y-63.565 Z9.8
G0 Z20.2
X-47.071 Y76.579
Z9.9
G1 Z9.3 F600
X-47.07 Y76.572 Z9.206
X-47.067 Y76.55 Z9.115
X-47.062 Y76.514 Z9.028
X-47.056 Y76.465 Z8.947
X-47.048 Y76.405 Z8.876
X-47.039 Y76.334 Z8.815
X-47.029 Y76.254 Z8.765
X-47.017 Y76.168 Z8.729
X-47.006 Y76.077 Z8.707
X-46.994 Y75.984 Z8.7
G3 X-46.219 Y72.776 I15.191 J1.969
G1 X-46.191 Y72.704 F1300
X-46.141 Y72.563
X-46.078 Y72.427
X-46.003 Y72.297
X-45.919 Y72.172
X-45.828 Y72.053
X-45.73 Y71.94
X-45.626 Y71.832
X-45.517 Y71.728
X-45.404 Y71.63
X-45.287 Y71.536
X-45.167 Y71.446
X-45.043 Y71.361
X-44.917 Y71.28
X-44.789 Y71.203
X-44.658 Y71.129
X-44.526 Y71.059
X-44.391 Y70.992
X-44.255 Y70.928
X-44.118 Y70.868
X-43.98 Y70.81
X-43.84 Y70.755
X-43.699 Y70.703
X-43.558 Y70.654
X-43.415 Y70.607
X-43.272 Y70.562
X-43.128 Y70.519
X-42.984 Y70.478
X-42.839 Y70.44
X-42.694 Y70.403
X-42.548 Y70.368
X-42.402 Y70.335
X-42.255 Y70.303
X-42.108 Y70.273
X-41.961 Y70.245
X-41.812 Y70.217
X-41.655 Y70.19
X-41.49 Y70.163
X-41.314 Y70.135
X-41.126 Y70.108
X-40.926 Y70.081
X-40.712 Y70.053
X-40.48 Y70.026
X-40.229 Y69.998
X-39.954 Y69.971
X-39.652 Y69.943
X-39.315 Y69.916
X-38.936 Y69.889
X-38.501 Y69.861
X-37.993 Y69.834
X-37.381 Y69.806
X-36.612 Y69.779
X-35.711 Y69.755
X-34.811 Y69.739
X-33.91 Y69.727
X-33.009 Y69.719
X-32.108 Y69.713
X-31.207 Y69.709
X-29.405 Y69.704
X-26.703 Y69.702
X-19.496 Y69.7
X-14.357
X-14.157 Y69.72
X-13.966 Y69.78
X-13.79 Y69.877
X-13.206 Y70.279
X-13.162 Y70.309
X-12.957 Y70.433
X-12.752 Y70.553
X-12.548 Y70.667
X-12.343 Y70.752
X-12.138 Y70.818
X-11.933 Y70.872
X-11.524 Y70.957
X-11.319 Y70.996
X-10.91 Y71.062
X-10.705 Y71.089
X-10.091 Y71.1
X40.275
X40.385 Y71.097
X40.889 Y71.068
X41.094 Y71.039
X41.503 Y70.96
X41.708 Y70.916
X42.118 Y70.819
X42.322 Y70.758
X42.505 Y70.688
X42.732 Y70.575
X42.889 Y70.484
X43.141 Y70.323
X43.346 Y70.186
X43.504 Y70.075
X44.002 Y69.705
X44.023 Y69.686
X44.044 Y69.665
X44.237 Y69.461
X44.37 Y69.298
X44.401 Y69.256
X44.548 Y69.052
X44.822 Y68.642
X44.955 Y68.438
X45.075 Y68.233
X45.174 Y68.029
X45.189 Y67.995
X45.257 Y67.824
X45.393 Y67.333
X45.42 Y67.21
X45.501 Y66.801
X45.54 Y66.596
X45.573 Y66.392
X45.59 Y66.187
X45.598 Y66.075
X45.599 Y65.983
X45.6 Y64.141
Y-65.777
X45.599 Y-65.981
X45.598 Y-66.074
X45.591 Y-66.186
X45.573 Y-66.391
X45.54 Y-66.595
X45.502 Y-66.8
X45.42 Y-67.209
X45.393 Y-67.332
X45.258 Y-67.823
X45.189 Y-67.995
X45.174 Y-68.027
X45.075 Y-68.232
X44.955 Y-68.437
X44.823 Y-68.641
X44.549 Y-69.05
X44.402 Y-69.255
X44.37 Y-69.298
X44.238 Y-69.46
X44.045 Y-69.664
X44.024 Y-69.686
X44.002 Y-69.705
X43.506 Y-70.073
X43.346 Y-70.186
X43.141 Y-70.323
X42.891 Y-70.482
X42.732 Y-70.575
X42.508 Y-70.687
X42.322 Y-70.758
X42.118 Y-70.819
X41.708 Y-70.916
X41.503 Y-70.96
X41.094 Y-71.039
X40.889 Y-71.068
X40.406 Y-71.096
X40.275 Y-71.1
X-10.091
X-10.705 Y-71.089
X-10.91 Y-71.062
X-11.319 Y-70.996
X-11.524 Y-70.957
X-11.933 Y-70.872
X-12.138 Y-70.818
X-12.343 Y-70.752
X-12.794 Y-70.606
X-13.675 Y-70.415
X-14.565 Y-70.281
X-15.461 Y-70.188
X-16.36 Y-70.122
X-17.26 Y-70.077
X-18.16 Y-70.045
X-19.061 Y-70.022
X-19.961 Y-70.007
X-20.862 Y-69.996
X-21.763 Y-69.988
X-22.664 Y-69.983
X-23.565 Y-69.979
X-25.367 Y-69.974
X-28.069 Y-69.971
X-36.177 Y-69.97
X-42.033
X-42.254 Y-69.924
X-42.663 Y-69.736
X-43.356 Y-69.16
X-43.84 Y-68.401
X-44.18 Y-67.566
X-44.417 Y-66.697
X-44.583 Y-65.811
X-44.699 Y-64.918
X-44.781 Y-64.021
X-44.837 Y-63.122
X-44.877 Y-62.222
X-44.905 Y-61.321
X-44.917 Y-60.754
X-44.937 Y-60.579
X-44.987 Y-60.41
X-45.067 Y-60.253
X-45.167 Y-60.048
X-45.251 Y-59.844
X-45.306 Y-59.663
X-45.412 Y-59.23
X-45.456 Y-59.025
X-45.536 Y-58.616
X-45.564 Y-58.411
X-45.592 Y-58.002
X-45.6 Y-57.798
Y57.799
X-45.592 Y58.003
X-45.564 Y58.413
X-45.536 Y58.617
X-45.511 Y58.747
X-45.383 Y59.639
X-45.259 Y60.531
X-45.172 Y61.428
X-45.111 Y62.327
X-45.069 Y63.227
X-45.039 Y64.127
X-45.029 Y64.577
X-45.02 Y65.028
X-44.966 Y65.246
X-44.864 Y65.447
X-44.72 Y65.62
X-44.002 Y66.165
X-43.145 Y66.441
X-42.259 Y66.603
X-41.362 Y66.694
X-40.463 Y66.741
X-39.562 Y66.761
X-38.661 Y66.765
X-37.76 Y66.762
X-36.859 Y66.755
X-35.058 Y66.738
X-34.157 Y66.73
X-33.256 Y66.724
X-32.355 Y66.719
X-30.553 Y66.711
X-28.752 Y66.706
X-26.049 Y66.703
X-20.644 Y66.7
X-17.04
X-16.329 Y66.704
X-16.066 Y66.741
X-15.822 Y66.846
X-15.614 Y67.011
X-15.457 Y67.225
X-15.362 Y67.473
X-15.327 Y67.619
X-15.258 Y67.824
X-15.209 Y67.947
X-15.073 Y68.233
X-15.005 Y68.358
X-14.956 Y68.438
X-14.8 Y68.675
X-14.548 Y69.052
G3 X-14.622 Y69.778 I-0.51 J0.316 F600
G1 X-14.686 Y69.847 Z8.707
X-14.749 Y69.913 Z8.729
X-14.808 Y69.977 Z8.765
X-14.863 Y70.035 Z8.815
X-14.912 Y70.087 Z8.876
X-14.954 Y70.132 Z8.947
X-14.988 Y70.168 Z9.028
X-15.013 Y70.194 Z9.115
X-15.028 Y70.21 Z9.206
X-15.033 Y70.215 Z9.3
G0 Z20.2
X-46.272 Y57.602
Z9.9
G1 Z9.3 F600
X-46.267 Y57.608 Z9.206
X-46.252 Y57.624 Z9.115
X-46.228 Y57.651 Z9.028
X-46.195 Y57.688 Z8.947
X-46.155 Y57.733 Z8.876
X-46.107 Y57.787 Z8.815
X-46.054 Y57.847 Z8.765
X-45.996 Y57.912 Z8.729
X-45.935 Y57.98 Z8.707
X-45.872 Y58.05 Z8.7
G3 X-45.511 Y58.747 I-1.18 J1.054
G1 X-45.456 Y59.026 F1300
X-45.412 Y59.231
X-45.306 Y59.662
X-45.25 Y59.845
X-45.167 Y60.049
X-45.066 Y60.254
X-44.938 Y60.459
X-44.67 Y60.868
X-44.533 Y61.072
X-44.487 Y61.141
X-44.386 Y61.277
X-44.214 Y61.482
X-44.077 Y61.627
X-43.873 Y61.813
X-43.769 Y61.891
X-43.463 Y62.104
X-43.258 Y62.244
X-43.17 Y62.3
X-42.644 Y62.616
X-42.439 Y62.709
X-42.235 Y62.791
X-42.03 Y62.851
X-41.166 Y63.105
X-40.287 Y63.303
X-39.396 Y63.44
X-38.5 Y63.533
X-37.602 Y63.596
X-36.702 Y63.637
X-35.801 Y63.664
X-34.9 Y63.681
X-34 Y63.692
X-33.099 Y63.698
X-32.198 Y63.702
X-31.297 Y63.703
X-29.495 Y63.704
X-20.486 Y63.701
X-18.684
X-17.784 Y63.72
X-17.04 Y63.795
X-16.459 Y63.912
X-16.306 Y63.96
X-16.075 Y64.064
X-15.877 Y64.224
X-15.727 Y64.428
X-15.632 Y64.664
X-15.6 Y64.915
X-15.599 Y65.983
X-15.59 Y66.187
X-15.573 Y66.392
X-15.54 Y66.596
X-15.501 Y66.801
X-15.414 Y67.24
X-15.368 Y67.447
X-15.362 Y67.473
G3 X-15.684 Y68.129 I-0.588 J0.118 F600
G1 X-15.768 Y68.17 Z8.707
X-15.85 Y68.211 Z8.729
X-15.928 Y68.25 Z8.765
X-16 Y68.285 Z8.815
X-16.064 Y68.317 Z8.876
X-16.118 Y68.344 Z8.947
X-16.163 Y68.366 Z9.028
X-16.195 Y68.382 Z9.115
X-16.215 Y68.392 Z9.206
X-16.221 Y68.395 Z9.3
G0 Z20.2
X-43.38 Y63.111
Z9.9
G1 Z9.3 F600
X-43.373 Y63.109 Z9.206
X-43.352 Y63.102 Z9.115
X-43.318 Y63.09 Z9.028
X-43.272 Y63.074 Z8.947
X-43.214 Y63.054 Z8.876
X-43.146 Y63.031 Z8.815
X-43.07 Y63.004 Z8.765
X-42.988 Y62.976 Z8.729
X-42.902 Y62.946 Z8.707
X-42.813 Y62.915 Z8.7
G3 X-42.03 Y62.851 I0.517 J1.496
G1 X-41.416 Y62.978 F1300
X-41.211 Y63.013
X-40.802 Y63.081
X-40.597 Y63.091
X-40.187 Y63.099
X-39.983 Y63.1
X-17.052
X-16.847 Y63.106
X-16.642 Y63.124
X-16.438 Y63.149
X-16.233 Y63.19
X-16.131 Y63.233
X-16.028 Y63.289
X-15.981 Y63.323
X-15.902 Y63.395
X-15.823 Y63.48
X-15.79 Y63.527
X-15.734 Y63.63
X-15.69 Y63.732
X-15.649 Y63.937
X-15.633 Y64.141
X-15.609 Y64.55
X-15.6 Y64.755
Y64.915
G3 X-16.065 Y65.479 I-0.6 J-0.021 F600
G1 X-16.156 Y65.5 Z8.707
X-16.245 Y65.521 Z8.729
X-16.33 Y65.54 Z8.765
X-16.408 Y65.558 Z8.815
X-16.478 Y65.574 Z8.876
X-16.538 Y65.588 Z8.947
X-16.586 Y65.599 Z9.028
X-16.621 Y65.607 Z9.115
X-16.642 Y65.612 Z9.206
X-16.649 Y65.614 Z9.3
G0 Z20.2
X-11.372 Y-71.725
Z9.9
G1 Z9.3 F600
X-11.376 Y-71.719 Z9.206
X-11.389 Y-71.701 Z9.115
X-11.411 Y-71.672 Z9.028
X-11.44 Y-71.633 Z8.947
X-11.477 Y-71.584 Z8.876
X-11.52 Y-71.527 Z8.815
X-11.568 Y-71.462 Z8.765
X-11.62 Y-71.393 Z8.729
X-11.675 Y-71.319 Z8.707
X-11.731 Y-71.244 Z8.7
G3 X-12.343 Y-70.752 I-1.267 J-0.948
G1 X-12.548 Y-70.667 F1300
X-12.752 Y-70.553
X-12.957 Y-70.433
X-13.162 Y-70.309
X-13.571 Y-70.027
X-13.801 Y-69.869
X-13.981 Y-69.724
X-14.186 Y-69.519
X-14.241 Y-69.46
X-14.39 Y-69.276
X-14.533 Y-69.118
X-14.81 Y-68.866
X-15.168 Y-68.599
X-15.638 Y-68.318
X-16.259 Y-68.025
X-17.106 Y-67.725
X-17.98 Y-67.509
X-18.868 Y-67.354
X-19.762 Y-67.244
X-20.66 Y-67.165
X-21.559 Y-67.109
X-22.459 Y-67.069
X-23.359 Y-67.041
X-24.26 Y-67.02
X-25.161 Y-67.006
X-26.061 Y-66.995
X-26.962 Y-66.988
X-27.863 Y-66.983
X-28.764 Y-66.979
X-30.566 Y-66.975
X-33.268 Y-66.972
X-38.674 Y-66.97
X-39.098 Y-66.82
X-39.86 Y-66.339
X-40.433 Y-65.643
X-40.855 Y-64.848
X-41.164 Y-64.001
X-41.274 Y-63.573
X-41.352 Y-63.367
X-41.473 Y-63.184
X-41.632 Y-63.032
X-41.821 Y-62.919
X-42.03 Y-62.851
X-42.235 Y-62.791
X-42.444 Y-62.708
X-42.644 Y-62.616
X-43.172 Y-62.299
X-43.258 Y-62.244
X-43.478 Y-62.094
X-43.771 Y-61.889
X-43.873 Y-61.813
X-44.077 Y-61.627
X-44.215 Y-61.48
X-44.387 Y-61.276
X-44.487 Y-61.141
X-44.534 Y-61.071
X-44.692 Y-60.835
X-44.939 Y-60.457
X-45.067 Y-60.253
G3 X-45.759 Y-60.02 I-0.498 J-0.335 F600
G1 X-45.848 Y-60.05 Z8.707
X-45.934 Y-60.08 Z8.729
X-46.017 Y-60.108 Z8.765
X-46.093 Y-60.134 Z8.815
X-46.16 Y-60.158 Z8.876
X-46.218 Y-60.177 Z8.947
X-46.265 Y-60.193 Z9.028
X-46.299 Y-60.205 Z9.115
X-46.32 Y-60.212 Z9.206
X-46.327 Y-60.215 Z9.3
G0 Z20.2
X-13.998 Y-70.594
Z9.9
G1 Z9.3 F600
X-14 Y-70.586 Z9.206
X-14.003 Y-70.565 Z9.115
X-14.008 Y-70.529 Z9.028
X-14.015 Y-70.48 Z8.947
X-14.024 Y-70.42 Z8.876
X-14.035 Y-70.349 Z8.815
X-14.046 Y-70.27 Z8.765
X-14.059 Y-70.184 Z8.729
X-14.073 Y-70.093 Z8.707
X-14.086 Y-70 Z8.7
G3 X-14.39 Y-69.276 I-1.566 J-0.231
G1 X-14.407 Y-69.255 F1300
X-14.549 Y-69.05
X-14.823 Y-68.641
X-14.957 Y-68.437
X-15.005 Y-68.358
X-15.074 Y-68.232
X-15.209 Y-67.946
X-15.258 Y-67.823
X-15.327 Y-67.618
X-15.375 Y-67.476
X-15.481 Y-67.247
X-15.633 Y-66.988
X-15.824 Y-66.727
X-16.084 Y-66.436
X-16.411 Y-66.136
X-16.839 Y-65.816
X-17.373 Y-65.493
X-18.077 Y-65.159
X-18.925 Y-64.854
X-19.796 Y-64.626
X-20.681 Y-64.456
X-21.573 Y-64.329
X-22.469 Y-64.235
X-23.367 Y-64.165
X-24.266 Y-64.113
X-25.167 Y-64.075
X-26.067 Y-64.047
X-26.968 Y-64.026
X-27.868 Y-64.011
X-28.769 Y-64
X-29.67 Y-63.992
X-30.571 Y-63.986
X-31.472 Y-63.982
X-33.274 Y-63.976
X-35.075 Y-63.973
X-35.524 Y-63.933
X-36.371 Y-63.627
X-36.811 Y-63.299
X-36.994 Y-63.19
X-37.197 Y-63.123
X-37.409 Y-63.1
X-39.983
X-40.187 Y-63.099
X-40.597 Y-63.091
X-40.802 Y-63.081
X-41.211 Y-63.013
X-41.416 Y-62.978
X-42.03 Y-62.851
G3 X-42.676 Y-63.192 I-0.101 J-0.591 F600
G1 X-42.715 Y-63.277 Z8.707
X-42.754 Y-63.361 Z8.729
X-42.79 Y-63.44 Z8.765
X-42.823 Y-63.513 Z8.815
X-42.853 Y-63.578 Z8.876
X-42.879 Y-63.633 Z8.947
X-42.899 Y-63.678 Z9.028
X-42.914 Y-63.711 Z9.115
X-42.924 Y-63.731 Z9.206
X-42.927 Y-63.737 Z9.3
G0 Z20.2
X-15.548 Y-68.975
Z9.9
G1 Z9.3 F600
X-15.546 Y-68.968 Z9.206
X-15.539 Y-68.947 Z9.115
X-15.529 Y-68.913 Z9.028
X-15.514 Y-68.866 Z8.947
X-15.496 Y-68.807 Z8.876
X-15.474 Y-68.739 Z8.815
X-15.45 Y-68.662 Z8.765
X-15.424 Y-68.579 Z8.729
X-15.397 Y-68.492 Z8.707
X-15.369 Y-68.402 Z8.7
G3 X-15.327 Y-67.618 I-1.51 J0.473
G1 X-15.376 Y-67.414 F1300
X-15.414 Y-67.24
X-15.502 Y-66.8
X-15.54 Y-66.595
X-15.573 Y-66.391
X-15.591 Y-66.186
X-15.599 Y-65.981
Y-65.869
X-15.607 Y-65.719
X-15.646 Y-65.496
X-15.72 Y-65.233
X-15.826 Y-64.962
X-15.976 Y-64.667
X-16.19 Y-64.334
X-16.447 Y-64.01
X-16.798 Y-63.648
X-17.219 Y-63.292
X-17.242 Y-63.276
X-17.417 Y-63.18
X-17.609 Y-63.12
X-17.809 Y-63.1
G3 X-18.368 Y-63.548 Z8.863 I0.021 J-0.6 F600
G1 X-18.384 Y-63.633 Z8.882 F1300
X-18.387 Y-63.72 Z8.9
G3 X-18.27 Y-64.056 I0.6 J0.02
G1 X-16.682 Y-66.205
G3 X-16.219 Y-66.448 I0.482 J0.357
G1 X-16.132 Y-66.445 Z8.882
X-16.047 Y-66.429 Z8.863
G3 X-15.599 Y-65.869 Z8.7 I-0.152 J0.58 F600
G1 X-15.6 Y-64.754 F1300
X-15.609 Y-64.549
X-15.633 Y-64.14
X-15.649 Y-63.935
X-15.69 Y-63.731
X-15.734 Y-63.629
X-15.791 Y-63.526
X-15.823 Y-63.48
X-15.903 Y-63.394
X-15.983 Y-63.322
X-16.028 Y-63.289
X-16.131 Y-63.233
X-16.233 Y-63.19
X-16.438 Y-63.149
X-16.642 Y-63.124
X-16.847 Y-63.106
X-17.052 Y-63.1
X-37.409
X-37.501 Y-63.11 F600
X-37.591 Y-63.135
X-37.655 Y-63.172 Z8.705
X-37.717 Y-63.208 Z8.718
X-37.778 Y-63.244 Z8.741
X-37.828 Y-63.305 Z8.779
X-37.874 Y-63.362 Z8.829
X-37.915 Y-63.412 Z8.888
X-37.935 Y-63.465 Z8.959
X-37.951 Y-63.508 Z9.037
X-37.963 Y-63.539 Z9.121
X-37.971 Y-63.558 Z9.209
X-37.973 Y-63.565 Z9.3
G0 Z20.2
X-47.071 Y76.579
Z9.4
G1 Z8.8 F600
X-47.07 Y76.572 Z8.706
X-47.067 Y76.55 Z8.615
X-47.062 Y76.514 Z8.528
X-47.056 Y76.465 Z8.447
X-47.048 Y76.405 Z8.376
X-47.039 Y76.334 Z8.315
X-47.029 Y76.254 Z8.265
X-47.017 Y76.168 Z8.229
X-47.006 Y76.077 Z8.207
X-46.994 Y75.984 Z8.2
G3 X-46.219 Y72.776 I15.191 J1.969
G1 X-46.191 Y72.704 F1300
X-46.141 Y72.563
X-46.078 Y72.427
X-46.003 Y72.297
X-45.919 Y72.172
X-45.828 Y72.053
X-45.73 Y71.94
X-45.626 Y71.832
X-45.517 Y71.728
X-45.404 Y71.63
X-45.287 Y71.536
X-45.167 Y71.446
X-45.043 Y71.361
X-44.917 Y71.28
X-44.789 Y71.203
X-44.658 Y71.129
X-44.526 Y71.059
X-44.391 Y70.992
X-44.255 Y70.928
X-44.118 Y70.868
X-43.98 Y70.81
X-43.84 Y70.755
X-43.699 Y70.703
X-43.558 Y70.654
X-43.415 Y70.607
X-43.272 Y70.562
X-43.128 Y70.519
X-42.984 Y70.478
X-42.839 Y70.44
X-42.694 Y70.403
X-42.548 Y70.368
X-42.402 Y70.335
X-42.255 Y70.303
X-42.108 Y70.273
X-41.961 Y70.245
X-41.812 Y70.217
X-41.655 Y70.19
X-41.49 Y70.163
X-41.314 Y70.135
X-41.126 Y70.108
X-40.926 Y70.081
X-40.712 Y70.053
X-40.48 Y70.026
X-40.229 Y69.998
X-39.954 Y69.971
X-39.652 Y69.943
X-39.315 Y69.916
X-38.936 Y69.889
X-38.501 Y69.861
X-37.993 Y69.834
X-37.381 Y69.806
X-36.612 Y69.779
X-35.711 Y69.755
X-34.811 Y69.739
X-33.91 Y69.727
X-33.009 Y69.719
X-32.108 Y69.713
X-31.207 Y69.709
X-29.405 Y69.704
X-26.703 Y69.702
X-19.496 Y69.7
X-14.357
X-14.157 Y69.72
X-13.966 Y69.78
X-13.79 Y69.877
X-13.206 Y70.279
X-13.162 Y70.309
X-12.957 Y70.433
X-12.752 Y70.553
X-12.548 Y70.667
X-12.343 Y70.752
X-12.138 Y70.818
X-11.933 Y70.872
X-11.524 Y70.957
X-11.319 Y70.996
X-10.91 Y71.062
X-10.705 Y71.089
X-10.091 Y71.1
X40.275
X40.385 Y71.097
X40.889 Y71.068
X41.094 Y71.039
X41.503 Y70.96
X41.708 Y70.916
X42.118 Y70.819
X42.322 Y70.758
X42.505 Y70.688
X42.732 Y70.575
X42.889 Y70.484
X43.141 Y70.323
X43.346 Y70.186
X43.504 Y70.075
X44.002 Y69.705
X44.023 Y69.686
X44.044 Y69.665
X44.237 Y69.461
X44.37 Y69.298
X44.401 Y69.256
X44.548 Y69.052
X44.822 Y68.642
X44.955 Y68.438
X45.075 Y68.233
X45.174 Y68.029
X45.189 Y67.995
X45.257 Y67.824
X45.393 Y67.333
X45.42 Y67.21
X45.501 Y66.801
X45.54 Y66.596
X45.573 Y66.392
X45.59 Y66.187
X45.598 Y66.075
X45.599 Y65.983
X45.6 Y64.141
Y-65.777
X45.599 Y-65.981
X45.598 Y-66.074
X45.591 Y-66.186
X45.573 Y-66.391
X45.54 Y-66.595
X45.502 Y-66.8
X45.42 Y-67.209
X45.393 Y-67.332
X45.258 Y-67.823
X45.189 Y-67.995
X45.174 Y-68.027
X45.075 Y-68.232
X44.955 Y-68.437
X44.823 Y-68.641
X44.549 Y-69.05
X44.402 Y-69.255
X44.37 Y-69.298
X44.238 Y-69.46
X44.045 Y-69.664
X44.024 Y-69.686
X44.002 Y-69.705
X43.506 Y-70.073
X43.346 Y-70.186
X43.141 Y-70.323
X42.891 Y-70.482
X42.732 Y-70.575
X42.508 Y-70.687
X42.322 Y-70.758
X42.118 Y-70.819
X41.708 Y-70.916
X41.503 Y-70.96
X41.094 Y-71.039
X40.889 Y-71.068
X40.406 Y-71.096
X40.275 Y-71.1
X-10.091
X-10.705 Y-71.089
X-10.91 Y-71.062
X-11.319 Y-70.996
X-11.524 Y-70.957
X-11.933 Y-70.872
X-12.138 Y-70.818
X-12.343 Y-70.752
X-12.794 Y-70.606
X-13.675 Y-70.415
X-14.565 Y-70.281
X-15.461 Y-70.188
X-16.36 Y-70.122
X-17.26 Y-70.077
X-18.16 Y-70.045
X-19.061 Y-70.022
X-19.961 Y-70.007
X-20.862 Y-69.996
X-21.763 Y-69.988
X-22.664 Y-69.983
X-23.565 Y-69.979
X-25.367 Y-69.974
X-28.069 Y-69.971
X-36.177 Y-69.97
X-42.033
X-42.254 Y-69.924
X-42.663 Y-69.736
X-43.356 Y-69.16
X-43.84 Y-68.401
X-44.18 Y-67.566
X-44.417 Y-66.697
X-44.583 Y-65.811
X-44.699 Y-64.918
X-44.781 Y-64.021
X-44.837 Y-63.122
X-44.877 Y-62.222
X-44.905 Y-61.321
X-44.917 Y-60.754
X-44.937 Y-60.579
X-44.987 Y-60.41
X-45.067 Y-60.253
X-45.167 Y-60.048
X-45.251 Y-59.844
X-45.306 Y-59.663
X-45.412 Y-59.23
X-45.456 Y-59.025
X-45.536 Y-58.616
X-45.564 Y-58.411
X-45.592 Y-58.002
X-45.6 Y-57.798
Y57.799
X-45.592 Y58.003
X-45.564 Y58.413
X-45.536 Y58.617
X-45.511 Y58.747
X-45.383 Y59.639
X-45.259 Y60.531
X-45.172 Y61.428
X-45.111 Y62.327
X-45.069 Y63.227
X-45.039 Y64.127
X-45.029 Y64.577
X-45.02 Y65.028
X-44.966 Y65.246
X-44.864 Y65.447
X-44.72 Y65.62
X-44.002 Y66.165
X-43.145 Y66.441
X-42.259 Y66.603
X-41.362 Y66.694
X-40.463 Y66.741
X-39.562 Y66.761
X-38.661 Y66.765
X-37.76 Y66.762
X-36.859 Y66.755
X-35.058 Y66.738
X-34.157 Y66.73
X-33.256 Y66.724
X-32.355 Y66.719
X-30.553 Y66.711
X-28.752 Y66.706
X-26.049 Y66.703
X-20.644 Y66.7
X-17.04
X-16.329 Y66.704
X-16.066 Y66.741
X-15.822 Y66.846
X-15.614 Y67.011
X-15.457 Y67.225
X-15.362 Y67.473
X-15.327 Y67.619
X-15.258 Y67.824
X-15.209 Y67.947
X-15.073 Y68.233
X-15.005 Y68.358
X-14.956 Y68.438
X-14.8 Y68.675
X-14.548 Y69.052
G3 X-14.622 Y69.778 I-0.51 J0.316 F600
G1 X-14.686 Y69.847 Z8.207
X-14.749 Y69.913 Z8.229
X-14.808 Y69.977 Z8.265
X-14.863 Y70.035 Z8.315
X-14.912 Y70.087 Z8.376
X-14.954 Y70.132 Z8.447
X-14.988 Y70.168 Z8.528
X-15.013 Y70.194 Z8.615
X-15.028 Y70.21 Z8.706
X-15.033 Y70.215 Z8.8
G0 Z20.2
X-46.272 Y57.602
Z9.4
G1 Z8.8 F600
X-46.267 Y57.608 Z8.706
X-46.252 Y57.624 Z8.615
X-46.228 Y57.651 Z8.528
X-46.195 Y57.688 Z8.447
X-46.155 Y57.733 Z8.376
X-46.107 Y57.787 Z8.315
X-46.054 Y57.847 Z8.265
X-45.996 Y57.912 Z8.229
X-45.935 Y57.98 Z8.207
X-45.872 Y58.05 Z8.2
G3 X-45.511 Y58.747 I-1.18 J1.054
G1 X-45.456 Y59.026 F1300
X-45.412 Y59.231
X-45.306 Y59.662
X-45.25 Y59.845
X-45.167 Y60.049
X-45.066 Y60.254
X-44.938 Y60.459
X-44.67 Y60.868
X-44.533 Y61.072
X-44.487 Y61.141
X-44.386 Y61.277
X-44.214 Y61.482
X-44.077 Y61.627
X-43.873 Y61.813
X-43.769 Y61.891
X-43.463 Y62.104
X-43.258 Y62.244
X-43.17 Y62.3
X-42.644 Y62.616
X-42.439 Y62.709
X-42.235 Y62.791
X-42.03 Y62.851
X-41.166 Y63.105
X-40.287 Y63.303
X-39.396 Y63.44
X-38.5 Y63.533
X-37.602 Y63.596
X-36.702 Y63.637
X-35.801 Y63.664
X-34.9 Y63.681
X-34 Y63.692
X-33.099 Y63.698
X-32.198 Y63.702
X-31.297 Y63.703
X-29.495 Y63.704
X-20.486 Y63.701
X-18.684
X-17.784 Y63.72
X-17.04 Y63.795
X-16.459 Y63.912
X-16.306 Y63.96
X-16.075 Y64.064
X-15.877 Y64.224
X-15.727 Y64.428
X-15.632 Y64.664
X-15.6 Y64.915
X-15.599 Y65.983
X-15.59 Y66.187
X-15.573 Y66.392
X-15.54 Y66.596
X-15.501 Y66.801
X-15.414 Y67.24
X-15.368 Y67.447
X-15.362 Y67.473
G3 X-15.684 Y68.129 I-0.588 J0.118 F600
G1 X-15.768 Y68.17 Z8.207
X-15.85 Y68.211 Z8.229
X-15.928 Y68.25 Z8.265
X-16 Y68.285 Z8.315
X-16.064 Y68.317 Z8.376
X-16.118 Y68.344 Z8.447
X-16.163 Y68.366 Z8.528
X-16.195 Y68.382 Z8.615
X-16.215 Y68.392 Z8.706
X-16.221 Y68.395 Z8.8
G0 Z20.2
X-43.38 Y63.111
Z9.4
G1 Z8.8 F600
X-43.373 Y63.109 Z8.706
X-43.352 Y63.102 Z8.615
X-43.318 Y63.09 Z8.528
X-43.272 Y63.074 Z8.447
X-43.214 Y63.054 Z8.376
X-43.146 Y63.031 Z8.315
X-43.07 Y63.004 Z8.265
X-42.988 Y62.976 Z8.229
X-42.902 Y62.946 Z8.207
X-42.813 Y62.915 Z8.2
G3 X-42.03 Y62.851 I0.517 J1.496
G1 X-41.416 Y62.978 F1300
X-41.211 Y63.013
X-40.802 Y63.081
X-40.597 Y63.091
X-40.187 Y63.099
X-39.983 Y63.1
X-17.052
X-16.847 Y63.106
X-16.642 Y63.124
X-16.438 Y63.149
X-16.233 Y63.19
X-16.131 Y63.233
X-16.028 Y63.289
X-15.981 Y63.323
X-15.902 Y63.395
X-15.823 Y63.48
X-15.79 Y63.527
X-15.734 Y63.63
X-15.69 Y63.732
X-15.649 Y63.937
X-15.633 Y64.141
X-15.609 Y64.55
X-15.6 Y64.755
Y64.915
G3 X-16.065 Y65.479 I-0.6 J-0.021 F600
G1 X-16.156 Y65.5 Z8.207
X-16.245 Y65.521 Z8.229
X-16.33 Y65.54 Z8.265
X-16.408 Y65.558 Z8.315
X-16.478 Y65.574 Z8.376
X-16.538 Y65.588 Z8.447
X-16.586 Y65.599 Z8.528
X-16.621 Y65.607 Z8.615
X-16.642 Y65.612 Z8.706
X-16.649 Y65.614 Z8.8
G0 Z20.2
X-11.372 Y-71.725
Z9.4
G1 Z8.8 F600
X-11.376 Y-71.719 Z8.706
X-11.389 Y-71.701 Z8.615
X-11.411 Y-71.672 Z8.528
X-11.44 Y-71.633 Z8.447
X-11.477 Y-71.584 Z8.376
X-11.52 Y-71.527 Z8.315
X-11.568 Y-71.462 Z8.265
X-11.62 Y-71.393 Z8.229
X-11.675 Y-71.319 Z8.207
X-11.731 Y-71.244 Z8.2
G3 X-12.343 Y-70.752 I-1.267 J-0.948
G1 X-12.548 Y-70.667 F1300
X-12.752 Y-70.553
X-12.957 Y-70.433
X-13.162 Y-70.309
X-13.571 Y-70.027
X-13.801 Y-69.869
X-13.981 Y-69.724
X-14.186 Y-69.519
X-14.241 Y-69.46
X-14.39 Y-69.276
X-14.533 Y-69.118
X-14.81 Y-68.866
X-15.168 Y-68.599
X-15.638 Y-68.318
X-16.259 Y-68.025
X-17.106 Y-67.725
X-17.98 Y-67.509
X-18.868 Y-67.354
X-19.762 Y-67.244
X-20.66 Y-67.165
X-21.559 Y-67.109
X-22.459 Y-67.069
X-23.359 Y-67.041
X-24.26 Y-67.02
X-25.161 Y-67.006
X-26.061 Y-66.995
X-26.962 Y-66.988
X-27.863 Y-66.983
X-28.764 Y-66.979
X-30.566 Y-66.975
X-33.268 Y-66.972
X-38.674 Y-66.97
X-39.098 Y-66.82
X-39.86 Y-66.339
X-40.433 Y-65.643
X-40.855 Y-64.848
X-41.164 Y-64.001
X-41.274 Y-63.573
X-41.352 Y-63.367
X-41.473 Y-63.184
X-41.632 Y-63.032
X-41.821 Y-62.919
X-42.03 Y-62.851
X-42.235 Y-62.791
X-42.444 Y-62.708
X-42.644 Y-62.616
X-43.172 Y-62.299
X-43.258 Y-62.244
X-43.478 Y-62.094
X-43.771 Y-61.889
X-43.873 Y-61.813
X-44.077 Y-61.627
X-44.215 Y-61.48
X-44.387 Y-61.276
X-44.487 Y-61.141
X-44.534 Y-61.071
X-44.692 Y-60.835
X-44.939 Y-60.457
X-45.067 Y-60.253
G3 X-45.759 Y-60.02 I-0.498 J-0.335 F600
G1 X-45.848 Y-60.05 Z8.207
X-45.934 Y-60.08 Z8.229
X-46.017 Y-60.108 Z8.265
X-46.093 Y-60.134 Z8.315
X-46.16 Y-60.158 Z8.376
X-46.218 Y-60.177 Z8.447
X-46.265 Y-60.193 Z8.528
X-46.299 Y-60.205 Z8.615
X-46.32 Y-60.212 Z8.706
X-46.327 Y-60.215 Z8.8
G0 Z20.2
X-13.998 Y-70.594
Z9.4
G1 Z8.8 F600
X-14 Y-70.586 Z8.706
X-14.003 Y-70.565 Z8.615
X-14.008 Y-70.529 Z8.528
X-14.015 Y-70.48 Z8.447
X-14.024 Y-70.42 Z8.376
X-14.035 Y-70.349 Z8.315
X-14.046 Y-70.27 Z8.265
X-14.059 Y-70.184 Z8.229
X-14.073 Y-70.093 Z8.207
X-14.086 Y-70 Z8.2
G3 X-14.39 Y-69.276 I-1.566 J-0.231
G1 X-14.407 Y-69.255 F1300
X-14.549 Y-69.05
X-14.823 Y-68.641
X-14.957 Y-68.437
X-15.005 Y-68.358
X-15.074 Y-68.232
X-15.209 Y-67.946
X-15.258 Y-67.823
X-15.327 Y-67.618
X-15.375 Y-67.476
X-15.481 Y-67.247
X-15.633 Y-66.988
X-15.824 Y-66.727
X-16.084 Y-66.436
X-16.411 Y-66.136
X-16.839 Y-65.816
X-17.373 Y-65.493
X-18.077 Y-65.159
X-18.925 Y-64.854
X-19.796 Y-64.626
X-20.681 Y-64.456
X-21.573 Y-64.329
X-22.469 Y-64.235
X-23.367 Y-64.165
X-24.266 Y-64.113
X-25.167 Y-64.075
X-26.067 Y-64.047
X-26.968 Y-64.026
X-27.868 Y-64.011
X-28.769 Y-64
X-29.67 Y-63.992
X-30.571 Y-63.986
X-31.472 Y-63.982
X-33.274 Y-63.976
X-35.075 Y-63.973
X-35.524 Y-63.933
X-36.371 Y-63.627
X-36.811 Y-63.299
X-36.994 Y-63.19
X-37.197 Y-63.123
X-37.409 Y-63.1
X-39.983
X-40.187 Y-63.099
X-40.597 Y-63.091
X-40.802 Y-63.081
X-41.211 Y-63.013
X-41.416 Y-62.978
X-42.03 Y-62.851
G3 X-42.676 Y-63.192 I-0.101 J-0.591 F600
G1 X-42.715 Y-63.277 Z8.207
X-42.754 Y-63.361 Z8.229
X-42.79 Y-63.44 Z8.265
X-42.823 Y-63.513 Z8.315
X-42.853 Y-63.578 Z8.376
X-42.879 Y-63.633 Z8.447
X-42.899 Y-63.678 Z8.528
X-42.914 Y-63.711 Z8.615
X-42.924 Y-63.731 Z8.706
X-42.927 Y-63.737 Z8.8
G0 Z20.2
X-15.548 Y-68.975
Z9.4
G1 Z8.8 F600
X-15.546 Y-68.968 Z8.706
X-15.539 Y-68.947 Z8.615
X-15.529 Y-68.913 Z8.528
X-15.514 Y-68.866 Z8.447
X-15.496 Y-68.807 Z8.376
X-15.474 Y-68.739 Z8.315
X-15.45 Y-68.662 Z8.265
X-15.424 Y-68.579 Z8.229
X-15.397 Y-68.492 Z8.207
X-15.369 Y-68.402 Z8.2
G3 X-15.327 Y-67.618 I-1.51 J0.473
G1 X-15.376 Y-67.414 F1300
X-15.414 Y-67.24
X-15.502 Y-66.8
X-15.54 Y-66.595
X-15.573 Y-66.391
X-15.591 Y-66.186
X-15.599 Y-65.981
Y-65.869
X-15.607 Y-65.719
X-15.646 Y-65.496
X-15.72 Y-65.233
X-15.826 Y-64.962
X-15.976 Y-64.667
X-16.19 Y-64.334
X-16.447 Y-64.01
X-16.798 Y-63.648
X-17.219 Y-63.292
X-17.242 Y-63.276
X-17.417 Y-63.18
X-17.609 Y-63.12
X-17.809 Y-63.1
G3 X-18.368 Y-63.548 Z8.363 I0.021 J-0.6 F600
G1 X-18.384 Y-63.633 Z8.382 F1300
X-18.387 Y-63.72 Z8.4
G3 X-18.27 Y-64.056 I0.6 J0.02
G1 X-16.682 Y-66.205
G3 X-16.219 Y-66.448 I0.482 J0.357
G1 X-16.132 Y-66.445 Z8.382
X-16.047 Y-66.429 Z8.363
G3 X-15.599 Y-65.869 Z8.2 I-0.152 J0.58 F600
G1 X-15.6 Y-64.754 F1300
X-15.609 Y-64.549
X-15.633 Y-64.14
X-15.649 Y-63.935
X-15.69 Y-63.731
X-15.734 Y-63.629
X-15.791 Y-63.526
X-15.823 Y-63.48
X-15.903 Y-63.394
X-15.983 Y-63.322
X-16.028 Y-63.289
X-16.131 Y-63.233
X-16.233 Y-63.19
X-16.438 Y-63.149
X-16.642 Y-63.124
X-16.847 Y-63.106
X-17.052 Y-63.1
X-37.409
X-37.501 Y-63.11 F600
X-37.591 Y-63.135
X-37.655 Y-63.172 Z8.205
X-37.717 Y-63.208 Z8.218
X-37.778 Y-63.244 Z8.241
X-37.828 Y-63.305 Z8.279
X-37.874 Y-63.362 Z8.329
X-37.915 Y-63.412 Z8.388
X-37.935 Y-63.465 Z8.459
X-37.951 Y-63.508 Z8.537
X-37.963 Y-63.539 Z8.621
X-37.971 Y-63.558 Z8.709
X-37.973 Y-63.565 Z8.8
G0 Z20.2
X-47.071 Y76.579
Z8.9
G1 Z8.3 F600
X-47.07 Y76.572 Z8.206
X-47.067 Y76.55 Z8.115
X-47.062 Y76.514 Z8.028
X-47.056 Y76.465 Z7.947
X-47.048 Y76.405 Z7.876
X-47.039 Y76.334 Z7.815
X-47.029 Y76.254 Z7.765
X-47.017 Y76.168 Z7.729
X-47.006 Y76.077 Z7.707
X-46.994 Y75.984 Z7.7
G3 X-46.219 Y72.776 I15.191 J1.969
G1 X-46.191 Y72.704 F1300
X-46.141 Y72.563
X-46.078 Y72.427
X-46.003 Y72.297
X-45.919 Y72.172
X-45.828 Y72.053
X-45.73 Y71.94
X-45.626 Y71.832
X-45.517 Y71.728
X-45.404 Y71.63
X-45.287 Y71.536
X-45.167 Y71.446
X-45.043 Y71.361
X-44.917 Y71.28
X-44.789 Y71.203
X-44.658 Y71.129
X-44.526 Y71.059
X-44.391 Y70.992
X-44.255 Y70.928
X-44.118 Y70.868
X-43.98 Y70.81
X-43.84 Y70.755
X-43.699 Y70.703
X-43.558 Y70.654
X-43.415 Y70.607
X-43.272 Y70.562
X-43.128 Y70.519
X-42.984 Y70.478
X-42.839 Y70.44
X-42.694 Y70.403
X-42.548 Y70.368
X-42.402 Y70.335
X-42.255 Y70.303
X-42.108 Y70.273
X-41.961 Y70.245
X-41.812 Y70.217
X-41.655 Y70.19
X-41.49 Y70.163
X-41.314 Y70.135
X-41.126 Y70.108
X-40.926 Y70.081
X-40.712 Y70.053
X-40.48 Y70.026
X-40.229 Y69.998
X-39.954 Y69.971
X-39.652 Y69.943
X-39.315 Y69.916
X-38.936 Y69.889
X-38.501 Y69.861
X-37.993 Y69.834
X-37.381 Y69.806
X-36.612 Y69.779
X-35.711 Y69.755
X-34.811 Y69.739
X-33.91 Y69.727
X-33.009 Y69.719
X-32.108 Y69.713
X-31.207 Y69.709
X-29.405 Y69.704
X-26.703 Y69.702
X-19.496 Y69.7
X-14.357
X-14.157 Y69.72
X-13.966 Y69.78
X-13.79 Y69.877
X-13.206 Y70.279
X-13.162 Y70.309
X-12.957 Y70.433
X-12.752 Y70.553
X-12.548 Y70.667
X-12.343 Y70.752
X-12.138 Y70.818
X-11.933 Y70.872
X-11.524 Y70.957
X-11.319 Y70.996
X-10.91 Y71.062
X-10.705 Y71.089
X-10.091 Y71.1
X40.275
X40.385 Y71.097
X40.889 Y71.068
X41.094 Y71.039
X41.503 Y70.96
X41.708 Y70.916
X42.118 Y70.819
X42.322 Y70.758
X42.505 Y70.688
X42.732 Y70.575
X42.889 Y70.484
X43.141 Y70.323
X43.346 Y70.186
X43.504 Y70.075
X44.002 Y69.705
X44.023 Y69.686
X44.044 Y69.665
X44.237 Y69.461
X44.37 Y69.298
X44.401 Y69.256
X44.548 Y69.052
X44.822 Y68.642
X44.955 Y68.438
X45.075 Y68.233
X45.174 Y68.029
X45.189 Y67.995
X45.257 Y67.824
X45.393 Y67.333
X45.42 Y67.21
X45.501 Y66.801
X45.54 Y66.596
X45.573 Y66.392
X45.59 Y66.187
X45.598 Y66.075
X45.599 Y65.983
X45.6 Y64.141
Y-65.777
X45.599 Y-65.981
X45.598 Y-66.074
X45.591 Y-66.186
X45.573 Y-66.391
X45.54 Y-66.595
X45.502 Y-66.8
X45.42 Y-67.209
X45.393 Y-67.332
X45.258 Y-67.823
X45.189 Y-67.995
X45.174 Y-68.027
X45.075 Y-68.232
X44.955 Y-68.437
X44.823 Y-68.641
X44.549 Y-69.05
X44.402 Y-69.255
X44.37 Y-69.298
X44.238 Y-69.46
X44.045 Y-69.664
X44.024 Y-69.686
X44.002 Y-69.705
X43.506 Y-70.073
X43.346 Y-70.186
X43.141 Y-70.323
X42.891 Y-70.482
X42.732 Y-70.575
X42.508 Y-70.687
X42.322 Y-70.758
X42.118 Y-70.819
X41.708 Y-70.916
X41.503 Y-70.96
X41.094 Y-71.039
X40.889 Y-71.068
X40.406 Y-71.096
X40.275 Y-71.1
X-10.091
X-10.705 Y-71.089
X-10.91 Y-71.062
X-11.319 Y-70.996
X-11.524 Y-70.957
X-11.933 Y-70.872
X-12.138 Y-70.818
X-12.343 Y-70.752
X-12.794 Y-70.606
X-13.675 Y-70.415
X-14.565 Y-70.281
X-15.461 Y-70.188
X-16.36 Y-70.122
X-17.26 Y-70.077
X-18.16 Y-70.045
X-19.061 Y-70.022
X-19.961 Y-70.007
X-20.862 Y-69.996
X-21.763 Y-69.988
X-22.664 Y-69.983
X-23.565 Y-69.979
X-25.367 Y-69.974
X-28.069 Y-69.971
X-36.177 Y-69.97
X-42.033
X-42.254 Y-69.924
X-42.663 Y-69.736
X-43.356 Y-69.16
X-43.84 Y-68.401
X-44.18 Y-67.566
X-44.417 Y-66.697
X-44.583 Y-65.811
X-44.699 Y-64.918
X-44.781 Y-64.021
X-44.837 Y-63.122
X-44.877 Y-62.222
X-44.905 Y-61.321
X-44.917 Y-60.754
X-44.937 Y-60.579
X-44.987 Y-60.41
X-45.067 Y-60.253
X-45.167 Y-60.048
X-45.251 Y-59.844
X-45.306 Y-59.663
X-45.412 Y-59.23
X-45.456 Y-59.025
X-45.536 Y-58.616
X-45.564 Y-58.411
X-45.592 Y-58.002
X-45.6 Y-57.798
Y57.799
X-45.592 Y58.003
X-45.564 Y58.413
X-45.536 Y58.617
X-45.511 Y58.747
X-45.383 Y59.639
X-45.259 Y60.531
X-45.172 Y61.428
X-45.111 Y62.327
X-45.069 Y63.227
X-45.039 Y64.127
X-45.029 Y64.577
X-45.02 Y65.028
X-44.966 Y65.246
X-44.864 Y65.447
X-44.72 Y65.62
X-44.002 Y66.165
X-43.145 Y66.441
X-42.259 Y66.603
X-41.362 Y66.694
X-40.463 Y66.741
X-39.562 Y66.761
X-38.661 Y66.765
X-37.76 Y66.762
X-36.859 Y66.755
X-35.058 Y66.738
X-34.157 Y66.73
X-33.256 Y66.724
X-32.355 Y66.719
X-30.553 Y66.711
X-28.752 Y66.706
X-26.049 Y66.703
X-20.644 Y66.7
X-17.04
X-16.329 Y66.704
X-16.066 Y66.741
X-15.822 Y66.846
X-15.614 Y67.011
X-15.457 Y67.225
X-15.362 Y67.473
X-15.327 Y67.619
X-15.258 Y67.824
X-15.209 Y67.947
X-15.073 Y68.233
X-15.005 Y68.358
X-14.956 Y68.438
X-14.8 Y68.675
X-14.548 Y69.052
G3 X-14.622 Y69.778 I-0.51 J0.316 F600
G1 X-14.686 Y69.847 Z7.707
X-14.749 Y69.913 Z7.729
X-14.808 Y69.977 Z7.765
X-14.863 Y70.035 Z7.815
X-14.912 Y70.087 Z7.876
X-14.954 Y70.132 Z7.947
X-14.988 Y70.168 Z8.028
X-15.013 Y70.194 Z8.115
X-15.028 Y70.21 Z8.206
X-15.033 Y70.215 Z8.3
G0 Z20.2
X-46.272 Y57.602
Z8.9
G1 Z8.3 F600
X-46.267 Y57.608 Z8.206
X-46.252 Y57.624 Z8.115
X-46.228 Y57.651 Z8.028
X-46.195 Y57.688 Z7.947
X-46.155 Y57.733 Z7.876
X-46.107 Y57.787 Z7.815
X-46.054 Y57.847 Z7.765
X-45.996 Y57.912 Z7.729
X-45.935 Y57.98 Z7.707
X-45.872 Y58.05 Z7.7
G3 X-45.511 Y58.747 I-1.18 J1.054
G1 X-45.456 Y59.026 F1300
X-45.412 Y59.231
X-45.306 Y59.662
X-45.25 Y59.845
X-45.167 Y60.049
X-45.066 Y60.254
X-44.938 Y60.459
X-44.67 Y60.868
X-44.533 Y61.072
X-44.487 Y61.141
X-44.386 Y61.277
X-44.214 Y61.482
X-44.077 Y61.627
X-43.873 Y61.813
X-43.769 Y61.891
X-43.463 Y62.104
X-43.258 Y62.244
X-43.17 Y62.3
X-42.644 Y62.616
X-42.439 Y62.709
X-42.235 Y62.791
X-42.03 Y62.851
X-41.166 Y63.105
X-40.287 Y63.303
X-39.396 Y63.44
X-38.5 Y63.533
X-37.602 Y63.596
X-36.702 Y63.637
X-35.801 Y63.664
X-34.9 Y63.681
X-34 Y63.692
X-33.099 Y63.698
X-32.198 Y63.702
X-31.297 Y63.703
X-29.495 Y63.704
X-20.486 Y63.701
X-18.684
X-17.784 Y63.72
X-17.04 Y63.795
X-16.459 Y63.912
X-16.306 Y63.96
X-16.075 Y64.064
X-15.877 Y64.224
X-15.727 Y64.428
X-15.632 Y64.664
X-15.6 Y64.915
X-15.599 Y65.983
X-15.59 Y66.187
X-15.573 Y66.392
X-15.54 Y66.596
X-15.501 Y66.801
X-15.414 Y67.24
X-15.368 Y67.447
X-15.362 Y67.473
G3 X-15.684 Y68.129 I-0.588 J0.118 F600
G1 X-15.768 Y68.17 Z7.707
X-15.85 Y68.211 Z7.729
X-15.928 Y68.25 Z7.765
X-16 Y68.285 Z7.815
X-16.064 Y68.317 Z7.876
X-16.118 Y68.344 Z7.947
X-16.163 Y68.366 Z8.028
X-16.195 Y68.382 Z8.115
X-16.215 Y68.392 Z8.206
X-16.221 Y68.395 Z8.3
G0 Z20.2
X-43.38 Y63.111
Z8.9
G1 Z8.3 F600
X-43.373 Y63.109 Z8.206
X-43.352 Y63.102 Z8.115
X-43.318 Y63.09 Z8.028
X-43.272 Y63.074 Z7.947
X-43.214 Y63.054 Z7.876
X-43.146 Y63.031 Z7.815
X-43.07 Y63.004 Z7.765
X-42.988 Y62.976 Z7.729
X-42.902 Y62.946 Z7.707
X-42.813 Y62.915 Z7.7
G3 X-42.03 Y62.851 I0.517 J1.496
G1 X-41.416 Y62.978 F1300
X-41.211 Y63.013
X-40.802 Y63.081
X-40.597 Y63.091
X-40.187 Y63.099
X-39.983 Y63.1
X-17.052
X-16.847 Y63.106
X-16.642 Y63.124
X-16.438 Y63.149
X-16.233 Y63.19
X-16.131 Y63.233
X-16.028 Y63.289
X-15.981 Y63.323
X-15.902 Y63.395
X-15.823 Y63.48
X-15.79 Y63.527
X-15.734 Y63.63
X-15.69 Y63.732
X-15.649 Y63.937
X-15.633 Y64.141
X-15.609 Y64.55
X-15.6 Y64.755
Y64.915
G3 X-16.065 Y65.479 I-0.6 J-0.021 F600
G1 X-16.156 Y65.5 Z7.707
X-16.245 Y65.521 Z7.729
X-16.33 Y65.54 Z7.765
X-16.408 Y65.558 Z7.815
X-16.478 Y65.574 Z7.876
X-16.538 Y65.588 Z7.947
X-16.586 Y65.599 Z8.028
X-16.621 Y65.607 Z8.115
X-16.642 Y65.612 Z8.206
X-16.649 Y65.614 Z8.3
G0 Z20.2
X-11.372 Y-71.725
Z8.9
G1 Z8.3 F600
X-11.376 Y-71.719 Z8.206
X-11.389 Y-71.701 Z8.115
X-11.411 Y-71.672 Z8.028
X-11.44 Y-71.633 Z7.947
X-11.477 Y-71.584 Z7.876
X-11.52 Y-71.527 Z7.815
X-11.568 Y-71.462 Z7.765
X-11.62 Y-71.393 Z7.729
X-11.675 Y-71.319 Z7.707
X-11.731 Y-71.244 Z7.7
G3 X-12.343 Y-70.752 I-1.267 J-0.948
G1 X-12.548 Y-70.667 F1300
X-12.752 Y-70.553
X-12.957 Y-70.433
X-13.162 Y-70.309
X-13.571 Y-70.027
X-13.801 Y-69.869
X-13.981 Y-69.724
X-14.186 Y-69.519
X-14.241 Y-69.46
X-14.39 Y-69.276
X-14.533 Y-69.118
X-14.81 Y-68.866
X-15.168 Y-68.599
X-15.638 Y-68.318
X-16.259 Y-68.025
X-17.106 Y-67.725
X-17.98 Y-67.509
X-18.868 Y-67.354
X-19.762 Y-67.244
X-20.66 Y-67.165
X-21.559 Y-67.109
X-22.459 Y-67.069
X-23.359 Y-67.041
X-24.26 Y-67.02
X-25.161 Y-67.006
X-26.061 Y-66.995
X-26.962 Y-66.988
X-27.863 Y-66.983
X-28.764 Y-66.979
X-30.566 Y-66.975
X-33.268 Y-66.972
X-38.674 Y-66.97
X-39.098 Y-66.82
X-39.86 Y-66.339
X-40.433 Y-65.643
X-40.855 Y-64.848
X-41.164 Y-64.001
X-41.274 Y-63.573
X-41.352 Y-63.367
X-41.473 Y-63.184
X-41.632 Y-63.032
X-41.821 Y-62.919
X-42.03 Y-62.851
X-42.235 Y-62.791
X-42.444 Y-62.708
X-42.644 Y-62.616
X-43.172 Y-62.299
X-43.258 Y-62.244
X-43.478 Y-62.094
X-43.771 Y-61.889
X-43.873 Y-61.813
X-44.077 Y-61.627
X-44.215 Y-61.48
X-44.387 Y-61.276
X-44.487 Y-61.141
X-44.534 Y-61.071
X-44.692 Y-60.835
X-44.939 Y-60.457
X-45.067 Y-60.253
G3 X-45.759 Y-60.02 I-0.498 J-0.335 F600
G1 X-45.848 Y-60.05 Z7.707
X-45.934 Y-60.08 Z7.729
X-46.017 Y-60.108 Z7.765
X-46.093 Y-60.134 Z7.815
X-46.16 Y-60.158 Z7.876
X-46.218 Y-60.177 Z7.947
X-46.265 Y-60.193 Z8.028
X-46.299 Y-60.205 Z8.115
X-46.32 Y-60.212 Z8.206
X-46.327 Y-60.215 Z8.3
G0 Z20.2
X-13.998 Y-70.594
Z8.9
G1 Z8.3 F600
X-14 Y-70.586 Z8.206
X-14.003 Y-70.565 Z8.115
X-14.008 Y-70.529 Z8.028
X-14.015 Y-70.48 Z7.947
X-14.024 Y-70.42 Z7.876
X-14.035 Y-70.349 Z7.815
X-14.046 Y-70.27 Z7.765
X-14.059 Y-70.184 Z7.729
X-14.073 Y-70.093 Z7.707
X-14.086 Y-70 Z7.7
G3 X-14.39 Y-69.276 I-1.566 J-0.231
G1 X-14.407 Y-69.255 F1300
X-14.549 Y-69.05
X-14.823 Y-68.641
X-14.957 Y-68.437
X-15.005 Y-68.358
X-15.074 Y-68.232
X-15.209 Y-67.946
X-15.258 Y-67.823
X-15.327 Y-67.618
X-15.375 Y-67.476
X-15.481 Y-67.247
X-15.633 Y-66.988
X-15.824 Y-66.727
X-16.084 Y-66.436
X-16.411 Y-66.136
X-16.839 Y-65.816
X-17.373 Y-65.493
X-18.077 Y-65.159
X-18.925 Y-64.854
X-19.796 Y-64.626
X-20.681 Y-64.456
X-21.573 Y-64.329
X-22.469 Y-64.235
X-23.367 Y-64.165
X-24.266 Y-64.113
X-25.167 Y-64.075
X-26.067 Y-64.047
X-26.968 Y-64.026
X-27.868 Y-64.011
X-28.769 Y-64
X-29.67 Y-63.992
X-30.571 Y-63.986
X-31.472 Y-63.982
X-33.274 Y-63.976
X-35.075 Y-63.973
X-35.524 Y-63.933
X-36.371 Y-63.627
X-36.811 Y-63.299
X-36.994 Y-63.19
X-37.197 Y-63.123
X-37.409 Y-63.1
X-39.983
X-40.187 Y-63.099
X-40.597 Y-63.091
X-40.802 Y-63.081
X-41.211 Y-63.013
X-41.416 Y-62.978
X-42.03 Y-62.851
G3 X-42.676 Y-63.192 I-0.101 J-0.591 F600
G1 X-42.715 Y-63.277 Z7.707
X-42.754 Y-63.361 Z7.729
X-42.79 Y-63.44 Z7.765
X-42.823 Y-63.513 Z7.815
X-42.853 Y-63.578 Z7.876
X-42.879 Y-63.633 Z7.947
X-42.899 Y-63.678 Z8.028
X-42.914 Y-63.711 Z8.115
X-42.924 Y-63.731 Z8.206
X-42.927 Y-63.737 Z8.3
G0 Z20.2
X-15.548 Y-68.975
Z8.9
G1 Z8.3 F600
X-15.546 Y-68.968 Z8.206
X-15.539 Y-68.947 Z8.115
X-15.529 Y-68.913 Z8.028
X-15.514 Y-68.866 Z7.947
X-15.496 Y-68.807 Z7.876
X-15.474 Y-68.739 Z7.815
X-15.45 Y-68.662 Z7.765
X-15.424 Y-68.579 Z7.729
X-15.397 Y-68.492 Z7.707
X-15.369 Y-68.402 Z7.7
G3 X-15.327 Y-67.618 I-1.51 J0.473
G1 X-15.376 Y-67.414 F1300
X-15.414 Y-67.24
X-15.502 Y-66.8
X-15.54 Y-66.595
X-15.573 Y-66.391
X-15.591 Y-66.186
X-15.599 Y-65.981
Y-65.869
X-15.607 Y-65.719
X-15.646 Y-65.496
X-15.72 Y-65.233
X-15.826 Y-64.962
X-15.976 Y-64.667
X-16.19 Y-64.334
X-16.447 Y-64.01
X-16.798 Y-63.648
X-17.219 Y-63.292
X-17.242 Y-63.276
X-17.417 Y-63.18
X-17.609 Y-63.12
X-17.809 Y-63.1
G3 X-18.368 Y-63.548 Z7.863 I0.021 J-0.6 F600
G1 X-18.384 Y-63.633 Z7.882 F1300
X-18.387 Y-63.72 Z7.9
G3 X-18.27 Y-64.056 I0.6 J0.02
G1 X-16.682 Y-66.205
G3 X-16.219 Y-66.448 I0.482 J0.357
G1 X-16.132 Y-66.445 Z7.882
X-16.047 Y-66.429 Z7.863
G3 X-15.599 Y-65.869 Z7.7 I-0.152 J0.58 F600
G1 X-15.6 Y-64.754 F1300
X-15.609 Y-64.549
X-15.633 Y-64.14
X-15.649 Y-63.935
X-15.69 Y-63.731
X-15.734 Y-63.629
X-15.791 Y-63.526
X-15.823 Y-63.48
X-15.903 Y-63.394
X-15.983 Y-63.322
X-16.028 Y-63.289
X-16.131 Y-63.233
X-16.233 Y-63.19
X-16.438 Y-63.149
X-16.642 Y-63.124
X-16.847 Y-63.106
X-17.052 Y-63.1
X-37.409
X-37.501 Y-63.11 F600
X-37.591 Y-63.135
X-37.655 Y-63.172 Z7.705
X-37.717 Y-63.208 Z7.718
X-37.778 Y-63.244 Z7.741
X-37.828 Y-63.305 Z7.779
X-37.874 Y-63.362 Z7.829
X-37.915 Y-63.412 Z7.888
X-37.935 Y-63.465 Z7.959
X-37.951 Y-63.508 Z8.037
X-37.963 Y-63.539 Z8.121
X-37.971 Y-63.558 Z8.209
X-37.973 Y-63.565 Z8.3
G0 Z20.2
X-47.071 Y76.579
Z8.4
G1 Z7.8 F600
X-47.07 Y76.572 Z7.706
X-47.067 Y76.55 Z7.615
X-47.062 Y76.514 Z7.528
X-47.056 Y76.465 Z7.447
X-47.048 Y76.405 Z7.376
X-47.039 Y76.334 Z7.315
X-47.029 Y76.254 Z7.265
X-47.017 Y76.168 Z7.229
X-47.006 Y76.077 Z7.207
X-46.994 Y75.984 Z7.2
G3 X-46.219 Y72.776 I15.191 J1.969
G1 X-46.191 Y72.704 F1300
X-46.141 Y72.563
X-46.078 Y72.427
X-46.003 Y72.297
X-45.919 Y72.172
X-45.828 Y72.053
X-45.73 Y71.94
X-45.626 Y71.832
X-45.517 Y71.728
X-45.404 Y71.63
X-45.287 Y71.536
X-45.167 Y71.446
X-45.043 Y71.361
X-44.917 Y71.28
X-44.789 Y71.203
X-44.658 Y71.129
X-44.526 Y71.059
X-44.391 Y70.992
X-44.255 Y70.928
X-44.118 Y70.868
X-43.98 Y70.81
X-43.84 Y70.755
X-43.699 Y70.703
X-43.558 Y70.654
X-43.415 Y70.607
X-43.272 Y70.562
X-43.128 Y70.519
X-42.984 Y70.478
X-42.839 Y70.44
X-42.694 Y70.403
X-42.548 Y70.368
X-42.402 Y70.335
X-42.255 Y70.303
X-42.108 Y70.273
X-41.961 Y70.245
X-41.812 Y70.217
X-41.655 Y70.19
X-41.49 Y70.163
X-41.314 Y70.135
X-41.126 Y70.108
X-40.926 Y70.081
X-40.712 Y70.053
X-40.48 Y70.026
X-40.229 Y69.998
X-39.954 Y69.971
X-39.652 Y69.943
X-39.315 Y69.916
X-38.936 Y69.889
X-38.501 Y69.861
X-37.993 Y69.834
X-37.381 Y69.806
X-36.612 Y69.779
X-35.711 Y69.755
X-34.811 Y69.739
X-33.91 Y69.727
X-33.009 Y69.719
X-32.108 Y69.713
X-31.207 Y69.709
X-29.405 Y69.704
X-26.703 Y69.702
X-19.496 Y69.7
X-14.357
X-14.157 Y69.72
X-13.966 Y69.78
X-13.79 Y69.877
X-13.206 Y70.279
X-13.162 Y70.309
X-12.957 Y70.433
X-12.752 Y70.553
X-12.548 Y70.667
X-12.343 Y70.752
X-12.138 Y70.818
X-11.933 Y70.872
X-11.524 Y70.957
X-11.319 Y70.996
X-10.91 Y71.062
X-10.705 Y71.089
X-10.091 Y71.1
X40.275
X40.385 Y71.097
X40.889 Y71.068
X41.094 Y71.039
X41.503 Y70.96
X41.708 Y70.916
X42.118 Y70.819
X42.322 Y70.758
X42.505 Y70.688
X42.732 Y70.575
X42.889 Y70.484
X43.141 Y70.323
X43.346 Y70.186
X43.504 Y70.075
X44.002 Y69.705
X44.023 Y69.686
X44.044 Y69.665
X44.237 Y69.461
X44.37 Y69.298
X44.401 Y69.256
X44.548 Y69.052
X44.822 Y68.642
X44.955 Y68.438
X45.075 Y68.233
X45.174 Y68.029
X45.189 Y67.995
X45.257 Y67.824
X45.393 Y67.333
X45.42 Y67.21
X45.501 Y66.801
X45.54 Y66.596
X45.573 Y66.392
X45.59 Y66.187
X45.598 Y66.075
X45.599 Y65.983
X45.6 Y64.141
Y-65.777
X45.599 Y-65.981
X45.598 Y-66.074
X45.591 Y-66.186
X45.573 Y-66.391
X45.54 Y-66.595
X45.502 Y-66.8
X45.42 Y-67.209
X45.393 Y-67.332
X45.258 Y-67.823
X45.189 Y-67.995
X45.174 Y-68.027
X45.075 Y-68.232
X44.955 Y-68.437
X44.823 Y-68.641
X44.549 Y-69.05
X44.402 Y-69.255
X44.37 Y-69.298
X44.238 Y-69.46
X44.045 Y-69.664
X44.024 Y-69.686
X44.002 Y-69.705
X43.506 Y-70.073
X43.346 Y-70.186
X43.141 Y-70.323
X42.891 Y-70.482
X42.732 Y-70.575
X42.508 Y-70.687
X42.322 Y-70.758
X42.118 Y-70.819
X41.708 Y-70.916
X41.503 Y-70.96
X41.094 Y-71.039
X40.889 Y-71.068
X40.406 Y-71.096
X40.275 Y-71.1
X-10.091
X-10.705 Y-71.089
X-10.91 Y-71.062
X-11.319 Y-70.996
X-11.524 Y-70.957
X-11.933 Y-70.872
X-12.138 Y-70.818
X-12.343 Y-70.752
X-12.794 Y-70.606
X-13.675 Y-70.415
X-14.565 Y-70.281
X-15.461 Y-70.188
X-16.36 Y-70.122
X-17.26 Y-70.077
X-18.16 Y-70.045
X-19.061 Y-70.022
X-19.961 Y-70.007
X-20.862 Y-69.996
X-21.763 Y-69.988
X-22.664 Y-69.983
X-23.565 Y-69.979
X-25.367 Y-69.974
X-28.069 Y-69.971
X-36.177 Y-69.97
X-42.033
X-42.254 Y-69.924
X-42.663 Y-69.736
X-43.356 Y-69.16
X-43.84 Y-68.401
X-44.18 Y-67.566
X-44.417 Y-66.697
X-44.583 Y-65.811
X-44.699 Y-64.918
X-44.781 Y-64.021
X-44.837 Y-63.122
X-44.877 Y-62.222
X-44.905 Y-61.321
X-44.917 Y-60.754
X-44.937 Y-60.579
X-44.987 Y-60.41
X-45.067 Y-60.253
X-45.167 Y-60.048
X-45.251 Y-59.844
X-45.306 Y-59.663
X-45.412 Y-59.23
X-45.456 Y-59.025
X-45.536 Y-58.616
X-45.564 Y-58.411
X-45.592 Y-58.002
X-45.6 Y-57.798
Y57.799
X-45.592 Y58.003
X-45.564 Y58.413
X-45.536 Y58.617
X-45.511 Y58.747
X-45.383 Y59.639
X-45.259 Y60.531
X-45.172 Y61.428
X-45.111 Y62.327
X-45.069 Y63.227
X-45.039 Y64.127
X-45.029 Y64.577
X-45.02 Y65.028
X-44.966 Y65.246
X-44.864 Y65.447
X-44.72 Y65.62
X-44.002 Y66.165
X-43.145 Y66.441
X-42.259 Y66.603
X-41.362 Y66.694
X-40.463 Y66.741
X-39.562 Y66.761
X-38.661 Y66.765
X-37.76 Y66.762
X-36.859 Y66.755
X-35.058 Y66.738
X-34.157 Y66.73
X-33.256 Y66.724
X-32.355 Y66.719
X-30.553 Y66.711
X-28.752 Y66.706
X-26.049 Y66.703
X-20.644 Y66.7
X-17.04
X-16.329 Y66.704
X-16.066 Y66.741
X-15.822 Y66.846
X-15.614 Y67.011
X-15.457 Y67.225
X-15.362 Y67.473
X-15.327 Y67.619
X-15.258 Y67.824
X-15.209 Y67.947
X-15.073 Y68.233
X-15.005 Y68.358
X-14.956 Y68.438
X-14.8 Y68.675
X-14.548 Y69.052
G3 X-14.622 Y69.778 I-0.51 J0.316 F600
G1 X-14.686 Y69.847 Z7.207
X-14.749 Y69.913 Z7.229
X-14.808 Y69.977 Z7.265
X-14.863 Y70.035 Z7.315
X-14.912 Y70.087 Z7.376
X-14.954 Y70.132 Z7.447
X-14.988 Y70.168 Z7.528
X-15.013 Y70.194 Z7.615
X-15.028 Y70.21 Z7.706
X-15.033 Y70.215 Z7.8
G0 Z20.2
X-46.272 Y57.602
Z8.4
G1 Z7.8 F600
X-46.267 Y57.608 Z7.706
X-46.252 Y57.624 Z7.615
X-46.228 Y57.651 Z7.528
X-46.195 Y57.688 Z7.447
X-46.155 Y57.733 Z7.376
X-46.107 Y57.787 Z7.315
X-46.054 Y57.847 Z7.265
X-45.996 Y57.912 Z7.229
X-45.935 Y57.98 Z7.207
X-45.872 Y58.05 Z7.2
G3 X-45.511 Y58.747 I-1.18 J1.054
G1 X-45.456 Y59.026 F1300
X-45.412 Y59.231
X-45.306 Y59.662
X-45.25 Y59.845
X-45.167 Y60.049
X-45.066 Y60.254
X-44.938 Y60.459
X-44.67 Y60.868
X-44.533 Y61.072
X-44.487 Y61.141
X-44.386 Y61.277
X-44.214 Y61.482
X-44.077 Y61.627
X-43.873 Y61.813
X-43.769 Y61.891
X-43.463 Y62.104
X-43.258 Y62.244
X-43.17 Y62.3
X-42.644 Y62.616
X-42.439 Y62.709
X-42.235 Y62.791
X-42.03 Y62.851
X-41.166 Y63.105
X-40.287 Y63.303
X-39.396 Y63.44
X-38.5 Y63.533
X-37.602 Y63.596
X-36.702 Y63.637
X-35.801 Y63.664
X-34.9 Y63.681
X-34 Y63.692
X-33.099 Y63.698
X-32.198 Y63.702
X-31.297 Y63.703
X-29.495 Y63.704
X-20.486 Y63.701
X-18.684
X-17.784 Y63.72
X-17.04 Y63.795
X-16.459 Y63.912
X-16.306 Y63.96
X-16.075 Y64.064
X-15.877 Y64.224
X-15.727 Y64.428
X-15.632 Y64.664
X-15.6 Y64.915
X-15.599 Y65.983
X-15.59 Y66.187
X-15.573 Y66.392
X-15.54 Y66.596
X-15.501 Y66.801
X-15.414 Y67.24
X-15.368 Y67.447
X-15.362 Y67.473
G3 X-15.684 Y68.129 I-0.588 J0.118 F600
G1 X-15.768 Y68.17 Z7.207
X-15.85 Y68.211 Z7.229
X-15.928 Y68.25 Z7.265
X-16 Y68.285 Z7.315
X-16.064 Y68.317 Z7.376
X-16.118 Y68.344 Z7.447
X-16.163 Y68.366 Z7.528
X-16.195 Y68.382 Z7.615
X-16.215 Y68.392 Z7.706
X-16.221 Y68.395 Z7.8
G0 Z20.2
X-43.38 Y63.111
Z8.4
G1 Z7.8 F600
X-43.373 Y63.109 Z7.706
X-43.352 Y63.102 Z7.615
X-43.318 Y63.09 Z7.528
X-43.272 Y63.074 Z7.447
X-43.214 Y63.054 Z7.376
X-43.146 Y63.031 Z7.315
X-43.07 Y63.004 Z7.265
X-42.988 Y62.976 Z7.229
X-42.902 Y62.946 Z7.207
X-42.813 Y62.915 Z7.2
G3 X-42.03 Y62.851 I0.517 J1.496
G1 X-41.416 Y62.978 F1300
X-41.211 Y63.013
X-40.802 Y63.081
X-40.597 Y63.091
X-40.187 Y63.099
X-39.983 Y63.1
X-17.052
X-16.847 Y63.106
X-16.642 Y63.124
X-16.438 Y63.149
X-16.233 Y63.19
X-16.131 Y63.233
X-16.028 Y63.289
X-15.981 Y63.323
X-15.902 Y63.395
X-15.823 Y63.48
X-15.79 Y63.527
X-15.734 Y63.63
X-15.69 Y63.732
X-15.649 Y63.937
X-15.633 Y64.141
X-15.609 Y64.55
X-15.6 Y64.755
Y64.915
G3 X-16.065 Y65.479 I-0.6 J-0.021 F600
G1 X-16.156 Y65.5 Z7.207
X-16.245 Y65.521 Z7.229
X-16.33 Y65.54 Z7.265
X-16.408 Y65.558 Z7.315
X-16.478 Y65.574 Z7.376
X-16.538 Y65.588 Z7.447
X-16.586 Y65.599 Z7.528
X-16.621 Y65.607 Z7.615
X-16.642 Y65.612 Z7.706
X-16.649 Y65.614 Z7.8
G0 Z20.2
X-11.372 Y-71.725
Z8.4
G1 Z7.8 F600
X-11.376 Y-71.719 Z7.706
X-11.389 Y-71.701 Z7.615
X-11.411 Y-71.672 Z7.528
X-11.44 Y-71.633 Z7.447
X-11.477 Y-71.584 Z7.376
X-11.52 Y-71.527 Z7.315
X-11.568 Y-71.462 Z7.265
X-11.62 Y-71.393 Z7.229
X-11.675 Y-71.319 Z7.207
X-11.731 Y-71.244 Z7.2
G3 X-12.343 Y-70.752 I-1.267 J-0.948
G1 X-12.548 Y-70.667 F1300
X-12.752 Y-70.553
X-12.957 Y-70.433
X-13.162 Y-70.309
X-13.571 Y-70.027
X-13.801 Y-69.869
X-13.981 Y-69.724
X-14.186 Y-69.519
X-14.241 Y-69.46
X-14.39 Y-69.276
X-14.533 Y-69.118
X-14.81 Y-68.866
X-15.168 Y-68.599
X-15.638 Y-68.318
X-16.259 Y-68.025
X-17.106 Y-67.725
X-17.98 Y-67.509
X-18.868 Y-67.354
X-19.762 Y-67.244
X-20.66 Y-67.165
X-21.559 Y-67.109
X-22.459 Y-67.069
X-23.359 Y-67.041
X-24.26 Y-67.02
X-25.161 Y-67.006
X-26.061 Y-66.995
X-26.962 Y-66.988
X-27.863 Y-66.983
X-28.764 Y-66.979
X-30.566 Y-66.975
X-33.268 Y-66.972
X-38.674 Y-66.97
X-39.098 Y-66.82
X-39.86 Y-66.339
X-40.433 Y-65.643
X-40.855 Y-64.848
X-41.164 Y-64.001
X-41.274 Y-63.573
X-41.352 Y-63.367
X-41.473 Y-63.184
X-41.632 Y-63.032
X-41.821 Y-62.919
X-42.03 Y-62.851
X-42.235 Y-62.791
X-42.444 Y-62.708
X-42.644 Y-62.616
X-43.172 Y-62.299
X-43.258 Y-62.244
X-43.478 Y-62.094
X-43.771 Y-61.889
X-43.873 Y-61.813
X-44.077 Y-61.627
X-44.215 Y-61.48
X-44.387 Y-61.276
X-44.487 Y-61.141
X-44.534 Y-61.071
X-44.692 Y-60.835
X-44.939 Y-60.457
X-45.067 Y-60.253
G3 X-45.759 Y-60.02 I-0.498 J-0.335 F600
G1 X-45.848 Y-60.05 Z7.207
X-45.934 Y-60.08 Z7.229
X-46.017 Y-60.108 Z7.265
X-46.093 Y-60.134 Z7.315
X-46.16 Y-60.158 Z7.376
X-46.218 Y-60.177 Z7.447
X-46.265 Y-60.193 Z7.528
X-46.299 Y-60.205 Z7.615
X-46.32 Y-60.212 Z7.706
X-46.327 Y-60.215 Z7.8
G0 Z20.2
X-13.998 Y-70.594
Z8.4
G1 Z7.8 F600
X-14 Y-70.586 Z7.706
X-14.003 Y-70.565 Z7.615
X-14.008 Y-70.529 Z7.528
X-14.015 Y-70.48 Z7.447
X-14.024 Y-70.42 Z7.376
X-14.035 Y-70.349 Z7.315
X-14.046 Y-70.27 Z7.265
X-14.059 Y-70.184 Z7.229
X-14.073 Y-70.093 Z7.207
X-14.086 Y-70 Z7.2
G3 X-14.39 Y-69.276 I-1.566 J-0.231
G1 X-14.407 Y-69.255 F1300
X-14.549 Y-69.05
X-14.823 Y-68.641
X-14.957 Y-68.437
X-15.005 Y-68.358
X-15.074 Y-68.232
X-15.209 Y-67.946
X-15.258 Y-67.823
X-15.327 Y-67.618
X-15.375 Y-67.476
X-15.481 Y-67.247
X-15.633 Y-66.988
X-15.824 Y-66.727
X-16.084 Y-66.436
X-16.411 Y-66.136
X-16.839 Y-65.816
X-17.373 Y-65.493
X-18.077 Y-65.159
X-18.925 Y-64.854
X-19.796 Y-64.626
X-20.681 Y-64.456
X-21.573 Y-64.329
X-22.469 Y-64.235
X-23.367 Y-64.165
X-24.266 Y-64.113
X-25.167 Y-64.075
X-26.067 Y-64.047
X-26.968 Y-64.026
X-27.868 Y-64.011
X-28.769 Y-64
X-29.67 Y-63.992
X-30.571 Y-63.986
X-31.472 Y-63.982
X-33.274 Y-63.976
X-35.075 Y-63.973
X-35.524 Y-63.933
X-36.371 Y-63.627
X-36.811 Y-63.299
X-36.994 Y-63.19
X-37.197 Y-63.123
X-37.409 Y-63.1
X-39.983
X-40.187 Y-63.099
X-40.597 Y-63.091
X-40.802 Y-63.081
X-41.211 Y-63.013
X-41.416 Y-62.978
X-42.03 Y-62.851
G3 X-42.676 Y-63.192 I-0.101 J-0.591 F600
G1 X-42.715 Y-63.277 Z7.207
X-42.754 Y-63.361 Z7.229
X-42.79 Y-63.44 Z7.265
X-42.823 Y-63.513 Z7.315
X-42.853 Y-63.578 Z7.376
X-42.879 Y-63.633 Z7.447
X-42.899 Y-63.678 Z7.528
X-42.914 Y-63.711 Z7.615
X-42.924 Y-63.731 Z7.706
X-42.927 Y-63.737 Z7.8
G0 Z20.2
X-15.548 Y-68.975
Z8.4
G1 Z7.8 F600
X-15.546 Y-68.968 Z7.706
X-15.539 Y-68.947 Z7.615
X-15.529 Y-68.913 Z7.528
X-15.514 Y-68.866 Z7.447
X-15.496 Y-68.807 Z7.376
X-15.474 Y-68.739 Z7.315
X-15.45 Y-68.662 Z7.265
X-15.424 Y-68.579 Z7.229
X-15.397 Y-68.492 Z7.207
X-15.369 Y-68.402 Z7.2
G3 X-15.327 Y-67.618 I-1.51 J0.473
G1 X-15.376 Y-67.414 F1300
X-15.414 Y-67.24
X-15.502 Y-66.8
X-15.54 Y-66.595
X-15.573 Y-66.391
X-15.591 Y-66.186
X-15.599 Y-65.981
Y-65.869
X-15.607 Y-65.719
X-15.646 Y-65.496
X-15.72 Y-65.233
X-15.826 Y-64.962
X-15.976 Y-64.667
X-16.19 Y-64.334
X-16.447 Y-64.01
X-16.798 Y-63.648
X-17.219 Y-63.292
X-17.242 Y-63.276
X-17.417 Y-63.18
X-17.609 Y-63.12
X-17.809 Y-63.1
G3 X-18.368 Y-63.548 Z7.363 I0.021 J-0.6 F600
G1 X-18.384 Y-63.633 Z7.382 F1300
X-18.387 Y-63.72 Z7.4
G3 X-18.27 Y-64.056 I0.6 J0.02
G1 X-16.682 Y-66.205
G3 X-16.219 Y-66.448 I0.482 J0.357
G1 X-16.132 Y-66.445 Z7.382
X-16.047 Y-66.429 Z7.363
G3 X-15.599 Y-65.869 Z7.2 I-0.152 J0.58 F600
G1 X-15.6 Y-64.754 F1300
X-15.609 Y-64.549
X-15.633 Y-64.14
X-15.649 Y-63.935
X-15.69 Y-63.731
X-15.734 Y-63.629
X-15.791 Y-63.526
X-15.823 Y-63.48
X-15.903 Y-63.394
X-15.983 Y-63.322
X-16.028 Y-63.289
X-16.131 Y-63.233
X-16.233 Y-63.19
X-16.438 Y-63.149
X-16.642 Y-63.124
X-16.847 Y-63.106
X-17.052 Y-63.1
X-37.409
X-37.501 Y-63.11 F600
X-37.591 Y-63.135
X-37.655 Y-63.172 Z7.205
X-37.717 Y-63.208 Z7.218
X-37.778 Y-63.244 Z7.241
X-37.828 Y-63.305 Z7.279
X-37.874 Y-63.362 Z7.329
X-37.915 Y-63.412 Z7.388
X-37.935 Y-63.465 Z7.459
X-37.951 Y-63.508 Z7.537
X-37.963 Y-63.539 Z7.621
X-37.971 Y-63.558 Z7.709
X-37.973 Y-63.565 Z7.8
G0 Z20.2
X-47.071 Y76.579
Z7.9
G1 Z7.3 F600
X-47.07 Y76.572 Z7.206
X-47.067 Y76.55 Z7.115
X-47.062 Y76.514 Z7.028
X-47.056 Y76.465 Z6.947
X-47.048 Y76.405 Z6.876
X-47.039 Y76.334 Z6.815
X-47.029 Y76.254 Z6.765
X-47.017 Y76.168 Z6.729
X-47.006 Y76.077 Z6.707
X-46.994 Y75.984 Z6.7
G3 X-46.219 Y72.776 I15.191 J1.969
G1 X-46.191 Y72.704 F1300
X-46.141 Y72.563
X-46.078 Y72.427
X-46.003 Y72.297
X-45.919 Y72.172
X-45.828 Y72.053
X-45.73 Y71.94
X-45.626 Y71.832
X-45.517 Y71.728
X-45.404 Y71.63
X-45.287 Y71.536
X-45.167 Y71.446
X-45.043 Y71.361
X-44.917 Y71.28
X-44.789 Y71.203
X-44.658 Y71.129
X-44.526 Y71.059
X-44.391 Y70.992
X-44.255 Y70.928
X-44.118 Y70.868
X-43.98 Y70.81
X-43.84 Y70.755
X-43.699 Y70.703
X-43.558 Y70.654
X-43.415 Y70.607
X-43.272 Y70.562
X-43.128 Y70.519
X-42.984 Y70.478
X-42.839 Y70.44
X-42.694 Y70.403
X-42.548 Y70.368
X-42.402 Y70.335
X-42.255 Y70.303
X-42.108 Y70.273
X-41.961 Y70.245
X-41.812 Y70.217
X-41.655 Y70.19
X-41.49 Y70.163
X-41.314 Y70.135
X-41.126 Y70.108
X-40.926 Y70.081
X-40.712 Y70.053
X-40.48 Y70.026
X-40.229 Y69.998
X-39.954 Y69.971
X-39.652 Y69.943
X-39.315 Y69.916
X-38.936 Y69.889
X-38.501 Y69.861
X-37.993 Y69.834
X-37.381 Y69.806
X-36.612 Y69.779
X-35.711 Y69.755
X-34.811 Y69.739
X-33.91 Y69.727
X-33.009 Y69.719
X-32.108 Y69.713
X-31.207 Y69.709
X-29.405 Y69.704
X-26.703 Y69.702
X-19.496 Y69.7
X-14.357
X-14.157 Y69.72
X-13.966 Y69.78
X-13.79 Y69.877
X-13.206 Y70.279
X-13.162 Y70.309
X-12.957 Y70.433
X-12.752 Y70.553
X-12.548 Y70.667
X-12.343 Y70.752
X-12.138 Y70.818
X-11.933 Y70.872
X-11.524 Y70.957
X-11.319 Y70.996
X-10.91 Y71.062
X-10.705 Y71.089
X-10.091 Y71.1
X40.275
X40.385 Y71.097
X40.889 Y71.068
X41.094 Y71.039
X41.503 Y70.96
X41.708 Y70.916
X42.118 Y70.819
X42.322 Y70.758
X42.505 Y70.688
X42.732 Y70.575
X42.889 Y70.484
X43.141 Y70.323
X43.346 Y70.186
X43.504 Y70.075
X44.002 Y69.705
X44.023 Y69.686
X44.044 Y69.665
X44.237 Y69.461
X44.37 Y69.298
X44.401 Y69.256
X44.548 Y69.052
X44.822 Y68.642
X44.955 Y68.438
X45.075 Y68.233
X45.174 Y68.029
X45.189 Y67.995
X45.257 Y67.824
X45.393 Y67.333
X45.42 Y67.21
X45.501 Y66.801
X45.54 Y66.596
X45.573 Y66.392
X45.59 Y66.187
X45.598 Y66.075
X45.599 Y65.983
X45.6 Y64.141
Y-65.777
X45.599 Y-65.981
X45.598 Y-66.074
X45.591 Y-66.186
X45.573 Y-66.391
X45.54 Y-66.595
X45.502 Y-66.8
X45.42 Y-67.209
X45.393 Y-67.332
X45.258 Y-67.823
X45.189 Y-67.995
X45.174 Y-68.027
X45.075 Y-68.232
X44.955 Y-68.437
X44.823 Y-68.641
X44.549 Y-69.05
X44.402 Y-69.255
X44.37 Y-69.298
X44.238 Y-69.46
X44.045 Y-69.664
X44.024 Y-69.686
X44.002 Y-69.705
X43.506 Y-70.073
X43.346 Y-70.186
X43.141 Y-70.323
X42.891 Y-70.482
X42.732 Y-70.575
X42.508 Y-70.687
X42.322 Y-70.758
X42.118 Y-70.819
X41.708 Y-70.916
X41.503 Y-70.96
X41.094 Y-71.039
X40.889 Y-71.068
X40.406 Y-71.096
X40.275 Y-71.1
X-10.091
X-10.705 Y-71.089
X-10.91 Y-71.062
X-11.319 Y-70.996
X-11.524 Y-70.957
X-11.933 Y-70.872
X-12.138 Y-70.818
X-12.343 Y-70.752
X-12.794 Y-70.606
X-13.675 Y-70.415
X-14.565 Y-70.281
X-15.461 Y-70.188
X-16.36 Y-70.122
X-17.26 Y-70.077
X-18.16 Y-70.045
X-19.061 Y-70.022
X-19.961 Y-70.007
X-20.862 Y-69.996
X-21.763 Y-69.988
X-22.664 Y-69.983
X-23.565 Y-69.979
X-25.367 Y-69.974
X-28.069 Y-69.971
X-36.177 Y-69.97
X-42.033
X-42.254 Y-69.924
X-42.663 Y-69.736
X-43.356 Y-69.16
X-43.84 Y-68.401
X-44.18 Y-67.566
X-44.417 Y-66.697
X-44.583 Y-65.811
X-44.699 Y-64.918
X-44.781 Y-64.021
X-44.837 Y-63.122
X-44.877 Y-62.222
X-44.905 Y-61.321
X-44.917 Y-60.754
X-44.937 Y-60.579
X-44.987 Y-60.41
X-45.067 Y-60.253
X-45.167 Y-60.048
X-45.251 Y-59.844
X-45.306 Y-59.663
X-45.412 Y-59.23
X-45.456 Y-59.025
X-45.536 Y-58.616
X-45.564 Y-58.411
X-45.592 Y-58.002
X-45.6 Y-57.798
Y57.799
X-45.592 Y58.003
X-45.564 Y58.413
X-45.536 Y58.617
X-45.511 Y58.747
X-45.383 Y59.639
X-45.259 Y60.531
X-45.172 Y61.428
X-45.111 Y62.327
X-45.069 Y63.227
X-45.039 Y64.127
X-45.029 Y64.577
X-45.02 Y65.028
X-44.966 Y65.246
X-44.864 Y65.447
X-44.72 Y65.62
X-44.002 Y66.165
X-43.145 Y66.441
X-42.259 Y66.603
X-41.362 Y66.694
X-40.463 Y66.741
X-39.562 Y66.761
X-38.661 Y66.765
X-37.76 Y66.762
X-36.859 Y66.755
X-35.058 Y66.738
X-34.157 Y66.73
X-33.256 Y66.724
X-32.355 Y66.719
X-30.553 Y66.711
X-28.752 Y66.706
X-26.049 Y66.703
X-20.644 Y66.7
X-17.04
X-16.329 Y66.704
X-16.066 Y66.741
X-15.822 Y66.846
X-15.614 Y67.011
X-15.457 Y67.225
X-15.362 Y67.473
X-15.327 Y67.619
X-15.258 Y67.824
X-15.209 Y67.947
X-15.073 Y68.233
X-15.005 Y68.358
X-14.956 Y68.438
X-14.8 Y68.675
X-14.548 Y69.052
G3 X-14.622 Y69.778 I-0.51 J0.316 F600
G1 X-14.686 Y69.847 Z6.707
X-14.749 Y69.913 Z6.729
X-14.808 Y69.977 Z6.765
X-14.863 Y70.035 Z6.815
X-14.912 Y70.087 Z6.876
X-14.954 Y70.132 Z6.947
X-14.988 Y70.168 Z7.028
X-15.013 Y70.194 Z7.115
X-15.028 Y70.21 Z7.206
X-15.033 Y70.215 Z7.3
G0 Z20.2
X-46.272 Y57.602
Z7.9
G1 Z7.3 F600
X-46.267 Y57.608 Z7.206
X-46.252 Y57.624 Z7.115
X-46.228 Y57.651 Z7.028
X-46.195 Y57.688 Z6.947
X-46.155 Y57.733 Z6.876
X-46.107 Y57.787 Z6.815
X-46.054 Y57.847 Z6.765
X-45.996 Y57.912 Z6.729
X-45.935 Y57.98 Z6.707
X-45.872 Y58.05 Z6.7
G3 X-45.511 Y58.747 I-1.18 J1.054
G1 X-45.456 Y59.026 F1300
X-45.412 Y59.231
X-45.306 Y59.662
X-45.25 Y59.845
X-45.167 Y60.049
X-45.066 Y60.254
X-44.938 Y60.459
X-44.67 Y60.868
X-44.533 Y61.072
X-44.487 Y61.141
X-44.386 Y61.277
X-44.214 Y61.482
X-44.077 Y61.627
X-43.873 Y61.813
X-43.769 Y61.891
X-43.463 Y62.104
X-43.258 Y62.244
X-43.17 Y62.3
X-42.644 Y62.616
X-42.439 Y62.709
X-42.235 Y62.791
X-42.03 Y62.851
X-41.166 Y63.105
X-40.287 Y63.303
X-39.396 Y63.44
X-38.5 Y63.533
X-37.602 Y63.596
X-36.702 Y63.637
X-35.801 Y63.664
X-34.9 Y63.681
X-34 Y63.692
X-33.099 Y63.698
X-32.198 Y63.702
X-31.297 Y63.703
X-29.495 Y63.704
X-20.486 Y63.701
X-18.684
X-17.784 Y63.72
X-17.04 Y63.795
X-16.459 Y63.912
X-16.306 Y63.96
X-16.075 Y64.064
X-15.877 Y64.224
X-15.727 Y64.428
X-15.632 Y64.664
X-15.6 Y64.915
X-15.599 Y65.983
X-15.59 Y66.187
X-15.573 Y66.392
X-15.54 Y66.596
X-15.501 Y66.801
X-15.414 Y67.24
X-15.368 Y67.447
X-15.362 Y67.473
G3 X-15.684 Y68.129 I-0.588 J0.118 F600
G1 X-15.768 Y68.17 Z6.707
X-15.85 Y68.211 Z6.729
X-15.928 Y68.25 Z6.765
X-16 Y68.285 Z6.815
X-16.064 Y68.317 Z6.876
X-16.118 Y68.344 Z6.947
X-16.163 Y68.366 Z7.028
X-16.195 Y68.382 Z7.115
X-16.215 Y68.392 Z7.206
X-16.221 Y68.395 Z7.3
G0 Z20.2
X-43.38 Y63.111
Z7.9
G1 Z7.3 F600
X-43.373 Y63.109 Z7.206
X-43.352 Y63.102 Z7.115
X-43.318 Y63.09 Z7.028
X-43.272 Y63.074 Z6.947
X-43.214 Y63.054 Z6.876
X-43.146 Y63.031 Z6.815
X-43.07 Y63.004 Z6.765
X-42.988 Y62.976 Z6.729
X-42.902 Y62.946 Z6.707
X-42.813 Y62.915 Z6.7
G3 X-42.03 Y62.851 I0.517 J1.496
G1 X-41.416 Y62.978 F1300
X-41.211 Y63.013
X-40.802 Y63.081
X-40.597 Y63.091
X-40.187 Y63.099
X-39.983 Y63.1
X-17.052
X-16.847 Y63.106
X-16.642 Y63.124
X-16.438 Y63.149
X-16.233 Y63.19
X-16.131 Y63.233
X-16.028 Y63.289
X-15.981 Y63.323
X-15.902 Y63.395
X-15.823 Y63.48
X-15.79 Y63.527
X-15.734 Y63.63
X-15.69 Y63.732
X-15.649 Y63.937
X-15.633 Y64.141
X-15.609 Y64.55
X-15.6 Y64.755
Y64.915
G3 X-16.065 Y65.479 I-0.6 J-0.021 F600
G1 X-16.156 Y65.5 Z6.707
X-16.245 Y65.521 Z6.729
X-16.33 Y65.54 Z6.765
X-16.408 Y65.558 Z6.815
X-16.478 Y65.574 Z6.876
X-16.538 Y65.588 Z6.947
X-16.586 Y65.599 Z7.028
X-16.621 Y65.607 Z7.115
X-16.642 Y65.612 Z7.206
X-16.649 Y65.614 Z7.3
G0 Z20.2
X-11.372 Y-71.725
Z7.9
G1 Z7.3 F600
X-11.376 Y-71.719 Z7.206
X-11.389 Y-71.701 Z7.115
X-11.411 Y-71.672 Z7.028
X-11.44 Y-71.633 Z6.947
X-11.477 Y-71.584 Z6.876
X-11.52 Y-71.527 Z6.815
X-11.568 Y-71.462 Z6.765
X-11.62 Y-71.393 Z6.729
X-11.675 Y-71.319 Z6.707
X-11.731 Y-71.244 Z6.7
G3 X-12.343 Y-70.752 I-1.267 J-0.948
G1 X-12.548 Y-70.667 F1300
X-12.752 Y-70.553
X-12.957 Y-70.433
X-13.162 Y-70.309
X-13.571 Y-70.027
X-13.801 Y-69.869
X-13.981 Y-69.724
X-14.186 Y-69.519
X-14.241 Y-69.46
X-14.39 Y-69.276
X-14.533 Y-69.118
X-14.81 Y-68.866
X-15.168 Y-68.599
X-15.638 Y-68.318
X-16.259 Y-68.025
X-17.106 Y-67.725
X-17.98 Y-67.509
X-18.868 Y-67.354
X-19.762 Y-67.244
X-20.66 Y-67.165
X-21.559 Y-67.109
X-22.459 Y-67.069
X-23.359 Y-67.041
X-24.26 Y-67.02
X-25.161 Y-67.006
X-26.061 Y-66.995
X-26.962 Y-66.988
X-27.863 Y-66.983
X-28.764 Y-66.979
X-30.566 Y-66.975
X-33.268 Y-66.972
X-38.674 Y-66.97
X-39.098 Y-66.82
X-39.86 Y-66.339
X-40.433 Y-65.643
X-40.855 Y-64.848
X-41.164 Y-64.001
X-41.274 Y-63.573
X-41.352 Y-63.367
X-41.473 Y-63.184
X-41.632 Y-63.032
X-41.821 Y-62.919
X-42.03 Y-62.851
X-42.235 Y-62.791
X-42.444 Y-62.708
X-42.644 Y-62.616
X-43.172 Y-62.299
X-43.258 Y-62.244
X-43.478 Y-62.094
X-43.771 Y-61.889
X-43.873 Y-61.813
X-44.077 Y-61.627
X-44.215 Y-61.48
X-44.387 Y-61.276
X-44.487 Y-61.141
X-44.534 Y-61.071
X-44.692 Y-60.835
X-44.939 Y-60.457
X-45.067 Y-60.253
G3 X-45.759 Y-60.02 I-0.498 J-0.335 F600
G1 X-45.848 Y-60.05 Z6.707
X-45.934 Y-60.08 Z6.729
X-46.017 Y-60.108 Z6.765
X-46.093 Y-60.134 Z6.815
X-46.16 Y-60.158 Z6.876
X-46.218 Y-60.177 Z6.947
X-46.265 Y-60.193 Z7.028
X-46.299 Y-60.205 Z7.115
X-46.32 Y-60.212 Z7.206
X-46.327 Y-60.215 Z7.3
G0 Z20.2
X-13.998 Y-70.594
Z7.9
G1 Z7.3 F600
X-14 Y-70.586 Z7.206
X-14.003 Y-70.565 Z7.115
X-14.008 Y-70.529 Z7.028
X-14.015 Y-70.48 Z6.947
X-14.024 Y-70.42 Z6.876
X-14.035 Y-70.349 Z6.815
X-14.046 Y-70.27 Z6.765
X-14.059 Y-70.184 Z6.729
X-14.073 Y-70.093 Z6.707
X-14.086 Y-70 Z6.7
G3 X-14.39 Y-69.276 I-1.566 J-0.231
G1 X-14.407 Y-69.255 F1300
X-14.549 Y-69.05
X-14.823 Y-68.641
X-14.957 Y-68.437
X-15.005 Y-68.358
X-15.074 Y-68.232
X-15.209 Y-67.946
X-15.258 Y-67.823
X-15.327 Y-67.618
X-15.375 Y-67.476
X-15.481 Y-67.247
X-15.633 Y-66.988
X-15.824 Y-66.727
X-16.084 Y-66.436
X-16.411 Y-66.136
X-16.839 Y-65.816
X-17.373 Y-65.493
X-18.077 Y-65.159
X-18.925 Y-64.854
X-19.796 Y-64.626
X-20.681 Y-64.456
X-21.573 Y-64.329
X-22.469 Y-64.235
X-23.367 Y-64.165
X-24.266 Y-64.113
X-25.167 Y-64.075
X-26.067 Y-64.047
X-26.968 Y-64.026
X-27.868 Y-64.011
X-28.769 Y-64
X-29.67 Y-63.992
X-30.571 Y-63.986
X-31.472 Y-63.982
X-33.274 Y-63.976
X-35.075 Y-63.973
X-35.524 Y-63.933
X-36.371 Y-63.627
X-36.811 Y-63.299
X-36.994 Y-63.19
X-37.197 Y-63.123
X-37.409 Y-63.1
X-39.983
X-40.187 Y-63.099
X-40.597 Y-63.091
X-40.802 Y-63.081
X-41.211 Y-63.013
X-41.416 Y-62.978
X-42.03 Y-62.851
G3 X-42.676 Y-63.192 I-0.101 J-0.591 F600
G1 X-42.715 Y-63.277 Z6.707
X-42.754 Y-63.361 Z6.729
X-42.79 Y-63.44 Z6.765
X-42.823 Y-63.513 Z6.815
X-42.853 Y-63.578 Z6.876
X-42.879 Y-63.633 Z6.947
X-42.899 Y-63.678 Z7.028
X-42.914 Y-63.711 Z7.115
X-42.924 Y-63.731 Z7.206
X-42.927 Y-63.737 Z7.3
G0 Z20.2
X-15.548 Y-68.975
Z7.9
G1 Z7.3 F600
X-15.546 Y-68.968 Z7.206
X-15.539 Y-68.947 Z7.115
X-15.529 Y-68.913 Z7.028
X-15.514 Y-68.866 Z6.947
X-15.496 Y-68.807 Z6.876
X-15.474 Y-68.739 Z6.815
X-15.45 Y-68.662 Z6.765
X-15.424 Y-68.579 Z6.729
X-15.397 Y-68.492 Z6.707
X-15.369 Y-68.402 Z6.7
G3 X-15.327 Y-67.618 I-1.51 J0.473
G1 X-15.376 Y-67.414 F1300
X-15.414 Y-67.24
X-15.502 Y-66.8
X-15.54 Y-66.595
X-15.573 Y-66.391
X-15.591 Y-66.186
X-15.599 Y-65.981
Y-65.869
X-15.607 Y-65.719
X-15.646 Y-65.496
X-15.72 Y-65.233
X-15.826 Y-64.962
X-15.976 Y-64.667
X-16.19 Y-64.334
X-16.447 Y-64.01
X-16.798 Y-63.648
X-17.219 Y-63.292
X-17.242 Y-63.276
X-17.417 Y-63.18
X-17.609 Y-63.12
X-17.809 Y-63.1
G3 X-18.368 Y-63.548 Z6.863 I0.021 J-0.6 F600
G1 X-18.384 Y-63.633 Z6.882 F1300
X-18.387 Y-63.72 Z6.9
G3 X-18.27 Y-64.056 I0.6 J0.02
G1 X-16.682 Y-66.205
G3 X-16.219 Y-66.448 I0.482 J0.357
G1 X-16.132 Y-66.445 Z6.882
X-16.047 Y-66.429 Z6.863
G3 X-15.599 Y-65.869 Z6.7 I-0.152 J0.58 F600
G1 X-15.6 Y-64.754 F1300
X-15.609 Y-64.549
X-15.633 Y-64.14
X-15.649 Y-63.935
X-15.69 Y-63.731
X-15.734 Y-63.629
X-15.791 Y-63.526
X-15.823 Y-63.48
X-15.903 Y-63.394
X-15.983 Y-63.322
X-16.028 Y-63.289
X-16.131 Y-63.233
X-16.233 Y-63.19
X-16.438 Y-63.149
X-16.642 Y-63.124
X-16.847 Y-63.106
X-17.052 Y-63.1
X-37.409
X-37.501 Y-63.11 F600
X-37.591 Y-63.135
X-37.655 Y-63.172 Z6.705
X-37.717 Y-63.208 Z6.718
X-37.778 Y-63.244 Z6.741
X-37.828 Y-63.305 Z6.779
X-37.874 Y-63.362 Z6.829
X-37.915 Y-63.412 Z6.888
X-37.935 Y-63.465 Z6.959
X-37.951 Y-63.508 Z7.037
X-37.963 Y-63.539 Z7.121
X-37.971 Y-63.558 Z7.209
X-37.973 Y-63.565 Z7.3
G0 Z20.2
X-47.071 Y76.579
Z7.4
G1 Z6.8 F600
X-47.07 Y76.572 Z6.706
X-47.067 Y76.55 Z6.615
X-47.062 Y76.514 Z6.528
X-47.056 Y76.465 Z6.447
X-47.048 Y76.405 Z6.376
X-47.039 Y76.334 Z6.315
X-47.029 Y76.254 Z6.265
X-47.017 Y76.168 Z6.229
X-47.006 Y76.077 Z6.207
X-46.994 Y75.984 Z6.2
G3 X-46.219 Y72.776 I15.191 J1.969
G1 X-46.191 Y72.704 F1300
X-46.141 Y72.563
X-46.078 Y72.427
X-46.003 Y72.297
X-45.919 Y72.172
X-45.828 Y72.053
X-45.73 Y71.94
X-45.626 Y71.832
X-45.517 Y71.728
X-45.404 Y71.63
X-45.287 Y71.536
X-45.167 Y71.446
X-45.043 Y71.361
X-44.917 Y71.28
X-44.789 Y71.203
X-44.658 Y71.129
X-44.526 Y71.059
X-44.391 Y70.992
X-44.255 Y70.928
X-44.118 Y70.868
X-43.98 Y70.81
X-43.84 Y70.755
X-43.699 Y70.703
X-43.558 Y70.654
X-43.415 Y70.607
X-43.272 Y70.562
X-43.128 Y70.519
X-42.984 Y70.478
X-42.839 Y70.44
X-42.694 Y70.403
X-42.548 Y70.368
X-42.402 Y70.335
X-42.255 Y70.303
X-42.108 Y70.273
X-41.961 Y70.245
X-41.812 Y70.217
X-41.655 Y70.19
X-41.49 Y70.163
X-41.314 Y70.135
X-41.126 Y70.108
X-40.926 Y70.081
X-40.712 Y70.053
X-40.48 Y70.026
X-40.229 Y69.998
X-39.954 Y69.971
X-39.652 Y69.943
X-39.315 Y69.916
X-38.936 Y69.889
X-38.501 Y69.861
X-37.993 Y69.834
X-37.381 Y69.806
X-36.612 Y69.779
X-35.711 Y69.755
X-34.811 Y69.739
X-33.91 Y69.727
X-33.009 Y69.719
X-32.108 Y69.713
X-31.207 Y69.709
X-29.405 Y69.704
X-26.703 Y69.702
X-19.496 Y69.7
X-14.357
X-14.157 Y69.72
X-13.966 Y69.78
X-13.79 Y69.877
X-13.206 Y70.279
X-13.162 Y70.309
X-12.957 Y70.433
X-12.752 Y70.553
X-12.548 Y70.667
X-12.343 Y70.752
X-12.138 Y70.818
X-11.933 Y70.872
X-11.524 Y70.957
X-11.319 Y70.996
X-10.91 Y71.062
X-10.705 Y71.089
X-10.091 Y71.1
X40.275
X40.385 Y71.097
X40.889 Y71.068
X41.094 Y71.039
X41.503 Y70.96
X41.708 Y70.916
X42.118 Y70.819
X42.322 Y70.758
X42.505 Y70.688
X42.732 Y70.575
X42.889 Y70.484
X43.141 Y70.323
X43.346 Y70.186
X43.504 Y70.075
X44.002 Y69.705
X44.023 Y69.686
X44.044 Y69.665
X44.237 Y69.461
X44.37 Y69.298
X44.401 Y69.256
X44.548 Y69.052
X44.822 Y68.642
X44.955 Y68.438
X45.075 Y68.233
X45.174 Y68.029
X45.189 Y67.995
X45.257 Y67.824
X45.393 Y67.333
X45.42 Y67.21
X45.501 Y66.801
X45.54 Y66.596
X45.573 Y66.392
X45.59 Y66.187
X45.598 Y66.075
X45.599 Y65.983
X45.6 Y64.141
Y-65.777
X45.599 Y-65.981
X45.598 Y-66.074
X45.591 Y-66.186
X45.573 Y-66.391
X45.54 Y-66.595
X45.502 Y-66.8
X45.42 Y-67.209
X45.393 Y-67.332
X45.258 Y-67.823
X45.189 Y-67.995
X45.174 Y-68.027
X45.075 Y-68.232
X44.955 Y-68.437
X44.823 Y-68.641
X44.549 Y-69.05
X44.402 Y-69.255
X44.37 Y-69.298
X44.238 Y-69.46
X44.045 Y-69.664
X44.024 Y-69.686
X44.002 Y-69.705
X43.506 Y-70.073
X43.346 Y-70.186
X43.141 Y-70.323
X42.891 Y-70.482
X42.732 Y-70.575
X42.508 Y-70.687
X42.322 Y-70.758
X42.118 Y-70.819
X41.708 Y-70.916
X41.503 Y-70.96
X41.094 Y-71.039
X40.889 Y-71.068
X40.406 Y-71.096
X40.275 Y-71.1
X-10.091
X-10.705 Y-71.089
X-10.91 Y-71.062
X-11.319 Y-70.996
X-11.524 Y-70.957
X-11.933 Y-70.872
X-12.138 Y-70.818
X-12.343 Y-70.752
X-12.794 Y-70.606
X-13.675 Y-70.415
X-14.565 Y-70.281
X-15.461 Y-70.188
X-16.36 Y-70.122
X-17.26 Y-70.077
X-18.16 Y-70.045
X-19.061 Y-70.022
X-19.961 Y-70.007
X-20.862 Y-69.996
X-21.763 Y-69.988
X-22.664 Y-69.983
X-23.565 Y-69.979
X-25.367 Y-69.974
X-28.069 Y-69.971
X-36.177 Y-69.97
X-42.033
X-42.254 Y-69.924
X-42.663 Y-69.736
X-43.356 Y-69.16
X-43.84 Y-68.401
X-44.18 Y-67.566
X-44.417 Y-66.697
X-44.583 Y-65.811
X-44.699 Y-64.918
X-44.781 Y-64.021
X-44.837 Y-63.122
X-44.877 Y-62.222
X-44.905 Y-61.321
X-44.917 Y-60.754
X-44.937 Y-60.579
X-44.987 Y-60.41
X-45.067 Y-60.253
X-45.167 Y-60.048
X-45.251 Y-59.844
X-45.306 Y-59.663
X-45.412 Y-59.23
X-45.456 Y-59.025
X-45.536 Y-58.616
X-45.564 Y-58.411
X-45.592 Y-58.002
X-45.6 Y-57.798
Y57.799
X-45.592 Y58.003
X-45.564 Y58.413
X-45.536 Y58.617
X-45.511 Y58.747
X-45.383 Y59.639
X-45.259 Y60.531
X-45.172 Y61.428
X-45.111 Y62.327
X-45.069 Y63.227
X-45.039 Y64.127
X-45.029 Y64.577
X-45.02 Y65.028
X-44.966 Y65.246
X-44.864 Y65.447
X-44.72 Y65.62
X-44.002 Y66.165
X-43.145 Y66.441
X-42.259 Y66.603
X-41.362 Y66.694
X-40.463 Y66.741
X-39.562 Y66.761
X-38.661 Y66.765
X-37.76 Y66.762
X-36.859 Y66.755
X-35.058 Y66.738
X-34.157 Y66.73
X-33.256 Y66.724
X-32.355 Y66.719
X-30.553 Y66.711
X-28.752 Y66.706
X-26.049 Y66.703
X-20.644 Y66.7
X-17.04
X-16.329 Y66.704
X-16.066 Y66.741
X-15.822 Y66.846
X-15.614 Y67.011
X-15.457 Y67.225
X-15.362 Y67.473
X-15.327 Y67.619
X-15.258 Y67.824
X-15.209 Y67.947
X-15.073 Y68.233
X-15.005 Y68.358
X-14.956 Y68.438
X-14.8 Y68.675
X-14.548 Y69.052
G3 X-14.622 Y69.778 I-0.51 J0.316 F600
G1 X-14.686 Y69.847 Z6.207
X-14.749 Y69.913 Z6.229
X-14.808 Y69.977 Z6.265
X-14.863 Y70.035 Z6.315
X-14.912 Y70.087 Z6.376
X-14.954 Y70.132 Z6.447
X-14.988 Y70.168 Z6.528
X-15.013 Y70.194 Z6.615
X-15.028 Y70.21 Z6.706
X-15.033 Y70.215 Z6.8
G0 Z20.2
X-46.272 Y57.602
Z7.4
G1 Z6.8 F600
X-46.267 Y57.608 Z6.706
X-46.252 Y57.624 Z6.615
X-46.228 Y57.651 Z6.528
X-46.195 Y57.688 Z6.447
X-46.155 Y57.733 Z6.376
X-46.107 Y57.787 Z6.315
X-46.054 Y57.847 Z6.265
X-45.996 Y57.912 Z6.229
X-45.935 Y57.98 Z6.207
X-45.872 Y58.05 Z6.2
G3 X-45.511 Y58.747 I-1.18 J1.054
G1 X-45.456 Y59.026 F1300
X-45.412 Y59.231
X-45.306 Y59.662
X-45.25 Y59.845
X-45.167 Y60.049
X-45.066 Y60.254
X-44.938 Y60.459
X-44.67 Y60.868
X-44.533 Y61.072
X-44.487 Y61.141
X-44.386 Y61.277
X-44.214 Y61.482
X-44.077 Y61.627
X-43.873 Y61.813
X-43.769 Y61.891
X-43.463 Y62.104
X-43.258 Y62.244
X-43.17 Y62.3
X-42.644 Y62.616
X-42.439 Y62.709
X-42.235 Y62.791
X-42.03 Y62.851
X-41.166 Y63.105
X-40.287 Y63.303
X-39.396 Y63.44
X-38.5 Y63.533
X-37.602 Y63.596
X-36.702 Y63.637
X-35.801 Y63.664
X-34.9 Y63.681
X-34 Y63.692
X-33.099 Y63.698
X-32.198 Y63.702
X-31.297 Y63.703
X-29.495 Y63.704
X-20.486 Y63.701
X-18.684
X-17.784 Y63.72
X-17.04 Y63.795
X-16.459 Y63.912
X-16.306 Y63.96
X-16.075 Y64.064
X-15.877 Y64.224
X-15.727 Y64.428
X-15.632 Y64.664
X-15.6 Y64.915
X-15.599 Y65.983
X-15.59 Y66.187
X-15.573 Y66.392
X-15.54 Y66.596
X-15.501 Y66.801
X-15.414 Y67.24
X-15.368 Y67.447
X-15.362 Y67.473
G3 X-15.684 Y68.129 I-0.588 J0.118 F600
G1 X-15.768 Y68.17 Z6.207
X-15.85 Y68.211 Z6.229
X-15.928 Y68.25 Z6.265
X-16 Y68.285 Z6.315
X-16.064 Y68.317 Z6.376
X-16.118 Y68.344 Z6.447
X-16.163 Y68.366 Z6.528
X-16.195 Y68.382 Z6.615
X-16.215 Y68.392 Z6.706
X-16.221 Y68.395 Z6.8
G0 Z20.2
X-43.38 Y63.111
Z7.4
G1 Z6.8 F600
X-43.373 Y63.109 Z6.706
X-43.352 Y63.102 Z6.615
X-43.318 Y63.09 Z6.528
X-43.272 Y63.074 Z6.447
X-43.214 Y63.054 Z6.376
X-43.146 Y63.031 Z6.315
X-43.07 Y63.004 Z6.265
X-42.988 Y62.976 Z6.229
X-42.902 Y62.946 Z6.207
X-42.813 Y62.915 Z6.2
G3 X-42.03 Y62.851 I0.517 J1.496
G1 X-41.416 Y62.978 F1300
X-41.211 Y63.013
X-40.802 Y63.081
X-40.597 Y63.091
X-40.187 Y63.099
X-39.983 Y63.1
X-17.052
X-16.847 Y63.106
X-16.642 Y63.124
X-16.438 Y63.149
X-16.233 Y63.19
X-16.131 Y63.233
X-16.028 Y63.289
X-15.981 Y63.323
X-15.902 Y63.395
X-15.823 Y63.48
X-15.79 Y63.527
X-15.734 Y63.63
X-15.69 Y63.732
X-15.649 Y63.937
X-15.633 Y64.141
X-15.609 Y64.55
X-15.6 Y64.755
Y64.915
G3 X-16.065 Y65.479 I-0.6 J-0.021 F600
G1 X-16.156 Y65.5 Z6.207
X-16.245 Y65.521 Z6.229
X-16.33 Y65.54 Z6.265
X-16.408 Y65.558 Z6.315
X-16.478 Y65.574 Z6.376
X-16.538 Y65.588 Z6.447
X-16.586 Y65.599 Z6.528
X-16.621 Y65.607 Z6.615
X-16.642 Y65.612 Z6.706
X-16.649 Y65.614 Z6.8
G0 Z20.2
X-11.372 Y-71.725
Z7.4
G1 Z6.8 F600
X-11.376 Y-71.719 Z6.706
X-11.389 Y-71.701 Z6.615
X-11.411 Y-71.672 Z6.528
X-11.44 Y-71.633 Z6.447
X-11.477 Y-71.584 Z6.376
X-11.52 Y-71.527 Z6.315
X-11.568 Y-71.462 Z6.265
X-11.62 Y-71.393 Z6.229
X-11.675 Y-71.319 Z6.207
X-11.731 Y-71.244 Z6.2
G3 X-12.343 Y-70.752 I-1.267 J-0.948
G1 X-12.548 Y-70.667 F1300
X-12.752 Y-70.553
X-12.957 Y-70.433
X-13.162 Y-70.309
X-13.571 Y-70.027
X-13.801 Y-69.869
X-13.981 Y-69.724
X-14.186 Y-69.519
X-14.241 Y-69.46
X-14.39 Y-69.276
X-14.533 Y-69.118
X-14.81 Y-68.866
X-15.168 Y-68.599
X-15.638 Y-68.318
X-16.259 Y-68.025
X-17.106 Y-67.725
X-17.98 Y-67.509
X-18.868 Y-67.354
X-19.762 Y-67.244
X-20.66 Y-67.165
X-21.559 Y-67.109
X-22.459 Y-67.069
X-23.359 Y-67.041
X-24.26 Y-67.02
X-25.161 Y-67.006
X-26.061 Y-66.995
X-26.962 Y-66.988
X-27.863 Y-66.983
X-28.764 Y-66.979
X-30.566 Y-66.975
X-33.268 Y-66.972
X-38.674 Y-66.97
X-39.098 Y-66.82
X-39.86 Y-66.339
X-40.433 Y-65.643
X-40.855 Y-64.848
X-41.164 Y-64.001
X-41.274 Y-63.573
X-41.352 Y-63.367
X-41.473 Y-63.184
X-41.632 Y-63.032
X-41.821 Y-62.919
X-42.03 Y-62.851
X-42.235 Y-62.791
X-42.444 Y-62.708
X-42.644 Y-62.616
X-43.172 Y-62.299
X-43.258 Y-62.244
X-43.478 Y-62.094
X-43.771 Y-61.889
X-43.873 Y-61.813
X-44.077 Y-61.627
X-44.215 Y-61.48
X-44.387 Y-61.276
X-44.487 Y-61.141
X-44.534 Y-61.071
X-44.692 Y-60.835
X-44.939 Y-60.457
X-45.067 Y-60.253
G3 X-45.759 Y-60.02 I-0.498 J-0.335 F600
G1 X-45.848 Y-60.05 Z6.207
X-45.934 Y-60.08 Z6.229
X-46.017 Y-60.108 Z6.265
X-46.093 Y-60.134 Z6.315
X-46.16 Y-60.158 Z6.376
X-46.218 Y-60.177 Z6.447
X-46.265 Y-60.193 Z6.528
X-46.299 Y-60.205 Z6.615
X-46.32 Y-60.212 Z6.706
X-46.327 Y-60.215 Z6.8
G0 Z20.2
X-13.998 Y-70.594
Z7.4
G1 Z6.8 F600
X-14 Y-70.586 Z6.706
X-14.003 Y-70.565 Z6.615
X-14.008 Y-70.529 Z6.528
X-14.015 Y-70.48 Z6.447
X-14.024 Y-70.42 Z6.376
X-14.035 Y-70.349 Z6.315
X-14.046 Y-70.27 Z6.265
X-14.059 Y-70.184 Z6.229
X-14.073 Y-70.093 Z6.207
X-14.086 Y-70 Z6.2
G3 X-14.39 Y-69.276 I-1.566 J-0.231
G1 X-14.407 Y-69.255 F1300
X-14.549 Y-69.05
X-14.823 Y-68.641
X-14.957 Y-68.437
X-15.005 Y-68.358
X-15.074 Y-68.232
X-15.209 Y-67.946
X-15.258 Y-67.823
X-15.327 Y-67.618
X-15.375 Y-67.476
X-15.481 Y-67.247
X-15.633 Y-66.988
X-15.824 Y-66.727
X-16.084 Y-66.436
X-16.411 Y-66.136
X-16.839 Y-65.816
X-17.373 Y-65.493
X-18.077 Y-65.159
X-18.925 Y-64.854
X-19.796 Y-64.626
X-20.681 Y-64.456
X-21.573 Y-64.329
X-22.469 Y-64.235
X-23.367 Y-64.165
X-24.266 Y-64.113
X-25.167 Y-64.075
X-26.067 Y-64.047
X-26.968 Y-64.026
X-27.868 Y-64.011
X-28.769 Y-64
X-29.67 Y-63.992
X-30.571 Y-63.986
X-31.472 Y-63.982
X-33.274 Y-63.976
X-35.075 Y-63.973
X-35.524 Y-63.933
X-36.371 Y-63.627
X-36.811 Y-63.299
X-36.994 Y-63.19
X-37.197 Y-63.123
X-37.409 Y-63.1
X-39.983
X-40.187 Y-63.099
X-40.597 Y-63.091
X-40.802 Y-63.081
X-41.211 Y-63.013
X-41.416 Y-62.978
X-42.03 Y-62.851
G3 X-42.676 Y-63.192 I-0.101 J-0.591 F600
G1 X-42.715 Y-63.277 Z6.207
X-42.754 Y-63.361 Z6.229
X-42.79 Y-63.44 Z6.265
X-42.823 Y-63.513 Z6.315
X-42.853 Y-63.578 Z6.376
X-42.879 Y-63.633 Z6.447
X-42.899 Y-63.678 Z6.528
X-42.914 Y-63.711 Z6.615
X-42.924 Y-63.731 Z6.706
X-42.927 Y-63.737 Z6.8
G0 Z20.2
X-15.548 Y-68.975
Z7.4
G1 Z6.8 F600
X-15.546 Y-68.968 Z6.706
X-15.539 Y-68.947 Z6.615
X-15.529 Y-68.913 Z6.528
X-15.514 Y-68.866 Z6.447
X-15.496 Y-68.807 Z6.376
X-15.474 Y-68.739 Z6.315
X-15.45 Y-68.662 Z6.265
X-15.424 Y-68.579 Z6.229
X-15.397 Y-68.492 Z6.207
X-15.369 Y-68.402 Z6.2
G3 X-15.327 Y-67.618 I-1.51 J0.473
G1 X-15.376 Y-67.414 F1300
X-15.414 Y-67.24
X-15.502 Y-66.8
X-15.54 Y-66.595
X-15.573 Y-66.391
X-15.591 Y-66.186
X-15.599 Y-65.981
Y-65.869
X-15.607 Y-65.719
X-15.646 Y-65.496
X-15.72 Y-65.233
X-15.826 Y-64.962
X-15.976 Y-64.667
X-16.19 Y-64.334
X-16.447 Y-64.01
X-16.798 Y-63.648
X-17.219 Y-63.292
X-17.242 Y-63.276
X-17.417 Y-63.18
X-17.609 Y-63.12
X-17.809 Y-63.1
G3 X-18.368 Y-63.548 Z6.363 I0.021 J-0.6 F600
G1 X-18.384 Y-63.633 Z6.382 F1300
X-18.387 Y-63.72 Z6.4
G3 X-18.27 Y-64.056 I0.6 J0.02
G1 X-16.682 Y-66.205
G3 X-16.219 Y-66.448 I0.482 J0.357
G1 X-16.132 Y-66.445 Z6.382
X-16.047 Y-66.429 Z6.363
G3 X-15.599 Y-65.869 Z6.2 I-0.152 J0.58 F600
G1 X-15.6 Y-64.754 F1300
X-15.609 Y-64.549
X-15.633 Y-64.14
X-15.649 Y-63.935
X-15.69 Y-63.731
X-15.734 Y-63.629
X-15.791 Y-63.526
X-15.823 Y-63.48
X-15.903 Y-63.394
X-15.983 Y-63.322
X-16.028 Y-63.289
X-16.131 Y-63.233
X-16.233 Y-63.19
X-16.438 Y-63.149
X-16.642 Y-63.124
X-16.847 Y-63.106
X-17.052 Y-63.1
X-37.409
X-37.501 Y-63.11 F600
X-37.591 Y-63.135
X-37.655 Y-63.172 Z6.205
X-37.717 Y-63.208 Z6.218
X-37.778 Y-63.244 Z6.241
X-37.828 Y-63.305 Z6.279
X-37.874 Y-63.362 Z6.329
