(adap3)
(T1  D=4 CR=0 - ZMIN=5 - flat end mill)
G90 G94
G17
G21
G28 G91 Z0
G90

(Adaptive5 4)
T1
S18000 M3
G54
G0 X-3.821 Y-12.06
Z28
Z18
Z11.95
G1 Z11.55 F600
Z9.55
G3 X-1.621 Y-12.015 I1.076 J1.207
G1 X-1.655 Y-11.993 F1300
X-1.689 Y-11.975
X-1.722 Y-11.961
X-1.763 Y-11.948
X-1.804 Y-11.94
X-2.051 Y-11.908
X-2.379 Y-11.862
X-2.543 Y-11.839
X-2.707 Y-11.808
X-2.871 Y-11.765
X-3.035 Y-11.703
X-3.199 Y-11.637
X-3.801 Y-11.388
X-4.165 Y-11.224
X-4.183 Y-11.212
X-4.31 Y-11.132
X-4.635 Y-10.996
X-5.071 Y-10.854
X-5.685 Y-10.706
X-6.399 Y-10.595
X-7.117 Y-10.525
X-7.838 Y-10.482
X-8.56 Y-10.455
X-9.281 Y-10.439
X-10.003 Y-10.428
X-10.725 Y-10.422
X-11.447 Y-10.418
X-12.169 Y-10.416
X-13.613 Y-10.414
X-17.223 Y-10.415
X-50.201 Y-10.439
X-50.403 Y-10.461
X-50.596 Y-10.526
X-50.769 Y-10.632
X-51.099 Y-10.885
X-51.499 Y-11.174
X-51.509 Y-11.18
X-51.919 Y-11.374
X-51.95 Y-11.388
X-52.411 Y-11.579
X-52.576 Y-11.644
X-53.037 Y-11.808
X-53.56 Y-11.889
X-53.888 Y-11.932
X-53.97 Y-11.944
X-54.011 Y-11.955
X-54.052 Y-11.97
G3 X-54.25 Y-12.283 I0.201 J-0.346 F800
G1 X-54.251 Y-12.316 Z9.551
X-54.237 Y-12.376 Z9.561
X-54.224 Y-12.434 Z9.581
X-54.212 Y-12.488 Z9.61
X-54.174 Y-12.535 Z9.656
X-54.143 Y-12.575 Z9.714
X-54.119 Y-12.606 Z9.78
X-54.103 Y-12.626 Z9.852
X-54.096 Y-12.632 Z9.901
X-54.093 Y-12.634 Z9.95
G0 Z18
X-4.928 Y-10.962
Z11.95
G1 Z11.55 F600
Z9.55
G3 X-4.183 Y-11.212 I0.75 J0.999
G1 X-4.636 Y-10.896 F1300
X-4.675 Y-10.867
X-5.167 Y-10.49
X-5.331 Y-10.361
X-5.495 Y-10.202
X-5.703 Y-10.02
X-5.876 Y-9.891
X-6.099 Y-9.75
X-6.377 Y-9.606
X-6.737 Y-9.453
X-7.206 Y-9.298
X-7.863 Y-9.138
X-8.576 Y-9.023
X-9.294 Y-8.949
X-10.014 Y-8.901
X-10.735 Y-8.87
X-11.457 Y-8.85
X-12.179 Y-8.837
X-12.901 Y-8.828
X-13.623 Y-8.823
X-14.345 Y-8.82
X-15.789 Y-8.817
X-18.677
X-48.499 Y-8.838
X-48.74 Y-8.87
X-48.965 Y-8.963
X-49.158 Y-9.111
X-49.961 Y-9.913
X-50.296 Y-10.241
X-50.443 Y-10.38
X-50.473 Y-10.405
X-50.769 Y-10.632
G3 X-50.702 Y-11.294 I0.255 J-0.308 F800
G1 X-50.633 Y-11.33 Z9.558
X-50.567 Y-11.366 Z9.58
X-50.506 Y-11.398 Z9.617
X-50.452 Y-11.426 Z9.667
X-50.408 Y-11.45 Z9.728
X-50.376 Y-11.467 Z9.797
X-50.356 Y-11.478 Z9.872
X-50.349 Y-11.481 Z9.95
G0 Z18
X-5.006 Y-11.273
Z10.35
G1 Z9.95 F600
X-5.008 Y-11.265 Z9.872
X-5.014 Y-11.243 Z9.797
X-5.023 Y-11.208 Z9.728
X-5.036 Y-11.16 Z9.667
X-5.052 Y-11.101 Z9.617
X-5.07 Y-11.034 Z9.58
X-5.089 Y-10.962 Z9.558
X-5.11 Y-10.886 Z9.55
G3 X-5.495 Y-10.202 I-1.528 J-0.411
G1 X-5.659 Y-10.043 F1300
X-5.824 Y-9.88
X-6.972 Y-8.732
X-7.194 Y-8.531
X-7.378 Y-8.39
X-7.615 Y-8.236
X-7.899 Y-8.083
X-8.271 Y-7.92
X-8.748 Y-7.754
X-9.4 Y-7.586
X-10.111 Y-7.461
X-10.829 Y-7.379
X-11.548 Y-7.323
X-12.269 Y-7.287
X-12.991 Y-7.262
X-13.713 Y-7.246
X-14.435 Y-7.235
X-15.157 Y-7.228
X-15.879 Y-7.224
X-16.601 Y-7.221
X-18.045 Y-7.218
X-20.933
X-46.898 Y-7.236
X-47.139 Y-7.268
X-47.364 Y-7.362
X-47.557 Y-7.51
X-49.158 Y-9.111
G3 X-49.265 Y-9.384 I0.293 J-0.273 F800
G1 X-49.263 Y-9.426
X-49.256 Y-9.468
X-49.231 Y-9.523 Z9.555
X-49.206 Y-9.577 Z9.569
X-49.182 Y-9.628 Z9.592
X-49.141 Y-9.663 Z9.624
X-49.103 Y-9.693 Z9.665
X-49.072 Y-9.719 Z9.713
X-49.046 Y-9.741 Z9.767
X-49.024 Y-9.75 Z9.825
X-49.01 Y-9.756 Z9.887
X-49.006 Y-9.758 Z9.95
G0 Z18
X-6.497 Y-9.809
Z10.35
G1 Z9.95 F600
X-6.499 Y-9.802 Z9.872
X-6.504 Y-9.78 Z9.797
X-6.513 Y-9.744 Z9.728
X-6.526 Y-9.696 Z9.667
X-6.541 Y-9.637 Z9.617
X-6.558 Y-9.57 Z9.58
X-6.576 Y-9.497 Z9.558
X-6.595 Y-9.421 Z9.55
G3 X-6.972 Y-8.732 I-1.534 J-0.39
G1 X-8.576 Y-7.128 F1300
X-8.757 Y-6.964
X-8.946 Y-6.819
X-9.187 Y-6.663
X-9.479 Y-6.505
X-9.858 Y-6.339
X-10.349 Y-6.169
X-11.015 Y-5.996
X-11.727 Y-5.872
X-12.444 Y-5.788
X-13.164 Y-5.732
X-13.885 Y-5.694
X-14.606 Y-5.668
X-15.328 Y-5.651
X-16.05 Y-5.639
X-16.772 Y-5.632
X-17.494 Y-5.627
X-18.216 Y-5.623
X-19.66 Y-5.62
X-21.826 Y-5.619
X-30.49 Y-5.625
X-45.296 Y-5.635
X-45.538 Y-5.667
X-45.763 Y-5.76
X-45.956 Y-5.909
X-47.557 Y-7.51
G3 X-47.664 Y-7.782 I0.293 J-0.273 F800
G1 Y-7.783
X-47.662 Y-7.825
X-47.655 Y-7.867
X-47.63 Y-7.922 Z9.555
X-47.605 Y-7.976 Z9.569
X-47.581 Y-8.027 Z9.592
X-47.539 Y-8.061 Z9.624
X-47.502 Y-8.092 Z9.665
X-47.471 Y-8.118 Z9.713
X-47.445 Y-8.139 Z9.767
X-47.423 Y-8.149 Z9.825
X-47.409 Y-8.155 Z9.887
X-47.404 Y-8.157 Z9.95
G0 Z18
X-8.101 Y-8.205
Z10.35
G1 Z9.95 F600
X-8.103 Y-8.197 Z9.872
X-8.109 Y-8.175 Z9.797
X-8.118 Y-8.139 Z9.728
X-8.13 Y-8.091 Z9.667
X-8.145 Y-8.032 Z9.617
X-8.162 Y-7.965 Z9.58
X-8.181 Y-7.893 Z9.558
X-8.2 Y-7.817 Z9.55
G3 X-8.576 Y-7.128 I-1.534 J-0.39
G1 X-10.215 Y-5.489 F1300
X-10.338 Y-5.377
X-10.529 Y-5.231
X-10.773 Y-5.073
X-11.067 Y-4.915
X-11.45 Y-4.747
X-11.947 Y-4.575
X-12.081 Y-4.541
X-12.144 Y-4.527
X-12.209 Y-4.517
X-12.273 Y-4.512
G3 X-12.677 Y-4.908 Z9.75 I-0.004 J-0.4 F800
G1 X-12.673 Y-4.971
X-12.658 Y-5.032
G3 X-12.45 Y-5.272 I0.381 J0.12 F1300
G1 X-10.681 Y-6.122
G3 X-10.339 Y-6.125 I0.173 J0.361
G1 X-10.284 Y-6.093 F600
X-10.234 Y-6.054
G3 X-10.215 Y-5.489 Z9.55 I-0.273 J0.292
G1 X-10.253 Y-5.451 F1300
X-10.581 Y-5.148
X-10.745 Y-5.01
X-10.975 Y-4.834
X-11.024 Y-4.798
X-11.073 Y-4.771
X-11.314 Y-4.67
X-11.483 Y-4.601
X-11.565 Y-4.579
X-11.893 Y-4.536
X-12.057 Y-4.522
X-12.549 Y-4.5
X-43.061
X-43.225 Y-4.503
X-43.553 Y-4.51
X-43.717 Y-4.517
X-44.045 Y-4.56
X-44.209 Y-4.584
X-44.373 Y-4.643
X-44.537 Y-4.711
X-44.701 Y-4.783
X-44.776 Y-4.834
X-44.99 Y-4.998
X-45.03 Y-5.031
X-45.358 Y-5.325
X-45.522 Y-5.475
X-45.956 Y-5.909
G3 X-46.063 Y-6.181 I0.293 J-0.273 F800
G1 X-46.061 Y-6.224
X-46.054 Y-6.266
X-46.029 Y-6.321 Z9.555
X-46.004 Y-6.375 Z9.569
X-45.98 Y-6.426 Z9.592
X-45.938 Y-6.46 Z9.624
X-45.901 Y-6.491 Z9.665
X-45.869 Y-6.517 Z9.713
X-45.844 Y-6.538 Z9.767
X-45.821 Y-6.548 Z9.825
X-45.808 Y-6.554 Z9.887
X-45.803 Y-6.556 Z9.95
G0 Z18
X-3.821 Y-12.06
Z11.5
G1 Z11.1 F600
Z9.1
G3 X-1.621 Y-12.015 I1.076 J1.207
G1 X-1.655 Y-11.993 F1300
X-1.689 Y-11.975
X-1.722 Y-11.961
X-1.763 Y-11.948
X-1.804 Y-11.94
X-2.051 Y-11.908
X-2.379 Y-11.862
X-2.543 Y-11.839
X-2.707 Y-11.808
X-2.871 Y-11.765
X-3.035 Y-11.703
X-3.199 Y-11.637
X-3.801 Y-11.388
X-4.165 Y-11.224
X-4.183 Y-11.212
X-4.31 Y-11.132
X-4.635 Y-10.996
X-5.071 Y-10.854
X-5.685 Y-10.706
X-6.399 Y-10.595
X-7.117 Y-10.525
X-7.838 Y-10.482
X-8.56 Y-10.455
X-9.281 Y-10.439
X-10.003 Y-10.428
X-10.725 Y-10.422
X-11.447 Y-10.418
X-12.169 Y-10.416
X-13.613 Y-10.414
X-17.223 Y-10.415
X-50.201 Y-10.439
X-50.403 Y-10.461
X-50.596 Y-10.526
X-50.769 Y-10.632
X-51.099 Y-10.885
X-51.499 Y-11.174
X-51.509 Y-11.18
X-51.919 Y-11.374
X-51.95 Y-11.388
X-52.411 Y-11.579
X-52.576 Y-11.644
X-53.037 Y-11.808
X-53.56 Y-11.889
X-53.888 Y-11.932
X-53.97 Y-11.944
X-54.011 Y-11.955
X-54.052 Y-11.97
G3 X-54.25 Y-12.283 I0.201 J-0.346 F800
G1 X-54.251 Y-12.316 Z9.101
X-54.237 Y-12.376 Z9.111
X-54.224 Y-12.434 Z9.131
X-54.212 Y-12.488 Z9.16
X-54.174 Y-12.535 Z9.206
X-54.143 Y-12.575 Z9.264
X-54.119 Y-12.606 Z9.33
X-54.103 Y-12.626 Z9.402
X-54.096 Y-12.632 Z9.451
X-54.093 Y-12.634 Z9.5
G0 Z18
X-4.928 Y-10.962
Z11.5
G1 Z11.1 F600
Z9.1
G3 X-4.183 Y-11.212 I0.75 J0.999
G1 X-4.636 Y-10.896 F1300
X-4.675 Y-10.867
X-5.167 Y-10.49
X-5.331 Y-10.361
X-5.495 Y-10.202
X-5.703 Y-10.02
X-5.876 Y-9.891
X-6.099 Y-9.75
X-6.377 Y-9.606
X-6.737 Y-9.453
X-7.206 Y-9.298
X-7.863 Y-9.138
X-8.576 Y-9.023
X-9.294 Y-8.949
X-10.014 Y-8.901
X-10.735 Y-8.87
X-11.457 Y-8.85
X-12.179 Y-8.837
X-12.901 Y-8.828
X-13.623 Y-8.823
X-14.345 Y-8.82
X-15.789 Y-8.817
X-18.677
X-48.499 Y-8.838
X-48.74 Y-8.87
X-48.965 Y-8.963
X-49.158 Y-9.111
X-49.961 Y-9.913
X-50.296 Y-10.241
X-50.443 Y-10.38
X-50.473 Y-10.405
X-50.769 Y-10.632
G3 X-50.913 Y-10.974 I0.255 J-0.308 F800
G1 X-50.895 Y-11.031 Z9.105
X-50.877 Y-11.088 Z9.119
X-50.86 Y-11.142 Z9.142
X-50.824 Y-11.181 Z9.174
X-50.791 Y-11.216 Z9.215
X-50.763 Y-11.247 Z9.263
X-50.74 Y-11.271 Z9.317
X-50.719 Y-11.283 Z9.375
X-50.707 Y-11.291 Z9.437
X-50.702 Y-11.294 Z9.5
G0 Z9.9
X-5.006 Y-11.273
G1 Z9.5 F600
X-5.008 Y-11.265 Z9.422
X-5.014 Y-11.243 Z9.347
X-5.023 Y-11.208 Z9.278
X-5.036 Y-11.16 Z9.217
X-5.052 Y-11.101 Z9.167
X-5.07 Y-11.034 Z9.13
X-5.089 Y-10.962 Z9.108
X-5.11 Y-10.886 Z9.1
G3 X-5.495 Y-10.202 I-1.528 J-0.411
G1 X-5.659 Y-10.043 F1300
X-5.824 Y-9.88
X-6.972 Y-8.732
X-7.194 Y-8.531
X-7.378 Y-8.39
X-7.615 Y-8.236
X-7.899 Y-8.083
X-8.271 Y-7.92
X-8.748 Y-7.754
X-9.4 Y-7.586
X-10.111 Y-7.461
X-10.829 Y-7.379
X-11.548 Y-7.323
X-12.269 Y-7.287
X-12.991 Y-7.262
X-13.713 Y-7.246
X-14.435 Y-7.235
X-15.157 Y-7.228
X-15.879 Y-7.224
X-16.601 Y-7.221
X-18.045 Y-7.218
X-20.933
X-46.898 Y-7.236
X-47.139 Y-7.268
X-47.364 Y-7.362
X-47.557 Y-7.51
X-49.158 Y-9.111
G3 X-49.265 Y-9.384 I0.293 J-0.273 F800
G1 X-49.263 Y-9.426
X-49.256 Y-9.468
X-49.231 Y-9.523 Z9.105
X-49.206 Y-9.577 Z9.119
X-49.182 Y-9.628 Z9.142
X-49.141 Y-9.663 Z9.174
X-49.103 Y-9.693 Z9.215
X-49.072 Y-9.719 Z9.263
X-49.046 Y-9.741 Z9.317
X-49.024 Y-9.75 Z9.375
X-49.01 Y-9.756 Z9.437
X-49.006 Y-9.758 Z9.5
G0 Z9.9
X-6.497 Y-9.809
G1 Z9.5 F600
X-6.499 Y-9.802 Z9.422
X-6.504 Y-9.78 Z9.347
X-6.513 Y-9.744 Z9.278
X-6.526 Y-9.696 Z9.217
X-6.541 Y-9.637 Z9.167
X-6.558 Y-9.57 Z9.13
X-6.576 Y-9.497 Z9.108
X-6.595 Y-9.421 Z9.1
G3 X-6.972 Y-8.732 I-1.534 J-0.39
G1 X-8.576 Y-7.128 F1300
X-8.757 Y-6.964
X-8.946 Y-6.819
X-9.187 Y-6.663
X-9.479 Y-6.505
X-9.858 Y-6.339
X-10.349 Y-6.169
X-11.015 Y-5.996
X-11.727 Y-5.872
X-12.444 Y-5.788
X-13.164 Y-5.732
X-13.885 Y-5.694
X-14.606 Y-5.668
X-15.328 Y-5.651
X-16.05 Y-5.639
X-16.772 Y-5.632
X-17.494 Y-5.627
X-18.216 Y-5.623
X-19.66 Y-5.62
X-21.826 Y-5.619
X-30.49 Y-5.625
X-45.296 Y-5.635
X-45.538 Y-5.667
X-45.763 Y-5.76
X-45.956 Y-5.909
X-47.557 Y-7.51
G3 X-47.664 Y-7.782 I0.293 J-0.273 F800
G1 Y-7.783
X-47.662 Y-7.825
X-47.655 Y-7.867
X-47.63 Y-7.922 Z9.105
X-47.605 Y-7.976 Z9.119
X-47.581 Y-8.027 Z9.142
X-47.539 Y-8.061 Z9.174
X-47.502 Y-8.092 Z9.215
X-47.471 Y-8.118 Z9.263
X-47.445 Y-8.139 Z9.317
X-47.423 Y-8.149 Z9.375
X-47.409 Y-8.155 Z9.437
X-47.404 Y-8.157 Z9.5
G0 Z9.9
X-8.101 Y-8.205
G1 Z9.5 F600
X-8.103 Y-8.197 Z9.422
X-8.109 Y-8.175 Z9.347
X-8.118 Y-8.139 Z9.278
X-8.13 Y-8.091 Z9.217
X-8.145 Y-8.032 Z9.167
X-8.162 Y-7.965 Z9.13
X-8.181 Y-7.893 Z9.108
X-8.2 Y-7.817 Z9.1
G3 X-8.576 Y-7.128 I-1.534 J-0.39
G1 X-10.215 Y-5.489 F1300
X-10.338 Y-5.377
X-10.529 Y-5.231
X-10.773 Y-5.073
X-11.067 Y-4.915
X-11.45 Y-4.747
X-11.947 Y-4.575
X-12.081 Y-4.541
X-12.144 Y-4.527
X-12.209 Y-4.517
X-12.273 Y-4.512
G3 X-12.677 Y-4.908 Z9.3 I-0.004 J-0.4 F800
G1 X-12.673 Y-4.971
X-12.658 Y-5.032
G3 X-12.45 Y-5.272 I0.381 J0.12 F1300
G1 X-10.681 Y-6.122
G3 X-10.339 Y-6.125 I0.173 J0.361
G1 X-10.284 Y-6.093 F600
X-10.234 Y-6.054
G3 X-10.215 Y-5.489 Z9.1 I-0.273 J0.292
G1 X-10.253 Y-5.451 F1300
X-10.581 Y-5.148
X-10.745 Y-5.01
X-10.975 Y-4.834
X-11.024 Y-4.798
X-11.073 Y-4.771
X-11.314 Y-4.67
X-11.483 Y-4.601
X-11.565 Y-4.579
X-11.893 Y-4.536
X-12.057 Y-4.522
X-12.549 Y-4.5
X-43.061
X-43.225 Y-4.503
X-43.553 Y-4.51
X-43.717 Y-4.517
X-44.045 Y-4.56
X-44.209 Y-4.584
X-44.373 Y-4.643
X-44.537 Y-4.711
X-44.701 Y-4.783
X-44.776 Y-4.834
X-44.99 Y-4.998
X-45.03 Y-5.031
X-45.358 Y-5.325
X-45.522 Y-5.475
X-45.956 Y-5.909
G3 X-46.063 Y-6.181 I0.293 J-0.273 F800
G1 X-46.061 Y-6.224
X-46.054 Y-6.266
X-46.029 Y-6.321 Z9.105
X-46.004 Y-6.375 Z9.119
X-45.98 Y-6.426 Z9.142
X-45.938 Y-6.46 Z9.174
X-45.901 Y-6.491 Z9.215
X-45.869 Y-6.517 Z9.263
X-45.844 Y-6.538 Z9.317
X-45.821 Y-6.548 Z9.375
X-45.808 Y-6.554 Z9.437
X-45.803 Y-6.556 Z9.5
G0 Z18
X-3.821 Y-12.06
Z11.05
G1 Z10.65 F600
Z8.65
G3 X-1.621 Y-12.015 I1.076 J1.207
G1 X-1.655 Y-11.993 F1300
X-1.689 Y-11.975
X-1.722 Y-11.961
X-1.763 Y-11.948
X-1.804 Y-11.94
X-2.051 Y-11.908
X-2.379 Y-11.862
X-2.543 Y-11.839
X-2.707 Y-11.808
X-2.871 Y-11.765
X-3.035 Y-11.703
X-3.199 Y-11.637
X-3.801 Y-11.388
X-4.165 Y-11.224
X-4.183 Y-11.212
X-4.31 Y-11.132
X-4.635 Y-10.996
X-5.071 Y-10.854
X-5.685 Y-10.706
X-6.399 Y-10.595
X-7.117 Y-10.525
X-7.838 Y-10.482
X-8.56 Y-10.455
X-9.281 Y-10.439
X-10.003 Y-10.428
X-10.725 Y-10.422
X-11.447 Y-10.418
X-12.169 Y-10.416
X-13.613 Y-10.414
X-17.223 Y-10.415
X-50.201 Y-10.439
X-50.403 Y-10.461
X-50.596 Y-10.526
X-50.769 Y-10.632
X-51.099 Y-10.885
X-51.499 Y-11.174
X-51.509 Y-11.18
X-51.919 Y-11.374
X-51.95 Y-11.388
X-52.411 Y-11.579
X-52.576 Y-11.644
X-53.037 Y-11.808
X-53.56 Y-11.889
X-53.888 Y-11.932
X-53.97 Y-11.944
X-54.011 Y-11.955
X-54.052 Y-11.97
G3 X-54.25 Y-12.283 I0.201 J-0.346 F800
G1 X-54.251 Y-12.316 Z8.651
X-54.237 Y-12.376 Z8.661
X-54.224 Y-12.434 Z8.681
X-54.212 Y-12.488 Z8.71
X-54.174 Y-12.535 Z8.756
X-54.143 Y-12.575 Z8.814
X-54.119 Y-12.606 Z8.88
X-54.103 Y-12.626 Z8.952
X-54.096 Y-12.632 Z9.001
X-54.093 Y-12.634 Z9.05
G0 Z18
X-4.928 Y-10.962
Z11.05
G1 Z10.65 F600
Z8.65
G3 X-4.183 Y-11.212 I0.75 J0.999
G1 X-4.636 Y-10.896 F1300
X-4.675 Y-10.867
X-5.167 Y-10.49
X-5.331 Y-10.361
X-5.495 Y-10.202
X-5.703 Y-10.02
X-5.876 Y-9.891
X-6.099 Y-9.75
X-6.377 Y-9.606
X-6.737 Y-9.453
X-7.206 Y-9.298
X-7.863 Y-9.138
X-8.576 Y-9.023
X-9.294 Y-8.949
X-10.014 Y-8.901
X-10.735 Y-8.87
X-11.457 Y-8.85
X-12.179 Y-8.837
X-12.901 Y-8.828
X-13.623 Y-8.823
X-14.345 Y-8.82
X-15.789 Y-8.817
X-18.677
X-48.499 Y-8.838
X-48.74 Y-8.87
X-48.965 Y-8.963
X-49.158 Y-9.111
X-49.961 Y-9.913
X-50.296 Y-10.241
X-50.443 Y-10.38
X-50.473 Y-10.405
X-50.769 Y-10.632
G3 X-50.913 Y-10.974 I0.255 J-0.308 F800
G1 X-50.895 Y-11.031 Z8.655
X-50.877 Y-11.088 Z8.669
X-50.86 Y-11.142 Z8.692
X-50.824 Y-11.181 Z8.724
X-50.791 Y-11.216 Z8.765
X-50.763 Y-11.247 Z8.813
X-50.74 Y-11.271 Z8.867
X-50.719 Y-11.283 Z8.925
X-50.707 Y-11.291 Z8.987
X-50.702 Y-11.294 Z9.05
G0 Z9.45
X-5.006 Y-11.273
G1 Z9.05 F600
X-5.008 Y-11.265 Z8.972
X-5.014 Y-11.243 Z8.897
X-5.023 Y-11.208 Z8.828
X-5.036 Y-11.16 Z8.767
X-5.052 Y-11.101 Z8.717
X-5.07 Y-11.034 Z8.68
X-5.089 Y-10.962 Z8.658
X-5.11 Y-10.886 Z8.65
G3 X-5.495 Y-10.202 I-1.528 J-0.411
G1 X-5.659 Y-10.043 F1300
X-5.824 Y-9.88
X-6.972 Y-8.732
X-7.194 Y-8.531
X-7.378 Y-8.39
X-7.615 Y-8.236
X-7.899 Y-8.083
X-8.271 Y-7.92
X-8.748 Y-7.754
X-9.4 Y-7.586
X-10.111 Y-7.461
X-10.829 Y-7.379
X-11.548 Y-7.323
X-12.269 Y-7.287
X-12.991 Y-7.262
X-13.713 Y-7.246
X-14.435 Y-7.235
X-15.157 Y-7.228
X-15.879 Y-7.224
X-16.601 Y-7.221
X-18.045 Y-7.218
X-20.933
X-46.898 Y-7.236
X-47.139 Y-7.268
X-47.364 Y-7.362
X-47.557 Y-7.51
X-49.158 Y-9.111
G3 X-49.265 Y-9.384 I0.293 J-0.273 F800
G1 X-49.263 Y-9.426
X-49.256 Y-9.468
X-49.231 Y-9.523 Z8.655
X-49.206 Y-9.577 Z8.669
X-49.182 Y-9.628 Z8.692
X-49.141 Y-9.663 Z8.724
X-49.103 Y-9.693 Z8.765
X-49.072 Y-9.719 Z8.813
X-49.046 Y-9.741 Z8.867
X-49.024 Y-9.75 Z8.925
X-49.01 Y-9.756 Z8.987
X-49.006 Y-9.758 Z9.05
G0 Z9.45
X-6.497 Y-9.809
G1 Z9.05 F600
X-6.499 Y-9.802 Z8.972
X-6.504 Y-9.78 Z8.897
X-6.513 Y-9.744 Z8.828
X-6.526 Y-9.696 Z8.767
X-6.541 Y-9.637 Z8.717
X-6.558 Y-9.57 Z8.68
X-6.576 Y-9.497 Z8.658
X-6.595 Y-9.421 Z8.65
G3 X-6.972 Y-8.732 I-1.534 J-0.39
G1 X-8.576 Y-7.128 F1300
X-8.757 Y-6.964
X-8.946 Y-6.819
X-9.187 Y-6.663
X-9.479 Y-6.505
X-9.858 Y-6.339
X-10.349 Y-6.169
X-11.015 Y-5.996
X-11.727 Y-5.872
X-12.444 Y-5.788
X-13.164 Y-5.732
X-13.885 Y-5.694
X-14.606 Y-5.668
X-15.328 Y-5.651
X-16.05 Y-5.639
X-16.772 Y-5.632
X-17.494 Y-5.627
X-18.216 Y-5.623
X-19.66 Y-5.62
X-21.826 Y-5.619
X-30.49 Y-5.625
X-45.296 Y-5.635
X-45.538 Y-5.667
X-45.763 Y-5.76
X-45.956 Y-5.909
X-47.557 Y-7.51
G3 X-47.664 Y-7.782 I0.293 J-0.273 F800
G1 Y-7.783
X-47.662 Y-7.825
X-47.655 Y-7.867
X-47.63 Y-7.922 Z8.655
X-47.605 Y-7.976 Z8.669
X-47.581 Y-8.027 Z8.692
X-47.539 Y-8.061 Z8.724
X-47.502 Y-8.092 Z8.765
X-47.471 Y-8.118 Z8.813
X-47.445 Y-8.139 Z8.867
X-47.423 Y-8.149 Z8.925
X-47.409 Y-8.155 Z8.987
X-47.404 Y-8.157 Z9.05
G0 Z9.45
X-8.101 Y-8.205
G1 Z9.05 F600
X-8.103 Y-8.197 Z8.972
X-8.109 Y-8.175 Z8.897
X-8.118 Y-8.139 Z8.828
X-8.13 Y-8.091 Z8.767
X-8.145 Y-8.032 Z8.717
X-8.162 Y-7.965 Z8.68
X-8.181 Y-7.893 Z8.658
X-8.2 Y-7.817 Z8.65
G3 X-8.576 Y-7.128 I-1.534 J-0.39
G1 X-10.215 Y-5.489 F1300
X-10.338 Y-5.377
X-10.529 Y-5.231
X-10.773 Y-5.073
X-11.067 Y-4.915
X-11.45 Y-4.747
X-11.947 Y-4.575
X-12.081 Y-4.541
X-12.144 Y-4.527
X-12.209 Y-4.517
X-12.273 Y-4.512
G3 X-12.677 Y-4.908 Z8.85 I-0.004 J-0.4 F800
G1 X-12.673 Y-4.971
X-12.658 Y-5.032
G3 X-12.45 Y-5.272 I0.381 J0.12 F1300
G1 X-10.681 Y-6.122
G3 X-10.339 Y-6.125 I0.173 J0.361
G1 X-10.284 Y-6.093 F600
X-10.234 Y-6.054
G3 X-10.215 Y-5.489 Z8.65 I-0.273 J0.292
G1 X-10.253 Y-5.451 F1300
X-10.581 Y-5.148
X-10.745 Y-5.01
X-10.975 Y-4.834
X-11.024 Y-4.798
X-11.073 Y-4.771
X-11.314 Y-4.67
X-11.483 Y-4.601
X-11.565 Y-4.579
X-11.893 Y-4.536
X-12.057 Y-4.522
X-12.549 Y-4.5
X-43.061
X-43.225 Y-4.503
X-43.553 Y-4.51
X-43.717 Y-4.517
X-44.045 Y-4.56
X-44.209 Y-4.584
X-44.373 Y-4.643
X-44.537 Y-4.711
X-44.701 Y-4.783
X-44.776 Y-4.834
X-44.99 Y-4.998
X-45.03 Y-5.031
X-45.358 Y-5.325
X-45.522 Y-5.475
X-45.956 Y-5.909
G3 X-46.063 Y-6.181 I0.293 J-0.273 F800
G1 X-46.061 Y-6.224
X-46.054 Y-6.266
X-46.029 Y-6.321 Z8.655
X-46.004 Y-6.375 Z8.669
X-45.98 Y-6.426 Z8.692
X-45.938 Y-6.46 Z8.724
X-45.901 Y-6.491 Z8.765
X-45.869 Y-6.517 Z8.813
X-45.844 Y-6.538 Z8.867
X-45.821 Y-6.548 Z8.925
X-45.808 Y-6.554 Z8.987
X-45.803 Y-6.556 Z9.05
G0 Z18
X-3.821 Y-12.06
Z10.6
G1 Z10.2 F600
Z8.2
G3 X-1.621 Y-12.015 I1.076 J1.207
G1 X-1.655 Y-11.993 F1300
X-1.689 Y-11.975
X-1.722 Y-11.961
X-1.763 Y-11.948
X-1.804 Y-11.94
X-2.051 Y-11.908
X-2.379 Y-11.862
X-2.543 Y-11.839
X-2.707 Y-11.808
X-2.871 Y-11.765
X-3.035 Y-11.703
X-3.199 Y-11.637
X-3.801 Y-11.388
X-4.165 Y-11.224
X-4.183 Y-11.212
X-4.31 Y-11.132
X-4.635 Y-10.996
X-5.071 Y-10.854
X-5.685 Y-10.706
X-6.399 Y-10.595
X-7.117 Y-10.525
X-7.838 Y-10.482
X-8.56 Y-10.455
X-9.281 Y-10.439
X-10.003 Y-10.428
X-10.725 Y-10.422
X-11.447 Y-10.418
X-12.169 Y-10.416
X-13.613 Y-10.414
X-17.223 Y-10.415
X-50.201 Y-10.439
X-50.403 Y-10.461
X-50.596 Y-10.526
X-50.769 Y-10.632
X-51.099 Y-10.885
X-51.499 Y-11.174
X-51.509 Y-11.18
X-51.919 Y-11.374
X-51.95 Y-11.388
X-52.411 Y-11.579
X-52.576 Y-11.644
X-53.037 Y-11.808
X-53.56 Y-11.889
X-53.888 Y-11.932
X-53.97 Y-11.944
X-54.011 Y-11.955
X-54.052 Y-11.97
G3 X-54.25 Y-12.283 I0.201 J-0.346 F800
G1 X-54.251 Y-12.316 Z8.201
X-54.237 Y-12.376 Z8.211
X-54.224 Y-12.434 Z8.231
X-54.212 Y-12.488 Z8.26
X-54.174 Y-12.535 Z8.306
X-54.143 Y-12.575 Z8.364
X-54.119 Y-12.606 Z8.43
X-54.103 Y-12.626 Z8.502
X-54.096 Y-12.632 Z8.551
X-54.093 Y-12.634 Z8.6
G0 Z18
X-4.928 Y-10.962
Z10.6
G1 Z10.2 F600
Z8.2
G3 X-4.183 Y-11.212 I0.75 J0.999
G1 X-4.636 Y-10.896 F1300
X-4.675 Y-10.867
X-5.167 Y-10.49
X-5.331 Y-10.361
X-5.495 Y-10.202
X-5.703 Y-10.02
X-5.876 Y-9.891
X-6.099 Y-9.75
X-6.377 Y-9.606
X-6.737 Y-9.453
X-7.206 Y-9.298
X-7.863 Y-9.138
X-8.576 Y-9.023
X-9.294 Y-8.949
X-10.014 Y-8.901
X-10.735 Y-8.87
X-11.457 Y-8.85
X-12.179 Y-8.837
X-12.901 Y-8.828
X-13.623 Y-8.823
X-14.345 Y-8.82
X-15.789 Y-8.817
X-18.677
X-48.499 Y-8.838
X-48.74 Y-8.87
X-48.965 Y-8.963
X-49.158 Y-9.111
X-49.961 Y-9.913
X-50.296 Y-10.241
X-50.443 Y-10.38
X-50.473 Y-10.405
X-50.769 Y-10.632
G3 X-50.913 Y-10.974 I0.255 J-0.308 F800
G1 X-50.895 Y-11.031 Z8.205
X-50.877 Y-11.088 Z8.219
X-50.86 Y-11.142 Z8.242
X-50.824 Y-11.181 Z8.274
X-50.791 Y-11.216 Z8.315
X-50.763 Y-11.247 Z8.363
X-50.74 Y-11.271 Z8.417
X-50.719 Y-11.283 Z8.475
X-50.707 Y-11.291 Z8.537
X-50.702 Y-11.294 Z8.6
G0 Z9
X-5.006 Y-11.273
G1 Z8.6 F600
X-5.008 Y-11.265 Z8.522
X-5.014 Y-11.243 Z8.447
X-5.023 Y-11.208 Z8.378
X-5.036 Y-11.16 Z8.317
X-5.052 Y-11.101 Z8.267
X-5.07 Y-11.034 Z8.23
X-5.089 Y-10.962 Z8.208
X-5.11 Y-10.886 Z8.2
G3 X-5.495 Y-10.202 I-1.528 J-0.411
G1 X-5.659 Y-10.043 F1300
X-5.824 Y-9.88
X-6.972 Y-8.732
X-7.194 Y-8.531
X-7.378 Y-8.39
X-7.615 Y-8.236
X-7.899 Y-8.083
X-8.271 Y-7.92
X-8.748 Y-7.754
X-9.4 Y-7.586
X-10.111 Y-7.461
X-10.829 Y-7.379
X-11.548 Y-7.323
X-12.269 Y-7.287
X-12.991 Y-7.262
X-13.713 Y-7.246
X-14.435 Y-7.235
X-15.157 Y-7.228
X-15.879 Y-7.224
X-16.601 Y-7.221
X-18.045 Y-7.218
X-20.933
X-46.898 Y-7.236
X-47.139 Y-7.268
X-47.364 Y-7.362
X-47.557 Y-7.51
X-49.158 Y-9.111
G3 X-49.265 Y-9.384 I0.293 J-0.273 F800
G1 X-49.263 Y-9.426
X-49.256 Y-9.468
X-49.231 Y-9.523 Z8.205
X-49.206 Y-9.577 Z8.219
X-49.182 Y-9.628 Z8.242
X-49.141 Y-9.663 Z8.274
X-49.103 Y-9.693 Z8.315
X-49.072 Y-9.719 Z8.363
X-49.046 Y-9.741 Z8.417
X-49.024 Y-9.75 Z8.475
X-49.01 Y-9.756 Z8.537
X-49.006 Y-9.758 Z8.6
G0 Z9
X-6.497 Y-9.809
G1 Z8.6 F600
X-6.499 Y-9.802 Z8.522
X-6.504 Y-9.78 Z8.447
X-6.513 Y-9.744 Z8.378
X-6.526 Y-9.696 Z8.317
X-6.541 Y-9.637 Z8.267
X-6.558 Y-9.57 Z8.23
X-6.576 Y-9.497 Z8.208
X-6.595 Y-9.421 Z8.2
G3 X-6.972 Y-8.732 I-1.534 J-0.39
G1 X-8.576 Y-7.128 F1300
X-8.757 Y-6.964
X-8.946 Y-6.819
X-9.187 Y-6.663
X-9.479 Y-6.505
X-9.858 Y-6.339
X-10.349 Y-6.169
X-11.015 Y-5.996
X-11.727 Y-5.872
X-12.444 Y-5.788
X-13.164 Y-5.732
X-13.885 Y-5.694
X-14.606 Y-5.668
X-15.328 Y-5.651
X-16.05 Y-5.639
X-16.772 Y-5.632
X-17.494 Y-5.627
X-18.216 Y-5.623
X-19.66 Y-5.62
X-21.826 Y-5.619
X-30.49 Y-5.625
X-45.296 Y-5.635
X-45.538 Y-5.667
X-45.763 Y-5.76
X-45.956 Y-5.909
X-47.557 Y-7.51
G3 X-47.664 Y-7.782 I0.293 J-0.273 F800
G1 Y-7.783
X-47.662 Y-7.825
X-47.655 Y-7.867
X-47.63 Y-7.922 Z8.205
X-47.605 Y-7.976 Z8.219
X-47.581 Y-8.027 Z8.242
X-47.539 Y-8.061 Z8.274
X-47.502 Y-8.092 Z8.315
X-47.471 Y-8.118 Z8.363
X-47.445 Y-8.139 Z8.417
X-47.423 Y-8.149 Z8.475
X-47.409 Y-8.155 Z8.537
X-47.404 Y-8.157 Z8.6
G0 Z9
X-8.101 Y-8.205
G1 Z8.6 F600
X-8.103 Y-8.197 Z8.522
X-8.109 Y-8.175 Z8.447
X-8.118 Y-8.139 Z8.378
X-8.13 Y-8.091 Z8.317
X-8.145 Y-8.032 Z8.267
X-8.162 Y-7.965 Z8.23
X-8.181 Y-7.893 Z8.208
X-8.2 Y-7.817 Z8.2
G3 X-8.576 Y-7.128 I-1.534 J-0.39
G1 X-10.215 Y-5.489 F1300
X-10.338 Y-5.377
X-10.529 Y-5.231
X-10.773 Y-5.073
X-11.067 Y-4.915
X-11.45 Y-4.747
X-11.947 Y-4.575
X-12.081 Y-4.541
X-12.144 Y-4.527
X-12.209 Y-4.517
X-12.273 Y-4.512
G3 X-12.677 Y-4.908 Z8.4 I-0.004 J-0.4 F800
G1 X-12.673 Y-4.971
X-12.658 Y-5.032
G3 X-12.45 Y-5.272 I0.381 J0.12 F1300
G1 X-10.681 Y-6.122
G3 X-10.339 Y-6.125 I0.173 J0.361
G1 X-10.284 Y-6.093 F600
X-10.234 Y-6.054
G3 X-10.215 Y-5.489 Z8.2 I-0.273 J0.292
G1 X-10.253 Y-5.451 F1300
X-10.581 Y-5.148
X-10.745 Y-5.01
X-10.975 Y-4.834
X-11.024 Y-4.798
X-11.073 Y-4.771
X-11.314 Y-4.67
X-11.483 Y-4.601
X-11.565 Y-4.579
X-11.893 Y-4.536
X-12.057 Y-4.522
X-12.549 Y-4.5
X-43.061
X-43.225 Y-4.503
X-43.553 Y-4.51
X-43.717 Y-4.517
X-44.045 Y-4.56
X-44.209 Y-4.584
X-44.373 Y-4.643
X-44.537 Y-4.711
X-44.701 Y-4.783
X-44.776 Y-4.834
X-44.99 Y-4.998
X-45.03 Y-5.031
X-45.358 Y-5.325
X-45.522 Y-5.475
X-45.956 Y-5.909
G3 X-46.063 Y-6.181 I0.293 J-0.273 F800
G1 X-46.061 Y-6.224
X-46.054 Y-6.266
X-46.029 Y-6.321 Z8.205
X-46.004 Y-6.375 Z8.219
X-45.98 Y-6.426 Z8.242
X-45.938 Y-6.46 Z8.274
X-45.901 Y-6.491 Z8.315
X-45.869 Y-6.517 Z8.363
X-45.844 Y-6.538 Z8.417
X-45.821 Y-6.548 Z8.475
X-45.808 Y-6.554 Z8.537
X-45.803 Y-6.556 Z8.6
G0 Z18
X-3.821 Y-12.06
Z10.15
G1 Z9.75 F600
Z7.75
G3 X-1.621 Y-12.015 I1.076 J1.207
G1 X-1.655 Y-11.993 F1300
X-1.689 Y-11.975
X-1.722 Y-11.961
X-1.763 Y-11.948
X-1.804 Y-11.94
X-2.051 Y-11.908
X-2.379 Y-11.862
X-2.543 Y-11.839
X-2.707 Y-11.808
X-2.871 Y-11.765
X-3.035 Y-11.703
X-3.199 Y-11.637
X-3.801 Y-11.388
X-4.165 Y-11.224
X-4.183 Y-11.212
X-4.31 Y-11.132
X-4.635 Y-10.996
X-5.071 Y-10.854
X-5.685 Y-10.706
X-6.399 Y-10.595
X-7.117 Y-10.525
X-7.838 Y-10.482
X-8.56 Y-10.455
X-9.281 Y-10.439
X-10.003 Y-10.428
X-10.725 Y-10.422
X-11.447 Y-10.418
X-12.169 Y-10.416
X-13.613 Y-10.414
X-17.223 Y-10.415
X-50.201 Y-10.439
X-50.403 Y-10.461
X-50.596 Y-10.526
X-50.769 Y-10.632
X-51.099 Y-10.885
X-51.499 Y-11.174
X-51.509 Y-11.18
X-51.919 Y-11.374
X-51.95 Y-11.388
X-52.411 Y-11.579
X-52.576 Y-11.644
X-53.037 Y-11.808
X-53.56 Y-11.889
X-53.888 Y-11.932
X-53.97 Y-11.944
X-54.011 Y-11.955
X-54.052 Y-11.97
G3 X-54.25 Y-12.283 I0.201 J-0.346 F800
G1 X-54.251 Y-12.316 Z7.751
X-54.237 Y-12.376 Z7.761
X-54.224 Y-12.434 Z7.781
X-54.212 Y-12.488 Z7.81
X-54.174 Y-12.535 Z7.856
X-54.143 Y-12.575 Z7.914
X-54.119 Y-12.606 Z7.98
X-54.103 Y-12.626 Z8.052
X-54.096 Y-12.632 Z8.101
X-54.093 Y-12.634 Z8.15
G0 Z18
X-4.928 Y-10.962
Z10.15
G1 Z9.75 F600
Z7.75
G3 X-4.183 Y-11.212 I0.75 J0.999
G1 X-4.636 Y-10.896 F1300
X-4.675 Y-10.867
X-5.167 Y-10.49
X-5.331 Y-10.361
X-5.495 Y-10.202
X-5.703 Y-10.02
X-5.876 Y-9.891
X-6.099 Y-9.75
X-6.377 Y-9.606
X-6.737 Y-9.453
X-7.206 Y-9.298
X-7.863 Y-9.138
X-8.576 Y-9.023
X-9.294 Y-8.949
X-10.014 Y-8.901
X-10.735 Y-8.87
X-11.457 Y-8.85
X-12.179 Y-8.837
X-12.901 Y-8.828
X-13.623 Y-8.823
X-14.345 Y-8.82
X-15.789 Y-8.817
X-18.677
X-48.499 Y-8.838
X-48.74 Y-8.87
X-48.965 Y-8.963
X-49.158 Y-9.111
X-49.961 Y-9.913
X-50.296 Y-10.241
X-50.443 Y-10.38
X-50.473 Y-10.405
X-50.769 Y-10.632
G3 X-50.913 Y-10.974 I0.255 J-0.308 F800
G1 X-50.895 Y-11.031 Z7.755
X-50.877 Y-11.088 Z7.769
X-50.86 Y-11.142 Z7.792
X-50.824 Y-11.181 Z7.824
X-50.791 Y-11.216 Z7.865
X-50.763 Y-11.247 Z7.913
X-50.74 Y-11.271 Z7.967
X-50.719 Y-11.283 Z8.025
X-50.707 Y-11.291 Z8.087
X-50.702 Y-11.294 Z8.15
G0 Z8.55
X-5.006 Y-11.273
G1 Z8.15 F600
X-5.008 Y-11.265 Z8.072
X-5.014 Y-11.243 Z7.997
X-5.023 Y-11.208 Z7.928
X-5.036 Y-11.16 Z7.867
X-5.052 Y-11.101 Z7.817
X-5.07 Y-11.034 Z7.78
X-5.089 Y-10.962 Z7.758
X-5.11 Y-10.886 Z7.75
G3 X-5.495 Y-10.202 I-1.528 J-0.411
G1 X-5.659 Y-10.043 F1300
X-5.824 Y-9.88
X-6.972 Y-8.732
X-7.194 Y-8.531
X-7.378 Y-8.39
X-7.615 Y-8.236
X-7.899 Y-8.083
X-8.271 Y-7.92
X-8.748 Y-7.754
X-9.4 Y-7.586
X-10.111 Y-7.461
X-10.829 Y-7.379
X-11.548 Y-7.323
X-12.269 Y-7.287
X-12.991 Y-7.262
X-13.713 Y-7.246
X-14.435 Y-7.235
X-15.157 Y-7.228
X-15.879 Y-7.224
X-16.601 Y-7.221
X-18.045 Y-7.218
X-20.933
X-46.898 Y-7.236
X-47.139 Y-7.268
X-47.364 Y-7.362
X-47.557 Y-7.51
X-49.158 Y-9.111
G3 X-49.265 Y-9.384 I0.293 J-0.273 F800
G1 X-49.263 Y-9.426
X-49.256 Y-9.468
X-49.231 Y-9.523 Z7.755
X-49.206 Y-9.577 Z7.769
X-49.182 Y-9.628 Z7.792
X-49.141 Y-9.663 Z7.824
X-49.103 Y-9.693 Z7.865
X-49.072 Y-9.719 Z7.913
X-49.046 Y-9.741 Z7.967
X-49.024 Y-9.75 Z8.025
X-49.01 Y-9.756 Z8.087
X-49.006 Y-9.758 Z8.15
G0 Z8.55
X-6.497 Y-9.809
G1 Z8.15 F600
X-6.499 Y-9.802 Z8.072
X-6.504 Y-9.78 Z7.997
X-6.513 Y-9.744 Z7.928
X-6.526 Y-9.696 Z7.867
X-6.541 Y-9.637 Z7.817
X-6.558 Y-9.57 Z7.78
X-6.576 Y-9.497 Z7.758
X-6.595 Y-9.421 Z7.75
G3 X-6.972 Y-8.732 I-1.534 J-0.39
G1 X-8.576 Y-7.128 F1300
X-8.757 Y-6.964
X-8.946 Y-6.819
X-9.187 Y-6.663
X-9.479 Y-6.505
X-9.858 Y-6.339
X-10.349 Y-6.169
X-11.015 Y-5.996
X-11.727 Y-5.872
X-12.444 Y-5.788
X-13.164 Y-5.732
X-13.885 Y-5.694
X-14.606 Y-5.668
X-15.328 Y-5.651
X-16.05 Y-5.639
X-16.772 Y-5.632
X-17.494 Y-5.627
X-18.216 Y-5.623
X-19.66 Y-5.62
X-21.826 Y-5.619
X-30.49 Y-5.625
X-45.296 Y-5.635
X-45.538 Y-5.667
X-45.763 Y-5.76
X-45.956 Y-5.909
X-47.557 Y-7.51
G3 X-47.664 Y-7.782 I0.293 J-0.273 F800
G1 Y-7.783
X-47.662 Y-7.825
X-47.655 Y-7.867
X-47.63 Y-7.922 Z7.755
X-47.605 Y-7.976 Z7.769
X-47.581 Y-8.027 Z7.792
X-47.539 Y-8.061 Z7.824
X-47.502 Y-8.092 Z7.865
X-47.471 Y-8.118 Z7.913
X-47.445 Y-8.139 Z7.967
X-47.423 Y-8.149 Z8.025
X-47.409 Y-8.155 Z8.087
X-47.404 Y-8.157 Z8.15
G0 Z8.55
X-8.101 Y-8.205
G1 Z8.15 F600
X-8.103 Y-8.197 Z8.072
X-8.109 Y-8.175 Z7.997
X-8.118 Y-8.139 Z7.928
X-8.13 Y-8.091 Z7.867
X-8.145 Y-8.032 Z7.817
X-8.162 Y-7.965 Z7.78
X-8.181 Y-7.893 Z7.758
X-8.2 Y-7.817 Z7.75
G3 X-8.576 Y-7.128 I-1.534 J-0.39
G1 X-10.215 Y-5.489 F1300
X-10.338 Y-5.377
X-10.529 Y-5.231
X-10.773 Y-5.073
X-11.067 Y-4.915
X-11.45 Y-4.747
X-11.947 Y-4.575
X-12.081 Y-4.541
X-12.144 Y-4.527
X-12.209 Y-4.517
X-12.273 Y-4.512
G3 X-12.677 Y-4.908 Z7.95 I-0.004 J-0.4 F800
G1 X-12.673 Y-4.971
X-12.658 Y-5.032
G3 X-12.45 Y-5.272 I0.381 J0.12 F1300
G1 X-10.681 Y-6.122
G3 X-10.339 Y-6.125 I0.173 J0.361
G1 X-10.284 Y-6.093 F600
X-10.234 Y-6.054
G3 X-10.215 Y-5.489 Z7.75 I-0.273 J0.292
G1 X-10.253 Y-5.451 F1300
X-10.581 Y-5.148
X-10.745 Y-5.01
X-10.975 Y-4.834
X-11.024 Y-4.798
X-11.073 Y-4.771
X-11.314 Y-4.67
X-11.483 Y-4.601
X-11.565 Y-4.579
X-11.893 Y-4.536
X-12.057 Y-4.522
X-12.549 Y-4.5
X-43.061
X-43.225 Y-4.503
X-43.553 Y-4.51
X-43.717 Y-4.517
X-44.045 Y-4.56
X-44.209 Y-4.584
X-44.373 Y-4.643
X-44.537 Y-4.711
X-44.701 Y-4.783
X-44.776 Y-4.834
X-44.99 Y-4.998
X-45.03 Y-5.031
X-45.358 Y-5.325
X-45.522 Y-5.475
X-45.956 Y-5.909
G3 X-46.063 Y-6.181 I0.293 J-0.273 F800
G1 X-46.061 Y-6.224
X-46.054 Y-6.266
X-46.029 Y-6.321 Z7.755
X-46.004 Y-6.375 Z7.769
X-45.98 Y-6.426 Z7.792
X-45.938 Y-6.46 Z7.824
X-45.901 Y-6.491 Z7.865
X-45.869 Y-6.517 Z7.913
X-45.844 Y-6.538 Z7.967
X-45.821 Y-6.548 Z8.025
X-45.808 Y-6.554 Z8.087
X-45.803 Y-6.556 Z8.15
G0 Z9.7
X-3.821 Y-12.06
G1 Z9.3 F600
Z7.3
G3 X-1.621 Y-12.015 I1.076 J1.207
G1 X-1.655 Y-11.993 F1300
X-1.689 Y-11.975
X-1.722 Y-11.961
X-1.763 Y-11.948
X-1.804 Y-11.94
X-2.051 Y-11.908
X-2.379 Y-11.862
X-2.543 Y-11.839
X-2.707 Y-11.808
X-2.871 Y-11.765
X-3.035 Y-11.703
X-3.199 Y-11.637
X-3.801 Y-11.388
X-4.165 Y-11.224
X-4.183 Y-11.212
X-4.31 Y-11.132
X-4.635 Y-10.996
X-5.071 Y-10.854
X-5.685 Y-10.706
X-6.399 Y-10.595
X-7.117 Y-10.525
X-7.838 Y-10.482
X-8.56 Y-10.455
X-9.281 Y-10.439
X-10.003 Y-10.428
X-10.725 Y-10.422
X-11.447 Y-10.418
X-12.169 Y-10.416
X-13.613 Y-10.414
X-17.223 Y-10.415
X-50.201 Y-10.439
X-50.403 Y-10.461
X-50.596 Y-10.526
X-50.769 Y-10.632
X-51.099 Y-10.885
X-51.499 Y-11.174
X-51.509 Y-11.18
X-51.919 Y-11.374
X-51.95 Y-11.388
X-52.411 Y-11.579
X-52.576 Y-11.644
X-53.037 Y-11.808
X-53.56 Y-11.889
X-53.888 Y-11.932
X-53.97 Y-11.944
X-54.011 Y-11.955
X-54.052 Y-11.97
G3 X-54.25 Y-12.283 I0.201 J-0.346 F800
G1 X-54.251 Y-12.316 Z7.301
X-54.237 Y-12.376 Z7.311
X-54.224 Y-12.434 Z7.331
X-54.212 Y-12.488 Z7.36
X-54.174 Y-12.535 Z7.406
X-54.143 Y-12.575 Z7.464
X-54.119 Y-12.606 Z7.53
X-54.103 Y-12.626 Z7.602
X-54.096 Y-12.632 Z7.651
X-54.093 Y-12.634 Z7.7
G0 Z18
X-4.928 Y-10.962
Z9.7
G1 Z9.3 F600
Z7.3
G3 X-4.183 Y-11.212 I0.75 J0.999
G1 X-4.636 Y-10.896 F1300
X-4.675 Y-10.867
X-5.167 Y-10.49
X-5.331 Y-10.361
X-5.495 Y-10.202
X-5.703 Y-10.02
X-5.876 Y-9.891
X-6.099 Y-9.75
X-6.377 Y-9.606
X-6.737 Y-9.453
X-7.206 Y-9.298
X-7.863 Y-9.138
X-8.576 Y-9.023
X-9.294 Y-8.949
X-10.014 Y-8.901
X-10.735 Y-8.87
X-11.457 Y-8.85
X-12.179 Y-8.837
X-12.901 Y-8.828
X-13.623 Y-8.823
X-14.345 Y-8.82
X-15.789 Y-8.817
X-18.677
X-48.499 Y-8.838
X-48.74 Y-8.87
X-48.965 Y-8.963
X-49.158 Y-9.111
X-49.961 Y-9.913
X-50.296 Y-10.241
X-50.443 Y-10.38
X-50.473 Y-10.405
X-50.769 Y-10.632
G3 X-50.913 Y-10.974 I0.255 J-0.308 F800
G1 X-50.895 Y-11.031 Z7.305
X-50.877 Y-11.088 Z7.319
X-50.86 Y-11.142 Z7.342
X-50.824 Y-11.181 Z7.374
X-50.791 Y-11.216 Z7.415
X-50.763 Y-11.247 Z7.463
X-50.74 Y-11.271 Z7.517
X-50.719 Y-11.283 Z7.575
X-50.707 Y-11.291 Z7.637
X-50.702 Y-11.294 Z7.7
G0 Z8.1
X-5.006 Y-11.273
G1 Z7.7 F600
X-5.008 Y-11.265 Z7.622
X-5.014 Y-11.243 Z7.547
X-5.023 Y-11.208 Z7.478
X-5.036 Y-11.16 Z7.417
X-5.052 Y-11.101 Z7.367
X-5.07 Y-11.034 Z7.33
X-5.089 Y-10.962 Z7.308
X-5.11 Y-10.886 Z7.3
G3 X-5.495 Y-10.202 I-1.528 J-0.411
G1 X-5.659 Y-10.043 F1300
X-5.824 Y-9.88
X-6.972 Y-8.732
X-7.194 Y-8.531
X-7.378 Y-8.39
X-7.615 Y-8.236
X-7.899 Y-8.083
X-8.271 Y-7.92
X-8.748 Y-7.754
X-9.4 Y-7.586
X-10.111 Y-7.461
X-10.829 Y-7.379
X-11.548 Y-7.323
X-12.269 Y-7.287
X-12.991 Y-7.262
X-13.713 Y-7.246
X-14.435 Y-7.235
X-15.157 Y-7.228
X-15.879 Y-7.224
X-16.601 Y-7.221
X-18.045 Y-7.218
X-20.933
X-46.898 Y-7.236
X-47.139 Y-7.268
X-47.364 Y-7.362
X-47.557 Y-7.51
X-49.158 Y-9.111
G3 X-49.265 Y-9.384 I0.293 J-0.273 F800
G1 X-49.263 Y-9.426
X-49.256 Y-9.468
X-49.231 Y-9.523 Z7.305
X-49.206 Y-9.577 Z7.319
X-49.182 Y-9.628 Z7.342
X-49.141 Y-9.663 Z7.374
X-49.103 Y-9.693 Z7.415
X-49.072 Y-9.719 Z7.463
X-49.046 Y-9.741 Z7.517
X-49.024 Y-9.75 Z7.575
X-49.01 Y-9.756 Z7.637
X-49.006 Y-9.758 Z7.7
G0 Z8.1
X-6.497 Y-9.809
G1 Z7.7 F600
X-6.499 Y-9.802 Z7.622
X-6.504 Y-9.78 Z7.547
X-6.513 Y-9.744 Z7.478
X-6.526 Y-9.696 Z7.417
X-6.541 Y-9.637 Z7.367
X-6.558 Y-9.57 Z7.33
X-6.576 Y-9.497 Z7.308
X-6.595 Y-9.421 Z7.3
G3 X-6.972 Y-8.732 I-1.534 J-0.39
G1 X-8.576 Y-7.128 F1300
X-8.757 Y-6.964
X-8.946 Y-6.819
X-9.187 Y-6.663
X-9.479 Y-6.505
X-9.858 Y-6.339
X-10.349 Y-6.169
X-11.015 Y-5.996
X-11.727 Y-5.872
X-12.444 Y-5.788
X-13.164 Y-5.732
X-13.885 Y-5.694
X-14.606 Y-5.668
X-15.328 Y-5.651
X-16.05 Y-5.639
X-16.772 Y-5.632
X-17.494 Y-5.627
X-18.216 Y-5.623
X-19.66 Y-5.62
X-21.826 Y-5.619
X-30.49 Y-5.625
X-45.296 Y-5.635
X-45.538 Y-5.667
X-45.763 Y-5.76
X-45.956 Y-5.909
X-47.557 Y-7.51
G3 X-47.664 Y-7.782 I0.293 J-0.273 F800
G1 Y-7.783
X-47.662 Y-7.825
X-47.655 Y-7.867
X-47.63 Y-7.922 Z7.305
X-47.605 Y-7.976 Z7.319
X-47.581 Y-8.027 Z7.342
X-47.539 Y-8.061 Z7.374
X-47.502 Y-8.092 Z7.415
X-47.471 Y-8.118 Z7.463
X-47.445 Y-8.139 Z7.517
X-47.423 Y-8.149 Z7.575
X-47.409 Y-8.155 Z7.637
X-47.404 Y-8.157 Z7.7
G0 Z8.1
X-8.101 Y-8.205
G1 Z7.7 F600
X-8.103 Y-8.197 Z7.622
X-8.109 Y-8.175 Z7.547
X-8.118 Y-8.139 Z7.478
X-8.13 Y-8.091 Z7.417
X-8.145 Y-8.032 Z7.367
X-8.162 Y-7.965 Z7.33
X-8.181 Y-7.893 Z7.308
X-8.2 Y-7.817 Z7.3
G3 X-8.576 Y-7.128 I-1.534 J-0.39
G1 X-10.215 Y-5.489 F1300
X-10.338 Y-5.377
X-10.529 Y-5.231
X-10.773 Y-5.073
X-11.067 Y-4.915
X-11.45 Y-4.747
X-11.947 Y-4.575
X-12.081 Y-4.541
X-12.144 Y-4.527
X-12.209 Y-4.517
X-12.273 Y-4.512
G3 X-12.677 Y-4.908 Z7.5 I-0.004 J-0.4 F800
G1 X-12.673 Y-4.971
X-12.658 Y-5.032
G3 X-12.45 Y-5.272 I0.381 J0.12 F1300
G1 X-10.681 Y-6.122
G3 X-10.339 Y-6.125 I0.173 J0.361
G1 X-10.284 Y-6.093 F600
X-10.234 Y-6.054
G3 X-10.215 Y-5.489 Z7.3 I-0.273 J0.292
G1 X-10.253 Y-5.451 F1300
X-10.581 Y-5.148
X-10.745 Y-5.01
X-10.975 Y-4.834
X-11.024 Y-4.798
X-11.073 Y-4.771
X-11.314 Y-4.67
X-11.483 Y-4.601
X-11.565 Y-4.579
X-11.893 Y-4.536
X-12.057 Y-4.522
X-12.549 Y-4.5
X-43.061
X-43.225 Y-4.503
X-43.553 Y-4.51
X-43.717 Y-4.517
X-44.045 Y-4.56
X-44.209 Y-4.584
X-44.373 Y-4.643
X-44.537 Y-4.711
X-44.701 Y-4.783
X-44.776 Y-4.834
X-44.99 Y-4.998
X-45.03 Y-5.031
X-45.358 Y-5.325
X-45.522 Y-5.475
X-45.956 Y-5.909
G3 X-46.063 Y-6.181 I0.293 J-0.273 F800
G1 X-46.061 Y-6.224
X-46.054 Y-6.266
X-46.029 Y-6.321 Z7.305
X-46.004 Y-6.375 Z7.319
X-45.98 Y-6.426 Z7.342
X-45.938 Y-6.46 Z7.374
X-45.901 Y-6.491 Z7.415
X-45.869 Y-6.517 Z7.463
X-45.844 Y-6.538 Z7.517
X-45.821 Y-6.548 Z7.575
X-45.808 Y-6.554 Z7.637
X-45.803 Y-6.556 Z7.7
G0 Z9.25
X-3.821 Y-12.06
G1 Z8.85 F600
Z6.85
G3 X-1.621 Y-12.015 I1.076 J1.207
G1 X-1.655 Y-11.993 F1300
X-1.689 Y-11.975
X-1.722 Y-11.961
X-1.763 Y-11.948
X-1.804 Y-11.94
X-2.051 Y-11.908
X-2.379 Y-11.862
X-2.543 Y-11.839
X-2.707 Y-11.808
X-2.871 Y-11.765
X-3.035 Y-11.703
X-3.199 Y-11.637
X-3.801 Y-11.388
X-4.165 Y-11.224
X-4.183 Y-11.212
X-4.31 Y-11.132
X-4.635 Y-10.996
X-5.071 Y-10.854
X-5.685 Y-10.706
X-6.399 Y-10.595
X-7.117 Y-10.525
X-7.838 Y-10.482
X-8.56 Y-10.455
X-9.281 Y-10.439
X-10.003 Y-10.428
X-10.725 Y-10.422
X-11.447 Y-10.418
X-12.169 Y-10.416
X-13.613 Y-10.414
X-17.223 Y-10.415
X-50.201 Y-10.439
X-50.403 Y-10.461
X-50.596 Y-10.526
X-50.769 Y-10.632
X-51.099 Y-10.885
X-51.499 Y-11.174
X-51.509 Y-11.18
X-51.919 Y-11.374
X-51.95 Y-11.388
X-52.411 Y-11.579
X-52.576 Y-11.644
X-53.037 Y-11.808
X-53.56 Y-11.889
X-53.888 Y-11.932
X-53.97 Y-11.944
X-54.011 Y-11.955
X-54.052 Y-11.97
G3 X-54.25 Y-12.283 I0.201 J-0.346 F800
G1 X-54.251 Y-12.316 Z6.851
X-54.237 Y-12.376 Z6.861
X-54.224 Y-12.434 Z6.881
X-54.212 Y-12.488 Z6.91
X-54.174 Y-12.535 Z6.956
X-54.143 Y-12.575 Z7.014
X-54.119 Y-12.606 Z7.08
X-54.103 Y-12.626 Z7.152
X-54.096 Y-12.632 Z7.201
X-54.093 Y-12.634 Z7.25
G0 Z18
X-4.928 Y-10.962
Z9.25
G1 Z8.85 F600
Z6.85
G3 X-4.183 Y-11.212 I0.75 J0.999
G1 X-4.636 Y-10.896 F1300
X-4.675 Y-10.867
X-5.167 Y-10.49
X-5.331 Y-10.361
X-5.495 Y-10.202
X-5.703 Y-10.02
X-5.876 Y-9.891
X-6.099 Y-9.75
X-6.377 Y-9.606
X-6.737 Y-9.453
X-7.206 Y-9.298
X-7.863 Y-9.138
X-8.576 Y-9.023
X-9.294 Y-8.949
X-10.014 Y-8.901
X-10.735 Y-8.87
X-11.457 Y-8.85
X-12.179 Y-8.837
X-12.901 Y-8.828
X-13.623 Y-8.823
X-14.345 Y-8.82
X-15.789 Y-8.817
X-18.677
X-48.499 Y-8.838
X-48.74 Y-8.87
X-48.965 Y-8.963
X-49.158 Y-9.111
X-49.961 Y-9.913
X-50.296 Y-10.241
X-50.443 Y-10.38
X-50.473 Y-10.405
X-50.769 Y-10.632
G3 X-50.913 Y-10.974 I0.255 J-0.308 F800
G1 X-50.895 Y-11.031 Z6.855
X-50.877 Y-11.088 Z6.869
X-50.86 Y-11.142 Z6.892
X-50.824 Y-11.181 Z6.924
X-50.791 Y-11.216 Z6.965
X-50.763 Y-11.247 Z7.013
X-50.74 Y-11.271 Z7.067
X-50.719 Y-11.283 Z7.125
X-50.707 Y-11.291 Z7.187
X-50.702 Y-11.294 Z7.25
G0 Z7.65
X-5.006 Y-11.273
G1 Z7.25 F600
X-5.008 Y-11.265 Z7.172
X-5.014 Y-11.243 Z7.097
X-5.023 Y-11.208 Z7.028
X-5.036 Y-11.16 Z6.967
X-5.052 Y-11.101 Z6.917
X-5.07 Y-11.034 Z6.88
X-5.089 Y-10.962 Z6.858
X-5.11 Y-10.886 Z6.85
G3 X-5.495 Y-10.202 I-1.528 J-0.411
G1 X-5.659 Y-10.043 F1300
X-5.824 Y-9.88
X-6.972 Y-8.732
X-7.194 Y-8.531
X-7.378 Y-8.39
X-7.615 Y-8.236
X-7.899 Y-8.083
X-8.271 Y-7.92
X-8.748 Y-7.754
X-9.4 Y-7.586
X-10.111 Y-7.461
X-10.829 Y-7.379
X-11.548 Y-7.323
X-12.269 Y-7.287
X-12.991 Y-7.262
X-13.713 Y-7.246
X-14.435 Y-7.235
X-15.157 Y-7.228
X-15.879 Y-7.224
X-16.601 Y-7.221
X-18.045 Y-7.218
X-20.933
X-46.898 Y-7.236
X-47.139 Y-7.268
X-47.364 Y-7.362
X-47.557 Y-7.51
X-49.158 Y-9.111
G3 X-49.265 Y-9.384 I0.293 J-0.273 F800
G1 X-49.263 Y-9.426
X-49.256 Y-9.468
X-49.231 Y-9.523 Z6.855
X-49.206 Y-9.577 Z6.869
X-49.182 Y-9.628 Z6.892
X-49.141 Y-9.663 Z6.924
X-49.103 Y-9.693 Z6.965
X-49.072 Y-9.719 Z7.013
X-49.046 Y-9.741 Z7.067
X-49.024 Y-9.75 Z7.125
X-49.01 Y-9.756 Z7.187
X-49.006 Y-9.758 Z7.25
G0 Z7.65
X-6.497 Y-9.809
G1 Z7.25 F600
X-6.499 Y-9.802 Z7.172
X-6.504 Y-9.78 Z7.097
X-6.513 Y-9.744 Z7.028
X-6.526 Y-9.696 Z6.967
X-6.541 Y-9.637 Z6.917
X-6.558 Y-9.57 Z6.88
X-6.576 Y-9.497 Z6.858
X-6.595 Y-9.421 Z6.85
G3 X-6.972 Y-8.732 I-1.534 J-0.39
G1 X-8.576 Y-7.128 F1300
X-8.757 Y-6.964
X-8.946 Y-6.819
X-9.187 Y-6.663
X-9.479 Y-6.505
X-9.858 Y-6.339
X-10.349 Y-6.169
X-11.015 Y-5.996
X-11.727 Y-5.872
X-12.444 Y-5.788
X-13.164 Y-5.732
X-13.885 Y-5.694
X-14.606 Y-5.668
X-15.328 Y-5.651
X-16.05 Y-5.639
X-16.772 Y-5.632
X-17.494 Y-5.627
X-18.216 Y-5.623
X-19.66 Y-5.62
X-21.826 Y-5.619
X-30.49 Y-5.625
X-45.296 Y-5.635
X-45.538 Y-5.667
X-45.763 Y-5.76
X-45.956 Y-5.909
X-47.557 Y-7.51
G3 X-47.664 Y-7.782 I0.293 J-0.273 F800
G1 Y-7.783
X-47.662 Y-7.825
X-47.655 Y-7.867
X-47.63 Y-7.922 Z6.855
X-47.605 Y-7.976 Z6.869
X-47.581 Y-8.027 Z6.892
X-47.539 Y-8.061 Z6.924
X-47.502 Y-8.092 Z6.965
X-47.471 Y-8.118 Z7.013
X-47.445 Y-8.139 Z7.067
X-47.423 Y-8.149 Z7.125
X-47.409 Y-8.155 Z7.187
X-47.404 Y-8.157 Z7.25
G0 Z7.65
X-8.101 Y-8.205
G1 Z7.25 F600
X-8.103 Y-8.197 Z7.172
X-8.109 Y-8.175 Z7.097
X-8.118 Y-8.139 Z7.028
X-8.13 Y-8.091 Z6.967
X-8.145 Y-8.032 Z6.917
X-8.162 Y-7.965 Z6.88
X-8.181 Y-7.893 Z6.858
X-8.2 Y-7.817 Z6.85
G3 X-8.576 Y-7.128 I-1.534 J-0.39
G1 X-10.215 Y-5.489 F1300
X-10.338 Y-5.377
X-10.529 Y-5.231
X-10.773 Y-5.073
X-11.067 Y-4.915
X-11.45 Y-4.747
X-11.947 Y-4.575
X-12.081 Y-4.541
X-12.144 Y-4.527
X-12.209 Y-4.517
X-12.273 Y-4.512
G3 X-12.677 Y-4.908 Z7.05 I-0.004 J-0.4 F800
G1 X-12.673 Y-4.971
X-12.658 Y-5.032
G3 X-12.45 Y-5.272 I0.381 J0.12 F1300
G1 X-10.681 Y-6.122
G3 X-10.339 Y-6.125 I0.173 J0.361
G1 X-10.284 Y-6.093 F600
X-10.234 Y-6.054
G3 X-10.215 Y-5.489 Z6.85 I-0.273 J0.292
G1 X-10.253 Y-5.451 F1300
X-10.581 Y-5.148
X-10.745 Y-5.01
X-10.975 Y-4.834
X-11.024 Y-4.798
X-11.073 Y-4.771
X-11.314 Y-4.67
X-11.483 Y-4.601
X-11.565 Y-4.579
X-11.893 Y-4.536
X-12.057 Y-4.522
X-12.549 Y-4.5
X-43.061
X-43.225 Y-4.503
X-43.553 Y-4.51
X-43.717 Y-4.517
X-44.045 Y-4.56
X-44.209 Y-4.584
X-44.373 Y-4.643
X-44.537 Y-4.711
X-44.701 Y-4.783
X-44.776 Y-4.834
X-44.99 Y-4.998
X-45.03 Y-5.031
X-45.358 Y-5.325
X-45.522 Y-5.475
X-45.956 Y-5.909
G3 X-46.063 Y-6.181 I0.293 J-0.273 F800
G1 X-46.061 Y-6.224
X-46.054 Y-6.266
X-46.029 Y-6.321 Z6.855
X-46.004 Y-6.375 Z6.869
X-45.98 Y-6.426 Z6.892
X-45.938 Y-6.46 Z6.924
X-45.901 Y-6.491 Z6.965
X-45.869 Y-6.517 Z7.013
X-45.844 Y-6.538 Z7.067
X-45.821 Y-6.548 Z7.125
X-45.808 Y-6.554 Z7.187
X-45.803 Y-6.556 Z7.25
G0 Z8.8
X-3.821 Y-12.06
G1 Z8.4 F600
Z6.4
G3 X-1.621 Y-12.015 I1.076 J1.207
G1 X-1.655 Y-11.993 F1300
X-1.689 Y-11.975
X-1.722 Y-11.961
X-1.763 Y-11.948
X-1.804 Y-11.94
X-2.051 Y-11.908
X-2.379 Y-11.862
X-2.543 Y-11.839
X-2.707 Y-11.808
X-2.871 Y-11.765
X-3.035 Y-11.703
X-3.199 Y-11.637
X-3.801 Y-11.388
X-4.165 Y-11.224
X-4.183 Y-11.212
X-4.31 Y-11.132
X-4.635 Y-10.996
X-5.071 Y-10.854
X-5.685 Y-10.706
X-6.399 Y-10.595
X-7.117 Y-10.525
X-7.838 Y-10.482
X-8.56 Y-10.455
X-9.281 Y-10.439
X-10.003 Y-10.428
X-10.725 Y-10.422
X-11.447 Y-10.418
X-12.169 Y-10.416
X-13.613 Y-10.414
X-17.223 Y-10.415
X-50.201 Y-10.439
X-50.403 Y-10.461
X-50.596 Y-10.526
X-50.769 Y-10.632
X-51.099 Y-10.885
X-51.499 Y-11.174
X-51.509 Y-11.18
X-51.919 Y-11.374
X-51.95 Y-11.388
X-52.411 Y-11.579
X-52.576 Y-11.644
X-53.037 Y-11.808
X-53.56 Y-11.889
X-53.888 Y-11.932
X-53.97 Y-11.944
X-54.011 Y-11.955
X-54.052 Y-11.97
G3 X-54.25 Y-12.283 I0.201 J-0.346 F800
G1 X-54.251 Y-12.316 Z6.401
X-54.237 Y-12.376 Z6.411
X-54.224 Y-12.434 Z6.431
X-54.212 Y-12.488 Z6.46
X-54.174 Y-12.535 Z6.506
X-54.143 Y-12.575 Z6.564
X-54.119 Y-12.606 Z6.63
X-54.103 Y-12.626 Z6.702
X-54.096 Y-12.632 Z6.751
X-54.093 Y-12.634 Z6.8
G0 Z18
X-4.928 Y-10.962
Z8.8
G1 Z8.4 F600
Z6.4
G3 X-4.183 Y-11.212 I0.75 J0.999
G1 X-4.636 Y-10.896 F1300
X-4.675 Y-10.867
X-5.167 Y-10.49
X-5.331 Y-10.361
X-5.495 Y-10.202
X-5.703 Y-10.02
X-5.876 Y-9.891
X-6.099 Y-9.75
X-6.377 Y-9.606
X-6.737 Y-9.453
X-7.206 Y-9.298
X-7.863 Y-9.138
X-8.576 Y-9.023
X-9.294 Y-8.949
X-10.014 Y-8.901
X-10.735 Y-8.87
X-11.457 Y-8.85
X-12.179 Y-8.837
X-12.901 Y-8.828
X-13.623 Y-8.823
X-14.345 Y-8.82
X-15.789 Y-8.817
X-18.677
X-48.499 Y-8.838
X-48.74 Y-8.87
X-48.965 Y-8.963
X-49.158 Y-9.111
X-49.961 Y-9.913
X-50.296 Y-10.241
X-50.443 Y-10.38
X-50.473 Y-10.405
X-50.769 Y-10.632
G3 X-50.913 Y-10.974 I0.255 J-0.308 F800
G1 X-50.895 Y-11.031 Z6.405
X-50.877 Y-11.088 Z6.419
X-50.86 Y-11.142 Z6.442
X-50.824 Y-11.181 Z6.474
X-50.791 Y-11.216 Z6.515
X-50.763 Y-11.247 Z6.563
X-50.74 Y-11.271 Z6.617
X-50.719 Y-11.283 Z6.675
X-50.707 Y-11.291 Z6.737
X-50.702 Y-11.294 Z6.8
G0 Z7.2
X-5.006 Y-11.273
G1 Z6.8 F600
X-5.008 Y-11.265 Z6.722
X-5.014 Y-11.243 Z6.647
X-5.023 Y-11.208 Z6.578
X-5.036 Y-11.16 Z6.517
X-5.052 Y-11.101 Z6.467
X-5.07 Y-11.034 Z6.43
X-5.089 Y-10.962 Z6.408
X-5.11 Y-10.886 Z6.4
G3 X-5.495 Y-10.202 I-1.528 J-0.411
G1 X-5.659 Y-10.043 F1300
X-5.824 Y-9.88
X-6.972 Y-8.732
X-7.194 Y-8.531
X-7.378 Y-8.39
X-7.615 Y-8.236
X-7.899 Y-8.083
X-8.271 Y-7.92
X-8.748 Y-7.754
X-9.4 Y-7.586
X-10.111 Y-7.461
X-10.829 Y-7.379
X-11.548 Y-7.323
X-12.269 Y-7.287
X-12.991 Y-7.262
X-13.713 Y-7.246
X-14.435 Y-7.235
X-15.157 Y-7.228
X-15.879 Y-7.224
X-16.601 Y-7.221
X-18.045 Y-7.218
X-20.933
X-46.898 Y-7.236
X-47.139 Y-7.268
X-47.364 Y-7.362
X-47.557 Y-7.51
X-49.158 Y-9.111
G3 X-49.265 Y-9.384 I0.293 J-0.273 F800
G1 X-49.263 Y-9.426
X-49.256 Y-9.468
X-49.231 Y-9.523 Z6.405
X-49.206 Y-9.577 Z6.419
X-49.182 Y-9.628 Z6.442
X-49.141 Y-9.663 Z6.474
X-49.103 Y-9.693 Z6.515
X-49.072 Y-9.719 Z6.563
X-49.046 Y-9.741 Z6.617
X-49.024 Y-9.75 Z6.675
X-49.01 Y-9.756 Z6.737
X-49.006 Y-9.758 Z6.8
G0 Z7.2
X-6.497 Y-9.809
G1 Z6.8 F600
X-6.499 Y-9.802 Z6.722
X-6.504 Y-9.78 Z6.647
X-6.513 Y-9.744 Z6.578
X-6.526 Y-9.696 Z6.517
X-6.541 Y-9.637 Z6.467
X-6.558 Y-9.57 Z6.43
X-6.576 Y-9.497 Z6.408
X-6.595 Y-9.421 Z6.4
G3 X-6.972 Y-8.732 I-1.534 J-0.39
G1 X-8.576 Y-7.128 F1300
X-8.757 Y-6.964
X-8.946 Y-6.819
X-9.187 Y-6.663
X-9.479 Y-6.505
X-9.858 Y-6.339
X-10.349 Y-6.169
X-11.015 Y-5.996
X-11.727 Y-5.872
X-12.444 Y-5.788
X-13.164 Y-5.732
X-13.885 Y-5.694
X-14.606 Y-5.668
X-15.328 Y-5.651
X-16.05 Y-5.639
X-16.772 Y-5.632
X-17.494 Y-5.627
X-18.216 Y-5.623
X-19.66 Y-5.62
X-21.826 Y-5.619
X-30.49 Y-5.625
X-45.296 Y-5.635
X-45.538 Y-5.667
X-45.763 Y-5.76
X-45.956 Y-5.909
X-47.557 Y-7.51
G3 X-47.664 Y-7.782 I0.293 J-0.273 F800
G1 Y-7.783
X-47.662 Y-7.825
X-47.655 Y-7.867
X-47.63 Y-7.922 Z6.405
X-47.605 Y-7.976 Z6.419
X-47.581 Y-8.027 Z6.442
X-47.539 Y-8.061 Z6.474
X-47.502 Y-8.092 Z6.515
X-47.471 Y-8.118 Z6.563
X-47.445 Y-8.139 Z6.617
X-47.423 Y-8.149 Z6.675
X-47.409 Y-8.155 Z6.737
X-47.404 Y-8.157 Z6.8
G0 Z7.2
X-8.101 Y-8.205
G1 Z6.8 F600
X-8.103 Y-8.197 Z6.722
X-8.109 Y-8.175 Z6.647
X-8.118 Y-8.139 Z6.578
X-8.13 Y-8.091 Z6.517
X-8.145 Y-8.032 Z6.467
X-8.162 Y-7.965 Z6.43
X-8.181 Y-7.893 Z6.408
X-8.2 Y-7.817 Z6.4
G3 X-8.576 Y-7.128 I-1.534 J-0.39
G1 X-10.215 Y-5.489 F1300
X-10.338 Y-5.377
X-10.529 Y-5.231
X-10.773 Y-5.073
X-11.067 Y-4.915
X-11.45 Y-4.747
X-11.947 Y-4.575
X-12.081 Y-4.541
X-12.144 Y-4.527
X-12.209 Y-4.517
X-12.273 Y-4.512
G3 X-12.677 Y-4.908 Z6.6 I-0.004 J-0.4 F800
G1 X-12.673 Y-4.971
X-12.658 Y-5.032
G3 X-12.45 Y-5.272 I0.381 J0.12 F1300
G1 X-10.681 Y-6.122
G3 X-10.339 Y-6.125 I0.173 J0.361
G1 X-10.284 Y-6.093 F600
X-10.234 Y-6.054
G3 X-10.215 Y-5.489 Z6.4 I-0.273 J0.292
G1 X-10.253 Y-5.451 F1300
X-10.581 Y-5.148
X-10.745 Y-5.01
X-10.975 Y-4.834
X-11.024 Y-4.798
X-11.073 Y-4.771
X-11.314 Y-4.67
X-11.483 Y-4.601
X-11.565 Y-4.579
X-11.893 Y-4.536
X-12.057 Y-4.522
X-12.549 Y-4.5
X-43.061
X-43.225 Y-4.503
X-43.553 Y-4.51
X-43.717 Y-4.517
X-44.045 Y-4.56
X-44.209 Y-4.584
X-44.373 Y-4.643
X-44.537 Y-4.711
X-44.701 Y-4.783
X-44.776 Y-4.834
X-44.99 Y-4.998
X-45.03 Y-5.031
X-45.358 Y-5.325
X-45.522 Y-5.475
X-45.956 Y-5.909
G3 X-46.063 Y-6.181 I0.293 J-0.273 F800
G1 X-46.061 Y-6.224
X-46.054 Y-6.266
X-46.029 Y-6.321 Z6.405
X-46.004 Y-6.375 Z6.419
X-45.98 Y-6.426 Z6.442
X-45.938 Y-6.46 Z6.474
X-45.901 Y-6.491 Z6.515
X-45.869 Y-6.517 Z6.563
X-45.844 Y-6.538 Z6.617
X-45.821 Y-6.548 Z6.675
X-45.808 Y-6.554 Z6.737
X-45.803 Y-6.556 Z6.8
G0 Z8.35
X-3.821 Y-12.06
G1 Z7.95 F600
Z5.95
G3 X-1.621 Y-12.015 I1.076 J1.207
G1 X-1.655 Y-11.993 F1300
X-1.689 Y-11.975
X-1.722 Y-11.961
X-1.763 Y-11.948
X-1.804 Y-11.94
X-2.051 Y-11.908
X-2.379 Y-11.862
X-2.543 Y-11.839
X-2.707 Y-11.808
X-2.871 Y-11.765
X-3.035 Y-11.703
X-3.199 Y-11.637
X-3.801 Y-11.388
X-4.165 Y-11.224
X-4.183 Y-11.212
X-4.31 Y-11.132
X-4.635 Y-10.996
X-5.071 Y-10.854
X-5.685 Y-10.706
X-6.399 Y-10.595
X-7.117 Y-10.525
X-7.838 Y-10.482
X-8.56 Y-10.455
X-9.281 Y-10.439
X-10.003 Y-10.428
X-10.725 Y-10.422
X-11.447 Y-10.418
X-12.169 Y-10.416
X-13.613 Y-10.414
X-17.223 Y-10.415
X-50.201 Y-10.439
X-50.403 Y-10.461
X-50.596 Y-10.526
X-50.769 Y-10.632
X-51.099 Y-10.885
X-51.499 Y-11.174
X-51.509 Y-11.18
X-51.919 Y-11.374
X-51.95 Y-11.388
X-52.411 Y-11.579
X-52.576 Y-11.644
X-53.037 Y-11.808
X-53.56 Y-11.889
X-53.888 Y-11.932
X-53.97 Y-11.944
X-54.011 Y-11.955
X-54.052 Y-11.97
G3 X-54.25 Y-12.283 I0.201 J-0.346 F800
G1 X-54.251 Y-12.316 Z5.951
X-54.237 Y-12.376 Z5.961
X-54.224 Y-12.434 Z5.981
X-54.212 Y-12.488 Z6.01
X-54.174 Y-12.535 Z6.056
X-54.143 Y-12.575 Z6.114
X-54.119 Y-12.606 Z6.18
X-54.103 Y-12.626 Z6.252
X-54.096 Y-12.632 Z6.301
X-54.093 Y-12.634 Z6.35
G0 Z18
X-4.928 Y-10.962
Z8.35
G1 Z7.95 F600
Z5.95
G3 X-4.183 Y-11.212 I0.75 J0.999
G1 X-4.636 Y-10.896 F1300
X-4.675 Y-10.867
X-5.167 Y-10.49
X-5.331 Y-10.361
X-5.495 Y-10.202
X-5.703 Y-10.02
X-5.876 Y-9.891
X-6.099 Y-9.75
X-6.377 Y-9.606
X-6.737 Y-9.453
X-7.206 Y-9.298
X-7.863 Y-9.138
X-8.576 Y-9.023
X-9.294 Y-8.949
X-10.014 Y-8.901
X-10.735 Y-8.87
X-11.457 Y-8.85
X-12.179 Y-8.837
X-12.901 Y-8.828
X-13.623 Y-8.823
X-14.345 Y-8.82
X-15.789 Y-8.817
X-18.677
X-48.499 Y-8.838
X-48.74 Y-8.87
X-48.965 Y-8.963
X-49.158 Y-9.111
X-49.961 Y-9.913
X-50.296 Y-10.241
X-50.443 Y-10.38
X-50.473 Y-10.405
X-50.769 Y-10.632
G3 X-50.913 Y-10.974 I0.255 J-0.308 F800
G1 X-50.895 Y-11.031 Z5.955
X-50.877 Y-11.088 Z5.969
X-50.86 Y-11.142 Z5.992
X-50.824 Y-11.181 Z6.024
X-50.791 Y-11.216 Z6.065
X-50.763 Y-11.247 Z6.113
X-50.74 Y-11.271 Z6.167
X-50.719 Y-11.283 Z6.225
X-50.707 Y-11.291 Z6.287
X-50.702 Y-11.294 Z6.35
G0 Z6.75
X-5.006 Y-11.273
G1 Z6.35 F600
X-5.008 Y-11.265 Z6.272
X-5.014 Y-11.243 Z6.197
X-5.023 Y-11.208 Z6.128
X-5.036 Y-11.16 Z6.067
X-5.052 Y-11.101 Z6.017
X-5.07 Y-11.034 Z5.98
X-5.089 Y-10.962 Z5.958
X-5.11 Y-10.886 Z5.95
G3 X-5.495 Y-10.202 I-1.528 J-0.411
G1 X-5.659 Y-10.043 F1300
X-5.824 Y-9.88
X-6.972 Y-8.732
X-7.194 Y-8.531
X-7.378 Y-8.39
X-7.615 Y-8.236
X-7.899 Y-8.083
X-8.271 Y-7.92
X-8.748 Y-7.754
X-9.4 Y-7.586
X-10.111 Y-7.461
X-10.829 Y-7.379
X-11.548 Y-7.323
X-12.269 Y-7.287
X-12.991 Y-7.262
X-13.713 Y-7.246
X-14.435 Y-7.235
X-15.157 Y-7.228
X-15.879 Y-7.224
X-16.601 Y-7.221
X-18.045 Y-7.218
X-20.933
X-46.898 Y-7.236
X-47.139 Y-7.268
X-47.364 Y-7.362
X-47.557 Y-7.51
X-49.158 Y-9.111
G3 X-49.265 Y-9.384 I0.293 J-0.273 F800
G1 X-49.263 Y-9.426
X-49.256 Y-9.468
X-49.231 Y-9.523 Z5.955
X-49.206 Y-9.577 Z5.969
X-49.182 Y-9.628 Z5.992
X-49.141 Y-9.663 Z6.024
X-49.103 Y-9.693 Z6.065
X-49.072 Y-9.719 Z6.113
X-49.046 Y-9.741 Z6.167
X-49.024 Y-9.75 Z6.225
X-49.01 Y-9.756 Z6.287
X-49.006 Y-9.758 Z6.35
G0 Z6.75
X-6.497 Y-9.809
G1 Z6.35 F600
X-6.499 Y-9.802 Z6.272
X-6.504 Y-9.78 Z6.197
X-6.513 Y-9.744 Z6.128
X-6.526 Y-9.696 Z6.067
X-6.541 Y-9.637 Z6.017
X-6.558 Y-9.57 Z5.98
X-6.576 Y-9.497 Z5.958
X-6.595 Y-9.421 Z5.95
G3 X-6.972 Y-8.732 I-1.534 J-0.39
G1 X-8.576 Y-7.128 F1300
X-8.757 Y-6.964
X-8.946 Y-6.819
X-9.187 Y-6.663
X-9.479 Y-6.505
X-9.858 Y-6.339
X-10.349 Y-6.169
X-11.015 Y-5.996
X-11.727 Y-5.872
X-12.444 Y-5.788
X-13.164 Y-5.732
X-13.885 Y-5.694
X-14.606 Y-5.668
X-15.328 Y-5.651
X-16.05 Y-5.639
X-16.772 Y-5.632
X-17.494 Y-5.627
X-18.216 Y-5.623
X-19.66 Y-5.62
X-21.826 Y-5.619
X-30.49 Y-5.625
X-45.296 Y-5.635
X-45.538 Y-5.667
X-45.763 Y-5.76
X-45.956 Y-5.909
X-47.557 Y-7.51
G3 X-47.664 Y-7.782 I0.293 J-0.273 F800
G1 Y-7.783
X-47.662 Y-7.825
X-47.655 Y-7.867
X-47.63 Y-7.922 Z5.955
X-47.605 Y-7.976 Z5.969
X-47.581 Y-8.027 Z5.992
X-47.539 Y-8.061 Z6.024
X-47.502 Y-8.092 Z6.065
X-47.471 Y-8.118 Z6.113
X-47.445 Y-8.139 Z6.167
X-47.423 Y-8.149 Z6.225
X-47.409 Y-8.155 Z6.287
X-47.404 Y-8.157 Z6.35
G0 Z6.75
X-8.101 Y-8.205
G1 Z6.35 F600
X-8.103 Y-8.197 Z6.272
X-8.109 Y-8.175 Z6.197
X-8.118 Y-8.139 Z6.128
X-8.13 Y-8.091 Z6.067
X-8.145 Y-8.032 Z6.017
X-8.162 Y-7.965 Z5.98
X-8.181 Y-7.893 Z5.958
X-8.2 Y-7.817 Z5.95
G3 X-8.576 Y-7.128 I-1.534 J-0.39
G1 X-10.215 Y-5.489 F1300
X-10.338 Y-5.377
X-10.529 Y-5.231
X-10.773 Y-5.073
X-11.067 Y-4.915
X-11.45 Y-4.747
X-11.947 Y-4.575
X-12.081 Y-4.541
X-12.144 Y-4.527
X-12.209 Y-4.517
X-12.273 Y-4.512
G3 X-12.677 Y-4.908 Z6.15 I-0.004 J-0.4 F800
G1 X-12.673 Y-4.971
X-12.658 Y-5.032
G3 X-12.45 Y-5.272 I0.381 J0.12 F1300
G1 X-10.681 Y-6.122
G3 X-10.339 Y-6.125 I0.173 J0.361
G1 X-10.284 Y-6.093 F600
X-10.234 Y-6.054
G3 X-10.215 Y-5.489 Z5.95 I-0.273 J0.292
G1 X-10.253 Y-5.451 F1300
X-10.581 Y-5.148
X-10.745 Y-5.01
X-10.975 Y-4.834
X-11.024 Y-4.798
X-11.073 Y-4.771
X-11.314 Y-4.67
X-11.483 Y-4.601
X-11.565 Y-4.579
X-11.893 Y-4.536
X-12.057 Y-4.522
X-12.549 Y-4.5
X-43.061
X-43.225 Y-4.503
X-43.553 Y-4.51
X-43.717 Y-4.517
X-44.045 Y-4.56
X-44.209 Y-4.584
X-44.373 Y-4.643
X-44.537 Y-4.711
X-44.701 Y-4.783
X-44.776 Y-4.834
X-44.99 Y-4.998
X-45.03 Y-5.031
X-45.358 Y-5.325
X-45.522 Y-5.475
X-45.956 Y-5.909
G3 X-46.063 Y-6.181 I0.293 J-0.273 F800
G1 X-46.061 Y-6.224
X-46.054 Y-6.266
X-46.029 Y-6.321 Z5.955
X-46.004 Y-6.375 Z5.969
X-45.98 Y-6.426 Z5.992
X-45.938 Y-6.46 Z6.024
X-45.901 Y-6.491 Z6.065
X-45.869 Y-6.517 Z6.113
X-45.844 Y-6.538 Z6.167
X-45.821 Y-6.548 Z6.225
X-45.808 Y-6.554 Z6.287
X-45.803 Y-6.556 Z6.35
G0 Z7.9
X-3.821 Y-12.06
G1 Z7.5 F600
Z5.5
G3 X-1.621 Y-12.015 I1.076 J1.207
G1 X-1.655 Y-11.993 F1300
X-1.689 Y-11.975
X-1.722 Y-11.961
X-1.763 Y-11.948
X-1.804 Y-11.94
X-2.051 Y-11.908
X-2.379 Y-11.862
X-2.543 Y-11.839
X-2.707 Y-11.808
X-2.871 Y-11.765
X-3.035 Y-11.703
X-3.199 Y-11.637
X-3.801 Y-11.388
X-4.165 Y-11.224
X-4.183 Y-11.212
X-4.31 Y-11.132
X-4.635 Y-10.996
X-5.071 Y-10.854
X-5.685 Y-10.706
X-6.399 Y-10.595
X-7.117 Y-10.525
X-7.838 Y-10.482
X-8.56 Y-10.455
X-9.281 Y-10.439
X-10.003 Y-10.428
X-10.725 Y-10.422
X-11.447 Y-10.418
X-12.169 Y-10.416
X-13.613 Y-10.414
X-17.223 Y-10.415
X-50.201 Y-10.439
X-50.403 Y-10.461
X-50.596 Y-10.526
X-50.769 Y-10.632
X-51.099 Y-10.885
X-51.499 Y-11.174
X-51.509 Y-11.18
X-51.919 Y-11.374
X-51.95 Y-11.388
X-52.411 Y-11.579
X-52.576 Y-11.644
X-53.037 Y-11.808
X-53.56 Y-11.889
X-53.888 Y-11.932
X-53.97 Y-11.944
X-54.011 Y-11.955
X-54.052 Y-11.97
G3 X-54.25 Y-12.283 I0.201 J-0.346 F800
G1 X-54.251 Y-12.316 Z5.501
X-54.237 Y-12.376 Z5.511
X-54.224 Y-12.434 Z5.531
X-54.212 Y-12.488 Z5.56
X-54.174 Y-12.535 Z5.606
X-54.143 Y-12.575 Z5.664
X-54.119 Y-12.606 Z5.73
X-54.103 Y-12.626 Z5.802
X-54.096 Y-12.632 Z5.851
X-54.093 Y-12.634 Z5.9
G0 Z18
X-4.928 Y-10.962
Z7.9
G1 Z7.5 F600
Z5.5
G3 X-4.183 Y-11.212 I0.75 J0.999
G1 X-4.636 Y-10.896 F1300
X-4.675 Y-10.867
X-5.167 Y-10.49
X-5.331 Y-10.361
X-5.495 Y-10.202
X-5.703 Y-10.02
X-5.876 Y-9.891
X-6.099 Y-9.75
X-6.377 Y-9.606
X-6.737 Y-9.453
X-7.206 Y-9.298
X-7.863 Y-9.138
X-8.576 Y-9.023
X-9.294 Y-8.949
X-10.014 Y-8.901
X-10.735 Y-8.87
X-11.457 Y-8.85
X-12.179 Y-8.837
X-12.901 Y-8.828
X-13.623 Y-8.823
X-14.345 Y-8.82
X-15.789 Y-8.817
X-18.677
X-48.499 Y-8.838
X-48.74 Y-8.87
X-48.965 Y-8.963
X-49.158 Y-9.111
X-49.961 Y-9.913
X-50.296 Y-10.241
X-50.443 Y-10.38
X-50.473 Y-10.405
X-50.769 Y-10.632
G3 X-50.913 Y-10.974 I0.255 J-0.308 F800
G1 X-50.895 Y-11.031 Z5.505
X-50.877 Y-11.088 Z5.519
X-50.86 Y-11.142 Z5.542
X-50.824 Y-11.181 Z5.574
X-50.791 Y-11.216 Z5.615
X-50.763 Y-11.247 Z5.663
X-50.74 Y-11.271 Z5.717
X-50.719 Y-11.283 Z5.775
X-50.707 Y-11.291 Z5.837
X-50.702 Y-11.294 Z5.9
G0 Z6.3
X-5.006 Y-11.273
G1 Z5.9 F600
X-5.008 Y-11.265 Z5.822
X-5.014 Y-11.243 Z5.747
X-5.023 Y-11.208 Z5.678
X-5.036 Y-11.16 Z5.617
X-5.052 Y-11.101 Z5.567
X-5.07 Y-11.034 Z5.53
X-5.089 Y-10.962 Z5.508
X-5.11 Y-10.886 Z5.5
G3 X-5.495 Y-10.202 I-1.528 J-0.411
G1 X-5.659 Y-10.043 F1300
X-5.824 Y-9.88
X-6.972 Y-8.732
X-7.194 Y-8.531
X-7.378 Y-8.39
X-7.615 Y-8.236
X-7.899 Y-8.083
X-8.271 Y-7.92
X-8.748 Y-7.754
X-9.4 Y-7.586
X-10.111 Y-7.461
X-10.829 Y-7.379
X-11.548 Y-7.323
X-12.269 Y-7.287
X-12.991 Y-7.262
X-13.713 Y-7.246
X-14.435 Y-7.235
X-15.157 Y-7.228
X-15.879 Y-7.224
X-16.601 Y-7.221
X-18.045 Y-7.218
X-20.933
X-46.898 Y-7.236
X-47.139 Y-7.268
X-47.364 Y-7.362
X-47.557 Y-7.51
X-49.158 Y-9.111
G3 X-49.265 Y-9.384 I0.293 J-0.273 F800
G1 X-49.263 Y-9.426
X-49.256 Y-9.468
X-49.231 Y-9.523 Z5.505
X-49.206 Y-9.577 Z5.519
X-49.182 Y-9.628 Z5.542
X-49.141 Y-9.663 Z5.574
X-49.103 Y-9.693 Z5.615
X-49.072 Y-9.719 Z5.663
X-49.046 Y-9.741 Z5.717
X-49.024 Y-9.75 Z5.775
X-49.01 Y-9.756 Z5.837
X-49.006 Y-9.758 Z5.9
G0 Z6.3
X-6.497 Y-9.809
G1 Z5.9 F600
X-6.499 Y-9.802 Z5.822
X-6.504 Y-9.78 Z5.747
X-6.513 Y-9.744 Z5.678
X-6.526 Y-9.696 Z5.617
X-6.541 Y-9.637 Z5.567
X-6.558 Y-9.57 Z5.53
X-6.576 Y-9.497 Z5.508
X-6.595 Y-9.421 Z5.5
G3 X-6.972 Y-8.732 I-1.534 J-0.39
G1 X-8.576 Y-7.128 F1300
X-8.757 Y-6.964
X-8.946 Y-6.819
X-9.187 Y-6.663
X-9.479 Y-6.505
X-9.858 Y-6.339
X-10.349 Y-6.169
X-11.015 Y-5.996
X-11.727 Y-5.872
X-12.444 Y-5.788
X-13.164 Y-5.732
X-13.885 Y-5.694
X-14.606 Y-5.668
X-15.328 Y-5.651
X-16.05 Y-5.639
X-16.772 Y-5.632
X-17.494 Y-5.627
X-18.216 Y-5.623
X-19.66 Y-5.62
X-21.826 Y-5.619
X-30.49 Y-5.625
X-45.296 Y-5.635
X-45.538 Y-5.667
X-45.763 Y-5.76
X-45.956 Y-5.909
X-47.557 Y-7.51
G3 X-47.664 Y-7.782 I0.293 J-0.273 F800
G1 Y-7.783
X-47.662 Y-7.825
X-47.655 Y-7.867
X-47.63 Y-7.922 Z5.505
X-47.605 Y-7.976 Z5.519
X-47.581 Y-8.027 Z5.542
X-47.539 Y-8.061 Z5.574
X-47.502 Y-8.092 Z5.615
X-47.471 Y-8.118 Z5.663
X-47.445 Y-8.139 Z5.717
X-47.423 Y-8.149 Z5.775
X-47.409 Y-8.155 Z5.837
X-47.404 Y-8.157 Z5.9
G0 Z6.3
X-8.101 Y-8.205
G1 Z5.9 F600
X-8.103 Y-8.197 Z5.822
X-8.109 Y-8.175 Z5.747
X-8.118 Y-8.139 Z5.678
X-8.13 Y-8.091 Z5.617
X-8.145 Y-8.032 Z5.567
X-8.162 Y-7.965 Z5.53
X-8.181 Y-7.893 Z5.508
X-8.2 Y-7.817 Z5.5
G3 X-8.576 Y-7.128 I-1.534 J-0.39
G1 X-10.215 Y-5.489 F1300
X-10.338 Y-5.377
X-10.529 Y-5.231
X-10.773 Y-5.073
X-11.067 Y-4.915
X-11.45 Y-4.747
X-11.947 Y-4.575
X-12.081 Y-4.541
X-12.144 Y-4.527
X-12.209 Y-4.517
X-12.273 Y-4.512
G3 X-12.677 Y-4.908 Z5.7 I-0.004 J-0.4 F800
G1 X-12.673 Y-4.971
X-12.658 Y-5.032
G3 X-12.45 Y-5.272 I0.381 J0.12 F1300
G1 X-10.681 Y-6.122
G3 X-10.339 Y-6.125 I0.173 J0.361
G1 X-10.284 Y-6.093 F600
X-10.234 Y-6.054
G3 X-10.215 Y-5.489 Z5.5 I-0.273 J0.292
G1 X-10.253 Y-5.451 F1300
X-10.581 Y-5.148
X-10.745 Y-5.01
X-10.975 Y-4.834
X-11.024 Y-4.798
X-11.073 Y-4.771
X-11.314 Y-4.67
X-11.483 Y-4.601
X-11.565 Y-4.579
X-11.893 Y-4.536
X-12.057 Y-4.522
X-12.549 Y-4.5
X-43.061
X-43.225 Y-4.503
X-43.553 Y-4.51
X-43.717 Y-4.517
X-44.045 Y-4.56
X-44.209 Y-4.584
X-44.373 Y-4.643
X-44.537 Y-4.711
X-44.701 Y-4.783
X-44.776 Y-4.834
X-44.99 Y-4.998
X-45.03 Y-5.031
X-45.358 Y-5.325
X-45.522 Y-5.475
X-45.956 Y-5.909
G3 X-46.063 Y-6.181 I0.293 J-0.273 F800
G1 X-46.061 Y-6.224
X-46.054 Y-6.266
X-46.029 Y-6.321 Z5.505
X-46.004 Y-6.375 Z5.519
X-45.98 Y-6.426 Z5.542
X-45.938 Y-6.46 Z5.574
X-45.901 Y-6.491 Z5.615
X-45.869 Y-6.517 Z5.663
X-45.844 Y-6.538 Z5.717
X-45.821 Y-6.548 Z5.775
X-45.808 Y-6.554 Z5.837
X-45.803 Y-6.556 Z5.9
G0 Z7.45
X-3.821 Y-12.06
G1 Z7.05 F600
Z5.05
G3 X-1.621 Y-12.015 I1.076 J1.207
G1 X-1.655 Y-11.993 F1300
X-1.689 Y-11.975
X-1.722 Y-11.961
X-1.763 Y-11.948
X-1.804 Y-11.94
X-2.051 Y-11.908
X-2.379 Y-11.862
X-2.543 Y-11.839
X-2.707 Y-11.808
X-2.871 Y-11.765
X-3.035 Y-11.703
X-3.199 Y-11.637
X-3.801 Y-11.388
X-4.165 Y-11.224
X-4.183 Y-11.212
X-4.31 Y-11.132
X-4.635 Y-10.996
X-5.071 Y-10.854
X-5.685 Y-10.706
X-6.399 Y-10.595
X-7.117 Y-10.525
X-7.838 Y-10.482
X-8.56 Y-10.455
X-9.281 Y-10.439
X-10.003 Y-10.428
X-10.725 Y-10.422
X-11.447 Y-10.418
X-12.169 Y-10.416
X-13.613 Y-10.414
X-17.223 Y-10.415
X-50.201 Y-10.439
X-50.403 Y-10.461
X-50.596 Y-10.526
X-50.769 Y-10.632
X-51.099 Y-10.885
X-51.499 Y-11.174
X-51.509 Y-11.18
X-51.919 Y-11.374
X-51.95 Y-11.388
X-52.411 Y-11.579
X-52.576 Y-11.644
X-53.037 Y-11.808
X-53.56 Y-11.889
X-53.888 Y-11.932
X-53.97 Y-11.944
X-54.011 Y-11.955
X-54.052 Y-11.97
G3 X-54.25 Y-12.283 I0.201 J-0.346 F800
G1 X-54.251 Y-12.316 Z5.051
X-54.237 Y-12.376 Z5.061
X-54.224 Y-12.434 Z5.081
X-54.212 Y-12.488 Z5.11
X-54.174 Y-12.535 Z5.156
X-54.143 Y-12.575 Z5.214
X-54.119 Y-12.606 Z5.28
X-54.103 Y-12.626 Z5.352
X-54.096 Y-12.632 Z5.401
X-54.093 Y-12.634 Z5.45
G0 Z18
X-4.928 Y-10.962
Z7.45
G1 Z7.05 F600
Z5.05
G3 X-4.183 Y-11.212 I0.75 J0.999
G1 X-4.636 Y-10.896 F1300
X-4.675 Y-10.867
X-5.167 Y-10.49
X-5.331 Y-10.361
X-5.495 Y-10.202
X-5.703 Y-10.02
X-5.876 Y-9.891
X-6.099 Y-9.75
X-6.377 Y-9.606
X-6.737 Y-9.453
X-7.206 Y-9.298
X-7.863 Y-9.138
X-8.576 Y-9.023
X-9.294 Y-8.949
X-10.014 Y-8.901
X-10.735 Y-8.87
X-11.457 Y-8.85
X-12.179 Y-8.837
X-12.901 Y-8.828
X-13.623 Y-8.823
X-14.345 Y-8.82
X-15.789 Y-8.817
X-18.677
X-48.499 Y-8.838
X-48.74 Y-8.87
X-48.965 Y-8.963
X-49.158 Y-9.111
X-49.961 Y-9.913
X-50.296 Y-10.241
X-50.443 Y-10.38
X-50.473 Y-10.405
X-50.769 Y-10.632
G3 X-50.913 Y-10.974 I0.255 J-0.308 F800
G1 X-50.895 Y-11.031 Z5.055
X-50.877 Y-11.088 Z5.069
X-50.86 Y-11.142 Z5.092
X-50.824 Y-11.181 Z5.124
X-50.791 Y-11.216 Z5.165
X-50.763 Y-11.247 Z5.213
X-50.74 Y-11.271 Z5.267
X-50.719 Y-11.283 Z5.325
X-50.707 Y-11.291 Z5.387
X-50.702 Y-11.294 Z5.45
G0 Z5.85
X-5.006 Y-11.273
G1 Z5.45 F600
X-5.008 Y-11.265 Z5.372
X-5.014 Y-11.243 Z5.297
X-5.023 Y-11.208 Z5.228
X-5.036 Y-11.16 Z5.167
X-5.052 Y-11.101 Z5.117
X-5.07 Y-11.034 Z5.08
X-5.089 Y-10.962 Z5.058
X-5.11 Y-10.886 Z5.05
G3 X-5.495 Y-10.202 I-1.528 J-0.411
G1 X-5.659 Y-10.043 F1300
X-5.824 Y-9.88
X-6.972 Y-8.732
X-7.194 Y-8.531
X-7.378 Y-8.39
X-7.615 Y-8.236
X-7.899 Y-8.083
X-8.271 Y-7.92
X-8.748 Y-7.754
X-9.4 Y-7.586
X-10.111 Y-7.461
X-10.829 Y-7.379
X-11.548 Y-7.323
X-12.269 Y-7.287
X-12.991 Y-7.262
X-13.713 Y-7.246
X-14.435 Y-7.235
X-15.157 Y-7.228
X-15.879 Y-7.224
X-16.601 Y-7.221
X-18.045 Y-7.218
X-20.933
X-46.898 Y-7.236
X-47.139 Y-7.268
X-47.364 Y-7.362
X-47.557 Y-7.51
X-49.158 Y-9.111
G3 X-49.265 Y-9.384 I0.293 J-0.273 F800
G1 X-49.263 Y-9.426
X-49.256 Y-9.468
X-49.231 Y-9.523 Z5.055
X-49.206 Y-9.577 Z5.069
X-49.182 Y-9.628 Z5.092
X-49.141 Y-9.663 Z5.124
X-49.103 Y-9.693 Z5.165
X-49.072 Y-9.719 Z5.213
X-49.046 Y-9.741 Z5.267
X-49.024 Y-9.75 Z5.325
X-49.01 Y-9.756 Z5.387
X-49.006 Y-9.758 Z5.45
G0 Z5.85
X-6.497 Y-9.809
G1 Z5.45 F600
X-6.499 Y-9.802 Z5.372
X-6.504 Y-9.78 Z5.297
X-6.513 Y-9.744 Z5.228
X-6.526 Y-9.696 Z5.167
X-6.541 Y-9.637 Z5.117
X-6.558 Y-9.57 Z5.08
X-6.576 Y-9.497 Z5.058
X-6.595 Y-9.421 Z5.05
G3 X-6.972 Y-8.732 I-1.534 J-0.39
G1 X-8.576 Y-7.128 F1300
X-8.757 Y-6.964
X-8.946 Y-6.819
X-9.187 Y-6.663
X-9.479 Y-6.505
X-9.858 Y-6.339
X-10.349 Y-6.169
X-11.015 Y-5.996
X-11.727 Y-5.872
X-12.444 Y-5.788
X-13.164 Y-5.732
X-13.885 Y-5.694
X-14.606 Y-5.668
X-15.328 Y-5.651
X-16.05 Y-5.639
X-16.772 Y-5.632
X-17.494 Y-5.627
X-18.216 Y-5.623
X-19.66 Y-5.62
X-21.826 Y-5.619
X-30.49 Y-5.625
X-45.296 Y-5.635
X-45.538 Y-5.667
X-45.763 Y-5.76
X-45.956 Y-5.909
X-47.557 Y-7.51
G3 X-47.664 Y-7.782 I0.293 J-0.273 F800
G1 Y-7.783
X-47.662 Y-7.825
X-47.655 Y-7.867
X-47.63 Y-7.922 Z5.055
X-47.605 Y-7.976 Z5.069
X-47.581 Y-8.027 Z5.092
X-47.539 Y-8.061 Z5.124
X-47.502 Y-8.092 Z5.165
X-47.471 Y-8.118 Z5.213
X-47.445 Y-8.139 Z5.267
X-47.423 Y-8.149 Z5.325
X-47.409 Y-8.155 Z5.387
X-47.404 Y-8.157 Z5.45
G0 Z5.85
X-8.101 Y-8.205
G1 Z5.45 F600
X-8.103 Y-8.197 Z5.372
X-8.109 Y-8.175 Z5.297
X-8.118 Y-8.139 Z5.228
X-8.13 Y-8.091 Z5.167
X-8.145 Y-8.032 Z5.117
X-8.162 Y-7.965 Z5.08
X-8.181 Y-7.893 Z5.058
X-8.2 Y-7.817 Z5.05
G3 X-8.576 Y-7.128 I-1.534 J-0.39
G1 X-10.215 Y-5.489 F1300
X-10.338 Y-5.377
X-10.529 Y-5.231
X-10.773 Y-5.073
X-11.067 Y-4.915
X-11.45 Y-4.747
X-11.947 Y-4.575
X-12.081 Y-4.541
X-12.144 Y-4.527
X-12.209 Y-4.517
X-12.273 Y-4.512
G3 X-12.677 Y-4.908 Z5.25 I-0.004 J-0.4 F800
G1 X-12.673 Y-4.971
X-12.658 Y-5.032
G3 X-12.45 Y-5.272 I0.381 J0.12 F1300
G1 X-10.681 Y-6.122
G3 X-10.339 Y-6.125 I0.173 J0.361
G1 X-10.284 Y-6.093 F600
X-10.234 Y-6.054
G3 X-10.215 Y-5.489 Z5.05 I-0.273 J0.292
G1 X-10.253 Y-5.451 F1300
X-10.581 Y-5.148
X-10.745 Y-5.01
X-10.975 Y-4.834
X-11.024 Y-4.798
X-11.073 Y-4.771
X-11.314 Y-4.67
X-11.483 Y-4.601
X-11.565 Y-4.579
X-11.893 Y-4.536
X-12.057 Y-4.522
X-12.549 Y-4.5
X-43.061
X-43.225 Y-4.503
X-43.553 Y-4.51
X-43.717 Y-4.517
X-44.045 Y-4.56
X-44.209 Y-4.584
X-44.373 Y-4.643
X-44.537 Y-4.711
X-44.701 Y-4.783
X-44.776 Y-4.834
X-44.99 Y-4.998
X-45.03 Y-5.031
X-45.358 Y-5.325
X-45.522 Y-5.475
X-45.956 Y-5.909
G3 X-46.063 Y-6.181 I0.293 J-0.273 F800
G1 X-46.061 Y-6.224
X-46.054 Y-6.266
X-46.029 Y-6.321 Z5.055
X-46.004 Y-6.375 Z5.069
X-45.98 Y-6.426 Z5.092
X-45.938 Y-6.46 Z5.124
X-45.901 Y-6.491 Z5.165
X-45.869 Y-6.517 Z5.213
X-45.844 Y-6.538 Z5.267
X-45.821 Y-6.548 Z5.325
X-45.808 Y-6.554 Z5.387
X-45.803 Y-6.556 Z5.45
G0 Z7.4
X-3.821 Y-12.06
G1 Z7 F600
Z5
G3 X-1.621 Y-12.015 I1.076 J1.207
G1 X-1.655 Y-11.993 F1300
X-1.689 Y-11.975
X-1.722 Y-11.961
X-1.763 Y-11.948
X-1.804 Y-11.94
X-2.051 Y-11.908
X-2.379 Y-11.862
X-2.543 Y-11.839
X-2.707 Y-11.808
X-2.871 Y-11.765
X-3.035 Y-11.703
X-3.199 Y-11.637
X-3.801 Y-11.388
X-4.165 Y-11.224
X-4.183 Y-11.212
X-4.31 Y-11.132
X-4.635 Y-10.996
X-5.071 Y-10.854
X-5.685 Y-10.706
X-6.399 Y-10.595
X-7.117 Y-10.525
X-7.838 Y-10.482
X-8.56 Y-10.455
X-9.281 Y-10.439
X-10.003 Y-10.428
X-10.725 Y-10.422
X-11.447 Y-10.418
X-12.169 Y-10.416
X-13.613 Y-10.414
X-17.223 Y-10.415
X-50.201 Y-10.439
X-50.403 Y-10.461
X-50.596 Y-10.526
X-50.769 Y-10.632
X-51.099 Y-10.885
X-51.499 Y-11.174
X-51.509 Y-11.18
X-51.919 Y-11.374
X-51.95 Y-11.388
X-52.411 Y-11.579
X-52.576 Y-11.644
X-53.037 Y-11.808
X-53.56 Y-11.889
X-53.888 Y-11.932
X-53.97 Y-11.944
X-54.011 Y-11.955
X-54.052 Y-11.97
G3 X-54.25 Y-12.283 I0.201 J-0.346 F800
G1 X-54.251 Y-12.316 Z5.001
X-54.237 Y-12.376 Z5.011
X-54.224 Y-12.434 Z5.031
X-54.212 Y-12.488 Z5.06
X-54.174 Y-12.535 Z5.106
X-54.143 Y-12.575 Z5.164
X-54.119 Y-12.606 Z5.23
X-54.103 Y-12.626 Z5.302
X-54.096 Y-12.632 Z5.351
X-54.093 Y-12.634 Z5.4
G0 Z18
X-4.928 Y-10.962
Z7.4
G1 Z7 F600
Z5
G3 X-4.183 Y-11.212 I0.75 J0.999
G1 X-4.636 Y-10.896 F1300
X-4.675 Y-10.867
X-5.167 Y-10.49
X-5.331 Y-10.361
X-5.495 Y-10.202
X-5.703 Y-10.02
X-5.876 Y-9.891
X-6.099 Y-9.75
X-6.377 Y-9.606
X-6.737 Y-9.453
X-7.206 Y-9.298
X-7.863 Y-9.138
X-8.576 Y-9.023
X-9.294 Y-8.949
X-10.014 Y-8.901
X-10.735 Y-8.87
X-11.457 Y-8.85
X-12.179 Y-8.837
X-12.901 Y-8.828
X-13.623 Y-8.823
X-14.345 Y-8.82
X-15.789 Y-8.817
X-18.677
X-48.499 Y-8.838
X-48.74 Y-8.87
X-48.965 Y-8.963
X-49.158 Y-9.111
X-49.961 Y-9.913
X-50.296 Y-10.241
X-50.443 Y-10.38
X-50.473 Y-10.405
X-50.769 Y-10.632
G3 X-50.913 Y-10.974 I0.255 J-0.308 F800
G1 X-50.895 Y-11.031 Z5.005
X-50.877 Y-11.088 Z5.019
X-50.86 Y-11.142 Z5.042
X-50.824 Y-11.181 Z5.074
X-50.791 Y-11.216 Z5.115
X-50.763 Y-11.247 Z5.163
X-50.74 Y-11.271 Z5.217
X-50.719 Y-11.283 Z5.275
X-50.707 Y-11.291 Z5.337
X-50.702 Y-11.294 Z5.4
G0 Z5.8
X-5.006 Y-11.273
G1 Z5.4 F600
X-5.008 Y-11.265 Z5.322
X-5.014 Y-11.243 Z5.247
X-5.023 Y-11.208 Z5.178
X-5.036 Y-11.16 Z5.117
X-5.052 Y-11.101 Z5.067
X-5.07 Y-11.034 Z5.03
X-5.089 Y-10.962 Z5.008
X-5.11 Y-10.886 Z5
G3 X-5.495 Y-10.202 I-1.528 J-0.411
G1 X-5.659 Y-10.043 F1300
X-5.824 Y-9.88
X-6.972 Y-8.732
X-7.194 Y-8.531
X-7.378 Y-8.39
X-7.615 Y-8.236
X-7.899 Y-8.083
X-8.271 Y-7.92
X-8.748 Y-7.754
X-9.4 Y-7.586
X-10.111 Y-7.461
X-10.829 Y-7.379
X-11.548 Y-7.323
X-12.269 Y-7.287
X-12.991 Y-7.262
X-13.713 Y-7.246
X-14.435 Y-7.235
X-15.157 Y-7.228
X-15.879 Y-7.224
X-16.601 Y-7.221
X-18.045 Y-7.218
X-20.933
X-46.898 Y-7.236
X-47.139 Y-7.268
X-47.364 Y-7.362
X-47.557 Y-7.51
X-49.158 Y-9.111
G3 X-49.265 Y-9.384 I0.293 J-0.273 F800
G1 X-49.263 Y-9.426
X-49.256 Y-9.468
X-49.231 Y-9.523 Z5.005
X-49.206 Y-9.577 Z5.019
X-49.182 Y-9.628 Z5.042
X-49.141 Y-9.663 Z5.074
X-49.103 Y-9.693 Z5.115
X-49.072 Y-9.719 Z5.163
X-49.046 Y-9.741 Z5.217
X-49.024 Y-9.75 Z5.275
X-49.01 Y-9.756 Z5.337
X-49.006 Y-9.758 Z5.4
G0 Z5.8
X-6.497 Y-9.809
G1 Z5.4 F600
X-6.499 Y-9.802 Z5.322
X-6.504 Y-9.78 Z5.247
X-6.513 Y-9.744 Z5.178
X-6.526 Y-9.696 Z5.117
X-6.541 Y-9.637 Z5.067
X-6.558 Y-9.57 Z5.03
X-6.576 Y-9.497 Z5.008
X-6.595 Y-9.421 Z5
G3 X-6.972 Y-8.732 I-1.534 J-0.39
G1 X-8.576 Y-7.128 F1300
X-8.757 Y-6.964
X-8.946 Y-6.819
X-9.187 Y-6.663
X-9.479 Y-6.505
X-9.858 Y-6.339
X-10.349 Y-6.169
X-11.015 Y-5.996
X-11.727 Y-5.872
X-12.444 Y-5.788
X-13.164 Y-5.732
X-13.885 Y-5.694
X-14.606 Y-5.668
X-15.328 Y-5.651
X-16.05 Y-5.639
X-16.772 Y-5.632
X-17.494 Y-5.627
X-18.216 Y-5.623
X-19.66 Y-5.62
X-21.826 Y-5.619
X-30.49 Y-5.625
X-45.296 Y-5.635
X-45.538 Y-5.667
X-45.763 Y-5.76
X-45.956 Y-5.909
X-47.557 Y-7.51
G3 X-47.664 Y-7.782 I0.293 J-0.273 F800
G1 Y-7.783
X-47.662 Y-7.825
X-47.655 Y-7.867
X-47.63 Y-7.922 Z5.005
X-47.605 Y-7.976 Z5.019
X-47.581 Y-8.027 Z5.042
X-47.539 Y-8.061 Z5.074
X-47.502 Y-8.092 Z5.115
X-47.471 Y-8.118 Z5.163
X-47.445 Y-8.139 Z5.217
X-47.423 Y-8.149 Z5.275
X-47.409 Y-8.155 Z5.337
X-47.404 Y-8.157 Z5.4
G0 Z5.8
X-8.101 Y-8.205
G1 Z5.4 F600
X-8.103 Y-8.197 Z5.322
X-8.109 Y-8.175 Z5.247
X-8.118 Y-8.139 Z5.178
X-8.13 Y-8.091 Z5.117
X-8.145 Y-8.032 Z5.067
X-8.162 Y-7.965 Z5.03
X-8.181 Y-7.893 Z5.008
X-8.2 Y-7.817 Z5
G3 X-8.576 Y-7.128 I-1.534 J-0.39
G1 X-10.215 Y-5.489 F1300
X-10.338 Y-5.377
X-10.529 Y-5.231
X-10.773 Y-5.073
X-11.067 Y-4.915
X-11.45 Y-4.747
X-11.947 Y-4.575
X-12.081 Y-4.541
X-12.144 Y-4.527
X-12.209 Y-4.517
X-12.273 Y-4.512
G3 X-12.677 Y-4.908 Z5.2 I-0.004 J-0.4 F800
G1 X-12.673 Y-4.971
X-12.658 Y-5.032
G3 X-12.45 Y-5.272 I0.381 J0.12 F1300
G1 X-10.681 Y-6.122
G3 X-10.339 Y-6.125 I0.173 J0.361
G1 X-10.284 Y-6.093 F600
X-10.234 Y-6.054
G3 X-10.215 Y-5.489 Z5 I-0.273 J0.292
G1 X-10.253 Y-5.451 F1300
X-10.581 Y-5.148
X-10.745 Y-5.01
X-10.975 Y-4.834
X-11.024 Y-4.798
X-11.073 Y-4.771
X-11.314 Y-4.67
X-11.483 Y-4.601
X-11.565 Y-4.579
X-11.893 Y-4.536
X-12.057 Y-4.522
X-12.549 Y-4.5
X-43.061
X-43.225 Y-4.503
X-43.553 Y-4.51
X-43.717 Y-4.517
X-44.045 Y-4.56
X-44.209 Y-4.584
X-44.373 Y-4.643
X-44.537 Y-4.711
X-44.701 Y-4.783
X-44.776 Y-4.834
X-44.99 Y-4.998
X-45.03 Y-5.031
X-45.358 Y-5.325
X-45.522 Y-5.475
X-45.956 Y-5.909
G3 X-46.063 Y-6.181 I0.293 J-0.273 F800
G1 X-46.061 Y-6.224
X-46.054 Y-6.266
X-46.029 Y-6.321 Z5.005
X-46.004 Y-6.375 Z5.019
X-45.98 Y-6.426 Z5.042
X-45.938 Y-6.46 Z5.074
X-45.901 Y-6.491 Z5.115
X-45.869 Y-6.517 Z5.163
X-45.844 Y-6.538 Z5.217
X-45.821 Y-6.548 Z5.275
X-45.808 Y-6.554 Z5.337
X-45.803 Y-6.556 Z5.4
G0 Z18
X-52.551 Y12.239
Z11.95
G1 Z11.55 F600
Z9.55
G3 X-54.192 Y12.073 I-0.771 J-0.571
G1 X-54.164 Y12.043 F1300
X-54.136 Y12.02
X-54.108 Y12
X-54.052 Y11.97
X-54.011 Y11.955
X-53.97 Y11.944
X-53.888 Y11.932
X-53.56 Y11.889
X-53.037 Y11.808
X-52.576 Y11.644
X-52.411 Y11.579
X-51.95 Y11.388
X-51.919 Y11.374
X-51.602 Y11.224
X-51.132 Y11.03
X-50.687 Y10.887
X-50.056 Y10.738
X-49.342 Y10.63
X-48.623 Y10.562
X-47.902 Y10.52
X-47.181 Y10.494
X-46.459 Y10.477
X-45.737 Y10.467
X-45.015 Y10.46
X-44.293 Y10.456
X-42.849 Y10.452
X-40.683 Y10.449
X-23.355
X-5.538
X-5.336 Y10.471
X-5.143 Y10.536
X-4.97 Y10.641
X-4.675 Y10.867
X-4.636 Y10.896
X-4.165 Y11.224
X-3.801 Y11.388
X-3.199 Y11.637
X-3.001 Y11.715
X-2.871 Y11.765
X-2.707 Y11.808
X-2.543 Y11.839
X-2.215 Y11.885
X-1.886 Y11.929
X-1.804 Y11.94
X-1.763 Y11.948
X-1.722 Y11.961
G3 X-1.496 Y12.254 I-0.167 J0.364 F800
G1 X-1.489 Y12.324 Z9.556
X-1.503 Y12.385 Z9.573
X-1.516 Y12.443 Z9.6
X-1.528 Y12.496 Z9.637
X-1.559 Y12.538 Z9.686
X-1.584 Y12.572 Z9.744
X-1.602 Y12.597 Z9.809
X-1.613 Y12.612 Z9.878
X-1.617 Y12.617 Z9.95
G0 Z18
X-47.847 Y10.631
Z11.95
G1 Z11.55 F600
Z9.55
G3 X-51.602 Y11.224 I-2.773 J-5.371
G1 X-51.509 Y11.18 F1300
X-51.499 Y11.174
X-51.099 Y10.885
X-50.473 Y10.405
X-50.443 Y10.38
X-50.296 Y10.241
X-50.096 Y10.064
X-49.924 Y9.935
X-49.704 Y9.796
X-49.426 Y9.65
X-49.069 Y9.498
X-48.602 Y9.342
X-47.951 Y9.182
X-47.238 Y9.065
X-46.52 Y8.99
X-45.8 Y8.941
X-45.079 Y8.909
X-44.357 Y8.888
X-43.635 Y8.874
X-42.913 Y8.865
X-42.191 Y8.86
X-41.469 Y8.856
X-40.025 Y8.852
X-37.137 Y8.849
X-7.242
X-7 Y8.88
X-6.775 Y8.974
X-6.582 Y9.122
X-5.791 Y9.913
X-5.624 Y10.077
X-5.456 Y10.241
X-5.331 Y10.361
X-5.167 Y10.49
X-4.97 Y10.641
G3 X-5.036 Y11.303 I-0.254 J0.309 F800
G1 X-5.105 Y11.34 Z9.558
X-5.171 Y11.375 Z9.58
X-5.232 Y11.408 Z9.617
X-5.286 Y11.436 Z9.667
X-5.33 Y11.459 Z9.728
X-5.363 Y11.477 Z9.797
X-5.383 Y11.488 Z9.872
X-5.389 Y11.491 Z9.95
G0 Z18
X-50.783 Y11.312
Z10.35
G1 Z9.95 F600
X-50.781 Y11.305 Z9.872
X-50.775 Y11.283 Z9.797
X-50.766 Y11.247 Z9.728
X-50.753 Y11.199 Z9.667
X-50.737 Y11.141 Z9.617
X-50.719 Y11.074 Z9.58
X-50.7 Y11.001 Z9.558
X-50.68 Y10.926 Z9.55
G3 X-50.296 Y10.241 I1.529 J0.407
G1 X-49.951 Y9.904 F1300
X-48.813 Y8.766
X-48.597 Y8.57
X-48.412 Y8.429
X-48.176 Y8.275
X-47.891 Y8.122
X-47.519 Y7.959
X-47.04 Y7.792
X-46.386 Y7.623
X-45.675 Y7.499
X-44.958 Y7.416
X-44.238 Y7.361
X-43.517 Y7.323
X-42.795 Y7.299
X-42.073 Y7.282
X-41.352 Y7.271
X-40.63 Y7.263
X-39.908 Y7.258
X-39.186 Y7.255
X-37.742 Y7.252
X-34.854 Y7.249
X-8.862
X-8.828
X-8.591 Y7.283
X-8.371 Y7.376
X-8.182 Y7.522
X-6.582 Y9.122
G3 X-6.474 Y9.395 I-0.293 J0.273 F800
G1 X-6.477 Y9.437
X-6.484 Y9.479
X-6.509 Y9.534 Z9.555
X-6.534 Y9.588 Z9.569
X-6.558 Y9.639 Z9.592
X-6.599 Y9.674 Z9.624
X-6.636 Y9.704 Z9.665
X-6.668 Y9.731 Z9.713
X-6.694 Y9.752 Z9.767
X-6.716 Y9.761 Z9.825
X-6.73 Y9.767 Z9.887
X-6.734 Y9.769 Z9.95
G0 Z18
X-49.288 Y9.843
Z10.35
G1 Z9.95 F600
X-49.286 Y9.836 Z9.872
X-49.281 Y9.814 Z9.797
X-49.272 Y9.778 Z9.728
X-49.259 Y9.73 Z9.667
X-49.244 Y9.671 Z9.617
X-49.227 Y9.604 Z9.58
X-49.209 Y9.531 Z9.558
X-49.19 Y9.455 Z9.55
G3 X-48.813 Y8.766 I1.534 J0.39
G1 X-47.175 Y7.128 F1300
X-47.036 Y7.002
X-46.847 Y6.857
X-46.605 Y6.701
X-46.313 Y6.543
X-45.934 Y6.376
X-45.441 Y6.206
X-44.773 Y6.033
X-44.062 Y5.908
X-43.345 Y5.825
X-42.625 Y5.768
X-41.904 Y5.729
X-41.183 Y5.703
X-40.461 Y5.686
X-39.739 Y5.674
X-39.017 Y5.665
X-38.295 Y5.66
X-37.573 Y5.656
X-36.129 Y5.652
X-33.963 Y5.65
X-25.299 Y5.649
X-10.442
X-10.2 Y5.68
X-9.975 Y5.774
X-9.782 Y5.922
X-8.182 Y7.522
G3 X-8.074 Y7.795 I-0.293 J0.273 F800
G1 X-8.076 Y7.838
X-8.083 Y7.88
X-8.109 Y7.935 Z9.555
X-8.134 Y7.988 Z9.569
X-8.157 Y8.04 Z9.592
X-8.199 Y8.074 Z9.624
X-8.236 Y8.105 Z9.665
X-8.268 Y8.131 Z9.713
X-8.293 Y8.152 Z9.767
X-8.316 Y8.162 Z9.825
X-8.329 Y8.168 Z9.887
X-8.334 Y8.17 Z9.95
G0 Z18
X-47.65 Y8.205
Z10.35
G1 Z9.95 F600
X-47.648 Y8.197 Z9.872
X-47.642 Y8.175 Z9.797
X-47.633 Y8.139 Z9.728
X-47.621 Y8.091 Z9.667
X-47.606 Y8.032 Z9.617
X-47.589 Y7.965 Z9.58
X-47.57 Y7.893 Z9.558
X-47.551 Y7.817 Z9.55
G3 X-47.175 Y7.128 I1.534 J0.39
G1 X-45.603 Y5.556 F1300
X-45.447 Y5.414
X-45.257 Y5.269
X-45.013 Y5.111
X-44.719 Y4.952
X-44.336 Y4.784
X-43.84 Y4.612
X-43.54 Y4.534
X-43.47 Y4.519
X-43.399 Y4.509
X-43.328 Y4.505
G3 X-42.933 Y4.909 Z9.75 I-0.005 J0.4 F800
G1 X-42.938 Y4.972
X-42.954 Y5.033
G3 X-43.163 Y5.267 I-0.379 J-0.128 F1300
G1 X-45.142 Y6.192
G3 X-45.48 Y6.192 I-0.169 J-0.362
G1 X-45.535 Y6.161 F600
X-45.584 Y6.122
G3 X-45.603 Y5.556 Z9.55 I0.273 J-0.292
G1 X-45.522 Y5.475 F1300
X-45.358 Y5.325
X-45.03 Y5.031
X-44.99 Y4.998
X-44.776 Y4.834
X-44.701 Y4.783
X-44.537 Y4.711
X-44.373 Y4.643
X-44.209 Y4.584
X-44.045 Y4.56
X-43.717 Y4.517
X-43.553 Y4.51
X-43.225 Y4.503
X-43.061 Y4.5
X-12.549
X-12.057 Y4.522
X-11.893 Y4.536
X-11.565 Y4.579
X-11.483 Y4.601
X-11.237 Y4.702
X-11.073 Y4.771
X-11.024 Y4.798
X-10.975 Y4.834
X-10.745 Y5.01
X-10.581 Y5.148
X-10.253 Y5.451
X-9.782 Y5.922
G3 X-9.674 Y6.195 I-0.293 J0.273 F800
G1 X-9.677 Y6.237
X-9.684 Y6.279
X-9.709 Y6.334 Z9.555
X-9.734 Y6.388 Z9.569
X-9.758 Y6.439 Z9.592
X-9.799 Y6.474 Z9.624
X-9.836 Y6.504 Z9.665
X-9.868 Y6.531 Z9.713
X-9.894 Y6.552 Z9.767
X-9.916 Y6.561 Z9.825
X-9.93 Y6.567 Z9.887
X-9.934 Y6.569 Z9.95
G0 Z18
X-52.551 Y12.239
Z11.5
G1 Z11.1 F600
Z9.1
G3 X-54.192 Y12.073 I-0.771 J-0.571
G1 X-54.164 Y12.043 F1300
X-54.136 Y12.02
X-54.108 Y12
X-54.052 Y11.97
X-54.011 Y11.955
X-53.97 Y11.944
X-53.888 Y11.932
X-53.56 Y11.889
X-53.037 Y11.808
X-52.576 Y11.644
X-52.411 Y11.579
X-51.95 Y11.388
X-51.919 Y11.374
X-51.602 Y11.224
X-51.132 Y11.03
X-50.687 Y10.887
X-50.056 Y10.738
X-49.342 Y10.63
X-48.623 Y10.562
X-47.902 Y10.52
X-47.181 Y10.494
X-46.459 Y10.477
X-45.737 Y10.467
X-45.015 Y10.46
X-44.293 Y10.456
X-42.849 Y10.452
X-40.683 Y10.449
X-23.355
X-5.538
X-5.336 Y10.471
X-5.143 Y10.536
X-4.97 Y10.641
X-4.675 Y10.867
X-4.636 Y10.896
X-4.165 Y11.224
X-3.801 Y11.388
X-3.199 Y11.637
X-3.001 Y11.715
X-2.871 Y11.765
X-2.707 Y11.808
X-2.543 Y11.839
X-2.215 Y11.885
X-1.886 Y11.929
X-1.804 Y11.94
X-1.763 Y11.948
X-1.722 Y11.961
G3 X-1.496 Y12.254 I-0.167 J0.364 F800
G1 X-1.489 Y12.324 Z9.106
X-1.503 Y12.385 Z9.123
X-1.516 Y12.443 Z9.15
X-1.528 Y12.496 Z9.187
X-1.559 Y12.538 Z9.236
X-1.584 Y12.572 Z9.294
X-1.602 Y12.597 Z9.359
X-1.613 Y12.612 Z9.428
X-1.617 Y12.617 Z9.5
G0 Z18
X-47.847 Y10.631
Z11.5
G1 Z11.1 F600
Z9.1
G3 X-51.602 Y11.224 I-2.773 J-5.371
G1 X-51.509 Y11.18 F1300
X-51.499 Y11.174
X-51.099 Y10.885
X-50.473 Y10.405
X-50.443 Y10.38
X-50.296 Y10.241
X-50.096 Y10.064
X-49.924 Y9.935
X-49.704 Y9.796
X-49.426 Y9.65
X-49.069 Y9.498
X-48.602 Y9.342
X-47.951 Y9.182
X-47.238 Y9.065
X-46.52 Y8.99
X-45.8 Y8.941
X-45.079 Y8.909
X-44.357 Y8.888
X-43.635 Y8.874
X-42.913 Y8.865
X-42.191 Y8.86
X-41.469 Y8.856
X-40.025 Y8.852
X-37.137 Y8.849
X-7.242
X-7 Y8.88
X-6.775 Y8.974
X-6.582 Y9.122
X-5.791 Y9.913
X-5.624 Y10.077
X-5.456 Y10.241
X-5.331 Y10.361
X-5.167 Y10.49
X-4.97 Y10.641
G3 X-4.825 Y10.983 I-0.254 J0.309 F800
G1 X-4.844 Y11.041 Z9.105
X-4.861 Y11.097 Z9.119
X-4.878 Y11.151 Z9.142
X-4.915 Y11.191 Z9.174
X-4.948 Y11.226 Z9.215
X-4.976 Y11.256 Z9.263
X-4.998 Y11.28 Z9.317
X-5.019 Y11.293 Z9.375
X-5.032 Y11.301 Z9.437
X-5.036 Y11.303 Z9.5
G0 Z9.9
X-50.783 Y11.312
G1 Z9.5 F600
X-50.781 Y11.305 Z9.422
X-50.775 Y11.283 Z9.347
X-50.766 Y11.247 Z9.278
X-50.753 Y11.199 Z9.217
X-50.737 Y11.141 Z9.167
X-50.719 Y11.074 Z9.13
X-50.7 Y11.001 Z9.108
X-50.68 Y10.926 Z9.1
G3 X-50.296 Y10.241 I1.529 J0.407
G1 X-49.951 Y9.904 F1300
X-48.813 Y8.766
X-48.597 Y8.57
X-48.412 Y8.429
X-48.176 Y8.275
X-47.891 Y8.122
X-47.519 Y7.959
X-47.04 Y7.792
X-46.386 Y7.623
X-45.675 Y7.499
X-44.958 Y7.416
X-44.238 Y7.361
X-43.517 Y7.323
X-42.795 Y7.299
X-42.073 Y7.282
X-41.352 Y7.271
X-40.63 Y7.263
X-39.908 Y7.258
X-39.186 Y7.255
X-37.742 Y7.252
X-34.854 Y7.249
X-8.862
X-8.828
X-8.591 Y7.283
X-8.371 Y7.376
X-8.182 Y7.522
X-6.582 Y9.122
G3 X-6.474 Y9.395 I-0.293 J0.273 F800
G1 X-6.477 Y9.437
X-6.484 Y9.479
X-6.509 Y9.534 Z9.105
X-6.534 Y9.588 Z9.119
X-6.558 Y9.639 Z9.142
X-6.599 Y9.674 Z9.174
X-6.636 Y9.704 Z9.215
X-6.668 Y9.731 Z9.263
X-6.694 Y9.752 Z9.317
X-6.716 Y9.761 Z9.375
X-6.73 Y9.767 Z9.437
X-6.734 Y9.769 Z9.5
G0 Z9.9
X-49.288 Y9.843
G1 Z9.5 F600
X-49.286 Y9.836 Z9.422
X-49.281 Y9.814 Z9.347
X-49.272 Y9.778 Z9.278
X-49.259 Y9.73 Z9.217
X-49.244 Y9.671 Z9.167
X-49.227 Y9.604 Z9.13
X-49.209 Y9.531 Z9.108
X-49.19 Y9.455 Z9.1
G3 X-48.813 Y8.766 I1.534 J0.39
G1 X-47.175 Y7.128 F1300
X-47.036 Y7.002
X-46.847 Y6.857
X-46.605 Y6.701
X-46.313 Y6.543
X-45.934 Y6.376
X-45.441 Y6.206
X-44.773 Y6.033
X-44.062 Y5.908
X-43.345 Y5.825
X-42.625 Y5.768
X-41.904 Y5.729
X-41.183 Y5.703
X-40.461 Y5.686
X-39.739 Y5.674
X-39.017 Y5.665
X-38.295 Y5.66
X-37.573 Y5.656
X-36.129 Y5.652
X-33.963 Y5.65
X-25.299 Y5.649
X-10.442
X-10.2 Y5.68
X-9.975 Y5.774
X-9.782 Y5.922
X-8.182 Y7.522
G3 X-8.074 Y7.795 I-0.293 J0.273 F800
G1 X-8.076 Y7.838
X-8.083 Y7.88
X-8.109 Y7.935 Z9.105
X-8.134 Y7.988 Z9.119
X-8.157 Y8.04 Z9.142
X-8.199 Y8.074 Z9.174
X-8.236 Y8.105 Z9.215
X-8.268 Y8.131 Z9.263
X-8.293 Y8.152 Z9.317
X-8.316 Y8.162 Z9.375
X-8.329 Y8.168 Z9.437
X-8.334 Y8.17 Z9.5
G0 Z9.9
X-47.65 Y8.205
G1 Z9.5 F600
X-47.648 Y8.197 Z9.422
X-47.642 Y8.175 Z9.347
X-47.633 Y8.139 Z9.278
X-47.621 Y8.091 Z9.217
X-47.606 Y8.032 Z9.167
X-47.589 Y7.965 Z9.13
X-47.57 Y7.893 Z9.108
X-47.551 Y7.817 Z9.1
G3 X-47.175 Y7.128 I1.534 J0.39
G1 X-45.603 Y5.556 F1300
X-45.447 Y5.414
X-45.257 Y5.269
X-45.013 Y5.111
X-44.719 Y4.952
X-44.336 Y4.784
X-43.84 Y4.612
X-43.54 Y4.534
X-43.47 Y4.519
X-43.399 Y4.509
X-43.328 Y4.505
G3 X-42.933 Y4.909 Z9.3 I-0.005 J0.4 F800
G1 X-42.938 Y4.972
X-42.954 Y5.033
G3 X-43.163 Y5.267 I-0.379 J-0.128 F1300
G1 X-45.142 Y6.192
G3 X-45.48 Y6.192 I-0.169 J-0.362
G1 X-45.535 Y6.161 F600
X-45.584 Y6.122
G3 X-45.603 Y5.556 Z9.1 I0.273 J-0.292
G1 X-45.522 Y5.475 F1300
X-45.358 Y5.325
X-45.03 Y5.031
X-44.99 Y4.998
X-44.776 Y4.834
X-44.701 Y4.783
X-44.537 Y4.711
X-44.373 Y4.643
X-44.209 Y4.584
X-44.045 Y4.56
X-43.717 Y4.517
X-43.553 Y4.51
X-43.225 Y4.503
X-43.061 Y4.5
X-12.549
X-12.057 Y4.522
X-11.893 Y4.536
X-11.565 Y4.579
X-11.483 Y4.601
X-11.237 Y4.702
X-11.073 Y4.771
X-11.024 Y4.798
X-10.975 Y4.834
X-10.745 Y5.01
X-10.581 Y5.148
X-10.253 Y5.451
X-9.782 Y5.922
G3 X-9.674 Y6.195 I-0.293 J0.273 F800
G1 X-9.677 Y6.237
X-9.684 Y6.279
X-9.709 Y6.334 Z9.105
X-9.734 Y6.388 Z9.119
X-9.758 Y6.439 Z9.142
X-9.799 Y6.474 Z9.174
X-9.836 Y6.504 Z9.215
X-9.868 Y6.531 Z9.263
X-9.894 Y6.552 Z9.317
X-9.916 Y6.561 Z9.375
X-9.93 Y6.567 Z9.437
X-9.934 Y6.569 Z9.5
G0 Z18
X-52.551 Y12.239
Z11.05
G1 Z10.65 F600
Z8.65
G3 X-54.192 Y12.073 I-0.771 J-0.571
G1 X-54.164 Y12.043 F1300
X-54.136 Y12.02
X-54.108 Y12
X-54.052 Y11.97
X-54.011 Y11.955
X-53.97 Y11.944
X-53.888 Y11.932
X-53.56 Y11.889
X-53.037 Y11.808
X-52.576 Y11.644
X-52.411 Y11.579
X-51.95 Y11.388
X-51.919 Y11.374
X-51.602 Y11.224
X-51.132 Y11.03
X-50.687 Y10.887
X-50.056 Y10.738
X-49.342 Y10.63
X-48.623 Y10.562
X-47.902 Y10.52
X-47.181 Y10.494
X-46.459 Y10.477
X-45.737 Y10.467
X-45.015 Y10.46
X-44.293 Y10.456
X-42.849 Y10.452
X-40.683 Y10.449
X-23.355
X-5.538
X-5.336 Y10.471
X-5.143 Y10.536
X-4.97 Y10.641
X-4.675 Y10.867
X-4.636 Y10.896
X-4.165 Y11.224
X-3.801 Y11.388
X-3.199 Y11.637
X-3.001 Y11.715
X-2.871 Y11.765
X-2.707 Y11.808
X-2.543 Y11.839
X-2.215 Y11.885
X-1.886 Y11.929
X-1.804 Y11.94
X-1.763 Y11.948
X-1.722 Y11.961
G3 X-1.496 Y12.254 I-0.167 J0.364 F800
G1 X-1.489 Y12.324 Z8.656
X-1.503 Y12.385 Z8.673
X-1.516 Y12.443 Z8.7
X-1.528 Y12.496 Z8.737
X-1.559 Y12.538 Z8.786
X-1.584 Y12.572 Z8.844
X-1.602 Y12.597 Z8.909
X-1.613 Y12.612 Z8.978
X-1.617 Y12.617 Z9.05
G0 Z18
X-47.847 Y10.631
Z11.05
G1 Z10.65 F600
Z8.65
G3 X-51.602 Y11.224 I-2.773 J-5.371
G1 X-51.509 Y11.18 F1300
X-51.499 Y11.174
X-51.099 Y10.885
X-50.473 Y10.405
X-50.443 Y10.38
X-50.296 Y10.241
X-50.096 Y10.064
X-49.924 Y9.935
X-49.704 Y9.796
X-49.426 Y9.65
X-49.069 Y9.498
X-48.602 Y9.342
X-47.951 Y9.182
X-47.238 Y9.065
X-46.52 Y8.99
X-45.8 Y8.941
X-45.079 Y8.909
X-44.357 Y8.888
X-43.635 Y8.874
X-42.913 Y8.865
X-42.191 Y8.86
X-41.469 Y8.856
X-40.025 Y8.852
X-37.137 Y8.849
X-7.242
X-7 Y8.88
X-6.775 Y8.974
X-6.582 Y9.122
X-5.791 Y9.913
X-5.624 Y10.077
X-5.456 Y10.241
X-5.331 Y10.361
X-5.167 Y10.49
X-4.97 Y10.641
G3 X-4.825 Y10.983 I-0.254 J0.309 F800
G1 X-4.844 Y11.041 Z8.655
X-4.861 Y11.097 Z8.669
X-4.878 Y11.151 Z8.692
X-4.915 Y11.191 Z8.724
X-4.948 Y11.226 Z8.765
X-4.976 Y11.256 Z8.813
X-4.998 Y11.28 Z8.867
X-5.019 Y11.293 Z8.925
X-5.032 Y11.301 Z8.987
X-5.036 Y11.303 Z9.05
G0 Z9.45
X-50.783 Y11.312
G1 Z9.05 F600
X-50.781 Y11.305 Z8.972
X-50.775 Y11.283 Z8.897
X-50.766 Y11.247 Z8.828
X-50.753 Y11.199 Z8.767
X-50.737 Y11.141 Z8.717
X-50.719 Y11.074 Z8.68
X-50.7 Y11.001 Z8.658
X-50.68 Y10.926 Z8.65
G3 X-50.296 Y10.241 I1.529 J0.407
G1 X-49.951 Y9.904 F1300
X-48.813 Y8.766
X-48.597 Y8.57
X-48.412 Y8.429
X-48.176 Y8.275
X-47.891 Y8.122
X-47.519 Y7.959
X-47.04 Y7.792
X-46.386 Y7.623
X-45.675 Y7.499
X-44.958 Y7.416
X-44.238 Y7.361
X-43.517 Y7.323
X-42.795 Y7.299
X-42.073 Y7.282
X-41.352 Y7.271
X-40.63 Y7.263
X-39.908 Y7.258
X-39.186 Y7.255
X-37.742 Y7.252
X-34.854 Y7.249
X-8.862
X-8.828
X-8.591 Y7.283
X-8.371 Y7.376
X-8.182 Y7.522
X-6.582 Y9.122
G3 X-6.474 Y9.395 I-0.293 J0.273 F800
G1 X-6.477 Y9.437
X-6.484 Y9.479
X-6.509 Y9.534 Z8.655
X-6.534 Y9.588 Z8.669
X-6.558 Y9.639 Z8.692
X-6.599 Y9.674 Z8.724
X-6.636 Y9.704 Z8.765
X-6.668 Y9.731 Z8.813
X-6.694 Y9.752 Z8.867
X-6.716 Y9.761 Z8.925
X-6.73 Y9.767 Z8.987
X-6.734 Y9.769 Z9.05
G0 Z9.45
X-49.288 Y9.843
G1 Z9.05 F600
X-49.286 Y9.836 Z8.972
X-49.281 Y9.814 Z8.897
X-49.272 Y9.778 Z8.828
X-49.259 Y9.73 Z8.767
X-49.244 Y9.671 Z8.717
X-49.227 Y9.604 Z8.68
X-49.209 Y9.531 Z8.658
X-49.19 Y9.455 Z8.65
G3 X-48.813 Y8.766 I1.534 J0.39
G1 X-47.175 Y7.128 F1300
X-47.036 Y7.002
X-46.847 Y6.857
X-46.605 Y6.701
X-46.313 Y6.543
X-45.934 Y6.376
X-45.441 Y6.206
X-44.773 Y6.033
X-44.062 Y5.908
X-43.345 Y5.825
X-42.625 Y5.768
X-41.904 Y5.729
X-41.183 Y5.703
X-40.461 Y5.686
X-39.739 Y5.674
X-39.017 Y5.665
X-38.295 Y5.66
X-37.573 Y5.656
X-36.129 Y5.652
X-33.963 Y5.65
X-25.299 Y5.649
X-10.442
X-10.2 Y5.68
X-9.975 Y5.774
X-9.782 Y5.922
X-8.182 Y7.522
G3 X-8.074 Y7.795 I-0.293 J0.273 F800
G1 X-8.076 Y7.838
X-8.083 Y7.88
X-8.109 Y7.935 Z8.655
X-8.134 Y7.988 Z8.669
X-8.157 Y8.04 Z8.692
X-8.199 Y8.074 Z8.724
X-8.236 Y8.105 Z8.765
X-8.268 Y8.131 Z8.813
X-8.293 Y8.152 Z8.867
X-8.316 Y8.162 Z8.925
X-8.329 Y8.168 Z8.987
X-8.334 Y8.17 Z9.05
G0 Z9.45
X-47.65 Y8.205
G1 Z9.05 F600
X-47.648 Y8.197 Z8.972
X-47.642 Y8.175 Z8.897
X-47.633 Y8.139 Z8.828
X-47.621 Y8.091 Z8.767
X-47.606 Y8.032 Z8.717
X-47.589 Y7.965 Z8.68
X-47.57 Y7.893 Z8.658
X-47.551 Y7.817 Z8.65
G3 X-47.175 Y7.128 I1.534 J0.39
G1 X-45.603 Y5.556 F1300
X-45.447 Y5.414
X-45.257 Y5.269
X-45.013 Y5.111
X-44.719 Y4.952
X-44.336 Y4.784
X-43.84 Y4.612
X-43.54 Y4.534
X-43.47 Y4.519
X-43.399 Y4.509
X-43.328 Y4.505
G3 X-42.933 Y4.909 Z8.85 I-0.005 J0.4 F800
G1 X-42.938 Y4.972
X-42.954 Y5.033
G3 X-43.163 Y5.267 I-0.379 J-0.128 F1300
G1 X-45.142 Y6.192
G3 X-45.48 Y6.192 I-0.169 J-0.362
G1 X-45.535 Y6.161 F600
X-45.584 Y6.122
G3 X-45.603 Y5.556 Z8.65 I0.273 J-0.292
G1 X-45.522 Y5.475 F1300
X-45.358 Y5.325
X-45.03 Y5.031
X-44.99 Y4.998
X-44.776 Y4.834
X-44.701 Y4.783
X-44.537 Y4.711
X-44.373 Y4.643
X-44.209 Y4.584
X-44.045 Y4.56
X-43.717 Y4.517
X-43.553 Y4.51
X-43.225 Y4.503
X-43.061 Y4.5
X-12.549
X-12.057 Y4.522
X-11.893 Y4.536
X-11.565 Y4.579
X-11.483 Y4.601
X-11.237 Y4.702
X-11.073 Y4.771
X-11.024 Y4.798
X-10.975 Y4.834
X-10.745 Y5.01
X-10.581 Y5.148
X-10.253 Y5.451
X-9.782 Y5.922
G3 X-9.674 Y6.195 I-0.293 J0.273 F800
G1 X-9.677 Y6.237
X-9.684 Y6.279
X-9.709 Y6.334 Z8.655
X-9.734 Y6.388 Z8.669
X-9.758 Y6.439 Z8.692
X-9.799 Y6.474 Z8.724
X-9.836 Y6.504 Z8.765
X-9.868 Y6.531 Z8.813
X-9.894 Y6.552 Z8.867
X-9.916 Y6.561 Z8.925
X-9.93 Y6.567 Z8.987
X-9.934 Y6.569 Z9.05
G0 Z18
X-52.551 Y12.239
Z10.6
G1 Z10.2 F600
Z8.2
G3 X-54.192 Y12.073 I-0.771 J-0.571
G1 X-54.164 Y12.043 F1300
X-54.136 Y12.02
X-54.108 Y12
X-54.052 Y11.97
X-54.011 Y11.955
X-53.97 Y11.944
X-53.888 Y11.932
X-53.56 Y11.889
X-53.037 Y11.808
X-52.576 Y11.644
X-52.411 Y11.579
X-51.95 Y11.388
X-51.919 Y11.374
X-51.602 Y11.224
X-51.132 Y11.03
X-50.687 Y10.887
X-50.056 Y10.738
X-49.342 Y10.63
X-48.623 Y10.562
X-47.902 Y10.52
X-47.181 Y10.494
X-46.459 Y10.477
X-45.737 Y10.467
X-45.015 Y10.46
X-44.293 Y10.456
X-42.849 Y10.452
X-40.683 Y10.449
X-23.355
X-5.538
X-5.336 Y10.471
X-5.143 Y10.536
X-4.97 Y10.641
X-4.675 Y10.867
X-4.636 Y10.896
X-4.165 Y11.224
X-3.801 Y11.388
X-3.199 Y11.637
X-3.001 Y11.715
X-2.871 Y11.765
X-2.707 Y11.808
X-2.543 Y11.839
X-2.215 Y11.885
X-1.886 Y11.929
X-1.804 Y11.94
X-1.763 Y11.948
X-1.722 Y11.961
G3 X-1.496 Y12.254 I-0.167 J0.364 F800
G1 X-1.489 Y12.324 Z8.206
X-1.503 Y12.385 Z8.223
X-1.516 Y12.443 Z8.25
X-1.528 Y12.496 Z8.287
X-1.559 Y12.538 Z8.336
X-1.584 Y12.572 Z8.394
X-1.602 Y12.597 Z8.459
X-1.613 Y12.612 Z8.528
X-1.617 Y12.617 Z8.6
G0 Z18
X-47.847 Y10.631
Z10.6
G1 Z10.2 F600
Z8.2
G3 X-51.602 Y11.224 I-2.773 J-5.371
G1 X-51.509 Y11.18 F1300
X-51.499 Y11.174
X-51.099 Y10.885
X-50.473 Y10.405
X-50.443 Y10.38
X-50.296 Y10.241
X-50.096 Y10.064
X-49.924 Y9.935
X-49.704 Y9.796
X-49.426 Y9.65
X-49.069 Y9.498
X-48.602 Y9.342
X-47.951 Y9.182
X-47.238 Y9.065
X-46.52 Y8.99
X-45.8 Y8.941
X-45.079 Y8.909
X-44.357 Y8.888
X-43.635 Y8.874
X-42.913 Y8.865
X-42.191 Y8.86
X-41.469 Y8.856
X-40.025 Y8.852
X-37.137 Y8.849
X-7.242
X-7 Y8.88
X-6.775 Y8.974
X-6.582 Y9.122
X-5.791 Y9.913
X-5.624 Y10.077
X-5.456 Y10.241
X-5.331 Y10.361
X-5.167 Y10.49
X-4.97 Y10.641
G3 X-4.825 Y10.983 I-0.254 J0.309 F800
G1 X-4.844 Y11.041 Z8.205
X-4.861 Y11.097 Z8.219
X-4.878 Y11.151 Z8.242
X-4.915 Y11.191 Z8.274
X-4.948 Y11.226 Z8.315
X-4.976 Y11.256 Z8.363
X-4.998 Y11.28 Z8.417
X-5.019 Y11.293 Z8.475
X-5.032 Y11.301 Z8.537
X-5.036 Y11.303 Z8.6
G0 Z9
X-50.783 Y11.312
G1 Z8.6 F600
X-50.781 Y11.305 Z8.522
X-50.775 Y11.283 Z8.447
X-50.766 Y11.247 Z8.378
X-50.753 Y11.199 Z8.317
X-50.737 Y11.141 Z8.267
X-50.719 Y11.074 Z8.23
X-50.7 Y11.001 Z8.208
X-50.68 Y10.926 Z8.2
G3 X-50.296 Y10.241 I1.529 J0.407
G1 X-49.951 Y9.904 F1300
X-48.813 Y8.766
X-48.597 Y8.57
X-48.412 Y8.429
X-48.176 Y8.275
X-47.891 Y8.122
X-47.519 Y7.959
X-47.04 Y7.792
X-46.386 Y7.623
X-45.675 Y7.499
X-44.958 Y7.416
X-44.238 Y7.361
X-43.517 Y7.323
X-42.795 Y7.299
X-42.073 Y7.282
X-41.352 Y7.271
X-40.63 Y7.263
X-39.908 Y7.258
X-39.186 Y7.255
X-37.742 Y7.252
X-34.854 Y7.249
X-8.862
X-8.828
X-8.591 Y7.283
X-8.371 Y7.376
X-8.182 Y7.522
X-6.582 Y9.122
G3 X-6.474 Y9.395 I-0.293 J0.273 F800
G1 X-6.477 Y9.437
X-6.484 Y9.479
X-6.509 Y9.534 Z8.205
X-6.534 Y9.588 Z8.219
X-6.558 Y9.639 Z8.242
X-6.599 Y9.674 Z8.274
X-6.636 Y9.704 Z8.315
X-6.668 Y9.731 Z8.363
X-6.694 Y9.752 Z8.417
X-6.716 Y9.761 Z8.475
X-6.73 Y9.767 Z8.537
X-6.734 Y9.769 Z8.6
G0 Z9
X-49.288 Y9.843
G1 Z8.6 F600
X-49.286 Y9.836 Z8.522
X-49.281 Y9.814 Z8.447
X-49.272 Y9.778 Z8.378
X-49.259 Y9.73 Z8.317
X-49.244 Y9.671 Z8.267
X-49.227 Y9.604 Z8.23
X-49.209 Y9.531 Z8.208
X-49.19 Y9.455 Z8.2
G3 X-48.813 Y8.766 I1.534 J0.39
G1 X-47.175 Y7.128 F1300
X-47.036 Y7.002
X-46.847 Y6.857
X-46.605 Y6.701
X-46.313 Y6.543
X-45.934 Y6.376
X-45.441 Y6.206
X-44.773 Y6.033
X-44.062 Y5.908
X-43.345 Y5.825
X-42.625 Y5.768
X-41.904 Y5.729
X-41.183 Y5.703
X-40.461 Y5.686
X-39.739 Y5.674
X-39.017 Y5.665
X-38.295 Y5.66
X-37.573 Y5.656
X-36.129 Y5.652
X-33.963 Y5.65
X-25.299 Y5.649
X-10.442
X-10.2 Y5.68
X-9.975 Y5.774
X-9.782 Y5.922
X-8.182 Y7.522
G3 X-8.074 Y7.795 I-0.293 J0.273 F800
G1 X-8.076 Y7.838
X-8.083 Y7.88
X-8.109 Y7.935 Z8.205
X-8.134 Y7.988 Z8.219
X-8.157 Y8.04 Z8.242
X-8.199 Y8.074 Z8.274
X-8.236 Y8.105 Z8.315
X-8.268 Y8.131 Z8.363
X-8.293 Y8.152 Z8.417
X-8.316 Y8.162 Z8.475
X-8.329 Y8.168 Z8.537
X-8.334 Y8.17 Z8.6
G0 Z9
X-47.65 Y8.205
G1 Z8.6 F600
X-47.648 Y8.197 Z8.522
X-47.642 Y8.175 Z8.447
X-47.633 Y8.139 Z8.378
X-47.621 Y8.091 Z8.317
X-47.606 Y8.032 Z8.267
X-47.589 Y7.965 Z8.23
X-47.57 Y7.893 Z8.208
X-47.551 Y7.817 Z8.2
G3 X-47.175 Y7.128 I1.534 J0.39
G1 X-45.603 Y5.556 F1300
X-45.447 Y5.414
X-45.257 Y5.269
X-45.013 Y5.111
X-44.719 Y4.952
X-44.336 Y4.784
X-43.84 Y4.612
X-43.54 Y4.534
X-43.47 Y4.519
X-43.399 Y4.509
X-43.328 Y4.505
G3 X-42.933 Y4.909 Z8.4 I-0.005 J0.4 F800
G1 X-42.938 Y4.972
X-42.954 Y5.033
G3 X-43.163 Y5.267 I-0.379 J-0.128 F1300
G1 X-45.142 Y6.192
G3 X-45.48 Y6.192 I-0.169 J-0.362
G1 X-45.535 Y6.161 F600
X-45.584 Y6.122
G3 X-45.603 Y5.556 Z8.2 I0.273 J-0.292
G1 X-45.522 Y5.475 F1300
X-45.358 Y5.325
X-45.03 Y5.031
X-44.99 Y4.998
X-44.776 Y4.834
X-44.701 Y4.783
X-44.537 Y4.711
X-44.373 Y4.643
X-44.209 Y4.584
X-44.045 Y4.56
X-43.717 Y4.517
X-43.553 Y4.51
X-43.225 Y4.503
X-43.061 Y4.5
X-12.549
X-12.057 Y4.522
X-11.893 Y4.536
X-11.565 Y4.579
X-11.483 Y4.601
X-11.237 Y4.702
X-11.073 Y4.771
X-11.024 Y4.798
X-10.975 Y4.834
X-10.745 Y5.01
X-10.581 Y5.148
X-10.253 Y5.451
X-9.782 Y5.922
G3 X-9.674 Y6.195 I-0.293 J0.273 F800
G1 X-9.677 Y6.237
X-9.684 Y6.279
X-9.709 Y6.334 Z8.205
X-9.734 Y6.388 Z8.219
X-9.758 Y6.439 Z8.242
X-9.799 Y6.474 Z8.274
X-9.836 Y6.504 Z8.315
X-9.868 Y6.531 Z8.363
X-9.894 Y6.552 Z8.417
X-9.916 Y6.561 Z8.475
X-9.93 Y6.567 Z8.537
X-9.934 Y6.569 Z8.6
G0 Z18
X-52.551 Y12.239
Z10.15
G1 Z9.75 F600
Z7.75
G3 X-54.192 Y12.073 I-0.771 J-0.571
G1 X-54.164 Y12.043 F1300
X-54.136 Y12.02
X-54.108 Y12
X-54.052 Y11.97
X-54.011 Y11.955
X-53.97 Y11.944
X-53.888 Y11.932
X-53.56 Y11.889
X-53.037 Y11.808
X-52.576 Y11.644
X-52.411 Y11.579
X-51.95 Y11.388
X-51.919 Y11.374
X-51.602 Y11.224
X-51.132 Y11.03
X-50.687 Y10.887
X-50.056 Y10.738
X-49.342 Y10.63
X-48.623 Y10.562
X-47.902 Y10.52
X-47.181 Y10.494
X-46.459 Y10.477
X-45.737 Y10.467
X-45.015 Y10.46
X-44.293 Y10.456
X-42.849 Y10.452
X-40.683 Y10.449
X-23.355
X-5.538
X-5.336 Y10.471
X-5.143 Y10.536
X-4.97 Y10.641
X-4.675 Y10.867
X-4.636 Y10.896
X-4.165 Y11.224
X-3.801 Y11.388
X-3.199 Y11.637
X-3.001 Y11.715
X-2.871 Y11.765
X-2.707 Y11.808
X-2.543 Y11.839
X-2.215 Y11.885
X-1.886 Y11.929
X-1.804 Y11.94
X-1.763 Y11.948
X-1.722 Y11.961
G3 X-1.496 Y12.254 I-0.167 J0.364 F800
G1 X-1.489 Y12.324 Z7.756
X-1.503 Y12.385 Z7.773
X-1.516 Y12.443 Z7.8
X-1.528 Y12.496 Z7.837
X-1.559 Y12.538 Z7.886
X-1.584 Y12.572 Z7.944
X-1.602 Y12.597 Z8.009
X-1.613 Y12.612 Z8.078
X-1.617 Y12.617 Z8.15
G0 Z18
X-47.847 Y10.631
Z10.15
G1 Z9.75 F600
Z7.75
G3 X-51.602 Y11.224 I-2.773 J-5.371
G1 X-51.509 Y11.18 F1300
X-51.499 Y11.174
X-51.099 Y10.885
X-50.473 Y10.405
X-50.443 Y10.38
X-50.296 Y10.241
X-50.096 Y10.064
X-49.924 Y9.935
X-49.704 Y9.796
X-49.426 Y9.65
X-49.069 Y9.498
X-48.602 Y9.342
X-47.951 Y9.182
X-47.238 Y9.065
X-46.52 Y8.99
X-45.8 Y8.941
X-45.079 Y8.909
X-44.357 Y8.888
X-43.635 Y8.874
X-42.913 Y8.865
X-42.191 Y8.86
X-41.469 Y8.856
X-40.025 Y8.852
X-37.137 Y8.849
X-7.242
X-7 Y8.88
X-6.775 Y8.974
X-6.582 Y9.122
X-5.791 Y9.913
X-5.624 Y10.077
X-5.456 Y10.241
X-5.331 Y10.361
X-5.167 Y10.49
X-4.97 Y10.641
G3 X-4.825 Y10.983 I-0.254 J0.309 F800
G1 X-4.844 Y11.041 Z7.755
X-4.861 Y11.097 Z7.769
X-4.878 Y11.151 Z7.792
X-4.915 Y11.191 Z7.824
X-4.948 Y11.226 Z7.865
X-4.976 Y11.256 Z7.913
X-4.998 Y11.28 Z7.967
X-5.019 Y11.293 Z8.025
X-5.032 Y11.301 Z8.087
X-5.036 Y11.303 Z8.15
G0 Z8.55
X-50.783 Y11.312
G1 Z8.15 F600
X-50.781 Y11.305 Z8.072
X-50.775 Y11.283 Z7.997
X-50.766 Y11.247 Z7.928
X-50.753 Y11.199 Z7.867
X-50.737 Y11.141 Z7.817
X-50.719 Y11.074 Z7.78
X-50.7 Y11.001 Z7.758
X-50.68 Y10.926 Z7.75
G3 X-50.296 Y10.241 I1.529 J0.407
G1 X-49.951 Y9.904 F1300
X-48.813 Y8.766
X-48.597 Y8.57
X-48.412 Y8.429
X-48.176 Y8.275
X-47.891 Y8.122
X-47.519 Y7.959
X-47.04 Y7.792
X-46.386 Y7.623
X-45.675 Y7.499
X-44.958 Y7.416
X-44.238 Y7.361
X-43.517 Y7.323
X-42.795 Y7.299
X-42.073 Y7.282
X-41.352 Y7.271
X-40.63 Y7.263
X-39.908 Y7.258
X-39.186 Y7.255
X-37.742 Y7.252
X-34.854 Y7.249
X-8.862
X-8.828
X-8.591 Y7.283
X-8.371 Y7.376
X-8.182 Y7.522
X-6.582 Y9.122
G3 X-6.474 Y9.395 I-0.293 J0.273 F800
G1 X-6.477 Y9.437
X-6.484 Y9.479
X-6.509 Y9.534 Z7.755
X-6.534 Y9.588 Z7.769
X-6.558 Y9.639 Z7.792
X-6.599 Y9.674 Z7.824
X-6.636 Y9.704 Z7.865
X-6.668 Y9.731 Z7.913
X-6.694 Y9.752 Z7.967
X-6.716 Y9.761 Z8.025
X-6.73 Y9.767 Z8.087
X-6.734 Y9.769 Z8.15
G0 Z8.55
X-49.288 Y9.843
G1 Z8.15 F600
X-49.286 Y9.836 Z8.072
X-49.281 Y9.814 Z7.997
X-49.272 Y9.778 Z7.928
X-49.259 Y9.73 Z7.867
X-49.244 Y9.671 Z7.817
X-49.227 Y9.604 Z7.78
X-49.209 Y9.531 Z7.758
X-49.19 Y9.455 Z7.75
G3 X-48.813 Y8.766 I1.534 J0.39
G1 X-47.175 Y7.128 F1300
X-47.036 Y7.002
X-46.847 Y6.857
X-46.605 Y6.701
X-46.313 Y6.543
X-45.934 Y6.376
X-45.441 Y6.206
X-44.773 Y6.033
X-44.062 Y5.908
X-43.345 Y5.825
X-42.625 Y5.768
X-41.904 Y5.729
X-41.183 Y5.703
X-40.461 Y5.686
X-39.739 Y5.674
X-39.017 Y5.665
X-38.295 Y5.66
X-37.573 Y5.656
X-36.129 Y5.652
X-33.963 Y5.65
X-25.299 Y5.649
X-10.442
X-10.2 Y5.68
X-9.975 Y5.774
X-9.782 Y5.922
X-8.182 Y7.522
G3 X-8.074 Y7.795 I-0.293 J0.273 F800
G1 X-8.076 Y7.838
X-8.083 Y7.88
X-8.109 Y7.935 Z7.755
X-8.134 Y7.988 Z7.769
X-8.157 Y8.04 Z7.792
X-8.199 Y8.074 Z7.824
X-8.236 Y8.105 Z7.865
X-8.268 Y8.131 Z7.913
X-8.293 Y8.152 Z7.967
X-8.316 Y8.162 Z8.025
X-8.329 Y8.168 Z8.087
X-8.334 Y8.17 Z8.15
G0 Z8.55
X-47.65 Y8.205
G1 Z8.15 F600
X-47.648 Y8.197 Z8.072
X-47.642 Y8.175 Z7.997
X-47.633 Y8.139 Z7.928
X-47.621 Y8.091 Z7.867
X-47.606 Y8.032 Z7.817
X-47.589 Y7.965 Z7.78
X-47.57 Y7.893 Z7.758
X-47.551 Y7.817 Z7.75
G3 X-47.175 Y7.128 I1.534 J0.39
G1 X-45.603 Y5.556 F1300
X-45.447 Y5.414
X-45.257 Y5.269
X-45.013 Y5.111
X-44.719 Y4.952
X-44.336 Y4.784
X-43.84 Y4.612
X-43.54 Y4.534
X-43.47 Y4.519
X-43.399 Y4.509
X-43.328 Y4.505
G3 X-42.933 Y4.909 Z7.95 I-0.005 J0.4 F800
G1 X-42.938 Y4.972
X-42.954 Y5.033
G3 X-43.163 Y5.267 I-0.379 J-0.128 F1300
G1 X-45.142 Y6.192
G3 X-45.48 Y6.192 I-0.169 J-0.362
G1 X-45.535 Y6.161 F600
X-45.584 Y6.122
G3 X-45.603 Y5.556 Z7.75 I0.273 J-0.292
G1 X-45.522 Y5.475 F1300
X-45.358 Y5.325
X-45.03 Y5.031
X-44.99 Y4.998
X-44.776 Y4.834
X-44.701 Y4.783
X-44.537 Y4.711
X-44.373 Y4.643
X-44.209 Y4.584
X-44.045 Y4.56
X-43.717 Y4.517
X-43.553 Y4.51
X-43.225 Y4.503
X-43.061 Y4.5
X-12.549
X-12.057 Y4.522
X-11.893 Y4.536
X-11.565 Y4.579
X-11.483 Y4.601
X-11.237 Y4.702
X-11.073 Y4.771
X-11.024 Y4.798
X-10.975 Y4.834
X-10.745 Y5.01
X-10.581 Y5.148
X-10.253 Y5.451
X-9.782 Y5.922
G3 X-9.674 Y6.195 I-0.293 J0.273 F800
G1 X-9.677 Y6.237
X-9.684 Y6.279
X-9.709 Y6.334 Z7.755
X-9.734 Y6.388 Z7.769
X-9.758 Y6.439 Z7.792
X-9.799 Y6.474 Z7.824
X-9.836 Y6.504 Z7.865
X-9.868 Y6.531 Z7.913
X-9.894 Y6.552 Z7.967
X-9.916 Y6.561 Z8.025
X-9.93 Y6.567 Z8.087
X-9.934 Y6.569 Z8.15
G0 Z9.7
X-52.551 Y12.239
G1 Z9.3 F600
Z7.3
G3 X-54.192 Y12.073 I-0.771 J-0.571
G1 X-54.164 Y12.043 F1300
X-54.136 Y12.02
X-54.108 Y12
X-54.052 Y11.97
X-54.011 Y11.955
X-53.97 Y11.944
X-53.888 Y11.932
X-53.56 Y11.889
X-53.037 Y11.808
X-52.576 Y11.644
X-52.411 Y11.579
X-51.95 Y11.388
X-51.919 Y11.374
X-51.602 Y11.224
X-51.132 Y11.03
X-50.687 Y10.887
X-50.056 Y10.738
X-49.342 Y10.63
X-48.623 Y10.562
X-47.902 Y10.52
X-47.181 Y10.494
X-46.459 Y10.477
X-45.737 Y10.467
X-45.015 Y10.46
X-44.293 Y10.456
X-42.849 Y10.452
X-40.683 Y10.449
X-23.355
X-5.538
X-5.336 Y10.471
X-5.143 Y10.536
X-4.97 Y10.641
X-4.675 Y10.867
X-4.636 Y10.896
X-4.165 Y11.224
X-3.801 Y11.388
X-3.199 Y11.637
X-3.001 Y11.715
X-2.871 Y11.765
X-2.707 Y11.808
X-2.543 Y11.839
X-2.215 Y11.885
X-1.886 Y11.929
X-1.804 Y11.94
X-1.763 Y11.948
X-1.722 Y11.961
G3 X-1.496 Y12.254 I-0.167 J0.364 F800
G1 X-1.489 Y12.324 Z7.306
X-1.503 Y12.385 Z7.323
X-1.516 Y12.443 Z7.35
X-1.528 Y12.496 Z7.387
X-1.559 Y12.538 Z7.436
X-1.584 Y12.572 Z7.494
X-1.602 Y12.597 Z7.559
X-1.613 Y12.612 Z7.628
X-1.617 Y12.617 Z7.7
G0 Z18
X-47.847 Y10.631
Z9.7
G1 Z9.3 F600
Z7.3
G3 X-51.602 Y11.224 I-2.773 J-5.371
G1 X-51.509 Y11.18 F1300
X-51.499 Y11.174
X-51.099 Y10.885
X-50.473 Y10.405
X-50.443 Y10.38
X-50.296 Y10.241
X-50.096 Y10.064
X-49.924 Y9.935
X-49.704 Y9.796
X-49.426 Y9.65
X-49.069 Y9.498
X-48.602 Y9.342
X-47.951 Y9.182
X-47.238 Y9.065
X-46.52 Y8.99
X-45.8 Y8.941
X-45.079 Y8.909
X-44.357 Y8.888
X-43.635 Y8.874
X-42.913 Y8.865
X-42.191 Y8.86
X-41.469 Y8.856
X-40.025 Y8.852
X-37.137 Y8.849
X-7.242
X-7 Y8.88
X-6.775 Y8.974
X-6.582 Y9.122
X-5.791 Y9.913
X-5.624 Y10.077
X-5.456 Y10.241
X-5.331 Y10.361
X-5.167 Y10.49
X-4.97 Y10.641
G3 X-4.825 Y10.983 I-0.254 J0.309 F800
G1 X-4.844 Y11.041 Z7.305
X-4.861 Y11.097 Z7.319
X-4.878 Y11.151 Z7.342
X-4.915 Y11.191 Z7.374
X-4.948 Y11.226 Z7.415
X-4.976 Y11.256 Z7.463
X-4.998 Y11.28 Z7.517
X-5.019 Y11.293 Z7.575
X-5.032 Y11.301 Z7.637
X-5.036 Y11.303 Z7.7
G0 Z8.1
X-50.783 Y11.312
G1 Z7.7 F600
X-50.781 Y11.305 Z7.622
X-50.775 Y11.283 Z7.547
X-50.766 Y11.247 Z7.478
X-50.753 Y11.199 Z7.417
X-50.737 Y11.141 Z7.367
X-50.719 Y11.074 Z7.33
X-50.7 Y11.001 Z7.308
X-50.68 Y10.926 Z7.3
G3 X-50.296 Y10.241 I1.529 J0.407
G1 X-49.951 Y9.904 F1300
X-48.813 Y8.766
X-48.597 Y8.57
X-48.412 Y8.429
X-48.176 Y8.275
X-47.891 Y8.122
X-47.519 Y7.959
X-47.04 Y7.792
X-46.386 Y7.623
X-45.675 Y7.499
X-44.958 Y7.416
X-44.238 Y7.361
X-43.517 Y7.323
X-42.795 Y7.299
X-42.073 Y7.282
X-41.352 Y7.271
X-40.63 Y7.263
X-39.908 Y7.258
X-39.186 Y7.255
X-37.742 Y7.252
X-34.854 Y7.249
X-8.862
X-8.828
X-8.591 Y7.283
X-8.371 Y7.376
X-8.182 Y7.522
X-6.582 Y9.122
G3 X-6.474 Y9.395 I-0.293 J0.273 F800
G1 X-6.477 Y9.437
X-6.484 Y9.479
X-6.509 Y9.534 Z7.305
X-6.534 Y9.588 Z7.319
X-6.558 Y9.639 Z7.342
X-6.599 Y9.674 Z7.374
X-6.636 Y9.704 Z7.415
X-6.668 Y9.731 Z7.463
X-6.694 Y9.752 Z7.517
X-6.716 Y9.761 Z7.575
X-6.73 Y9.767 Z7.637
X-6.734 Y9.769 Z7.7
G0 Z8.1
X-49.288 Y9.843
G1 Z7.7 F600
X-49.286 Y9.836 Z7.622
X-49.281 Y9.814 Z7.547
X-49.272 Y9.778 Z7.478
X-49.259 Y9.73 Z7.417
X-49.244 Y9.671 Z7.367
X-49.227 Y9.604 Z7.33
X-49.209 Y9.531 Z7.308
X-49.19 Y9.455 Z7.3
G3 X-48.813 Y8.766 I1.534 J0.39
G1 X-47.175 Y7.128 F1300
X-47.036 Y7.002
X-46.847 Y6.857
X-46.605 Y6.701
X-46.313 Y6.543
X-45.934 Y6.376
X-45.441 Y6.206
X-44.773 Y6.033
X-44.062 Y5.908
X-43.345 Y5.825
X-42.625 Y5.768
X-41.904 Y5.729
X-41.183 Y5.703
X-40.461 Y5.686
X-39.739 Y5.674
X-39.017 Y5.665
X-38.295 Y5.66
X-37.573 Y5.656
X-36.129 Y5.652
X-33.963 Y5.65
X-25.299 Y5.649
X-10.442
X-10.2 Y5.68
X-9.975 Y5.774
X-9.782 Y5.922
X-8.182 Y7.522
G3 X-8.074 Y7.795 I-0.293 J0.273 F800
G1 X-8.076 Y7.838
X-8.083 Y7.88
X-8.109 Y7.935 Z7.305
X-8.134 Y7.988 Z7.319
X-8.157 Y8.04 Z7.342
X-8.199 Y8.074 Z7.374
X-8.236 Y8.105 Z7.415
X-8.268 Y8.131 Z7.463
X-8.293 Y8.152 Z7.517
X-8.316 Y8.162 Z7.575
X-8.329 Y8.168 Z7.637
X-8.334 Y8.17 Z7.7
G0 Z8.1
X-47.65 Y8.205
G1 Z7.7 F600
X-47.648 Y8.197 Z7.622
X-47.642 Y8.175 Z7.547
X-47.633 Y8.139 Z7.478
X-47.621 Y8.091 Z7.417
X-47.606 Y8.032 Z7.367
X-47.589 Y7.965 Z7.33
X-47.57 Y7.893 Z7.308
X-47.551 Y7.817 Z7.3
G3 X-47.175 Y7.128 I1.534 J0.39
G1 X-45.603 Y5.556 F1300
X-45.447 Y5.414
X-45.257 Y5.269
X-45.013 Y5.111
X-44.719 Y4.952
X-44.336 Y4.784
X-43.84 Y4.612
X-43.54 Y4.534
X-43.47 Y4.519
X-43.399 Y4.509
X-43.328 Y4.505
G3 X-42.933 Y4.909 Z7.5 I-0.005 J0.4 F800
G1 X-42.938 Y4.972
X-42.954 Y5.033
G3 X-43.163 Y5.267 I-0.379 J-0.128 F1300
G1 X-45.142 Y6.192
G3 X-45.48 Y6.192 I-0.169 J-0.362
G1 X-45.535 Y6.161 F600
X-45.584 Y6.122
G3 X-45.603 Y5.556 Z7.3 I0.273 J-0.292
G1 X-45.522 Y5.475 F1300
X-45.358 Y5.325
X-45.03 Y5.031
X-44.99 Y4.998
X-44.776 Y4.834
X-44.701 Y4.783
X-44.537 Y4.711
X-44.373 Y4.643
X-44.209 Y4.584
X-44.045 Y4.56
X-43.717 Y4.517
X-43.553 Y4.51
X-43.225 Y4.503
X-43.061 Y4.5
X-12.549
X-12.057 Y4.522
X-11.893 Y4.536
X-11.565 Y4.579
X-11.483 Y4.601
X-11.237 Y4.702
X-11.073 Y4.771
X-11.024 Y4.798
X-10.975 Y4.834
X-10.745 Y5.01
X-10.581 Y5.148
X-10.253 Y5.451
X-9.782 Y5.922
G3 X-9.674 Y6.195 I-0.293 J0.273 F800
G1 X-9.677 Y6.237
X-9.684 Y6.279
X-9.709 Y6.334 Z7.305
X-9.734 Y6.388 Z7.319
X-9.758 Y6.439 Z7.342
X-9.799 Y6.474 Z7.374
X-9.836 Y6.504 Z7.415
X-9.868 Y6.531 Z7.463
X-9.894 Y6.552 Z7.517
X-9.916 Y6.561 Z7.575
X-9.93 Y6.567 Z7.637
X-9.934 Y6.569 Z7.7
G0 Z9.25
X-52.551 Y12.239
G1 Z8.85 F600
Z6.85
G3 X-54.192 Y12.073 I-0.771 J-0.571
G1 X-54.164 Y12.043 F1300
X-54.136 Y12.02
X-54.108 Y12
X-54.052 Y11.97
X-54.011 Y11.955
X-53.97 Y11.944
X-53.888 Y11.932
X-53.56 Y11.889
X-53.037 Y11.808
X-52.576 Y11.644
X-52.411 Y11.579
X-51.95 Y11.388
X-51.919 Y11.374
X-51.602 Y11.224
X-51.132 Y11.03
X-50.687 Y10.887
X-50.056 Y10.738
X-49.342 Y10.63
X-48.623 Y10.562
X-47.902 Y10.52
X-47.181 Y10.494
X-46.459 Y10.477
X-45.737 Y10.467
X-45.015 Y10.46
X-44.293 Y10.456
X-42.849 Y10.452
X-40.683 Y10.449
X-23.355
X-5.538
X-5.336 Y10.471
X-5.143 Y10.536
X-4.97 Y10.641
X-4.675 Y10.867
X-4.636 Y10.896
X-4.165 Y11.224
X-3.801 Y11.388
X-3.199 Y11.637
X-3.001 Y11.715
X-2.871 Y11.765
X-2.707 Y11.808
X-2.543 Y11.839
X-2.215 Y11.885
X-1.886 Y11.929
X-1.804 Y11.94
X-1.763 Y11.948
X-1.722 Y11.961
G3 X-1.496 Y12.254 I-0.167 J0.364 F800
G1 X-1.489 Y12.324 Z6.856
X-1.503 Y12.385 Z6.873
X-1.516 Y12.443 Z6.9
X-1.528 Y12.496 Z6.937
X-1.559 Y12.538 Z6.986
X-1.584 Y12.572 Z7.044
X-1.602 Y12.597 Z7.109
X-1.613 Y12.612 Z7.178
X-1.617 Y12.617 Z7.25
G0 Z18
X-47.847 Y10.631
Z9.25
G1 Z8.85 F600
Z6.85
G3 X-51.602 Y11.224 I-2.773 J-5.371
G1 X-51.509 Y11.18 F1300
