(adap2)
(T1  D=4 CR=0 - ZMIN=0 - flat end mill)
G90 G94
G17
G21
G28 G91 Z0
G90

(Adaptive5 3)
T1
S18000 M3
G54
G0 X40.954 Y1.652
Z28
Z18
Z10.25
G3 X40.024 Y-0.484 Z10.163 I0.923 J-1.673 F600
X41.848 Y-1.93 Z10.075 I1.852 J0.463
X43.712 Y-0.538 Z9.988 I0.027 J1.907
X42.846 Y1.618 Z9.9 I-1.835 J0.515
X40.541 Y1.335 Z9.813 I-0.968 J-1.64
X40.224 Y-0.964 Z9.725 I1.336 J-1.355
X42.363 Y-1.859 Z9.637 I1.651 J0.943
X43.776 Y-0.023 Z9.55 I-0.487 J1.836
X39.976 Y-0.023 I-1.9 J0
X43.776 Y-0.023 I1.9 J0
G1 X43.784 Y0.166 F1300
X43.951 Y0.833
X43.978 Y0.996
X43.98 Y1.161
X43.96 Y1.325
X43.92 Y1.485
X43.864 Y1.64
X43.792 Y1.788
X43.707 Y1.93
X43.609 Y2.063
X43.501 Y2.187
X43.379 Y2.307
X43.242 Y2.421
X43.093 Y2.526
X42.93 Y2.622
X42.756 Y2.707
X42.571 Y2.78
X42.376 Y2.839
X42.173 Y2.882
X41.964 Y2.91
X41.749 Y2.921
X41.531 Y2.915
X41.311 Y2.891
X41.092 Y2.849
X40.874 Y2.789
X40.66 Y2.711
X40.45 Y2.615
X40.248 Y2.501
X40.055 Y2.371
X39.871 Y2.226
X39.699 Y2.064
X39.539 Y1.889
X39.394 Y1.701
X39.263 Y1.502
X39.149 Y1.291
X39.052 Y1.072
X38.972 Y0.845
X38.911 Y0.612
X38.868 Y0.374
X38.845 Y0.133
X38.841 Y-0.109
X38.857 Y-0.351
X38.892 Y-0.591
X38.946 Y-0.827
X39.02 Y-1.059
X39.111 Y-1.284
X39.221 Y-1.502
X39.347 Y-1.71
X39.49 Y-1.907
X39.648 Y-2.092
X39.821 Y-2.264
X40.007 Y-2.422
X40.205 Y-2.564
X40.415 Y-2.69
X40.633 Y-2.799
X40.86 Y-2.89
X41.093 Y-2.962
X41.331 Y-3.016
X41.573 Y-3.05
X41.816 Y-3.064
X42.061 Y-3.059
X42.304 Y-3.035
X42.544 Y-2.991
X42.78 Y-2.928
X43.01 Y-2.846
X43.233 Y-2.746
X43.447 Y-2.628
X43.651 Y-2.494
X43.844 Y-2.343
X44.024 Y-2.178
X44.19 Y-1.999
X44.341 Y-1.807
X44.488 Y-1.584
X44.751 Y-1.11
X44.939 Y-0.696
X45.062 Y-0.353
X45.147 Y-0.042
X45.202 Y0.251
X45.231 Y0.533
X45.238 Y0.805
X45.222 Y1.072
X45.187 Y1.332
X45.13 Y1.587
X45.054 Y1.837
X44.957 Y2.081
X44.84 Y2.319
X44.703 Y2.548
X44.547 Y2.767
X44.372 Y2.975
X44.178 Y3.171
X43.967 Y3.353
X43.738 Y3.521
X43.493 Y3.671
X43.233 Y3.803
X42.96 Y3.915
X42.675 Y4.006
X42.379 Y4.075
X42.076 Y4.12
X41.767 Y4.141
X41.453 Y4.138
X41.138 Y4.108
X40.824 Y4.054
X40.513 Y3.973
X40.207 Y3.867
X39.908 Y3.736
X39.62 Y3.581
X39.343 Y3.401
X39.08 Y3.199
X38.833 Y2.976
X38.603 Y2.732
X38.393 Y2.47
X38.204 Y2.19
X38.038 Y1.896
X37.895 Y1.588
X37.777 Y1.269
X37.685 Y0.94
X37.62 Y0.605
X37.581 Y0.265
X37.57 Y-0.078
X37.587 Y-0.421
X37.631 Y-0.762
X37.702 Y-1.098
X37.801 Y-1.429
X37.925 Y-1.75
X38.075 Y-2.061
X38.25 Y-2.359
X38.448 Y-2.642
X38.668 Y-2.908
X38.909 Y-3.156
X39.169 Y-3.384
X39.447 Y-3.59
X39.741 Y-3.774
X40.048 Y-3.933
X40.367 Y-4.067
X40.696 Y-4.175
X41.033 Y-4.257
X41.375 Y-4.311
X41.721 Y-4.337
X42.067 Y-4.336
X42.413 Y-4.307
X42.755 Y-4.25
X43.091 Y-4.166
X43.42 Y-4.055
X43.738 Y-3.918
X44.045 Y-3.756
X44.337 Y-3.57
X44.618 Y-3.359
X44.923 Y-3.087
X45.218 Y-2.779
X45.497 Y-2.436
X45.752 Y-2.066
X45.974 Y-1.681
X46.159 Y-1.289
X46.308 Y-0.896
X46.421 Y-0.503
X46.501 Y-0.111
X46.549 Y0.28
X46.565 Y0.668
X46.549 Y1.053
X46.503 Y1.431
X46.428 Y1.803
X46.323 Y2.167
X46.189 Y2.521
X46.027 Y2.863
X45.838 Y3.192
X45.622 Y3.506
X45.38 Y3.804
X45.113 Y4.083
X44.823 Y4.341
X44.51 Y4.578
X44.177 Y4.79
X43.824 Y4.976
X43.455 Y5.135
X43.07 Y5.265
X42.674 Y5.364
X42.267 Y5.432
X41.854 Y5.467
X41.436 Y5.469
X41.016 Y5.437
X40.598 Y5.371
X40.183 Y5.271
X39.776 Y5.137
X39.378 Y4.971
X38.993 Y4.771
X38.624 Y4.541
X38.272 Y4.28
X37.942 Y3.991
X37.634 Y3.674
X37.352 Y3.333
X37.097 Y2.97
X36.871 Y2.585
X36.677 Y2.183
X36.515 Y1.766
X36.387 Y1.336
X36.293 Y0.896
X36.235 Y0.449
X36.214 Y-0.001
X36.228 Y-0.453
X36.278 Y-0.902
X36.365 Y-1.347
X36.487 Y-1.783
X36.644 Y-2.208
X36.834 Y-2.62
X37.058 Y-3.016
X37.312 Y-3.392
X37.596 Y-3.747
X37.907 Y-4.078
X38.244 Y-4.384
X38.605 Y-4.661
X38.987 Y-4.908
X39.388 Y-5.125
X39.805 Y-5.308
X40.235 Y-5.457
X40.676 Y-5.572
X41.125 Y-5.65
X41.579 Y-5.692
X42.034 Y-5.698
X42.489 Y-5.667
X42.94 Y-5.6
X43.384 Y-5.497
X43.818 Y-5.358
X44.241 Y-5.185
X44.662 Y-4.971
X45.078 Y-4.717
X45.484 Y-4.42
X45.876 Y-4.083
X46.247 Y-3.708
X46.589 Y-3.302
X46.897 Y-2.869
X47.169 Y-2.415
X47.401 Y-1.944
X47.594 Y-1.46
X47.745 Y-0.967
X47.855 Y-0.468
X47.925 Y0.034
X47.953 Y0.536
X47.941 Y1.036
X47.89 Y1.53
X47.799 Y2.017
X47.67 Y2.494
X47.503 Y2.959
X47.299 Y3.409
X47.06 Y3.841
X46.786 Y4.255
X46.478 Y4.646
X46.139 Y5.013
X45.769 Y5.353
X45.371 Y5.664
X44.948 Y5.943
X44.5 Y6.19
X44.031 Y6.4
X43.544 Y6.574
X43.042 Y6.709
X42.527 Y6.803
X42.003 Y6.856
X41.474 Y6.867
X40.943 Y6.836
X40.413 Y6.761
X39.888 Y6.643
X39.372 Y6.484
X38.869 Y6.282
X38.38 Y6.039
X37.911 Y5.757
X37.465 Y5.437
X37.044 Y5.081
X36.652 Y4.691
X36.291 Y4.269
X35.964 Y3.819
X35.674 Y3.343
X35.423 Y2.843
X35.211 Y2.324
X35.042 Y1.789
X34.916 Y1.241
X34.835 Y0.684
X34.798 Y0.121
X34.807 Y-0.444
X34.861 Y-1.007
X34.96 Y-1.564
X35.103 Y-2.112
X35.291 Y-2.647
X35.52 Y-3.166
X35.791 Y-3.665
X36.101 Y-4.141
X36.449 Y-4.59
X36.831 Y-5.011
X37.247 Y-5.399
X37.692 Y-5.753
X38.165 Y-6.071
X38.661 Y-6.349
X39.178 Y-6.587
X39.713 Y-6.782
X40.262 Y-6.934
X40.821 Y-7.042
X41.388 Y-7.104
X41.957 Y-7.12
X42.526 Y-7.091
X43.092 Y-7.016
X43.651 Y-6.896
X44.205 Y-6.729
X44.75 Y-6.516
X45.283 Y-6.257
X45.804 Y-5.949
X46.307 Y-5.594
X46.788 Y-5.194
X47.241 Y-4.752
X47.658 Y-4.272
X48.037 Y-3.758
X48.373 Y-3.217
X48.664 Y-2.651
X48.907 Y-2.067
X49.102 Y-1.468
X49.247 Y-0.859
X49.343 Y-0.244
X49.388 Y0.374
X49.384 Y0.991
X49.33 Y1.603
X49.228 Y2.207
X49.077 Y2.8
X48.88 Y3.379
X48.638 Y3.939
X48.35 Y4.479
X48.02 Y4.995
X47.648 Y5.484
X47.237 Y5.943
X46.789 Y6.37
X46.306 Y6.76
X45.792 Y7.112
X45.248 Y7.423
X44.678 Y7.69
X44.086 Y7.912
X43.475 Y8.087
X42.849 Y8.212
X42.212 Y8.288
X41.568 Y8.312
X40.921 Y8.284
X40.276 Y8.204
X39.636 Y8.072
X39.007 Y7.888
X38.392 Y7.653
X37.796 Y7.369
X37.223 Y7.037
X36.676 Y6.658
X36.16 Y6.236
X35.678 Y5.772
X35.234 Y5.27
X34.83 Y4.732
X34.47 Y4.163
X34.156 Y3.565
X33.891 Y2.943
X33.677 Y2.301
X33.514 Y1.642
X33.404 Y0.971
X33.349 Y0.293
X33.348 Y-0.388
X33.402 Y-1.068
X33.51 Y-1.742
X33.673 Y-2.405
X33.888 Y-3.054
X34.154 Y-3.684
X34.471 Y-4.29
X34.835 Y-4.87
X35.245 Y-5.419
X35.698 Y-5.933
X36.191 Y-6.41
X36.72 Y-6.845
X37.283 Y-7.237
X37.876 Y-7.582
X38.495 Y-7.879
X39.136 Y-8.125
X39.794 Y-8.319
X40.466 Y-8.46
X41.147 Y-8.546
X41.833 Y-8.577
X42.52 Y-8.553
X43.206 Y-8.474
X43.886 Y-8.339
X44.559 Y-8.149
X45.221 Y-7.902
X45.869 Y-7.6
X46.498 Y-7.242
X47.103 Y-6.83
X47.679 Y-6.367
X48.22 Y-5.855
X48.72 Y-5.299
X49.175 Y-4.703
X49.581 Y-4.072
X49.935 Y-3.411
X50.234 Y-2.725
X50.476 Y-2.02
X50.661 Y-1.3
X50.786 Y-0.57
X50.852 Y0.165
X50.859 Y0.901
X50.807 Y1.633
X50.697 Y2.358
X50.529 Y3.069
X50.305 Y3.765
X50.025 Y4.44
X49.692 Y5.091
X49.308 Y5.714
X48.874 Y6.306
X48.392 Y6.861
X47.867 Y7.378
X47.299 Y7.853
X46.694 Y8.281
X46.053 Y8.662
X45.382 Y8.99
X44.684 Y9.265
X43.963 Y9.484
X43.224 Y9.645
X42.474 Y9.746
X41.718 Y9.787
X40.961 Y9.768
X40.209 Y9.689
X39.465 Y9.55
X38.734 Y9.354
X38.021 Y9.101
X37.329 Y8.793
X36.664 Y8.433
X36.029 Y8.022
X35.427 Y7.562
X34.863 Y7.058
X34.34 Y6.511
X33.861 Y5.925
X33.428 Y5.304
X33.045 Y4.652
X32.712 Y3.972
X32.432 Y3.269
X32.207 Y2.547
X32.037 Y1.809
X31.924 Y1.061
X31.868 Y0.306
X31.869 Y-0.45
X31.927 Y-1.205
X32.042 Y-1.953
X32.214 Y-2.69
X32.44 Y-3.412
X32.72 Y-4.115
X33.052 Y-4.795
X33.435 Y-5.448
X33.867 Y-6.069
X34.345 Y-6.656
X34.866 Y-7.205
X35.427 Y-7.712
X36.025 Y-8.176
X36.656 Y-8.594
X37.317 Y-8.962
X38.004 Y-9.28
X38.713 Y-9.546
X39.439 Y-9.757
X40.18 Y-9.914
X40.93 Y-10.014
X41.685 Y-10.058
X42.442 Y-10.045
X43.195 Y-9.976
X43.942 Y-9.85
X44.676 Y-9.669
X45.395 Y-9.432
X46.095 Y-9.143
X46.771 Y-8.804
X47.421 Y-8.417
X48.043 Y-7.985
X48.632 Y-7.51
X49.187 Y-6.996
X49.705 Y-6.444
X50.182 Y-5.856
X50.615 Y-5.236
X51.004 Y-4.587
X51.346 Y-3.912
X51.641 Y-3.215
X51.888 Y-2.499
X52.084 Y-1.768
X52.228 Y-1.026
X52.318 Y-0.274
X52.354 Y0.482
X52.335 Y1.238
X52.263 Y1.992
X52.138 Y2.738
X51.96 Y3.473
X51.731 Y4.195
X51.452 Y4.898
X51.124 Y5.58
X50.747 Y6.236
X50.323 Y6.863
X49.855 Y7.458
X49.346 Y8.018
X48.799 Y8.541
X48.217 Y9.024
X47.603 Y9.466
X46.959 Y9.865
X46.289 Y10.216
X45.595 Y10.518
X44.882 Y10.771
X44.153 Y10.973
X43.411 Y11.125
X42.661 Y11.226
X41.906 Y11.276
X41.149 Y11.274
X40.395 Y11.219
X39.646 Y11.111
X38.906 Y10.952
X38.178 Y10.743
X37.466 Y10.487
X36.773 Y10.184
X36.101 Y9.836
X35.455 Y9.442
X34.838 Y9.004
X34.252 Y8.525
X33.699 Y8.008
X33.182 Y7.455
X32.702 Y6.87
X32.262 Y6.254
X31.864 Y5.611
X31.511 Y4.941
X31.204 Y4.25
X30.944 Y3.539
X30.731 Y2.813
X30.566 Y2.074
X30.449 Y1.327
X30.381 Y0.573
X30.363 Y-0.183
X30.396 Y-0.939
X30.48 Y-1.692
X30.614 Y-2.436
X30.795 Y-3.171
X31.023 Y-3.893
X31.298 Y-4.598
X31.617 Y-5.284
X31.982 Y-5.947
X32.392 Y-6.583
X32.843 Y-7.191
X33.333 Y-7.768
X33.859 Y-8.311
X34.42 Y-8.819
X35.012 Y-9.291
X35.634 Y-9.722
X36.283 Y-10.11
X36.957 Y-10.454
X37.653 Y-10.753
X38.366 Y-11.006
X39.094 Y-11.213
X39.833 Y-11.373
X40.582 Y-11.484
X41.336 Y-11.547
X42.093 Y-11.558
X42.849 Y-11.519
X43.6 Y-11.431
X44.344 Y-11.294
X45.078 Y-11.11
X45.799 Y-10.879
X46.504 Y-10.603
X47.189 Y-10.282
X47.852 Y-9.917
X48.49 Y-9.51
X49.102 Y-9.065
X49.686 Y-8.584
X50.239 Y-8.067
X50.76 Y-7.518
X51.246 Y-6.938
X51.695 Y-6.329
X52.104 Y-5.692
X52.472 Y-5.031
X52.799 Y-4.349
X53.085 Y-3.648
X53.327 Y-2.931
X53.526 Y-2.201
X53.68 Y-1.46
X53.787 Y-0.711
X53.845 Y0.044
X53.855 Y0.801
X53.818 Y1.556
X53.735 Y2.309
X53.606 Y3.054
X53.431 Y3.79
X53.212 Y4.515
X52.948 Y5.224
X52.639 Y5.915
X52.287 Y6.585
X51.892 Y7.23
X51.458 Y7.85
X50.987 Y8.443
X50.48 Y9.005
X49.941 Y9.535
X49.369 Y10.031
X48.768 Y10.491
X48.139 Y10.911
X47.485 Y11.292
X46.808 Y11.631
X46.112 Y11.928
X45.399 Y12.182
X44.673 Y12.394
X43.935 Y12.561
X43.188 Y12.682
X42.435 Y12.757
X41.679 Y12.786
X40.922 Y12.768
X40.168 Y12.705
X39.419 Y12.597
X38.678 Y12.445
X37.946 Y12.25
X37.228 Y12.011
X36.526 Y11.73
X35.842 Y11.406
X35.179 Y11.041
X34.538 Y10.638
X33.923 Y10.198
X33.334 Y9.722
X32.775 Y9.213
X32.246 Y8.672
X31.75 Y8.1
X31.29 Y7.499
X30.866 Y6.872
X30.48 Y6.221
X30.133 Y5.549
X29.826 Y4.857
X29.559 Y4.149
X29.333 Y3.427
X29.15 Y2.693
X29.011 Y1.949
X28.916 Y1.198
X28.865 Y0.443
X28.858 Y-0.314
X28.896 Y-1.07
X28.977 Y-1.822
X29.101 Y-2.569
X29.267 Y-3.307
X29.476 Y-4.034
X29.728 Y-4.748
X30.021 Y-5.445
X30.355 Y-6.125
X30.728 Y-6.783
X31.139 Y-7.419
X31.585 Y-8.03
X32.066 Y-8.614
X32.58 Y-9.17
X33.125 Y-9.694
X33.701 Y-10.185
X34.305 Y-10.642
X34.934 Y-11.062
X35.586 Y-11.446
X36.259 Y-11.791
X36.951 Y-12.098
X37.66 Y-12.364
X38.382 Y-12.589
X39.117 Y-12.771
X39.861 Y-12.909
X40.612 Y-13.005
X41.367 Y-13.056
X42.123 Y-13.064
X42.879 Y-13.029
X43.632 Y-12.951
X44.379 Y-12.83
X45.118 Y-12.665
X45.845 Y-12.458
X46.56 Y-12.209
X47.259 Y-11.92
X47.941 Y-11.591
X48.604 Y-11.226
X49.245 Y-10.824
X49.863 Y-10.388
X50.457 Y-9.918
X51.023 Y-9.417
X51.561 Y-8.884
X52.068 Y-8.322
X52.543 Y-7.733
X52.985 Y-7.119
X53.393 Y-6.481
X53.765 Y-5.822
X54.101 Y-5.144
X54.4 Y-4.449
X54.661 Y-3.739
X54.881 Y-3.015
X55.062 Y-2.28
X55.201 Y-1.536
X55.298 Y-0.785
X55.354 Y-0.031
X55.368 Y0.726
X55.341 Y1.482
X55.272 Y2.236
X55.162 Y2.984
X55.009 Y3.726
X54.817 Y4.457
X54.583 Y5.177
X54.31 Y5.883
X53.999 Y6.573
X53.649 Y7.244
X53.263 Y7.895
X52.842 Y8.523
X52.386 Y9.127
X51.897 Y9.705
X51.376 Y10.254
X50.827 Y10.775
X50.249 Y11.264
X49.646 Y11.721
X49.019 Y12.144
X48.369 Y12.532
X47.699 Y12.884
X47.011 Y13.199
X46.306 Y13.474
X45.587 Y13.711
X44.857 Y13.909
X44.117 Y14.066
X43.369 Y14.184
X42.616 Y14.261
X41.861 Y14.297
X41.104 Y14.293
X40.348 Y14.248
X39.597 Y14.161
X38.851 Y14.035
X38.112 Y13.868
X37.384 Y13.663
X36.668 Y13.419
X35.965 Y13.137
X35.279 Y12.818
X34.61 Y12.464
X33.961 Y12.075
X33.335 Y11.65
X32.731 Y11.193
X32.153 Y10.705
X31.602 Y10.187
X31.078 Y9.64
X30.584 Y9.067
X30.121 Y8.469
X29.69 Y7.847
X29.292 Y7.203
X28.929 Y6.539
X28.602 Y5.857
X28.311 Y5.158
X28.057 Y4.445
X27.841 Y3.72
X27.662 Y2.985
X27.522 Y2.241
X27.421 Y1.491
X27.359 Y0.737
X27.337 Y-0.02
X27.354 Y-0.776
X27.412 Y-1.531
X27.509 Y-2.281
X27.644 Y-3.026
X27.818 Y-3.762
X28.03 Y-4.489
X28.279 Y-5.203
X28.565 Y-5.904
X28.886 Y-6.589
X29.244 Y-7.256
X29.636 Y-7.903
X30.062 Y-8.529
X30.52 Y-9.131
X31.008 Y-9.709
X31.526 Y-10.261
X32.072 Y-10.785
X32.644 Y-11.281
X33.241 Y-11.746
X33.861 Y-12.179
X34.504 Y-12.579
X35.167 Y-12.944
X35.847 Y-13.275
X36.544 Y-13.57
X37.255 Y-13.829
X37.784 Y-13.991
X37.854 Y-14.009
X37.924 Y-14.022
X37.996 Y-14.03
X38.094 Y-14.036
X38.266 Y-14.06
X38.438 Y-14.104
X39.17 Y-14.295
X39.915 Y-14.43
X40.666 Y-14.52
X41.422 Y-14.569
X42.178 Y-14.576
X42.934 Y-14.544
X43.688 Y-14.473
X44.436 Y-14.362
X45.178 Y-14.213
X45.911 Y-14.025
X46.633 Y-13.798
X47.342 Y-13.534
X48.037 Y-13.234
X48.716 Y-12.9
X49.378 Y-12.533
X50.021 Y-12.134
X50.643 Y-11.703
X51.243 Y-11.242
X51.82 Y-10.752
X52.37 Y-10.233
X52.894 Y-9.686
X53.389 Y-9.114
X53.856 Y-8.518
X54.292 Y-7.9
X54.698 Y-7.261
X55.072 Y-6.604
X55.415 Y-5.929
X55.654 Y-5.394
X55.673 Y-5.347
X55.69 Y-5.3
X55.704 Y-5.252
X55.752 Y-5.071
X55.796 Y-4.888
X56.139 Y-3.125
X56.227 Y-2.664
X56.243 Y-2.492
X56.376 Y-0.43
X56.385 Y-0.258
X56.384 Y0.258
X56.375 Y0.43
X56.244 Y2.493
X56.228 Y2.665
X55.795 Y4.899
X55.753 Y5.071
X55.624 Y5.549
X55.108 Y7.106
X54.835 Y7.812
X54.573 Y8.404
X54.217 Y9.063
X53.804 Y9.698
X53.35 Y10.303
X52.859 Y10.879
X52.337 Y11.427
X51.787 Y11.946
X51.211 Y12.437
X50.61 Y12.898
X49.988 Y13.328
X49.345 Y13.727
X48.683 Y14.094
X48.003 Y14.425
X47.307 Y14.723
X46.597 Y14.985
X45.875 Y15.213
X45.143 Y15.405
X44.403 Y15.561
X43.656 Y15.681
X42.903 Y15.765
X42.148 Y15.814
X41.392 Y15.825
X40.635 Y15.798
X40.459 Y15.782
X40.22 Y15.727
X40.007 Y15.606
X39.837 Y15.43
X39.724 Y15.212
X39.641 Y15.037
X39.54 Y14.869
X39.469 Y14.771
X39.411 Y14.697
X39.297 Y14.574
X39.249 Y14.525
X39.125 Y14.42
X39.042 Y14.353
X38.751 Y14.181
X38.61 Y14.122
X38.438 Y14.062
X38.266 Y14.017
X38.094 Y13.994
X37.922 Y13.982
X37.751 Y13.979
X35.86
X35.444 Y13.958
X35.108 Y13.914
X34.713 Y13.829
X34.253 Y13.692
X33.733 Y13.489
X33.121 Y13.192
X32.469 Y12.808
X31.847 Y12.377
X31.254 Y11.906
X30.689 Y11.403
X30.152 Y10.87
X29.642 Y10.311
X29.162 Y9.726
X28.712 Y9.118
X28.291 Y8.489
X27.901 Y7.84
X27.543 Y7.173
X27.217 Y6.49
X26.923 Y5.793
X26.662 Y5.083
X26.435 Y4.361
X26.242 Y3.629
X26.085 Y2.889
X25.964 Y2.142
X25.878 Y1.39
X25.827 Y0.635
X25.813 Y-0.122
X25.834 Y-0.878
X25.891 Y-1.633
X25.982 Y-2.384
X26.109 Y-3.13
X26.27 Y-3.87
X26.466 Y-4.6
X26.697 Y-5.321
X26.962 Y-6.03
X27.261 Y-6.725
X27.591 Y-7.406
X27.954 Y-8.07
X28.348 Y-8.716
X28.771 Y-9.344
X29.223 Y-9.95
X29.703 Y-10.535
X30.21 Y-11.097
X30.744 Y-11.634
X31.302 Y-12.145
X31.884 Y-12.629
X32.488 Y-13.084
X33.113 Y-13.511
X33.717 Y-13.883
X33.871 Y-13.959
X34.036 Y-14.006
X34.206 Y-14.021
X37.751
X37.922 Y-14.025
X37.996 Y-14.03
G3 X38.421 Y-13.657 Z9.75 I0.026 J0.399 F800
G1 Y-13.594
X38.41 Y-13.532
X38.398 Y-13.492 F1300
X38.381 Y-13.454
G3 X37.985 Y-13.649 I-0.198 J-0.098
X38.28 Y-13.75 I0.198 J0.098
X37.928 Y-13.031 I-0.176 J0.359
X37.798 Y-13.649 I0.176 J-0.359
G1 X37.824 Y-13.678
X37.912 Y-13.769 F600
G3 X38.438 Y-14.104 Z9.55 I1.096 J1.141
G1 X38.61 Y-14.164 F1300
X38.652 Y-14.181
X38.782 Y-14.239
X38.981 Y-14.353
X39.125 Y-14.463
X39.204 Y-14.525
X39.297 Y-14.613
X39.378 Y-14.696
X39.469 Y-14.808
X39.573 Y-14.936
X39.708 Y-15.054
X39.881 Y-15.184
X40.08 Y-15.309
X40.333 Y-15.441
X40.642 Y-15.572
X41.014 Y-15.696
X41.47 Y-15.807
X42.039 Y-15.899
X42.702 Y-15.952
X43.459
X44.214 Y-15.893
X44.963 Y-15.787
X45.704 Y-15.637
X46.437 Y-15.448
X47.159 Y-15.222
X47.87 Y-14.961
X48.567 Y-14.667
X49.25 Y-14.342
X49.918 Y-13.985
X50.569 Y-13.599
X51.201 Y-13.183
X51.813 Y-12.739
X52.177 Y-12.448
X52.234 Y-12.398
X52.287 Y-12.344
X52.336 Y-12.285
X52.359 Y-12.256
X52.454 Y-12.118
X53.686 Y-10.227
X53.733 Y-10.136
X53.947 Y-9.712
X54.032 Y-9.54
X54.778 Y-7.993
X54.853 Y-7.821
X55.041 Y-7.305
X55.624 Y-5.553
X55.704 Y-5.252
X55.712 Y-5.19 F800
X55.707 Y-5.127
X55.691 Y-5.067
X55.663 Y-5.011
X55.608 Y-4.923
X55.57 Y-4.859 Z9.557
X55.533 Y-4.797 Z9.578
X55.498 Y-4.74 Z9.612
X55.467 Y-4.689 Z9.658
X55.445 Y-4.651 Z9.707
X55.428 Y-4.62 Z9.762
X55.415 Y-4.598 Z9.822
X55.407 Y-4.584 Z9.885
X55.404 Y-4.579 Z9.95
G0 Z18
X39.167 Y-13.67
Z10.35
G1 Z9.95 F600
X39.168 Y-13.678 Z9.872
X39.17 Y-13.701 Z9.797
X39.173 Y-13.737 Z9.728
X39.178 Y-13.787 Z9.667
X39.184 Y-13.847 Z9.617
X39.19 Y-13.916 Z9.58
X39.197 Y-13.991 Z9.558
X39.204 Y-14.069 Z9.55
G3 X39.469 Y-14.808 I1.576 J0.147
G1 X39.513 Y-14.868 F1300
X39.622 Y-15.04
X39.71 Y-15.212
X39.773 Y-15.384
X39.813 Y-15.512
X39.868 Y-15.668
X39.942 Y-15.815
X40.033 Y-15.953
X40.135 Y-16.083
X40.257 Y-16.213
X40.418 Y-16.359
X40.599 Y-16.499
X40.821 Y-16.644
X41.095 Y-16.793
X41.398 Y-16.927
X41.515 Y-16.968
X41.616 Y-16.997
X41.719 Y-17.015
X41.824 Y-17.02
G3 X42.21 Y-16.621 Z9.745 I-0.014 J0.4 F800
G1 Z9.746
Y-16.607 Z9.75
X42.202 Y-16.544
X42.186 Y-16.484
X42.152 Y-16.414 F1300
X42.107 Y-16.353
X42.05 Y-16.301
X40.44 Y-15.092
X40.374 Y-15.052
X40.301 Y-15.025
X40.225 Y-15.013
X40.162 Y-15.014 F600
X40.099 Y-15.025
G3 X39.813 Y-15.512 Z9.55 I0.101 J-0.387
G1 X39.826 Y-15.556 F1300
X39.856 Y-15.728
X39.874 Y-15.9
X39.878 Y-16.072
X39.872 Y-16.166
X39.87 Y-16.331
X39.933 Y-16.55
X40.056 Y-16.743
X40.228 Y-16.893
X40.435 Y-16.988
X40.661 Y-17.02
G3 X41.047 Y-16.621 Z9.745 I-0.014 J0.4 F800
G1 Z9.746
X41.046 Y-16.607 Z9.75
X41.039 Y-16.544
X41.022 Y-16.484
X40.989 Y-16.414 F1300
X40.943 Y-16.352
X40.567 Y-15.937
X40.526 Y-15.898
X40.481 Y-15.865
X40.431 Y-15.839
X40.371 Y-15.818 F600
X40.309 Y-15.807
G3 X39.872 Y-16.166 Z9.55 I-0.039 J-0.398
G1 X39.867 Y-16.243 F1300
X39.822 Y-16.587
X39.823 Y-16.63
X39.828 Y-16.673
X39.838 Y-16.716
X39.854 Y-16.759
X39.875 Y-16.802
X39.904 Y-16.844
X39.94 Y-16.887
X39.987 Y-16.931
X40.029 Y-16.961
X40.072 Y-16.984
X40.114 Y-17.001
X40.157 Y-17.012
X40.2 Y-17.019
X40.243 Y-17.02
X44.969
X45.724 Y-16.983
X46.389 Y-16.902
X47.13 Y-16.75
X47.859 Y-16.544
X48.573 Y-16.295
X49.273 Y-16.008
X49.584 Y-15.862
X49.763 Y-15.753
X49.912 Y-15.606
X50.026 Y-15.43
X50.097 Y-15.233
G3 X49.784 Y-14.762 Z9.75 I-0.392 J0.079 F800
G1 X49.721 Y-14.755
X49.658 Y-14.757
X49.586 Y-14.772 F1300
X44.864 Y-16.239
G3 X44.607 Y-16.484 I0.119 J-0.382
G1 X44.59 Y-16.544 F600
X44.583 Y-16.607
G3 X44.969 Y-17.02 Z9.55 I0.4 J-0.014
G1 X48.921 F1300
X49.201 Y-17.006
X49.229 Y-17.003
X49.461 Y-16.941
X49.67 Y-16.822
X49.841 Y-16.654
X49.964 Y-16.447
X50.03 Y-16.216
X50.035 Y-15.976
G3 X49.582 Y-15.637 Z9.75 I-0.396 J-0.057 F800
G1 X49.521 Y-15.651
X49.462 Y-15.675
X49.421 Y-15.698 F1300
X49.383 Y-15.726
X48.679 Y-16.314
X48.629 Y-16.363
X48.589 Y-16.42
X48.56 Y-16.484
X48.543 Y-16.544 F600
X48.536 Y-16.607
G3 X48.921 Y-17.02 Z9.55 I0.4 J-0.014
G1 X49.609 F1300
X49.781 Y-17.018
X49.824 Y-17.012
X49.867 Y-17
X49.91 Y-16.983
X49.953 Y-16.96
X49.993 Y-16.931
X50.038 Y-16.888
X50.073 Y-16.845
X50.102 Y-16.802
X50.124 Y-16.757
X50.14 Y-16.714
X50.15 Y-16.672
X50.155 Y-16.63
X50.156 Y-16.587
X50.152 Y-16.548
X50.145 Y-16.509
X50.096 Y-16.321
G3 X49.609 Y-16.034 Z9.75 I-0.387 J-0.1 F800
G1 X49.549 Y-16.054
X49.493 Y-16.084
G3 X49.924 Y-16.758 I0.215 J-0.337 F1300
X50.073 Y-16.255 I-0.215 J0.337
G1 X49.76 Y-15.569
G3 X48.996 Y-15.735 I-0.364 J-0.166
X49.683 Y-16.014 I0.4 J0
G1 X49.71 Y-15.985
X49.792 Y-15.889 F600
G3 X50.073 Y-15.332 Z9.55 I-1.245 J0.977
G1 X50.102 Y-15.212 F1300
X50.158 Y-15.04
X50.239 Y-14.868
X50.296 Y-14.76
X50.338 Y-14.696
X50.456 Y-14.525
X50.64 Y-14.305
X52.063 Y-12.634
X52.187 Y-12.481
X52.336 Y-12.285
G3 X52.386 Y-11.918 I-0.326 J0.231 F800
G1 X52.353 Y-11.867 Z9.555
X52.321 Y-11.817 Z9.569
X52.291 Y-11.77 Z9.592
X52.245 Y-11.741 Z9.624
X52.204 Y-11.716 Z9.665
X52.17 Y-11.694 Z9.713
X52.141 Y-11.676 Z9.767
X52.118 Y-11.67 Z9.825
X52.104 Y-11.665 Z9.887
X52.099 Y-11.664 Z9.95
G0 Z18
X54.867 Y6.408
Z10.15
G1 Z9.75 F600
X54.919 Y6.523
G2 X55.087 Y6.873 Z9.626 I11.011 J-5.081
G1 X55.109 Y6.928 Z9.607
X55.12 Y6.987 Z9.588
Y7.047 Z9.569
X55.108 Y7.106 Z9.55
X55.042 Y7.306 F1300
X54.852 Y7.821
X54.776 Y7.993
X54.033 Y9.54
X53.948 Y9.712
X53.733 Y10.134
X53.684 Y10.228
X52.455 Y12.118
X52.359 Y12.257
X52.187 Y12.48
X52.062 Y12.634
X50.984 Y13.902
X50.531 Y14.383
X50.146 Y14.732
X49.675 Y15.094
X49.063 Y15.491
X48.397 Y15.85
X47.708 Y16.163
X47.002 Y16.435
X46.282 Y16.67
X45.552 Y16.869
X45.202 Y16.947
X45.135 Y16.96
X45.067 Y16.967
X44.999 Y16.97
G3 X44.613 Y16.57 Z9.745 I0.014 J-0.4 F800
G1 Z9.746
Y16.556 Z9.75
X44.62 Y16.493
X44.637 Y16.433
G3 X44.829 Y16.214 I0.376 J0.137 F1300
G1 X50.487 Y13.298
G3 X50.809 Y13.279 I0.183 J0.356
G1 X50.866 Y13.305 F600
X50.919 Y13.34
G3 X51.07 Y13.653 Z9.635 I-0.249 J0.313
G1 Y13.654
G3 X50.984 Y13.902 Z9.55 I-0.4 J0
G1 X50.64 Y14.307 F1300
X50.459 Y14.525
X50.344 Y14.697
X50.296 Y14.77
X50.247 Y14.869
X50.169 Y15.041
X50.124 Y15.174
X50.113 Y15.212
X50.091 Y15.307
X50.047 Y15.466
X49.984 Y15.62
X49.897 Y15.793
X49.789 Y15.97
X49.64 Y16.175
X49.449 Y16.398
X49.211 Y16.634
X49.075 Y16.749
X48.894 Y16.869
X48.689 Y16.944
X48.473 Y16.97
G3 X48.087 Y16.57 Z9.745 I0.014 J-0.4 F800
G1 Z9.746
Y16.556 Z9.75
X48.094 Y16.493
X48.111 Y16.433
X48.144 Y16.363 F1300
X48.19 Y16.301
X49.402 Y14.964
G3 X49.647 Y14.836 I0.296 J0.269
G1 X49.71 Y14.833 F600
X49.773 Y14.84
G3 X50.091 Y15.307 Z9.55 I-0.075 J0.393
G1 X50.074 Y15.384 F1300
X50.048 Y15.556
X50.037 Y15.728
X50.045 Y15.9
X50.065 Y16.072
X50.074 Y16.124
X50.096 Y16.288
X50.05 Y16.501
X49.943 Y16.691
X49.784 Y16.841
X49.587 Y16.937
X49.371 Y16.97
G3 X48.985 Y16.57 Z9.745 I0.014 J-0.4 F800
G1 Z9.746
X48.986 Y16.556 Z9.75
X48.993 Y16.493
X49.01 Y16.433
X49.038 Y16.371 F1300
X49.077 Y16.315
X49.376 Y15.954
X49.425 Y15.905
X49.481 Y15.864
X49.538 Y15.837 F600
X49.599 Y15.819
G3 X50.074 Y16.124 Z9.55 I0.085 J0.391
G1 X50.096 Y16.244 F1300
X50.139 Y16.416
X50.158 Y16.502
X50.161 Y16.545
X50.159 Y16.588
X50.148 Y16.654
X50.138 Y16.687
X50.124 Y16.721
X50.104 Y16.76
X50.078 Y16.798
X50.045 Y16.836
X49.999 Y16.88
X49.953 Y16.912
X49.917 Y16.931
X49.883 Y16.946
X49.849 Y16.956
X49.781 Y16.968
X49.609 Y16.97
X41.016
X40.666 Y16.952
X40.415 Y16.881
X40.194 Y16.742
X40.021 Y16.547
X39.912 Y16.31
X39.874 Y16.052
G3 X40.286 Y15.665 Z9.75 I0.4 J0.013 F800
G1 X40.348 Y15.672
X40.409 Y15.688
X40.457 Y15.709 F1300
X40.501 Y15.736
X41.23 Y16.241
X41.277 Y16.28
X41.319 Y16.325
X41.352 Y16.377
X41.378 Y16.433
X41.395 Y16.493 F600
X41.402 Y16.556
G3 X41.016 Y16.97 Z9.55 I-0.4 J0.014
G1 X40.243 F1300
X40.2 Y16.968
X40.157 Y16.961
X40.111 Y16.949
X40.066 Y16.931
X40.026 Y16.909
X39.985 Y16.88
X39.922 Y16.82
X39.897 Y16.79
X39.877 Y16.76
X39.855 Y16.717
X39.839 Y16.674
X39.828 Y16.631
X39.822 Y16.588
X39.82 Y16.545
X39.824 Y16.502
X39.849 Y16.321
G3 X40.074 Y16.026 I0.394 J0.068 F800
G1 X40.132 Y16.013 Z9.555
X40.189 Y16.001 Z9.568
X40.243 Y15.989 Z9.59
X40.296 Y16.001 Z9.622
X40.342 Y16.011 Z9.662
X40.383 Y16.02 Z9.709
X40.415 Y16.028 Z9.761
X40.438 Y16.04 Z9.821
X40.452 Y16.048 Z9.885
X40.457 Y16.05 Z9.95
G0 Z18
X36.958 Y13.553
Z10.35
G1 Z9.95 F600
X36.951 Y13.557 Z9.872
X36.931 Y13.568 Z9.797
X36.9 Y13.587 Z9.728
X36.857 Y13.613 Z9.667
X36.805 Y13.644 Z9.617
X36.745 Y13.679 Z9.58
X36.681 Y13.717 Z9.558
X36.614 Y13.757 Z9.55
G3 X35.86 Y13.979 I-0.809 J-1.36
G1 X33.798 F1300
X33.626 Y13.981
X33.454 Y13.989
X33.363 Y14
X33.199 Y14.012
X32.99 Y14.009
X32.735 Y13.985
X32.459 Y13.937
X32.137 Y13.853
X31.766 Y13.724
X31.341 Y13.536
X30.864 Y13.279
X30.308 Y12.918
X29.708 Y12.456
X29.146 Y11.95
X28.617 Y11.409
X28.119 Y10.839
X27.651 Y10.244
X27.213 Y9.627
X26.805 Y8.989
X26.427 Y8.334
X26.078 Y7.663
X25.759 Y6.977
X25.469 Y6.277
X25.21 Y5.566
X24.982 Y4.845
X24.785 Y4.114
X24.62 Y3.375
X24.487 Y2.631
X24.386 Y1.88
X24.319 Y1.127
X24.285 Y0.371
X24.284 Y-0.386
X24.315 Y-1.142
X24.378 Y-1.896
X24.473 Y-2.647
X24.6 Y-3.393
X24.759 Y-4.133
X24.949 Y-4.865
X25.171 Y-5.589
X25.423 Y-6.302
X25.707 Y-7.004
X26.021 Y-7.692
X26.365 Y-8.366
X26.738 Y-9.025
X27.139 Y-9.667
X27.566 Y-10.291
X28.02 Y-10.897
X28.499 Y-11.483
X29.003 Y-12.048
X29.53 Y-12.59
X30.081 Y-13.11
X30.653 Y-13.605
X31.247 Y-14.074
X31.541 Y-14.286
X31.775 Y-14.409
X32.033 Y-14.461
X32.296 Y-14.439
X32.542 Y-14.344
X32.767 Y-14.219
X32.853 Y-14.181
X32.939 Y-14.148
X33.11 Y-14.093
X33.282 Y-14.052
X33.454 Y-14.032
X33.626 Y-14.024
X33.798 Y-14.021
X34.206
G3 X34.557 Y-13.456 I-0.014 J0.4 F800
G1 X34.524 Y-13.385 Z9.558
X34.493 Y-13.316 Z9.58
X34.464 Y-13.254 Z9.617
X34.439 Y-13.198 Z9.667
X34.419 Y-13.153 Z9.728
X34.403 Y-13.12 Z9.797
X34.394 Y-13.099 Z9.872
X34.391 Y-13.092 Z9.95
G0 Z18
X34.402 Y13.446
Z10.35
G1 Z9.95 F600
X34.396 Y13.451 Z9.872
X34.378 Y13.465 Z9.797
X34.349 Y13.488 Z9.728
X34.309 Y13.518 Z9.667
X34.261 Y13.555 Z9.617
X34.206 Y13.597 Z9.58
X34.147 Y13.643 Z9.558
X34.085 Y13.691 Z9.55
G3 X33.363 Y14 I-0.966 J-1.254
G1 X33.282 Y14.01 F1300
X33.11 Y14.051
X32.939 Y14.106
X32.767 Y14.175
X32.595 Y14.268
X32.555 Y14.294
X32.412 Y14.376
X32.258 Y14.435
X32.099 Y14.479
X31.927 Y14.509
X31.729 Y14.528
X31.518 Y14.531
X31.261 Y14.514
X30.984 Y14.473
X30.672 Y14.402
X30.306 Y14.286
X29.922 Y14.129
X29.476 Y13.904
X28.968 Y13.594
X28.425 Y13.199
X27.85 Y12.706
X27.314 Y12.173
X26.812 Y11.606
X26.342 Y11.013
X25.902 Y10.397
X25.491 Y9.761
X25.109 Y9.108
X24.755 Y8.44
X24.428 Y7.757
X24.129 Y7.062
X23.858 Y6.355
X23.616 Y5.638
X23.403 Y4.912
X23.22 Y4.178
X23.066 Y3.437
X22.942 Y2.69
X22.849 Y1.94
X22.785 Y1.185
X22.751 Y0.429
X22.747 Y-0.327
X22.772 Y-1.084
X22.827 Y-1.838
X22.912 Y-2.59
X23.026 Y-3.338
X23.17 Y-4.081
X23.343 Y-4.818
X23.546 Y-5.547
X23.777 Y-6.268
X24.037 Y-6.978
X24.326 Y-7.678
X24.642 Y-8.366
X24.984 Y-9.04
X25.353 Y-9.701
X25.748 Y-10.347
X26.168 Y-10.977
X26.611 Y-11.59
X27.079 Y-12.184
X27.571 Y-12.76
X28.085 Y-13.315
X28.62 Y-13.85
X29.177 Y-14.363
X29.697 Y-14.805
X30.017 Y-15.035
X30.328 Y-15.223
X30.576 Y-15.347
X30.747 Y-15.416
X31.001 Y-15.479
X31.261 Y-15.469
X31.509 Y-15.387
X31.725 Y-15.24
X31.891 Y-15.039
G3 X31.593 Y-14.445 I-0.348 J0.197 F800
G1 X31.515 Y-14.435 Z9.558
X31.441 Y-14.426 Z9.58
X31.372 Y-14.417 Z9.617
X31.312 Y-14.41 Z9.667
X31.263 Y-14.404 Z9.728
X31.226 Y-14.399 Z9.797
X31.203 Y-14.396 Z9.872
X31.196 Y-14.395 Z9.95
G0 Z18
X33.247 Y13.342
Z10.35
G1 Z9.95 F600
X33.243 Y13.349 Z9.872
X33.233 Y13.369 Z9.797
X33.217 Y13.402 Z9.728
X33.195 Y13.447 Z9.667
X33.168 Y13.501 Z9.617
X33.137 Y13.563 Z9.58
X33.103 Y13.63 Z9.558
X33.069 Y13.7 Z9.55
G3 X32.555 Y14.294 I-1.417 J-0.705
G1 X32.464 Y14.353 F1300
X32.423 Y14.385
X32.261 Y14.525
X32.097 Y14.697
X32.061 Y14.744
X31.956 Y14.872
X31.832 Y14.98
X31.694 Y15.071
X31.548 Y15.147
X31.394 Y15.209
X31.231 Y15.259
X31.035 Y15.304
X30.826 Y15.333
X30.58 Y15.348
X30.314 Y15.343
X30.011 Y15.312
X29.678 Y15.251
X29.305 Y15.151
X28.904 Y15.009
X28.438 Y14.799
X27.967 Y14.541
X27.426 Y14.184
X26.832 Y13.721
X26.275 Y13.208
X25.753 Y12.66
X25.265 Y12.082
X24.807 Y11.479
X24.378 Y10.856
X23.978 Y10.214
X23.605 Y9.555
X23.259 Y8.882
X22.939 Y8.196
X22.646 Y7.498
X22.379 Y6.79
X22.139 Y6.073
X21.926 Y5.346
X21.74 Y4.613
X21.582 Y3.873
X21.45 Y3.128
X21.346 Y2.378
X21.27 Y1.625
X21.222 Y0.87
X21.202 Y0.113
X21.21 Y-0.643
X21.246 Y-1.399
X21.309 Y-2.153
X21.399 Y-2.905
X21.516 Y-3.652
X21.661 Y-4.395
X21.833 Y-5.132
X22.032 Y-5.862
X22.258 Y-6.584
X22.51 Y-7.298
X22.787 Y-8.002
X23.091 Y-8.695
X23.42 Y-9.377
X23.774 Y-10.045
X24.153 Y-10.701
X24.555 Y-11.342
X24.98 Y-11.968
X25.427 Y-12.578
X25.897 Y-13.172
X26.388 Y-13.748
X26.9 Y-14.305
X27.431 Y-14.844
X27.985 Y-15.36
X28.507 Y-15.786
X28.914 Y-16.067
X29.27 Y-16.272
X29.542 Y-16.402
X29.827 Y-16.51
X30.062 Y-16.578
X30.306 Y-16.628
X30.536 Y-16.656
X30.737 Y-16.665
X30.748 Y-16.664
X31.01 Y-16.616
X31.248 Y-16.496
X31.442 Y-16.313
X31.576 Y-16.083
X31.641 Y-15.825
G3 X31.113 Y-15.42 I-0.399 J0.026 F800
G1 X31.039 Y-15.445 Z9.558
X30.968 Y-15.469 Z9.58
X30.902 Y-15.492 Z9.617
X30.845 Y-15.511 Z9.667
X30.798 Y-15.527 Z9.728
X30.763 Y-15.539 Z9.797
X30.741 Y-15.546 Z9.872
X30.734 Y-15.549 Z9.95
G0 Z18
X32.37 Y13.608
Z10.35
G1 Z9.95 F600
X32.369 Y13.616 Z9.872
X32.367 Y13.638 Z9.797
X32.363 Y13.675 Z9.728
X32.358 Y13.725 Z9.667
X32.352 Y13.785 Z9.617
X32.345 Y13.854 Z9.58
X32.338 Y13.928 Z9.558
X32.33 Y14.006 Z9.55
G3 X32.061 Y14.744 I-1.575 J-0.157
G1 X31.969 Y14.869 F1300
X31.866 Y15.041
X31.785 Y15.212
X31.736 Y15.34
X31.675 Y15.493
X31.582 Y15.629
X31.471 Y15.751
X31.346 Y15.86
X31.212 Y15.955
X31.069 Y16.038
X30.9 Y16.12
X30.72 Y16.189
X30.503 Y16.253
X30.273 Y16.301
X30.005 Y16.335
X29.718 Y16.349
X29.391 Y16.337
X29.031 Y16.296
X28.652 Y16.221
X28.206 Y16.095
X27.76 Y15.929
X27.246 Y15.69
X26.684 Y15.371
X26.102 Y14.975
X25.512 Y14.501
X24.959 Y13.984
X24.44 Y13.434
X23.952 Y12.855
X23.494 Y12.253
X23.063 Y11.63
X22.66 Y10.99
X22.283 Y10.334
X21.931 Y9.664
X21.604 Y8.982
X21.302 Y8.288
X21.025 Y7.583
X20.773 Y6.87
X20.547 Y6.148
X20.346 Y5.418
X20.171 Y4.682
X20.021 Y3.94
X19.897 Y3.193
X19.799 Y2.443
X19.726 Y1.69
X19.679 Y0.935
X19.659 Y0.178
X19.663 Y-0.579
X19.694 Y-1.335
X19.749 Y-2.089
X19.831 Y-2.842
X19.938 Y-3.591
X20.07 Y-4.336
X20.228 Y-5.076
X20.412 Y-5.81
X20.62 Y-6.538
X20.854 Y-7.258
X21.111 Y-7.969
X21.393 Y-8.672
X21.699 Y-9.364
X22.028 Y-10.045
X22.38 Y-10.715
X22.754 Y-11.373
X23.151 Y-12.017
X23.569 Y-12.648
X24.008 Y-13.264
X24.468 Y-13.865
X24.949 Y-14.45
X25.449 Y-15.017
X25.969 Y-15.567
X26.513 Y-16.094
X27.084 Y-16.59
X27.414 Y-16.836
X27.586 Y-16.937
X27.774 Y-16.999
X27.972 Y-17.02
X31.185
X31.306 Y-17.019
X31.349 Y-17.012
X31.392 Y-17.001
X31.424 Y-16.989
X31.457 Y-16.974
X31.489 Y-16.955
X31.521 Y-16.931
X31.564 Y-16.891
X31.617 Y-16.825
X31.637 Y-16.792
X31.653 Y-16.759
X31.668 Y-16.716
X31.679 Y-16.673
X31.684 Y-16.63
X31.685 Y-16.587
X31.639 Y-16.243
X31.629 Y-16.072
X31.633 Y-15.9
X31.641 Y-15.825
G3 X31.113 Y-15.42 I-0.399 J0.026 F800
G1 X31.039 Y-15.445 Z9.558
X30.968 Y-15.469 Z9.58
X30.902 Y-15.492 Z9.617
X30.845 Y-15.511 Z9.667
X30.798 Y-15.527 Z9.728
X30.763 Y-15.539 Z9.797
X30.741 Y-15.546 Z9.872
X30.734 Y-15.549 Z9.95
G0 Z18
X31.631 Y14.167
Z10.35
G1 Z9.95 F600
X31.633 Y14.175 Z9.872
X31.638 Y14.197 Z9.797
X31.648 Y14.232 Z9.728
X31.66 Y14.28 Z9.667
X31.676 Y14.339 Z9.617
X31.693 Y14.406 Z9.58
X31.712 Y14.479 Z9.558
X31.732 Y14.554 Z9.55
G3 X31.736 Y15.34 I-1.531 J0.4
G1 X31.674 Y15.556 F1300
X31.647 Y15.728
X31.634 Y15.9
X31.621 Y16.065
X31.573 Y16.223
X31.502 Y16.372
X31.414 Y16.511
X31.31 Y16.639
X31.264 Y16.687
X31.069 Y16.84
X30.84 Y16.937
X30.595 Y16.97
G3 X30.209 Y16.57 Z9.745 I0.014 J-0.4 F800
G1 Z9.746
Y16.556 Z9.75
X30.216 Y16.493
X30.233 Y16.433
X30.255 Y16.383 F1300
X30.284 Y16.336
X30.319 Y16.294
X30.944 Y15.637
X30.99 Y15.596
X31.042 Y15.562
X31.098 Y15.537
X31.159 Y15.52 F600
X31.222 Y15.513
G3 X31.634 Y15.9 Z9.55 I0.012 J0.4
G1 X31.633 Y16.072 F1300
X31.647 Y16.244
X31.671 Y16.416
X31.683 Y16.502
X31.686 Y16.545
X31.685 Y16.588
X31.679 Y16.631
X31.668 Y16.674
X31.652 Y16.717
X31.629 Y16.76
X31.601 Y16.801
X31.564 Y16.842
X31.533 Y16.872
X31.503 Y16.896
X31.472 Y16.915
X31.442 Y16.931
X31.392 Y16.951
X31.349 Y16.962
X31.306 Y16.968
X31.22 Y16.97
X27.955
X27.669 Y16.955
X27.373 Y16.916
X27.016 Y16.84
X26.639 Y16.727
X26.195 Y16.554
X25.74 Y16.334
X25.212 Y16.022
X24.629 Y15.613
X24.046 Y15.129
X23.501 Y14.605
X22.988 Y14.048
X22.507 Y13.464
X22.055 Y12.857
X21.63 Y12.231
X21.231 Y11.588
X20.856 Y10.931
X20.506 Y10.26
X20.18 Y9.577
X19.878 Y8.883
X19.599 Y8.18
X19.344 Y7.467
X19.112 Y6.747
X18.904 Y6.019
X18.72 Y5.285
X18.56 Y4.545
X18.424 Y3.801
X18.312 Y3.053
X18.225 Y2.301
X18.162 Y1.547
X18.123 Y0.791
X18.108 Y0.034
X18.118 Y-0.722
X18.151 Y-1.478
X18.208 Y-2.233
X18.288 Y-2.985
X18.393 Y-3.735
X18.521 Y-4.481
X18.673 Y-5.222
X18.849 Y-5.958
X19.048 Y-6.688
X19.27 Y-7.412
X19.516 Y-8.127
X19.785 Y-8.835
X20.076 Y-9.533
X20.39 Y-10.222
X20.725 Y-10.9
X21.081 Y-11.568
X21.459 Y-12.224
X21.857 Y-12.868
X22.275 Y-13.498
X22.712 Y-14.116
X23.17 Y-14.719
X23.646 Y-15.307
X24.141 Y-15.879
X24.656 Y-16.433
X24.977 Y-16.751
X25.17 Y-16.897
X25.394 Y-16.989
X25.634 Y-17.02
X27.972
G3 X28.322 Y-16.455 I-0.014 J0.4 F800
G1 X28.29 Y-16.384 Z9.558
X28.259 Y-16.316 Z9.58
X28.23 Y-16.253 Z9.617
X28.205 Y-16.197 Z9.667
X28.184 Y-16.152 Z9.728
X28.169 Y-16.119 Z9.797
X28.159 Y-16.098 Z9.872
X28.156 Y-16.091 Z9.95
G0 Z18
X29.052 Y16.544
Z10.35
G1 Z9.95 F600
X29.045 Y16.548 Z9.872
X29.026 Y16.559 Z9.797
X28.994 Y16.578 Z9.728
X28.951 Y16.604 Z9.667
X28.899 Y16.635 Z9.617
X28.84 Y16.67 Z9.58
X28.775 Y16.708 Z9.558
X28.708 Y16.748 Z9.55
G3 X27.955 Y16.97 I-0.809 J-1.36
G1 X25.549 F1300
X25.282 Y16.956
X25.058 Y16.927
X24.787 Y16.869
X24.499 Y16.783
X24.168 Y16.654
X23.795 Y16.473
X23.368 Y16.221
X22.905 Y15.896
X22.369 Y15.451
X21.827 Y14.923
X21.324 Y14.357
X20.855 Y13.764
X20.416 Y13.147
X20.004 Y12.513
X19.617 Y11.862
X19.255 Y11.198
X18.916 Y10.521
X18.601 Y9.833
X18.308 Y9.135
X18.039 Y8.428
X17.791 Y7.713
X17.567 Y6.99
X17.364 Y6.261
X17.184 Y5.526
X17.027 Y4.786
X16.892 Y4.041
X16.78 Y3.293
X16.691 Y2.541
X16.624 Y1.787
X16.58 Y1.032
X16.558 Y0.275
X16.559 Y-0.481
X16.582 Y-1.238
X16.628 Y-1.993
X16.697 Y-2.747
X16.788 Y-3.498
X16.902 Y-4.246
X17.038 Y-4.99
X17.197 Y-5.73
X17.377 Y-6.465
X17.58 Y-7.195
X17.804 Y-7.917
X18.05 Y-8.633
X18.317 Y-9.341
X18.605 Y-10.041
X18.915 Y-10.731
X19.244 Y-11.413
X19.594 Y-12.084
X19.963 Y-12.744
X20.352 Y-13.394
X20.76 Y-14.031
X21.187 Y-14.656
X21.633 Y-15.267
X22.097 Y-15.865
X22.579 Y-16.448
X22.808 Y-16.706
X23.007 Y-16.876
X23.247 Y-16.984
X23.506 Y-17.02
X25.634
G3 X25.984 Y-16.455 I-0.014 J0.4 F800
G1 X25.951 Y-16.384 Z9.558
X25.92 Y-16.316 Z9.58
X25.892 Y-16.253 Z9.617
X25.866 Y-16.197 Z9.667
X25.846 Y-16.152 Z9.728
X25.83 Y-16.119 Z9.797
X25.821 Y-16.098 Z9.872
X25.818 Y-16.091 Z9.95
G0 Z18
X26.646 Y16.544
Z10.35
G1 Z9.95 F600
X26.639 Y16.548 Z9.872
X26.62 Y16.559 Z9.797
X26.588 Y16.578 Z9.728
X26.545 Y16.604 Z9.667
X26.493 Y16.635 Z9.617
X26.434 Y16.67 Z9.58
X26.369 Y16.708 Z9.558
X26.302 Y16.748 Z9.55
G3 X25.549 Y16.97 I-0.809 J-1.36
G1 X23.486 F1300
X23.216 Y16.956
X23 Y16.928
X22.778 Y16.88
X22.513 Y16.801
X22.215 Y16.685
X21.968 Y16.565
X21.755 Y16.42
X21.593 Y16.221
X21.494 Y15.984
X21.467 Y15.728
G3 X21.855 Y15.316 Z9.75 I0.4 J-0.012 F800
G1 X21.918 Y15.319
X21.979 Y15.332
X22.018 Y15.345 F1300
X22.055 Y15.363
X23.66 Y16.217
G3 X23.848 Y16.433 I-0.188 J0.353
G1 X23.865 Y16.493 F600
X23.872 Y16.556
G3 X23.486 Y16.97 Z9.55 I-0.4 J0.014
G1 X21.845 F1300
X21.803
X21.768
X21.699 Y16.963
X21.669 Y16.958
X21.639 Y16.951
G3 X21.45 Y16.614 I0.123 J-0.291 F800
X21.685 Y16.357 I0.307 J0.045
G1 X21.748 Y16.349 F1300
X21.81 Y16.354
X21.87 Y16.37
X21.926 Y16.399
G3 X21.768 Y16.97 I-0.169 J0.26 F600
G1 X21.725 Y16.968 F1300
X21.682 Y16.962
X21.639 Y16.951
X21.59 Y16.931
X21.548 Y16.909
X21.507 Y16.879
X21.46 Y16.833
X21.424 Y16.787
X21.405 Y16.76
X21.382 Y16.717
X21.366 Y16.674
X21.354 Y16.631
X21.348 Y16.588
X21.346 Y16.545
X21.349 Y16.502
X21.367 Y16.416
X21.409 Y16.244
X21.44 Y16.072
X21.46 Y15.9
X21.467 Y15.728
X21.456 Y15.556
X21.43 Y15.384
X21.424 Y15.354
X21.393 Y15.212
X21.334 Y15.041
X21.252 Y14.858
X21.159 Y14.697
X21.08 Y14.574
X20.9 Y14.353
X19.438 Y12.634
X19.362 Y12.543
X19.159 Y12.29
X19.018 Y12.077
X17.815 Y10.227
X17.727 Y10.056
X17.553 Y9.712
X17.468 Y9.54
X16.723 Y7.993
X16.648 Y7.821
X16.459 Y7.306
X16.173 Y6.446
X15.888 Y5.587
X15.84 Y5.415
X15.747 Y5.071
X15.706 Y4.899
X15.272 Y2.665
X15.256 Y2.493
X15.125 Y0.43
X15.116 Y0.258
X15.115 Y-0.258
X15.124 Y-0.43
X15.257 Y-2.492
X15.273 Y-2.664
X15.404 Y-3.352
X15.706 Y-4.899
X15.753 Y-5.088
X15.839 Y-5.414
X15.887 Y-5.586
X16.459 Y-7.305
X16.647 Y-7.821
X16.722 Y-7.993
X17.471 Y-9.546
X17.553 Y-9.712
X17.726 Y-10.055
X17.815 Y-10.229
X19.046 Y-12.118
X19.16 Y-12.29
X19.362 Y-12.545
X19.583 Y-12.806
X20.908 Y-14.361
X21.08 Y-14.569
X21.164 Y-14.696
X21.252 Y-14.841
X21.266 Y-14.868
X21.343 Y-15.04
X21.404 Y-15.212
X21.424 Y-15.288
X21.443 Y-15.384
X21.471 Y-15.556
X21.483 Y-15.728
X21.478 Y-15.9
X21.473 Y-16.065
X21.495 Y-16.236
X21.506 Y-16.285
X21.592 Y-16.522
X21.739 Y-16.728
X21.936 Y-16.886
X22.168 Y-16.986
X22.418 Y-17.02
G3 X22.804 Y-16.621 Z9.745 I-0.014 J0.4 F800
G1 Z9.746
Y-16.607 Z9.75
X22.797 Y-16.544
X22.78 Y-16.484
X22.753 Y-16.425 F1300
X22.717 Y-16.371
X22.187 Y-15.706
X22.147 Y-15.663
X22.101 Y-15.627
X22.05 Y-15.597
X21.991 Y-15.574 F600
X21.93 Y-15.56
G3 X21.478 Y-15.9 Z9.55 I-0.056 J-0.396
G1 X21.46 Y-16.072 F1300
X21.43 Y-16.243
X21.363 Y-16.501
X21.354 Y-16.544
X21.35 Y-16.587
Y-16.63
X21.355 Y-16.673
X21.364 Y-16.716
X21.379 Y-16.759
X21.399 Y-16.799
X21.424 Y-16.839
X21.46 Y-16.885
X21.508 Y-16.931
X21.552 Y-16.962
X21.596 Y-16.985
X21.639 Y-17.002
X21.682 Y-17.013
X21.725 Y-17.019
X21.768 Y-17.02
X23.506
G3 X23.829 Y-16.837 I-0.014 J0.4 F800
G1 X23.849 Y-16.78 Z9.555
X23.87 Y-16.725 Z9.569
X23.889 Y-16.672 Z9.592
X23.892 Y-16.621 Z9.622
X23.88 Y-16.564 Z9.672
X23.87 Y-16.518 Z9.732
X23.863 Y-16.483 Z9.8
X23.858 Y-16.462 Z9.873
X23.856 Y-16.455 Z9.949
G0 X40.954 Y1.652
Z9.8
G3 X40.024 Y-0.484 Z9.712 I0.923 J-1.673 F600
X41.848 Y-1.93 Z9.625 I1.852 J0.463
X43.712 Y-0.538 Z9.538 I0.027 J1.907
X42.846 Y1.618 Z9.45 I-1.835 J0.515
X40.541 Y1.335 Z9.363 I-0.968 J-1.64
X40.224 Y-0.964 Z9.275 I1.336 J-1.355
X42.363 Y-1.859 Z9.188 I1.651 J0.943
X43.776 Y-0.023 Z9.1 I-0.487 J1.836
X39.976 Y-0.023 I-1.9 J0
X43.776 Y-0.023 I1.9 J0
G1 X43.784 Y0.166 F1300
X43.951 Y0.833
X43.978 Y0.996
X43.98 Y1.161
X43.96 Y1.325
X43.92 Y1.485
X43.864 Y1.64
X43.792 Y1.788
X43.707 Y1.93
X43.609 Y2.063
X43.501 Y2.187
X43.379 Y2.307
X43.242 Y2.421
X43.093 Y2.526
X42.93 Y2.622
X42.756 Y2.707
X42.571 Y2.78
X42.376 Y2.839
X42.173 Y2.882
X41.964 Y2.91
X41.749 Y2.921
X41.531 Y2.915
X41.311 Y2.891
X41.092 Y2.849
X40.874 Y2.789
X40.66 Y2.711
X40.45 Y2.615
X40.248 Y2.501
X40.055 Y2.371
X39.871 Y2.226
X39.699 Y2.064
X39.539 Y1.889
X39.394 Y1.701
X39.263 Y1.502
X39.149 Y1.291
X39.052 Y1.072
X38.972 Y0.845
X38.911 Y0.612
X38.868 Y0.374
X38.845 Y0.133
X38.841 Y-0.109
X38.857 Y-0.351
X38.892 Y-0.591
X38.946 Y-0.827
X39.02 Y-1.059
X39.111 Y-1.284
X39.221 Y-1.502
X39.347 Y-1.71
X39.49 Y-1.907
X39.648 Y-2.092
X39.821 Y-2.264
X40.007 Y-2.422
X40.205 Y-2.564
X40.415 Y-2.69
X40.633 Y-2.799
X40.86 Y-2.89
X41.093 Y-2.962
X41.331 Y-3.016
X41.573 Y-3.05
X41.816 Y-3.064
X42.061 Y-3.059
X42.304 Y-3.035
X42.544 Y-2.991
X42.78 Y-2.928
X43.01 Y-2.846
X43.233 Y-2.746
X43.447 Y-2.628
X43.651 Y-2.494
X43.844 Y-2.343
X44.024 Y-2.178
X44.19 Y-1.999
X44.341 Y-1.807
X44.488 Y-1.584
X44.751 Y-1.11
X44.939 Y-0.696
X45.062 Y-0.353
X45.147 Y-0.042
X45.202 Y0.251
X45.231 Y0.533
X45.238 Y0.805
X45.222 Y1.072
X45.187 Y1.332
X45.13 Y1.587
X45.054 Y1.837
X44.957 Y2.081
X44.84 Y2.319
X44.703 Y2.548
X44.547 Y2.767
X44.372 Y2.975
X44.178 Y3.171
X43.967 Y3.353
X43.738 Y3.521
X43.493 Y3.671
X43.233 Y3.803
X42.96 Y3.915
X42.675 Y4.006
X42.379 Y4.075
X42.076 Y4.12
X41.767 Y4.141
X41.453 Y4.138
X41.138 Y4.108
X40.824 Y4.054
X40.513 Y3.973
X40.207 Y3.867
X39.908 Y3.736
X39.62 Y3.581
X39.343 Y3.401
X39.08 Y3.199
X38.833 Y2.976
X38.603 Y2.732
X38.393 Y2.47
X38.204 Y2.19
X38.038 Y1.896
X37.895 Y1.588
X37.777 Y1.269
X37.685 Y0.94
X37.62 Y0.605
X37.581 Y0.265
X37.57 Y-0.078
X37.587 Y-0.421
X37.631 Y-0.762
X37.702 Y-1.098
X37.801 Y-1.429
X37.925 Y-1.75
X38.075 Y-2.061
X38.25 Y-2.359
X38.448 Y-2.642
X38.668 Y-2.908
X38.909 Y-3.156
X39.169 Y-3.384
X39.447 Y-3.59
X39.741 Y-3.774
X40.048 Y-3.933
X40.367 Y-4.067
X40.696 Y-4.175
X41.033 Y-4.257
X41.375 Y-4.311
X41.721 Y-4.337
X42.067 Y-4.336
X42.413 Y-4.307
X42.755 Y-4.25
X43.091 Y-4.166
X43.42 Y-4.055
X43.738 Y-3.918
X44.045 Y-3.756
X44.337 Y-3.57
X44.618 Y-3.359
X44.923 Y-3.087
X45.218 Y-2.779
X45.497 Y-2.436
X45.752 Y-2.066
X45.974 Y-1.681
X46.159 Y-1.289
X46.308 Y-0.896
X46.421 Y-0.503
X46.501 Y-0.111
X46.549 Y0.28
X46.565 Y0.668
X46.549 Y1.053
X46.503 Y1.431
X46.428 Y1.803
X46.323 Y2.167
X46.189 Y2.521
X46.027 Y2.863
X45.838 Y3.192
X45.622 Y3.506
X45.38 Y3.804
X45.113 Y4.083
X44.823 Y4.341
X44.51 Y4.578
X44.177 Y4.79
X43.824 Y4.976
X43.455 Y5.135
X43.07 Y5.265
X42.674 Y5.364
X42.267 Y5.432
X41.854 Y5.467
X41.436 Y5.469
X41.016 Y5.437
X40.598 Y5.371
X40.183 Y5.271
X39.776 Y5.137
X39.378 Y4.971
X38.993 Y4.771
X38.624 Y4.541
X38.272 Y4.28
X37.942 Y3.991
X37.634 Y3.674
X37.352 Y3.333
X37.097 Y2.97
X36.871 Y2.585
X36.677 Y2.183
X36.515 Y1.766
X36.387 Y1.336
X36.293 Y0.896
X36.235 Y0.449
X36.214 Y-0.001
X36.228 Y-0.453
X36.278 Y-0.902
X36.365 Y-1.347
X36.487 Y-1.783
X36.644 Y-2.208
X36.834 Y-2.62
X37.058 Y-3.016
X37.312 Y-3.392
X37.596 Y-3.747
X37.907 Y-4.078
X38.244 Y-4.384
X38.605 Y-4.661
X38.987 Y-4.908
X39.388 Y-5.125
X39.805 Y-5.308
X40.235 Y-5.457
X40.676 Y-5.572
X41.125 Y-5.65
X41.579 Y-5.692
X42.034 Y-5.698
X42.489 Y-5.667
X42.94 Y-5.6
X43.384 Y-5.497
X43.818 Y-5.358
X44.241 Y-5.185
X44.662 Y-4.971
X45.078 Y-4.717
X45.484 Y-4.42
X45.876 Y-4.083
X46.247 Y-3.708
X46.589 Y-3.302
X46.897 Y-2.869
X47.169 Y-2.415
X47.401 Y-1.944
X47.594 Y-1.46
X47.745 Y-0.967
X47.855 Y-0.468
X47.925 Y0.034
X47.953 Y0.536
X47.941 Y1.036
X47.89 Y1.53
X47.799 Y2.017
X47.67 Y2.494
X47.503 Y2.959
X47.299 Y3.409
X47.06 Y3.841
X46.786 Y4.255
X46.478 Y4.646
X46.139 Y5.013
X45.769 Y5.353
X45.371 Y5.664
X44.948 Y5.943
X44.5 Y6.19
X44.031 Y6.4
X43.544 Y6.574
X43.042 Y6.709
X42.527 Y6.803
X42.003 Y6.856
X41.474 Y6.867
X40.943 Y6.836
X40.413 Y6.761
X39.888 Y6.643
X39.372 Y6.484
X38.869 Y6.282
X38.38 Y6.039
X37.911 Y5.757
X37.465 Y5.437
X37.044 Y5.081
X36.652 Y4.691
X36.291 Y4.269
X35.964 Y3.819
X35.674 Y3.343
X35.423 Y2.843
X35.211 Y2.324
X35.042 Y1.789
X34.916 Y1.241
X34.835 Y0.684
X34.798 Y0.121
X34.807 Y-0.444
X34.861 Y-1.007
X34.96 Y-1.564
X35.103 Y-2.112
X35.291 Y-2.647
X35.52 Y-3.166
X35.791 Y-3.665
X36.101 Y-4.141
X36.449 Y-4.59
X36.831 Y-5.011
X37.247 Y-5.399
X37.692 Y-5.753
X38.165 Y-6.071
X38.661 Y-6.349
X39.178 Y-6.587
X39.713 Y-6.782
X40.262 Y-6.934
X40.821 Y-7.042
X41.388 Y-7.104
X41.957 Y-7.12
X42.526 Y-7.091
X43.092 Y-7.016
X43.651 Y-6.896
X44.205 Y-6.729
X44.75 Y-6.516
X45.283 Y-6.257
X45.804 Y-5.949
X46.307 Y-5.594
X46.788 Y-5.194
X47.241 Y-4.752
X47.658 Y-4.272
X48.037 Y-3.758
X48.373 Y-3.217
X48.664 Y-2.651
X48.907 Y-2.067
X49.102 Y-1.468
X49.247 Y-0.859
X49.343 Y-0.244
X49.388 Y0.374
X49.384 Y0.991
X49.33 Y1.603
X49.228 Y2.207
X49.077 Y2.8
X48.88 Y3.379
X48.638 Y3.939
X48.35 Y4.479
X48.02 Y4.995
X47.648 Y5.484
X47.237 Y5.943
X46.789 Y6.37
X46.306 Y6.76
X45.792 Y7.112
X45.248 Y7.423
X44.678 Y7.69
X44.086 Y7.912
X43.475 Y8.087
X42.849 Y8.212
X42.212 Y8.288
X41.568 Y8.312
X40.921 Y8.284
X40.276 Y8.204
X39.636 Y8.072
X39.007 Y7.888
X38.392 Y7.653
X37.796 Y7.369
X37.223 Y7.037
X36.676 Y6.658
X36.16 Y6.236
X35.678 Y5.772
X35.234 Y5.27
X34.83 Y4.732
X34.47 Y4.163
X34.156 Y3.565
X33.891 Y2.943
X33.677 Y2.301
X33.514 Y1.642
X33.404 Y0.971
X33.349 Y0.293
X33.348 Y-0.388
X33.402 Y-1.068
X33.51 Y-1.742
X33.673 Y-2.405
X33.888 Y-3.054
X34.154 Y-3.684
X34.471 Y-4.29
X34.835 Y-4.87
X35.245 Y-5.419
X35.698 Y-5.933
X36.191 Y-6.41
X36.72 Y-6.845
X37.283 Y-7.237
X37.876 Y-7.582
X38.495 Y-7.879
X39.136 Y-8.125
X39.794 Y-8.319
X40.466 Y-8.46
X41.147 Y-8.546
X41.833 Y-8.577
X42.52 Y-8.553
X43.206 Y-8.474
X43.886 Y-8.339
X44.559 Y-8.149
X45.221 Y-7.902
X45.869 Y-7.6
X46.498 Y-7.242
X47.103 Y-6.83
X47.679 Y-6.367
X48.22 Y-5.855
X48.72 Y-5.299
X49.175 Y-4.703
X49.581 Y-4.072
X49.935 Y-3.411
X50.234 Y-2.725
X50.476 Y-2.02
X50.661 Y-1.3
X50.786 Y-0.57
X50.852 Y0.165
X50.859 Y0.901
X50.807 Y1.633
X50.697 Y2.358
X50.529 Y3.069
X50.305 Y3.765
X50.025 Y4.44
X49.692 Y5.091
X49.308 Y5.714
X48.874 Y6.306
X48.392 Y6.861
X47.867 Y7.378
X47.299 Y7.853
X46.694 Y8.281
X46.053 Y8.662
X45.382 Y8.99
X44.684 Y9.265
X43.963 Y9.484
X43.224 Y9.645
X42.474 Y9.746
X41.718 Y9.787
X40.961 Y9.768
X40.209 Y9.689
X39.465 Y9.55
X38.734 Y9.354
X38.021 Y9.101
X37.329 Y8.793
X36.664 Y8.433
X36.029 Y8.022
X35.427 Y7.562
X34.863 Y7.058
X34.34 Y6.511
X33.861 Y5.925
X33.428 Y5.304
X33.045 Y4.652
X32.712 Y3.972
X32.432 Y3.269
X32.207 Y2.547
X32.037 Y1.809
X31.924 Y1.061
X31.868 Y0.306
X31.869 Y-0.45
X31.927 Y-1.205
X32.042 Y-1.953
X32.214 Y-2.69
X32.44 Y-3.412
X32.72 Y-4.115
X33.052 Y-4.795
X33.435 Y-5.448
X33.867 Y-6.069
X34.345 Y-6.656
X34.866 Y-7.205
X35.427 Y-7.712
X36.025 Y-8.176
X36.656 Y-8.594
X37.317 Y-8.962
X38.004 Y-9.28
X38.713 Y-9.546
X39.439 Y-9.757
X40.18 Y-9.914
X40.93 Y-10.014
X41.685 Y-10.058
X42.442 Y-10.045
X43.195 Y-9.976
X43.942 Y-9.85
X44.676 Y-9.669
X45.395 Y-9.432
X46.095 Y-9.143
X46.771 Y-8.804
X47.421 Y-8.417
X48.043 Y-7.985
X48.632 Y-7.51
X49.187 Y-6.996
X49.705 Y-6.444
X50.182 Y-5.856
X50.615 Y-5.236
X51.004 Y-4.587
X51.346 Y-3.912
X51.641 Y-3.215
X51.888 Y-2.499
X52.084 Y-1.768
X52.228 Y-1.026
X52.318 Y-0.274
X52.354 Y0.482
X52.335 Y1.238
X52.263 Y1.992
X52.138 Y2.738
X51.96 Y3.473
X51.731 Y4.195
X51.452 Y4.898
X51.124 Y5.58
X50.747 Y6.236
X50.323 Y6.863
X49.855 Y7.458
X49.346 Y8.018
X48.799 Y8.541
X48.217 Y9.024
X47.603 Y9.466
X46.959 Y9.865
X46.289 Y10.216
X45.595 Y10.518
X44.882 Y10.771
X44.153 Y10.973
X43.411 Y11.125
X42.661 Y11.226
X41.906 Y11.276
X41.149 Y11.274
X40.395 Y11.219
X39.646 Y11.111
X38.906 Y10.952
X38.178 Y10.743
X37.466 Y10.487
X36.773 Y10.184
X36.101 Y9.836
X35.455 Y9.442
X34.838 Y9.004
X34.252 Y8.525
X33.699 Y8.008
X33.182 Y7.455
X32.702 Y6.87
X32.262 Y6.254
X31.864 Y5.611
X31.511 Y4.941
X31.204 Y4.25
X30.944 Y3.539
X30.731 Y2.813
X30.566 Y2.074
X30.449 Y1.327
X30.381 Y0.573
X30.363 Y-0.183
X30.396 Y-0.939
X30.48 Y-1.692
X30.614 Y-2.436
X30.795 Y-3.171
X31.023 Y-3.893
X31.298 Y-4.598
X31.617 Y-5.284
X31.982 Y-5.947
X32.392 Y-6.583
X32.843 Y-7.191
X33.333 Y-7.768
X33.859 Y-8.311
X34.42 Y-8.819
X35.012 Y-9.291
X35.634 Y-9.722
X36.283 Y-10.11
X36.957 Y-10.454
X37.653 Y-10.753
X38.366 Y-11.006
X39.094 Y-11.213
X39.833 Y-11.373
X40.582 Y-11.484
X41.336 Y-11.547
X42.093 Y-11.558
X42.849 Y-11.519
X43.6 Y-11.431
X44.344 Y-11.294
X45.078 Y-11.11
X45.799 Y-10.879
X46.504 Y-10.603
X47.189 Y-10.282
X47.852 Y-9.917
X48.49 Y-9.51
X49.102 Y-9.065
X49.686 Y-8.584
X50.239 Y-8.067
X50.76 Y-7.518
X51.246 Y-6.938
X51.695 Y-6.329
X52.104 Y-5.692
X52.472 Y-5.031
X52.799 Y-4.349
X53.085 Y-3.648
X53.327 Y-2.931
X53.526 Y-2.201
X53.68 Y-1.46
X53.787 Y-0.711
X53.845 Y0.044
X53.855 Y0.801
X53.818 Y1.556
X53.735 Y2.309
X53.606 Y3.054
X53.431 Y3.79
X53.212 Y4.515
X52.948 Y5.224
X52.639 Y5.915
X52.287 Y6.585
X51.892 Y7.23
X51.458 Y7.85
X50.987 Y8.443
X50.48 Y9.005
X49.941 Y9.535
X49.369 Y10.031
X48.768 Y10.491
X48.139 Y10.911
X47.485 Y11.292
X46.808 Y11.631
X46.112 Y11.928
X45.399 Y12.182
X44.673 Y12.394
X43.935 Y12.561
X43.188 Y12.682
X42.435 Y12.757
X41.679 Y12.786
X40.922 Y12.768
X40.168 Y12.705
X39.419 Y12.597
X38.678 Y12.445
X37.946 Y12.25
X37.228 Y12.011
X36.526 Y11.73
X35.842 Y11.406
X35.179 Y11.041
X34.538 Y10.638
X33.923 Y10.198
X33.334 Y9.722
X32.775 Y9.213
X32.246 Y8.672
X31.75 Y8.1
X31.29 Y7.499
X30.866 Y6.872
X30.48 Y6.221
X30.133 Y5.549
X29.826 Y4.857
X29.559 Y4.149
X29.333 Y3.427
X29.15 Y2.693
X29.011 Y1.949
X28.916 Y1.198
X28.865 Y0.443
X28.858 Y-0.314
X28.896 Y-1.07
X28.977 Y-1.822
X29.101 Y-2.569
X29.267 Y-3.307
X29.476 Y-4.034
X29.728 Y-4.748
X30.021 Y-5.445
X30.355 Y-6.125
X30.728 Y-6.783
X31.139 Y-7.419
X31.585 Y-8.03
X32.066 Y-8.614
X32.58 Y-9.17
X33.125 Y-9.694
X33.701 Y-10.185
X34.305 Y-10.642
X34.934 Y-11.062
X35.586 Y-11.446
X36.259 Y-11.791
X36.951 Y-12.098
X37.66 Y-12.364
X38.382 Y-12.589
X39.117 Y-12.771
X39.861 Y-12.909
X40.612 Y-13.005
X41.367 Y-13.056
X42.123 Y-13.064
X42.879 Y-13.029
X43.632 Y-12.951
X44.379 Y-12.83
X45.118 Y-12.665
X45.845 Y-12.458
X46.56 Y-12.209
X47.259 Y-11.92
X47.941 Y-11.591
X48.604 Y-11.226
X49.245 Y-10.824
X49.863 Y-10.388
X50.457 Y-9.918
X51.023 Y-9.417
X51.561 Y-8.884
X52.068 Y-8.322
X52.543 Y-7.733
X52.985 Y-7.119
X53.393 Y-6.481
X53.765 Y-5.822
X54.101 Y-5.144
X54.4 Y-4.449
X54.661 Y-3.739
X54.881 Y-3.015
X55.062 Y-2.28
X55.201 Y-1.536
X55.298 Y-0.785
X55.354 Y-0.031
X55.368 Y0.726
X55.341 Y1.482
X55.272 Y2.236
X55.162 Y2.984
X55.009 Y3.726
X54.817 Y4.457
X54.583 Y5.177
X54.31 Y5.883
X53.999 Y6.573
X53.649 Y7.244
X53.263 Y7.895
X52.842 Y8.523
X52.386 Y9.127
X51.897 Y9.705
X51.376 Y10.254
X50.827 Y10.775
X50.249 Y11.264
X49.646 Y11.721
X49.019 Y12.144
X48.369 Y12.532
X47.699 Y12.884
X47.011 Y13.199
X46.306 Y13.474
X45.587 Y13.711
X44.857 Y13.909
X44.117 Y14.066
X43.369 Y14.184
X42.616 Y14.261
X41.861 Y14.297
X41.104 Y14.293
X40.348 Y14.248
X39.597 Y14.161
X38.851 Y14.035
X38.112 Y13.868
X37.384 Y13.663
X36.668 Y13.419
X35.965 Y13.137
X35.279 Y12.818
X34.61 Y12.464
X33.961 Y12.075
X33.335 Y11.65
X32.731 Y11.193
X32.153 Y10.705
X31.602 Y10.187
X31.078 Y9.64
X30.584 Y9.067
X30.121 Y8.469
X29.69 Y7.847
X29.292 Y7.203
X28.929 Y6.539
X28.602 Y5.857
X28.311 Y5.158
X28.057 Y4.445
X27.841 Y3.72
X27.662 Y2.985
X27.522 Y2.241
X27.421 Y1.491
X27.359 Y0.737
X27.337 Y-0.02
X27.354 Y-0.776
X27.412 Y-1.531
X27.509 Y-2.281
X27.644 Y-3.026
X27.818 Y-3.762
X28.03 Y-4.489
X28.279 Y-5.203
X28.565 Y-5.904
X28.886 Y-6.589
X29.244 Y-7.256
X29.636 Y-7.903
X30.062 Y-8.529
X30.52 Y-9.131
X31.008 Y-9.709
X31.526 Y-10.261
X32.072 Y-10.785
X32.644 Y-11.281
X33.241 Y-11.746
X33.861 Y-12.179
X34.504 Y-12.579
X35.167 Y-12.944
X35.847 Y-13.275
X36.544 Y-13.57
X37.255 Y-13.829
X37.784 Y-13.991
X37.854 Y-14.009
X37.924 Y-14.022
X37.996 Y-14.03
X38.094 Y-14.036
X38.266 Y-14.06
X38.438 Y-14.104
X39.17 Y-14.295
X39.915 Y-14.43
X40.666 Y-14.52
X41.422 Y-14.569
X42.178 Y-14.576
X42.934 Y-14.544
X43.688 Y-14.473
X44.436 Y-14.362
X45.178 Y-14.213
X45.911 Y-14.025
X46.633 Y-13.798
X47.342 Y-13.534
X48.037 Y-13.234
X48.716 Y-12.9
X49.378 Y-12.533
X50.021 Y-12.134
X50.643 Y-11.703
X51.243 Y-11.242
X51.82 Y-10.752
X52.37 Y-10.233
X52.894 Y-9.686
X53.389 Y-9.114
X53.856 Y-8.518
X54.292 Y-7.9
X54.698 Y-7.261
X55.072 Y-6.604
X55.415 Y-5.929
X55.654 Y-5.394
X55.673 Y-5.347
X55.69 Y-5.3
X55.704 Y-5.252
X55.752 Y-5.071
X55.796 Y-4.888
X56.139 Y-3.125
X56.227 Y-2.664
X56.243 Y-2.492
X56.376 Y-0.43
X56.385 Y-0.258
X56.384 Y0.258
X56.375 Y0.43
X56.244 Y2.493
X56.228 Y2.665
X55.795 Y4.899
X55.753 Y5.071
X55.624 Y5.549
X55.108 Y7.106
X54.835 Y7.812
X54.573 Y8.404
X54.217 Y9.063
X53.804 Y9.698
X53.35 Y10.303
X52.859 Y10.879
X52.337 Y11.427
X51.787 Y11.946
X51.211 Y12.437
X50.61 Y12.898
X49.988 Y13.328
X49.345 Y13.727
X48.683 Y14.094
X48.003 Y14.425
X47.307 Y14.723
X46.597 Y14.985
X45.875 Y15.213
X45.143 Y15.405
X44.403 Y15.561
X43.656 Y15.681
X42.903 Y15.765
X42.148 Y15.814
X41.392 Y15.825
X40.635 Y15.798
X40.459 Y15.782
X40.22 Y15.727
X40.007 Y15.606
X39.837 Y15.43
X39.724 Y15.212
X39.641 Y15.037
X39.54 Y14.869
X39.469 Y14.771
X39.411 Y14.697
X39.297 Y14.574
X39.249 Y14.525
X39.125 Y14.42
X39.042 Y14.353
X38.751 Y14.181
X38.61 Y14.122
X38.438 Y14.062
X38.266 Y14.017
X38.094 Y13.994
X37.922 Y13.982
X37.751 Y13.979
X35.86
X35.444 Y13.958
X35.108 Y13.914
X34.713 Y13.829
X34.253 Y13.692
X33.733 Y13.489
X33.121 Y13.192
X32.469 Y12.808
X31.847 Y12.377
X31.254 Y11.906
X30.689 Y11.403
X30.152 Y10.87
X29.642 Y10.311
X29.162 Y9.726
X28.712 Y9.118
X28.291 Y8.489
X27.901 Y7.84
X27.543 Y7.173
X27.217 Y6.49
X26.923 Y5.793
X26.662 Y5.083
X26.435 Y4.361
X26.242 Y3.629
X26.085 Y2.889
X25.964 Y2.142
X25.878 Y1.39
X25.827 Y0.635
X25.813 Y-0.122
X25.834 Y-0.878
X25.891 Y-1.633
X25.982 Y-2.384
X26.109 Y-3.13
X26.27 Y-3.87
X26.466 Y-4.6
X26.697 Y-5.321
X26.962 Y-6.03
X27.261 Y-6.725
X27.591 Y-7.406
X27.954 Y-8.07
X28.348 Y-8.716
X28.771 Y-9.344
X29.223 Y-9.95
X29.703 Y-10.535
X30.21 Y-11.097
X30.744 Y-11.634
X31.302 Y-12.145
X31.884 Y-12.629
X32.488 Y-13.084
X33.113 Y-13.511
X33.717 Y-13.883
X33.871 Y-13.959
X34.036 Y-14.006
X34.206 Y-14.021
X37.751
X37.922 Y-14.025
X37.996 Y-14.03
G3 X38.421 Y-13.657 Z9.3 I0.026 J0.399 F800
G1 Y-13.594
X38.41 Y-13.532
X38.398 Y-13.492 F1300
X38.381 Y-13.454
G3 X37.985 Y-13.649 I-0.198 J-0.098
X38.28 Y-13.75 I0.198 J0.098
X37.928 Y-13.031 I-0.176 J0.359
X37.798 Y-13.649 I0.176 J-0.359
G1 X37.824 Y-13.678
X37.912 Y-13.769 F600
G3 X38.438 Y-14.104 Z9.1 I1.096 J1.141
G1 X38.61 Y-14.164 F1300
X38.652 Y-14.181
X38.782 Y-14.239
X38.981 Y-14.353
X39.125 Y-14.463
X39.204 Y-14.525
X39.297 Y-14.613
X39.378 Y-14.696
X39.469 Y-14.808
X39.573 Y-14.936
X39.708 Y-15.054
X39.881 Y-15.184
X40.08 Y-15.309
X40.333 Y-15.441
X40.642 Y-15.572
X41.014 Y-15.696
X41.47 Y-15.807
X42.039 Y-15.899
X42.702 Y-15.952
X43.459
X44.214 Y-15.893
X44.963 Y-15.787
X45.704 Y-15.637
X46.437 Y-15.448
X47.159 Y-15.222
X47.87 Y-14.961
X48.567 Y-14.667
X49.25 Y-14.342
X49.918 Y-13.985
X50.569 Y-13.599
X51.201 Y-13.183
X51.813 Y-12.739
X52.177 Y-12.448
X52.234 Y-12.398
X52.287 Y-12.344
X52.336 Y-12.285
X52.359 Y-12.256
X52.454 Y-12.118
X53.686 Y-10.227
X53.733 Y-10.136
X53.947 Y-9.712
X54.032 Y-9.54
X54.778 Y-7.993
X54.853 Y-7.821
X55.041 Y-7.305
X55.624 Y-5.553
X55.704 Y-5.252
X55.712 Y-5.19 F800
X55.707 Y-5.127
X55.691 Y-5.067
X55.663 Y-5.011
X55.608 Y-4.923
X55.57 Y-4.859 Z9.107
X55.533 Y-4.797 Z9.128
X55.498 Y-4.74 Z9.162
X55.467 Y-4.689 Z9.208
X55.445 Y-4.651 Z9.257
X55.428 Y-4.62 Z9.312
X55.415 Y-4.598 Z9.372
X55.407 Y-4.584 Z9.435
X55.404 Y-4.579 Z9.5
G0 Z9.9
X39.167 Y-13.67
G1 Z9.5 F600
X39.168 Y-13.678 Z9.422
X39.17 Y-13.701 Z9.347
X39.173 Y-13.737 Z9.278
X39.178 Y-13.787 Z9.217
X39.184 Y-13.847 Z9.167
X39.19 Y-13.916 Z9.13
X39.197 Y-13.991 Z9.108
X39.204 Y-14.069 Z9.1
G3 X39.469 Y-14.808 I1.576 J0.147
G1 X39.513 Y-14.868 F1300
X39.622 Y-15.04
X39.71 Y-15.212
X39.773 Y-15.384
X39.813 Y-15.512
X39.868 Y-15.668
X39.942 Y-15.815
X40.033 Y-15.953
X40.135 Y-16.083
X40.257 Y-16.213
X40.418 Y-16.359
X40.599 Y-16.499
X40.821 Y-16.644
X41.095 Y-16.793
X41.398 Y-16.927
X41.515 Y-16.968
X41.616 Y-16.997
X41.719 Y-17.015
X41.824 Y-17.02
G3 X42.21 Y-16.621 Z9.295 I-0.014 J0.4 F800
G1 Z9.296
Y-16.607 Z9.3
X42.202 Y-16.544
X42.186 Y-16.484
X42.152 Y-16.414 F1300
X42.107 Y-16.353
X42.05 Y-16.301
X40.44 Y-15.092
X40.374 Y-15.052
X40.301 Y-15.025
X40.225 Y-15.013
X40.162 Y-15.014 F600
X40.099 Y-15.025
G3 X39.813 Y-15.512 Z9.1 I0.101 J-0.387
G1 X39.826 Y-15.556 F1300
X39.856 Y-15.728
X39.874 Y-15.9
X39.878 Y-16.072
X39.872 Y-16.166
X39.87 Y-16.331
X39.933 Y-16.55
X40.056 Y-16.743
X40.228 Y-16.893
X40.435 Y-16.988
X40.661 Y-17.02
G3 X41.047 Y-16.621 Z9.295 I-0.014 J0.4 F800
G1 Z9.296
X41.046 Y-16.607 Z9.3
X41.039 Y-16.544
X41.022 Y-16.484
X40.989 Y-16.414 F1300
X40.943 Y-16.352
X40.567 Y-15.937
X40.526 Y-15.898
X40.481 Y-15.865
X40.431 Y-15.839
X40.371 Y-15.818 F600
X40.309 Y-15.807
G3 X39.872 Y-16.166 Z9.1 I-0.039 J-0.398
G1 X39.867 Y-16.243 F1300
X39.822 Y-16.587
X39.823 Y-16.63
X39.828 Y-16.673
X39.838 Y-16.716
X39.854 Y-16.759
X39.875 Y-16.802
X39.904 Y-16.844
X39.94 Y-16.887
X39.987 Y-16.931
X40.029 Y-16.961
X40.072 Y-16.984
X40.114 Y-17.001
X40.157 Y-17.012
X40.2 Y-17.019
X40.243 Y-17.02
X44.969
X45.724 Y-16.983
X46.389 Y-16.902
X47.13 Y-16.75
X47.859 Y-16.544
X48.573 Y-16.295
X49.273 Y-16.008
X49.584 Y-15.862
X49.763 Y-15.753
X49.912 Y-15.606
X50.026 Y-15.43
X50.097 Y-15.233
G3 X49.784 Y-14.762 Z9.3 I-0.392 J0.079 F800
G1 X49.721 Y-14.755
X49.658 Y-14.757
X49.586 Y-14.772 F1300
X44.864 Y-16.239
G3 X44.607 Y-16.484 I0.119 J-0.382
G1 X44.59 Y-16.544 F600
X44.583 Y-16.607
G3 X44.969 Y-17.02 Z9.1 I0.4 J-0.014
G1 X48.921 F1300
X49.201 Y-17.006
X49.229 Y-17.003
X49.461 Y-16.941
X49.67 Y-16.822
X49.841 Y-16.654
X49.964 Y-16.447
X50.03 Y-16.216
X50.035 Y-15.976
G3 X49.582 Y-15.637 Z9.3 I-0.396 J-0.057 F800
G1 X49.521 Y-15.651
X49.462 Y-15.675
X49.421 Y-15.698 F1300
X49.383 Y-15.726
X48.679 Y-16.314
X48.629 Y-16.363
X48.589 Y-16.42
X48.56 Y-16.484
X48.543 Y-16.544 F600
X48.536 Y-16.607
G3 X48.921 Y-17.02 Z9.1 I0.4 J-0.014
G1 X49.609 F1300
X49.781 Y-17.018
X49.824 Y-17.012
X49.867 Y-17
X49.91 Y-16.983
X49.953 Y-16.96
X49.993 Y-16.931
X50.038 Y-16.888
X50.073 Y-16.845
X50.102 Y-16.802
X50.124 Y-16.757
X50.14 Y-16.714
X50.15 Y-16.672
X50.155 Y-16.63
X50.156 Y-16.587
X50.152 Y-16.548
X50.145 Y-16.509
X50.096 Y-16.321
G3 X49.609 Y-16.034 Z9.3 I-0.387 J-0.1 F800
G1 X49.549 Y-16.054
X49.493 Y-16.084
G3 X49.924 Y-16.758 I0.215 J-0.337 F1300
X50.073 Y-16.255 I-0.215 J0.337
G1 X49.76 Y-15.569
G3 X48.996 Y-15.735 I-0.364 J-0.166
X49.683 Y-16.014 I0.4 J0
G1 X49.71 Y-15.985
X49.792 Y-15.889 F600
G3 X50.073 Y-15.332 Z9.1 I-1.245 J0.977
G1 X50.102 Y-15.212 F1300
X50.158 Y-15.04
X50.239 Y-14.868
X50.296 Y-14.76
X50.338 Y-14.696
X50.456 Y-14.525
X50.64 Y-14.305
X52.063 Y-12.634
X52.187 Y-12.481
X52.336 Y-12.285
G3 X52.386 Y-11.918 I-0.326 J0.231 F800
G1 X52.353 Y-11.867 Z9.105
X52.321 Y-11.817 Z9.119
X52.291 Y-11.77 Z9.142
X52.245 Y-11.741 Z9.174
X52.204 Y-11.716 Z9.215
X52.17 Y-11.694 Z9.263
X52.141 Y-11.676 Z9.317
X52.118 Y-11.67 Z9.375
X52.104 Y-11.665 Z9.437
X52.099 Y-11.664 Z9.5
G0 Z9.7
X54.867 Y6.408
G1 Z9.3 F600
X54.919 Y6.523
G2 X55.087 Y6.873 Z9.176 I11.011 J-5.081
G1 X55.109 Y6.928 Z9.157
X55.12 Y6.987 Z9.138
Y7.047 Z9.119
X55.108 Y7.106 Z9.1
X55.042 Y7.306 F1300
X54.852 Y7.821
X54.776 Y7.993
X54.033 Y9.54
X53.948 Y9.712
X53.733 Y10.134
X53.684 Y10.228
X52.455 Y12.118
X52.359 Y12.257
X52.187 Y12.48
X52.062 Y12.634
X50.984 Y13.902
X50.531 Y14.383
X50.146 Y14.732
X49.675 Y15.094
X49.063 Y15.491
X48.397 Y15.85
X47.708 Y16.163
X47.002 Y16.435
X46.282 Y16.67
X45.552 Y16.869
X45.202 Y16.947
X45.135 Y16.96
X45.067 Y16.967
X44.999 Y16.97
G3 X44.613 Y16.57 Z9.295 I0.014 J-0.4 F800
G1 Z9.296
Y16.556 Z9.3
X44.62 Y16.493
X44.637 Y16.433
G3 X44.829 Y16.214 I0.376 J0.137 F1300
G1 X50.487 Y13.298
G3 X50.809 Y13.279 I0.183 J0.356
G1 X50.866 Y13.305 F600
X50.919 Y13.34
G3 X51.07 Y13.653 Z9.185 I-0.249 J0.313
G1 Y13.654
G3 X50.984 Y13.902 Z9.1 I-0.4 J0
G1 X50.64 Y14.307 F1300
X50.459 Y14.525
X50.344 Y14.697
X50.296 Y14.77
X50.247 Y14.869
X50.169 Y15.041
X50.124 Y15.174
X50.113 Y15.212
X50.091 Y15.307
X50.047 Y15.466
X49.984 Y15.62
X49.897 Y15.793
X49.789 Y15.97
X49.64 Y16.175
X49.449 Y16.398
X49.211 Y16.634
X49.075 Y16.749
X48.894 Y16.869
X48.689 Y16.944
X48.473 Y16.97
G3 X48.087 Y16.57 Z9.295 I0.014 J-0.4 F800
G1 Z9.296
Y16.556 Z9.3
X48.094 Y16.493
X48.111 Y16.433
X48.144 Y16.363 F1300
X48.19 Y16.301
X49.402 Y14.964
G3 X49.647 Y14.836 I0.296 J0.269
G1 X49.71 Y14.833 F600
X49.773 Y14.84
G3 X50.091 Y15.307 Z9.1 I-0.075 J0.393
G1 X50.074 Y15.384 F1300
X50.048 Y15.556
X50.037 Y15.728
X50.045 Y15.9
X50.065 Y16.072
X50.074 Y16.124
X50.096 Y16.288
X50.05 Y16.501
X49.943 Y16.691
X49.784 Y16.841
X49.587 Y16.937
X49.371 Y16.97
G3 X48.985 Y16.57 Z9.295 I0.014 J-0.4 F800
G1 Z9.296
X48.986 Y16.556 Z9.3
X48.993 Y16.493
X49.01 Y16.433
X49.038 Y16.371 F1300
X49.077 Y16.315
X49.376 Y15.954
X49.425 Y15.905
X49.481 Y15.864
X49.538 Y15.837 F600
X49.599 Y15.819
G3 X50.074 Y16.124 Z9.1 I0.085 J0.391
G1 X50.096 Y16.244 F1300
X50.139 Y16.416
X50.158 Y16.502
X50.161 Y16.545
X50.159 Y16.588
X50.148 Y16.654
X50.138 Y16.687
X50.124 Y16.721
X50.104 Y16.76
X50.078 Y16.798
X50.045 Y16.836
X49.999 Y16.88
X49.953 Y16.912
X49.917 Y16.931
X49.883 Y16.946
X49.849 Y16.956
X49.781 Y16.968
X49.609 Y16.97
X41.016
X40.666 Y16.952
X40.415 Y16.881
X40.194 Y16.742
X40.021 Y16.547
X39.912 Y16.31
X39.874 Y16.052
G3 X40.286 Y15.665 Z9.3 I0.4 J0.013 F800
G1 X40.348 Y15.672
X40.409 Y15.688
X40.457 Y15.709 F1300
X40.501 Y15.736
X41.23 Y16.241
X41.277 Y16.28
X41.319 Y16.325
X41.352 Y16.377
X41.378 Y16.433
X41.395 Y16.493 F600
X41.402 Y16.556
G3 X41.016 Y16.97 Z9.1 I-0.4 J0.014
G1 X40.243 F1300
X40.2 Y16.968
X40.157 Y16.961
X40.111 Y16.949
X40.066 Y16.931
X40.026 Y16.909
X39.985 Y16.88
X39.922 Y16.82
X39.897 Y16.79
X39.877 Y16.76
X39.855 Y16.717
X39.839 Y16.674
X39.828 Y16.631
X39.822 Y16.588
X39.82 Y16.545
X39.824 Y16.502
X39.849 Y16.321
G3 X40.074 Y16.026 I0.394 J0.068 F800
G1 X40.132 Y16.013 Z9.105
X40.189 Y16.001 Z9.118
X40.243 Y15.989 Z9.14
X40.296 Y16.001 Z9.172
X40.342 Y16.011 Z9.212
X40.383 Y16.02 Z9.259
X40.415 Y16.028 Z9.311
X40.438 Y16.04 Z9.371
X40.452 Y16.048 Z9.435
X40.457 Y16.05 Z9.5
G0 Z18
X36.958 Y13.553
Z9.9
G1 Z9.5 F600
X36.951 Y13.557 Z9.422
X36.931 Y13.568 Z9.347
X36.9 Y13.587 Z9.278
X36.857 Y13.613 Z9.217
X36.805 Y13.644 Z9.167
X36.745 Y13.679 Z9.13
X36.681 Y13.717 Z9.108
X36.614 Y13.757 Z9.1
G3 X35.86 Y13.979 I-0.809 J-1.36
G1 X33.798 F1300
X33.626 Y13.981
X33.454 Y13.989
X33.363 Y14
X33.199 Y14.012
X32.99 Y14.009
X32.735 Y13.985
X32.459 Y13.937
X32.137 Y13.853
X31.766 Y13.724
X31.341 Y13.536
X30.864 Y13.279
X30.308 Y12.918
X29.708 Y12.456
X29.146 Y11.95
X28.617 Y11.409
X28.119 Y10.839
X27.651 Y10.244
X27.213 Y9.627
X26.805 Y8.989
X26.427 Y8.334
X26.078 Y7.663
X25.759 Y6.977
X25.469 Y6.277
X25.21 Y5.566
X24.982 Y4.845
X24.785 Y4.114
X24.62 Y3.375
X24.487 Y2.631
X24.386 Y1.88
X24.319 Y1.127
X24.285 Y0.371
X24.284 Y-0.386
X24.315 Y-1.142
X24.378 Y-1.896
X24.473 Y-2.647
X24.6 Y-3.393
X24.759 Y-4.133
X24.949 Y-4.865
X25.171 Y-5.589
X25.423 Y-6.302
X25.707 Y-7.004
X26.021 Y-7.692
X26.365 Y-8.366
X26.738 Y-9.025
X27.139 Y-9.667
X27.566 Y-10.291
X28.02 Y-10.897
X28.499 Y-11.483
X29.003 Y-12.048
X29.53 Y-12.59
X30.081 Y-13.11
X30.653 Y-13.605
X31.247 Y-14.074
X31.541 Y-14.286
X31.775 Y-14.409
X32.033 Y-14.461
X32.296 Y-14.439
X32.542 Y-14.344
X32.767 Y-14.219
X32.853 Y-14.181
X32.939 Y-14.148
X33.11 Y-14.093
X33.282 Y-14.052
X33.454 Y-14.032
X33.626 Y-14.024
X33.798 Y-14.021
X34.206
G3 X34.557 Y-13.456 I-0.014 J0.4 F800
G1 X34.524 Y-13.385 Z9.108
X34.493 Y-13.316 Z9.13
X34.464 Y-13.254 Z9.167
X34.439 Y-13.198 Z9.217
X34.419 Y-13.153 Z9.278
X34.403 Y-13.12 Z9.347
X34.394 Y-13.099 Z9.422
X34.391 Y-13.092 Z9.5
G0 Z9.9
X34.402 Y13.446
G1 Z9.5 F600
X34.396 Y13.451 Z9.422
X34.378 Y13.465 Z9.347
X34.349 Y13.488 Z9.278
X34.309 Y13.518 Z9.217
X34.261 Y13.555 Z9.167
X34.206 Y13.597 Z9.13
X34.147 Y13.643 Z9.108
X34.085 Y13.691 Z9.1
G3 X33.363 Y14 I-0.966 J-1.254
G1 X33.282 Y14.01 F1300
X33.11 Y14.051
X32.939 Y14.106
X32.767 Y14.175
X32.595 Y14.268
X32.555 Y14.294
X32.412 Y14.376
X32.258 Y14.435
X32.099 Y14.479
X31.927 Y14.509
X31.729 Y14.528
X31.518 Y14.531
X31.261 Y14.514
X30.984 Y14.473
X30.672 Y14.402
X30.306 Y14.286
X29.922 Y14.129
X29.476 Y13.904
X28.968 Y13.594
X28.425 Y13.199
X27.85 Y12.706
X27.314 Y12.173
X26.812 Y11.606
X26.342 Y11.013
X25.902 Y10.397
X25.491 Y9.761
X25.109 Y9.108
X24.755 Y8.44
X24.428 Y7.757
X24.129 Y7.062
X23.858 Y6.355
X23.616 Y5.638
X23.403 Y4.912
X23.22 Y4.178
X23.066 Y3.437
X22.942 Y2.69
X22.849 Y1.94
X22.785 Y1.185
X22.751 Y0.429
X22.747 Y-0.327
X22.772 Y-1.084
X22.827 Y-1.838
X22.912 Y-2.59
X23.026 Y-3.338
X23.17 Y-4.081
X23.343 Y-4.818
X23.546 Y-5.547
X23.777 Y-6.268
X24.037 Y-6.978
X24.326 Y-7.678
X24.642 Y-8.366
X24.984 Y-9.04
X25.353 Y-9.701
X25.748 Y-10.347
X26.168 Y-10.977
X26.611 Y-11.59
X27.079 Y-12.184
X27.571 Y-12.76
X28.085 Y-13.315
X28.62 Y-13.85
X29.177 Y-14.363
X29.697 Y-14.805
X30.017 Y-15.035
X30.328 Y-15.223
X30.576 Y-15.347
X30.747 Y-15.416
X31.001 Y-15.479
X31.261 Y-15.469
X31.509 Y-15.387
X31.725 Y-15.24
X31.891 Y-15.039
G3 X31.593 Y-14.445 I-0.348 J0.197 F800
G1 X31.515 Y-14.435 Z9.108
X31.441 Y-14.426 Z9.13
X31.372 Y-14.417 Z9.167
X31.312 Y-14.41 Z9.217
X31.263 Y-14.404 Z9.278
X31.226 Y-14.399 Z9.347
X31.203 Y-14.396 Z9.422
X31.196 Y-14.395 Z9.5
G0 Z9.9
X33.247 Y13.342
G1 Z9.5 F600
X33.243 Y13.349 Z9.422
X33.233 Y13.369 Z9.347
X33.217 Y13.402 Z9.278
X33.195 Y13.447 Z9.217
X33.168 Y13.501 Z9.167
X33.137 Y13.563 Z9.13
X33.103 Y13.63 Z9.108
X33.069 Y13.7 Z9.1
G3 X32.555 Y14.294 I-1.417 J-0.705
G1 X32.464 Y14.353 F1300
X32.423 Y14.385
X32.261 Y14.525
X32.097 Y14.697
X32.061 Y14.744
X31.956 Y14.872
X31.832 Y14.98
X31.694 Y15.071
X31.548 Y15.147
X31.394 Y15.209
X31.231 Y15.259
X31.035 Y15.304
X30.826 Y15.333
X30.58 Y15.348
X30.314 Y15.343
X30.011 Y15.312
X29.678 Y15.251
X29.305 Y15.151
X28.904 Y15.009
X28.438 Y14.799
X27.967 Y14.541
X27.426 Y14.184
X26.832 Y13.721
X26.275 Y13.208
X25.753 Y12.66
X25.265 Y12.082
X24.807 Y11.479
X24.378 Y10.856
X23.978 Y10.214
X23.605 Y9.555
X23.259 Y8.882
X22.939 Y8.196
X22.646 Y7.498
X22.379 Y6.79
X22.139 Y6.073
X21.926 Y5.346
X21.74 Y4.613
X21.582 Y3.873
X21.45 Y3.128
X21.346 Y2.378
X21.27 Y1.625
X21.222 Y0.87
X21.202 Y0.113
X21.21 Y-0.643
X21.246 Y-1.399
X21.309 Y-2.153
X21.399 Y-2.905
X21.516 Y-3.652
X21.661 Y-4.395
X21.833 Y-5.132
X22.032 Y-5.862
X22.258 Y-6.584
X22.51 Y-7.298
X22.787 Y-8.002
X23.091 Y-8.695
X23.42 Y-9.377
X23.774 Y-10.045
X24.153 Y-10.701
X24.555 Y-11.342
X24.98 Y-11.968
X25.427 Y-12.578
X25.897 Y-13.172
X26.388 Y-13.748
X26.9 Y-14.305
X27.431 Y-14.844
X27.985 Y-15.36
X28.507 Y-15.786
X28.914 Y-16.067
X29.27 Y-16.272
X29.542 Y-16.402
X29.827 Y-16.51
X30.062 Y-16.578
X30.306 Y-16.628
X30.536 Y-16.656
X30.737 Y-16.665
X30.748 Y-16.664
X31.01 Y-16.616
X31.248 Y-16.496
X31.442 Y-16.313
X31.576 Y-16.083
X31.641 Y-15.825
G3 X31.113 Y-15.42 I-0.399 J0.026 F800
G1 X31.039 Y-15.445 Z9.108
X30.968 Y-15.469 Z9.13
X30.902 Y-15.492 Z9.167
X30.845 Y-15.511 Z9.217
X30.798 Y-15.527 Z9.278
X30.763 Y-15.539 Z9.347
X30.741 Y-15.546 Z9.422
X30.734 Y-15.549 Z9.5
G0 Z9.9
X32.37 Y13.608
G1 Z9.5 F600
X32.369 Y13.616 Z9.422
X32.367 Y13.638 Z9.347
X32.363 Y13.675 Z9.278
X32.358 Y13.725 Z9.217
X32.352 Y13.785 Z9.167
X32.345 Y13.854 Z9.13
X32.338 Y13.928 Z9.108
X32.33 Y14.006 Z9.1
G3 X32.061 Y14.744 I-1.575 J-0.157
G1 X31.969 Y14.869 F1300
X31.866 Y15.041
X31.785 Y15.212
X31.736 Y15.34
X31.675 Y15.493
X31.582 Y15.629
X31.471 Y15.751
X31.346 Y15.86
X31.212 Y15.955
X31.069 Y16.038
X30.9 Y16.12
X30.72 Y16.189
X30.503 Y16.253
X30.273 Y16.301
X30.005 Y16.335
X29.718 Y16.349
X29.391 Y16.337
X29.031 Y16.296
X28.652 Y16.221
X28.206 Y16.095
X27.76 Y15.929
X27.246 Y15.69
X26.684 Y15.371
X26.102 Y14.975
X25.512 Y14.501
X24.959 Y13.984
X24.44 Y13.434
X23.952 Y12.855
X23.494 Y12.253
X23.063 Y11.63
X22.66 Y10.99
X22.283 Y10.334
X21.931 Y9.664
X21.604 Y8.982
X21.302 Y8.288
X21.025 Y7.583
X20.773 Y6.87
X20.547 Y6.148
X20.346 Y5.418
X20.171 Y4.682
X20.021 Y3.94
X19.897 Y3.193
X19.799 Y2.443
X19.726 Y1.69
X19.679 Y0.935
X19.659 Y0.178
X19.663 Y-0.579
X19.694 Y-1.335
X19.749 Y-2.089
X19.831 Y-2.842
X19.938 Y-3.591
X20.07 Y-4.336
X20.228 Y-5.076
X20.412 Y-5.81
X20.62 Y-6.538
X20.854 Y-7.258
X21.111 Y-7.969
X21.393 Y-8.672
X21.699 Y-9.364
X22.028 Y-10.045
X22.38 Y-10.715
X22.754 Y-11.373
X23.151 Y-12.017
X23.569 Y-12.648
X24.008 Y-13.264
X24.468 Y-13.865
X24.949 Y-14.45
X25.449 Y-15.017
X25.969 Y-15.567
X26.513 Y-16.094
X27.084 Y-16.59
X27.414 Y-16.836
X27.586 Y-16.937
X27.774 Y-16.999
X27.972 Y-17.02
X31.185
X31.306 Y-17.019
X31.349 Y-17.012
X31.392 Y-17.001
X31.424 Y-16.989
X31.457 Y-16.974
X31.489 Y-16.955
X31.521 Y-16.931
X31.564 Y-16.891
X31.617 Y-16.825
X31.637 Y-16.792
X31.653 Y-16.759
X31.668 Y-16.716
X31.679 Y-16.673
X31.684 Y-16.63
X31.685 Y-16.587
X31.639 Y-16.243
X31.629 Y-16.072
X31.633 Y-15.9
X31.641 Y-15.825
G3 X31.113 Y-15.42 I-0.399 J0.026 F800
G1 X31.039 Y-15.445 Z9.108
X30.968 Y-15.469 Z9.13
X30.902 Y-15.492 Z9.167
X30.845 Y-15.511 Z9.217
X30.798 Y-15.527 Z9.278
X30.763 Y-15.539 Z9.347
X30.741 Y-15.546 Z9.422
X30.734 Y-15.549 Z9.5
G0 Z9.9
X31.631 Y14.167
G1 Z9.5 F600
X31.633 Y14.175 Z9.422
X31.638 Y14.197 Z9.347
X31.648 Y14.232 Z9.278
X31.66 Y14.28 Z9.217
X31.676 Y14.339 Z9.167
X31.693 Y14.406 Z9.13
X31.712 Y14.479 Z9.108
X31.732 Y14.554 Z9.1
G3 X31.736 Y15.34 I-1.531 J0.4
G1 X31.674 Y15.556 F1300
X31.647 Y15.728
X31.634 Y15.9
X31.621 Y16.065
X31.573 Y16.223
X31.502 Y16.372
X31.414 Y16.511
X31.31 Y16.639
X31.264 Y16.687
X31.069 Y16.84
X30.84 Y16.937
X30.595 Y16.97
G3 X30.209 Y16.57 Z9.295 I0.014 J-0.4 F800
G1 Z9.296
Y16.556 Z9.3
X30.216 Y16.493
X30.233 Y16.433
X30.255 Y16.383 F1300
X30.284 Y16.336
X30.319 Y16.294
X30.944 Y15.637
X30.99 Y15.596
X31.042 Y15.562
X31.098 Y15.537
X31.159 Y15.52 F600
X31.222 Y15.513
G3 X31.634 Y15.9 Z9.1 I0.012 J0.4
G1 X31.633 Y16.072 F1300
X31.647 Y16.244
X31.671 Y16.416
X31.683 Y16.502
X31.686 Y16.545
X31.685 Y16.588
X31.679 Y16.631
X31.668 Y16.674
X31.652 Y16.717
X31.629 Y16.76
X31.601 Y16.801
X31.564 Y16.842
X31.533 Y16.872
X31.503 Y16.896
X31.472 Y16.915
X31.442 Y16.931
X31.392 Y16.951
X31.349 Y16.962
X31.306 Y16.968
X31.22 Y16.97
X27.955
X27.669 Y16.955
X27.373 Y16.916
X27.016 Y16.84
X26.639 Y16.727
X26.195 Y16.554
X25.74 Y16.334
X25.212 Y16.022
X24.629 Y15.613
X24.046 Y15.129
X23.501 Y14.605
X22.988 Y14.048
X22.507 Y13.464
X22.055 Y12.857
X21.63 Y12.231
X21.231 Y11.588
X20.856 Y10.931
X20.506 Y10.26
X20.18 Y9.577
X19.878 Y8.883
X19.599 Y8.18
X19.344 Y7.467
X19.112 Y6.747
X18.904 Y6.019
X18.72 Y5.285
X18.56 Y4.545
X18.424 Y3.801
X18.312 Y3.053
X18.225 Y2.301
X18.162 Y1.547
X18.123 Y0.791
X18.108 Y0.034
X18.118 Y-0.722
X18.151 Y-1.478
X18.208 Y-2.233
X18.288 Y-2.985
X18.393 Y-3.735
X18.521 Y-4.481
X18.673 Y-5.222
X18.849 Y-5.958
X19.048 Y-6.688
X19.27 Y-7.412
X19.516 Y-8.127
X19.785 Y-8.835
X20.076 Y-9.533
X20.39 Y-10.222
X20.725 Y-10.9
X21.081 Y-11.568
X21.459 Y-12.224
X21.857 Y-12.868
X22.275 Y-13.498
X22.712 Y-14.116
X23.17 Y-14.719
X23.646 Y-15.307
X24.141 Y-15.879
X24.656 Y-16.433
X24.977 Y-16.751
X25.17 Y-16.897
X25.394 Y-16.989
X25.634 Y-17.02
X27.972
G3 X28.322 Y-16.455 I-0.014 J0.4 F800
G1 X28.29 Y-16.384 Z9.108
X28.259 Y-16.316 Z9.13
X28.23 Y-16.253 Z9.167
X28.205 Y-16.197 Z9.217
X28.184 Y-16.152 Z9.278
X28.169 Y-16.119 Z9.347
X28.159 Y-16.098 Z9.422
X28.156 Y-16.091 Z9.5
G0 Z9.9
X29.052 Y16.544
G1 Z9.5 F600
X29.045 Y16.548 Z9.422
X29.026 Y16.559 Z9.347
X28.994 Y16.578 Z9.278
X28.951 Y16.604 Z9.217
X28.899 Y16.635 Z9.167
X28.84 Y16.67 Z9.13
X28.775 Y16.708 Z9.108
X28.708 Y16.748 Z9.1
G3 X27.955 Y16.97 I-0.809 J-1.36
G1 X25.549 F1300
X25.282 Y16.956
X25.058 Y16.927
X24.787 Y16.869
X24.499 Y16.783
X24.168 Y16.654
X23.795 Y16.473
X23.368 Y16.221
X22.905 Y15.896
X22.369 Y15.451
X21.827 Y14.923
X21.324 Y14.357
X20.855 Y13.764
X20.416 Y13.147
X20.004 Y12.513
X19.617 Y11.862
X19.255 Y11.198
X18.916 Y10.521
X18.601 Y9.833
X18.308 Y9.135
X18.039 Y8.428
X17.791 Y7.713
X17.567 Y6.99
X17.364 Y6.261
X17.184 Y5.526
X17.027 Y4.786
X16.892 Y4.041
X16.78 Y3.293
X16.691 Y2.541
X16.624 Y1.787
X16.58 Y1.032
X16.558 Y0.275
X16.559 Y-0.481
X16.582 Y-1.238
X16.628 Y-1.993
X16.697 Y-2.747
X16.788 Y-3.498
X16.902 Y-4.246
X17.038 Y-4.99
X17.197 Y-5.73
X17.377 Y-6.465
X17.58 Y-7.195
X17.804 Y-7.917
X18.05 Y-8.633
X18.317 Y-9.341
X18.605 Y-10.041
X18.915 Y-10.731
X19.244 Y-11.413
X19.594 Y-12.084
X19.963 Y-12.744
X20.352 Y-13.394
X20.76 Y-14.031
X21.187 Y-14.656
X21.633 Y-15.267
X22.097 Y-15.865
X22.579 Y-16.448
X22.808 Y-16.706
X23.007 Y-16.876
X23.247 Y-16.984
X23.506 Y-17.02
X25.634
G3 X25.984 Y-16.455 I-0.014 J0.4 F800
G1 X25.951 Y-16.384 Z9.108
X25.92 Y-16.316 Z9.13
X25.892 Y-16.253 Z9.167
X25.866 Y-16.197 Z9.217
X25.846 Y-16.152 Z9.278
X25.83 Y-16.119 Z9.347
X25.821 Y-16.098 Z9.422
X25.818 Y-16.091 Z9.5
G0 Z9.9
X26.646 Y16.544
G1 Z9.5 F600
X26.639 Y16.548 Z9.422
X26.62 Y16.559 Z9.347
X26.588 Y16.578 Z9.278
X26.545 Y16.604 Z9.217
X26.493 Y16.635 Z9.167
X26.434 Y16.67 Z9.13
X26.369 Y16.708 Z9.108
X26.302 Y16.748 Z9.1
G3 X25.549 Y16.97 I-0.809 J-1.36
G1 X23.486 F1300
X23.216 Y16.956
X23 Y16.928
X22.778 Y16.88
X22.513 Y16.801
X22.215 Y16.685
X21.968 Y16.565
X21.755 Y16.42
X21.593 Y16.221
X21.494 Y15.984
X21.467 Y15.728
G3 X21.855 Y15.316 Z9.3 I0.4 J-0.012 F800
G1 X21.918 Y15.319
X21.979 Y15.332
X22.018 Y15.345 F1300
X22.055 Y15.363
X23.66 Y16.217
G3 X23.848 Y16.433 I-0.188 J0.353
G1 X23.865 Y16.493 F600
X23.872 Y16.556
G3 X23.486 Y16.97 Z9.1 I-0.4 J0.014
G1 X21.845 F1300
X21.803
X21.768
X21.699 Y16.963
X21.669 Y16.958
X21.639 Y16.951
G3 X21.45 Y16.614 I0.123 J-0.291 F800
X21.685 Y16.357 I0.307 J0.045
G1 X21.748 Y16.349 F1300
X21.81 Y16.354
X21.87 Y16.37
X21.926 Y16.399
G3 X21.768 Y16.97 I-0.169 J0.26 F600
G1 X21.725 Y16.968 F1300
X21.682 Y16.962
X21.639 Y16.951
X21.59 Y16.931
X21.548 Y16.909
X21.507 Y16.879
X21.46 Y16.833
X21.424 Y16.787
X21.405 Y16.76
X21.382 Y16.717
X21.366 Y16.674
X21.354 Y16.631
X21.348 Y16.588
X21.346 Y16.545
X21.349 Y16.502
X21.367 Y16.416
X21.409 Y16.244
X21.44 Y16.072
X21.46 Y15.9
X21.467 Y15.728
X21.456 Y15.556
X21.43 Y15.384
X21.424 Y15.354
X21.393 Y15.212
X21.334 Y15.041
X21.252 Y14.858
X21.159 Y14.697
X21.08 Y14.574
X20.9 Y14.353
X19.438 Y12.634
X19.362 Y12.543
X19.159 Y12.29
X19.018 Y12.077
X17.815 Y10.227
X17.727 Y10.056
X17.553 Y9.712
X17.468 Y9.54
X16.723 Y7.993
X16.648 Y7.821
X16.459 Y7.306
X16.173 Y6.446
X15.888 Y5.587
X15.84 Y5.415
X15.747 Y5.071
X15.706 Y4.899
X15.272 Y2.665
X15.256 Y2.493
X15.125 Y0.43
X15.116 Y0.258
X15.115 Y-0.258
X15.124 Y-0.43
X15.257 Y-2.492
X15.273 Y-2.664
X15.404 Y-3.352
X15.706 Y-4.899
X15.753 Y-5.088
X15.839 Y-5.414
X15.887 Y-5.586
X16.459 Y-7.305
X16.647 Y-7.821
X16.722 Y-7.993
X17.471 Y-9.546
X17.553 Y-9.712
X17.726 Y-10.055
X17.815 Y-10.229
X19.046 Y-12.118
X19.16 Y-12.29
X19.362 Y-12.545
X19.583 Y-12.806
X20.908 Y-14.361
X21.08 Y-14.569
X21.164 Y-14.696
X21.252 Y-14.841
X21.266 Y-14.868
X21.343 Y-15.04
X21.404 Y-15.212
X21.424 Y-15.288
X21.443 Y-15.384
X21.471 Y-15.556
X21.483 Y-15.728
X21.478 Y-15.9
X21.473 Y-16.065
X21.495 Y-16.236
X21.506 Y-16.285
X21.592 Y-16.522
X21.739 Y-16.728
X21.936 Y-16.886
X22.168 Y-16.986
X22.418 Y-17.02
G3 X22.804 Y-16.621 Z9.295 I-0.014 J0.4 F800
G1 Z9.296
Y-16.607 Z9.3
X22.797 Y-16.544
X22.78 Y-16.484
X22.753 Y-16.425 F1300
X22.717 Y-16.371
X22.187 Y-15.706
X22.147 Y-15.663
X22.101 Y-15.627
X22.05 Y-15.597
X21.991 Y-15.574 F600
X21.93 Y-15.56
G3 X21.478 Y-15.9 Z9.1 I-0.056 J-0.396
G1 X21.46 Y-16.072 F1300
X21.43 Y-16.243
X21.363 Y-16.501
X21.354 Y-16.544
X21.35 Y-16.587
Y-16.63
X21.355 Y-16.673
X21.364 Y-16.716
X21.379 Y-16.759
X21.399 Y-16.799
X21.424 Y-16.839
X21.46 Y-16.885
X21.508 Y-16.931
X21.552 Y-16.962
X21.596 Y-16.985
X21.639 Y-17.002
X21.682 Y-17.013
X21.725 Y-17.019
X21.768 Y-17.02
X23.506
G3 X23.829 Y-16.837 I-0.014 J0.4 F800
G1 X23.849 Y-16.78 Z9.105
X23.87 Y-16.725 Z9.119
X23.889 Y-16.672 Z9.142
X23.892 Y-16.621 Z9.172
X23.88 Y-16.564 Z9.222
X23.87 Y-16.518 Z9.282
X23.863 Y-16.483 Z9.35
X23.858 Y-16.462 Z9.423
X23.856 Y-16.455 Z9.499
G0 X40.954 Y1.652
Z9.35
G3 X40.024 Y-0.484 Z9.262 I0.923 J-1.673 F600
X41.848 Y-1.93 Z9.175 I1.852 J0.463
X43.712 Y-0.538 Z9.087 I0.027 J1.907
X42.846 Y1.618 Z9 I-1.835 J0.515
X40.541 Y1.335 Z8.913 I-0.968 J-1.64
X40.224 Y-0.964 Z8.825 I1.336 J-1.355
X42.363 Y-1.859 Z8.738 I1.651 J0.943
X43.776 Y-0.023 Z8.65 I-0.487 J1.836
X39.976 Y-0.023 I-1.9 J0
X43.776 Y-0.023 I1.9 J0
G1 X43.784 Y0.166 F1300
X43.951 Y0.833
X43.978 Y0.996
X43.98 Y1.161
X43.96 Y1.325
X43.92 Y1.485
X43.864 Y1.64
X43.792 Y1.788
X43.707 Y1.93
X43.609 Y2.063
X43.501 Y2.187
X43.379 Y2.307
X43.242 Y2.421
X43.093 Y2.526
X42.93 Y2.622
X42.756 Y2.707
X42.571 Y2.78
X42.376 Y2.839
X42.173 Y2.882
X41.964 Y2.91
X41.749 Y2.921
X41.531 Y2.915
X41.311 Y2.891
X41.092 Y2.849
X40.874 Y2.789
X40.66 Y2.711
X40.45 Y2.615
X40.248 Y2.501
X40.055 Y2.371
X39.871 Y2.226
X39.699 Y2.064
X39.539 Y1.889
X39.394 Y1.701
X39.263 Y1.502
X39.149 Y1.291
X39.052 Y1.072
X38.972 Y0.845
X38.911 Y0.612
X38.868 Y0.374
X38.845 Y0.133
X38.841 Y-0.109
X38.857 Y-0.351
X38.892 Y-0.591
X38.946 Y-0.827
X39.02 Y-1.059
X39.111 Y-1.284
X39.221 Y-1.502
X39.347 Y-1.71
X39.49 Y-1.907
X39.648 Y-2.092
X39.821 Y-2.264
X40.007 Y-2.422
X40.205 Y-2.564
X40.415 Y-2.69
X40.633 Y-2.799
X40.86 Y-2.89
X41.093 Y-2.962
X41.331 Y-3.016
X41.573 Y-3.05
X41.816 Y-3.064
X42.061 Y-3.059
X42.304 Y-3.035
X42.544 Y-2.991
X42.78 Y-2.928
X43.01 Y-2.846
X43.233 Y-2.746
X43.447 Y-2.628
X43.651 Y-2.494
X43.844 Y-2.343
X44.024 Y-2.178
X44.19 Y-1.999
X44.341 Y-1.807
X44.488 Y-1.584
X44.751 Y-1.11
X44.939 Y-0.696
X45.062 Y-0.353
X45.147 Y-0.042
X45.202 Y0.251
X45.231 Y0.533
X45.238 Y0.805
X45.222 Y1.072
X45.187 Y1.332
X45.13 Y1.587
X45.054 Y1.837
X44.957 Y2.081
X44.84 Y2.319
X44.703 Y2.548
X44.547 Y2.767
X44.372 Y2.975
X44.178 Y3.171
X43.967 Y3.353
X43.738 Y3.521
X43.493 Y3.671
X43.233 Y3.803
X42.96 Y3.915
X42.675 Y4.006
X42.379 Y4.075
X42.076 Y4.12
X41.767 Y4.141
X41.453 Y4.138
X41.138 Y4.108
X40.824 Y4.054
X40.513 Y3.973
X40.207 Y3.867
X39.908 Y3.736
X39.62 Y3.581
X39.343 Y3.401
X39.08 Y3.199
X38.833 Y2.976
X38.603 Y2.732
X38.393 Y2.47
X38.204 Y2.19
X38.038 Y1.896
X37.895 Y1.588
X37.777 Y1.269
X37.685 Y0.94
X37.62 Y0.605
X37.581 Y0.265
X37.57 Y-0.078
X37.587 Y-0.421
X37.631 Y-0.762
X37.702 Y-1.098
X37.801 Y-1.429
X37.925 Y-1.75
X38.075 Y-2.061
X38.25 Y-2.359
X38.448 Y-2.642
X38.668 Y-2.908
X38.909 Y-3.156
X39.169 Y-3.384
X39.447 Y-3.59
X39.741 Y-3.774
X40.048 Y-3.933
X40.367 Y-4.067
X40.696 Y-4.175
X41.033 Y-4.257
X41.375 Y-4.311
X41.721 Y-4.337
X42.067 Y-4.336
X42.413 Y-4.307
X42.755 Y-4.25
X43.091 Y-4.166
X43.42 Y-4.055
X43.738 Y-3.918
X44.045 Y-3.756
X44.337 Y-3.57
X44.618 Y-3.359
X44.923 Y-3.087
X45.218 Y-2.779
X45.497 Y-2.436
X45.752 Y-2.066
X45.974 Y-1.681
X46.159 Y-1.289
X46.308 Y-0.896
X46.421 Y-0.503
X46.501 Y-0.111
X46.549 Y0.28
X46.565 Y0.668
X46.549 Y1.053
X46.503 Y1.431
X46.428 Y1.803
X46.323 Y2.167
X46.189 Y2.521
X46.027 Y2.863
X45.838 Y3.192
X45.622 Y3.506
X45.38 Y3.804
X45.113 Y4.083
X44.823 Y4.341
X44.51 Y4.578
X44.177 Y4.79
X43.824 Y4.976
X43.455 Y5.135
X43.07 Y5.265
X42.674 Y5.364
X42.267 Y5.432
X41.854 Y5.467
X41.436 Y5.469
X41.016 Y5.437
X40.598 Y5.371
X40.183 Y5.271
X39.776 Y5.137
X39.378 Y4.971
X38.993 Y4.771
X38.624 Y4.541
X38.272 Y4.28
X37.942 Y3.991
X37.634 Y3.674
X37.352 Y3.333
X37.097 Y2.97
X36.871 Y2.585
X36.677 Y2.183
X36.515 Y1.766
X36.387 Y1.336
X36.293 Y0.896
X36.235 Y0.449
X36.214 Y-0.001
X36.228 Y-0.453
X36.278 Y-0.902
X36.365 Y-1.347
X36.487 Y-1.783
X36.644 Y-2.208
X36.834 Y-2.62
X37.058 Y-3.016
X37.312 Y-3.392
X37.596 Y-3.747
X37.907 Y-4.078
X38.244 Y-4.384
X38.605 Y-4.661
X38.987 Y-4.908
X39.388 Y-5.125
X39.805 Y-5.308
X40.235 Y-5.457
X40.676 Y-5.572
X41.125 Y-5.65
X41.579 Y-5.692
X42.034 Y-5.698
X42.489 Y-5.667
X42.94 Y-5.6
X43.384 Y-5.497
X43.818 Y-5.358
X44.241 Y-5.185
X44.662 Y-4.971
X45.078 Y-4.717
X45.484 Y-4.42
X45.876 Y-4.083
X46.247 Y-3.708
X46.589 Y-3.302
X46.897 Y-2.869
X47.169 Y-2.415
X47.401 Y-1.944
X47.594 Y-1.46
X47.745 Y-0.967
X47.855 Y-0.468
X47.925 Y0.034
X47.953 Y0.536
X47.941 Y1.036
X47.89 Y1.53
X47.799 Y2.017
X47.67 Y2.494
X47.503 Y2.959
X47.299 Y3.409
X47.06 Y3.841
X46.786 Y4.255
X46.478 Y4.646
X46.139 Y5.013
X45.769 Y5.353
X45.371 Y5.664
X44.948 Y5.943
X44.5 Y6.19
X44.031 Y6.4
X43.544 Y6.574
X43.042 Y6.709
X42.527 Y6.803
X42.003 Y6.856
X41.474 Y6.867
X40.943 Y6.836
X40.413 Y6.761
X39.888 Y6.643
X39.372 Y6.484
X38.869 Y6.282
X38.38 Y6.039
X37.911 Y5.757
X37.465 Y5.437
X37.044 Y5.081
X36.652 Y4.691
X36.291 Y4.269
X35.964 Y3.819
X35.674 Y3.343
X35.423 Y2.843
X35.211 Y2.324
X35.042 Y1.789
X34.916 Y1.241
X34.835 Y0.684
X34.798 Y0.121
X34.807 Y-0.444
X34.861 Y-1.007
X34.96 Y-1.564
X35.103 Y-2.112
X35.291 Y-2.647
X35.52 Y-3.166
X35.791 Y-3.665
X36.101 Y-4.141
X36.449 Y-4.59
X36.831 Y-5.011
X37.247 Y-5.399
X37.692 Y-5.753
X38.165 Y-6.071
X38.661 Y-6.349
X39.178 Y-6.587
X39.713 Y-6.782
X40.262 Y-6.934
X40.821 Y-7.042
X41.388 Y-7.104
X41.957 Y-7.12
X42.526 Y-7.091
X43.092 Y-7.016
X43.651 Y-6.896
X44.205 Y-6.729
X44.75 Y-6.516
X45.283 Y-6.257
X45.804 Y-5.949
X46.307 Y-5.594
X46.788 Y-5.194
X47.241 Y-4.752
X47.658 Y-4.272
X48.037 Y-3.758
X48.373 Y-3.217
X48.664 Y-2.651
X48.907 Y-2.067
X49.102 Y-1.468
X49.247 Y-0.859
X49.343 Y-0.244
X49.388 Y0.374
X49.384 Y0.991
X49.33 Y1.603
X49.228 Y2.207
X49.077 Y2.8
X48.88 Y3.379
X48.638 Y3.939
X48.35 Y4.479
X48.02 Y4.995
X47.648 Y5.484
X47.237 Y5.943
X46.789 Y6.37
X46.306 Y6.76
X45.792 Y7.112
X45.248 Y7.423
X44.678 Y7.69
X44.086 Y7.912
X43.475 Y8.087
X42.849 Y8.212
X42.212 Y8.288
X41.568 Y8.312
X40.921 Y8.284
X40.276 Y8.204
X39.636 Y8.072
X39.007 Y7.888
X38.392 Y7.653
X37.796 Y7.369
X37.223 Y7.037
X36.676 Y6.658
X36.16 Y6.236
X35.678 Y5.772
X35.234 Y5.27
X34.83 Y4.732
X34.47 Y4.163
X34.156 Y3.565
X33.891 Y2.943
X33.677 Y2.301
X33.514 Y1.642
X33.404 Y0.971
X33.349 Y0.293
X33.348 Y-0.388
X33.402 Y-1.068
X33.51 Y-1.742
X33.673 Y-2.405
X33.888 Y-3.054
X34.154 Y-3.684
X34.471 Y-4.29
X34.835 Y-4.87
X35.245 Y-5.419
X35.698 Y-5.933
X36.191 Y-6.41
X36.72 Y-6.845
X37.283 Y-7.237
X37.876 Y-7.582
X38.495 Y-7.879
X39.136 Y-8.125
X39.794 Y-8.319
X40.466 Y-8.46
X41.147 Y-8.546
X41.833 Y-8.577
X42.52 Y-8.553
X43.206 Y-8.474
X43.886 Y-8.339
X44.559 Y-8.149
X45.221 Y-7.902
X45.869 Y-7.6
X46.498 Y-7.242
X47.103 Y-6.83
X47.679 Y-6.367
X48.22 Y-5.855
X48.72 Y-5.299
X49.175 Y-4.703
X49.581 Y-4.072
X49.935 Y-3.411
X50.234 Y-2.725
X50.476 Y-2.02
X50.661 Y-1.3
X50.786 Y-0.57
X50.852 Y0.165
X50.859 Y0.901
X50.807 Y1.633
X50.697 Y2.358
X50.529 Y3.069
X50.305 Y3.765
X50.025 Y4.44
X49.692 Y5.091
X49.308 Y5.714
X48.874 Y6.306
X48.392 Y6.861
X47.867 Y7.378
X47.299 Y7.853
X46.694 Y8.281
X46.053 Y8.662
X45.382 Y8.99
X44.684 Y9.265
X43.963 Y9.484
X43.224 Y9.645
X42.474 Y9.746
X41.718 Y9.787
X40.961 Y9.768
X40.209 Y9.689
X39.465 Y9.55
X38.734 Y9.354
X38.021 Y9.101
X37.329 Y8.793
X36.664 Y8.433
X36.029 Y8.022
X35.427 Y7.562
X34.863 Y7.058
X34.34 Y6.511
X33.861 Y5.925
X33.428 Y5.304
X33.045 Y4.652
X32.712 Y3.972
X32.432 Y3.269
X32.207 Y2.547
X32.037 Y1.809
X31.924 Y1.061
X31.868 Y0.306
X31.869 Y-0.45
X31.927 Y-1.205
X32.042 Y-1.953
X32.214 Y-2.69
X32.44 Y-3.412
X32.72 Y-4.115
X33.052 Y-4.795
X33.435 Y-5.448
X33.867 Y-6.069
X34.345 Y-6.656
X34.866 Y-7.205
X35.427 Y-7.712
X36.025 Y-8.176
X36.656 Y-8.594
X37.317 Y-8.962
X38.004 Y-9.28
X38.713 Y-9.546
X39.439 Y-9.757
X40.18 Y-9.914
X40.93 Y-10.014
X41.685 Y-10.058
X42.442 Y-10.045
X43.195 Y-9.976
X43.942 Y-9.85
X44.676 Y-9.669
X45.395 Y-9.432
X46.095 Y-9.143
X46.771 Y-8.804
X47.421 Y-8.417
X48.043 Y-7.985
X48.632 Y-7.51
X49.187 Y-6.996
X49.705 Y-6.444
X50.182 Y-5.856
X50.615 Y-5.236
X51.004 Y-4.587
X51.346 Y-3.912
X51.641 Y-3.215
X51.888 Y-2.499
X52.084 Y-1.768
X52.228 Y-1.026
X52.318 Y-0.274
X52.354 Y0.482
X52.335 Y1.238
X52.263 Y1.992
X52.138 Y2.738
X51.96 Y3.473
X51.731 Y4.195
X51.452 Y4.898
X51.124 Y5.58
X50.747 Y6.236
X50.323 Y6.863
X49.855 Y7.458
X49.346 Y8.018
X48.799 Y8.541
X48.217 Y9.024
X47.603 Y9.466
X46.959 Y9.865
X46.289 Y10.216
X45.595 Y10.518
X44.882 Y10.771
X44.153 Y10.973
X43.411 Y11.125
X42.661 Y11.226
X41.906 Y11.276
X41.149 Y11.274
X40.395 Y11.219
X39.646 Y11.111
X38.906 Y10.952
X38.178 Y10.743
X37.466 Y10.487
X36.773 Y10.184
X36.101 Y9.836
X35.455 Y9.442
X34.838 Y9.004
X34.252 Y8.525
X33.699 Y8.008
X33.182 Y7.455
X32.702 Y6.87
X32.262 Y6.254
X31.864 Y5.611
X31.511 Y4.941
X31.204 Y4.25
X30.944 Y3.539
X30.731 Y2.813
X30.566 Y2.074
X30.449 Y1.327
X30.381 Y0.573
X30.363 Y-0.183
X30.396 Y-0.939
X30.48 Y-1.692
X30.614 Y-2.436
X30.795 Y-3.171
X31.023 Y-3.893
X31.298 Y-4.598
X31.617 Y-5.284
X31.982 Y-5.947
X32.392 Y-6.583
X32.843 Y-7.191
X33.333 Y-7.768
X33.859 Y-8.311
X34.42 Y-8.819
X35.012 Y-9.291
X35.634 Y-9.722
X36.283 Y-10.11
X36.957 Y-10.454
X37.653 Y-10.753
X38.366 Y-11.006
X39.094 Y-11.213
X39.833 Y-11.373
X40.582 Y-11.484
X41.336 Y-11.547
X42.093 Y-11.558
X42.849 Y-11.519
X43.6 Y-11.431
X44.344 Y-11.294
X45.078 Y-11.11
X45.799 Y-10.879
X46.504 Y-10.603
X47.189 Y-10.282
X47.852 Y-9.917
X48.49 Y-9.51
X49.102 Y-9.065
X49.686 Y-8.584
X50.239 Y-8.067
X50.76 Y-7.518
X51.246 Y-6.938
X51.695 Y-6.329
X52.104 Y-5.692
X52.472 Y-5.031
X52.799 Y-4.349
X53.085 Y-3.648
X53.327 Y-2.931
X53.526 Y-2.201
X53.68 Y-1.46
X53.787 Y-0.711
X53.845 Y0.044
X53.855 Y0.801
X53.818 Y1.556
X53.735 Y2.309
X53.606 Y3.054
X53.431 Y3.79
X53.212 Y4.515
X52.948 Y5.224
X52.639 Y5.915
X52.287 Y6.585
X51.892 Y7.23
X51.458 Y7.85
X50.987 Y8.443
X50.48 Y9.005
X49.941 Y9.535
X49.369 Y10.031
X48.768 Y10.491
X48.139 Y10.911
X47.485 Y11.292
X46.808 Y11.631
X46.112 Y11.928
X45.399 Y12.182
X44.673 Y12.394
X43.935 Y12.561
X43.188 Y12.682
X42.435 Y12.757
X41.679 Y12.786
X40.922 Y12.768
X40.168 Y12.705
X39.419 Y12.597
X38.678 Y12.445
X37.946 Y12.25
X37.228 Y12.011
X36.526 Y11.73
X35.842 Y11.406
X35.179 Y11.041
X34.538 Y10.638
X33.923 Y10.198
X33.334 Y9.722
X32.775 Y9.213
X32.246 Y8.672
X31.75 Y8.1
X31.29 Y7.499
X30.866 Y6.872
X30.48 Y6.221
X30.133 Y5.549
X29.826 Y4.857
X29.559 Y4.149
X29.333 Y3.427
X29.15 Y2.693
X29.011 Y1.949
X28.916 Y1.198
X28.865 Y0.443
X28.858 Y-0.314
X28.896 Y-1.07
X28.977 Y-1.822
X29.101 Y-2.569
X29.267 Y-3.307
X29.476 Y-4.034
X29.728 Y-4.748
X30.021 Y-5.445
X30.355 Y-6.125
X30.728 Y-6.783
X31.139 Y-7.419
X31.585 Y-8.03
X32.066 Y-8.614
X32.58 Y-9.17
X33.125 Y-9.694
X33.701 Y-10.185
X34.305 Y-10.642
X34.934 Y-11.062
X35.586 Y-11.446
X36.259 Y-11.791
X36.951 Y-12.098
X37.66 Y-12.364
X38.382 Y-12.589
X39.117 Y-12.771
X39.861 Y-12.909
X40.612 Y-13.005
X41.367 Y-13.056
X42.123 Y-13.064
X42.879 Y-13.029
X43.632 Y-12.951
X44.379 Y-12.83
X45.118 Y-12.665
X45.845 Y-12.458
X46.56 Y-12.209
X47.259 Y-11.92
X47.941 Y-11.591
X48.604 Y-11.226
X49.245 Y-10.824
X49.863 Y-10.388
X50.457 Y-9.918
X51.023 Y-9.417
X51.561 Y-8.884
X52.068 Y-8.322
X52.543 Y-7.733
X52.985 Y-7.119
X53.393 Y-6.481
X53.765 Y-5.822
X54.101 Y-5.144
X54.4 Y-4.449
X54.661 Y-3.739
X54.881 Y-3.015
X55.062 Y-2.28
X55.201 Y-1.536
X55.298 Y-0.785
X55.354 Y-0.031
X55.368 Y0.726
X55.341 Y1.482
X55.272 Y2.236
X55.162 Y2.984
X55.009 Y3.726
X54.817 Y4.457
X54.583 Y5.177
X54.31 Y5.883
X53.999 Y6.573
X53.649 Y7.244
X53.263 Y7.895
X52.842 Y8.523
X52.386 Y9.127
X51.897 Y9.705
X51.376 Y10.254
X50.827 Y10.775
X50.249 Y11.264
X49.646 Y11.721
X49.019 Y12.144
X48.369 Y12.532
X47.699 Y12.884
X47.011 Y13.199
X46.306 Y13.474
X45.587 Y13.711
X44.857 Y13.909
X44.117 Y14.066
X43.369 Y14.184
X42.616 Y14.261
X41.861 Y14.297
X41.104 Y14.293
X40.348 Y14.248
X39.597 Y14.161
X38.851 Y14.035
X38.112 Y13.868
X37.384 Y13.663
X36.668 Y13.419
X35.965 Y13.137
X35.279 Y12.818
X34.61 Y12.464
X33.961 Y12.075
X33.335 Y11.65
X32.731 Y11.193
X32.153 Y10.705
X31.602 Y10.187
X31.078 Y9.64
X30.584 Y9.067
X30.121 Y8.469
X29.69 Y7.847
X29.292 Y7.203
X28.929 Y6.539
X28.602 Y5.857
X28.311 Y5.158
X28.057 Y4.445
X27.841 Y3.72
X27.662 Y2.985
X27.522 Y2.241
X27.421 Y1.491
X27.359 Y0.737
X27.337 Y-0.02
X27.354 Y-0.776
X27.412 Y-1.531
X27.509 Y-2.281
X27.644 Y-3.026
X27.818 Y-3.762
X28.03 Y-4.489
X28.279 Y-5.203
X28.565 Y-5.904
X28.886 Y-6.589
X29.244 Y-7.256
X29.636 Y-7.903
X30.062 Y-8.529
X30.52 Y-9.131
X31.008 Y-9.709
X31.526 Y-10.261
X32.072 Y-10.785
X32.644 Y-11.281
X33.241 Y-11.746
X33.861 Y-12.179
X34.504 Y-12.579
X35.167 Y-12.944
X35.847 Y-13.275
X36.544 Y-13.57
X37.255 Y-13.829
X37.784 Y-13.991
X37.854 Y-14.009
X37.924 Y-14.022
X37.996 Y-14.03
X38.094 Y-14.036
X38.266 Y-14.06
X38.438 Y-14.104
X39.17 Y-14.295
X39.915 Y-14.43
X40.666 Y-14.52
X41.422 Y-14.569
X42.178 Y-14.576
X42.934 Y-14.544
X43.688 Y-14.473
X44.436 Y-14.362
X45.178 Y-14.213
X45.911 Y-14.025
X46.633 Y-13.798
X47.342 Y-13.534
X48.037 Y-13.234
X48.716 Y-12.9
X49.378 Y-12.533
X50.021 Y-12.134
X50.643 Y-11.703
X51.243 Y-11.242
X51.82 Y-10.752
X52.37 Y-10.233
X52.894 Y-9.686
X53.389 Y-9.114
X53.856 Y-8.518
X54.292 Y-7.9
X54.698 Y-7.261
X55.072 Y-6.604
X55.415 Y-5.929
X55.654 Y-5.394
X55.673 Y-5.347
X55.69 Y-5.3
X55.704 Y-5.252
X55.752 Y-5.071
X55.796 Y-4.888
X56.139 Y-3.125
X56.227 Y-2.664
X56.243 Y-2.492
X56.376 Y-0.43
X56.385 Y-0.258
X56.384 Y0.258
X56.375 Y0.43
X56.244 Y2.493
X56.228 Y2.665
X55.795 Y4.899
X55.753 Y5.071
X55.624 Y5.549
X55.108 Y7.106
X54.835 Y7.812
X54.573 Y8.404
X54.217 Y9.063
X53.804 Y9.698
X53.35 Y10.303
X52.859 Y10.879
X52.337 Y11.427
X51.787 Y11.946
X51.211 Y12.437
X50.61 Y12.898
X49.988 Y13.328
X49.345 Y13.727
X48.683 Y14.094
X48.003 Y14.425
X47.307 Y14.723
X46.597 Y14.985
X45.875 Y15.213
X45.143 Y15.405
X44.403 Y15.561
X43.656 Y15.681
X42.903 Y15.765
X42.148 Y15.814
X41.392 Y15.825
X40.635 Y15.798
X40.459 Y15.782
X40.22 Y15.727
X40.007 Y15.606
X39.837 Y15.43
X39.724 Y15.212
X39.641 Y15.037
X39.54 Y14.869
X39.469 Y14.771
X39.411 Y14.697
X39.297 Y14.574
X39.249 Y14.525
X39.125 Y14.42
X39.042 Y14.353
X38.751 Y14.181
X38.61 Y14.122
X38.438 Y14.062
X38.266 Y14.017
X38.094 Y13.994
X37.922 Y13.982
X37.751 Y13.979
X35.86
X35.444 Y13.958
X35.108 Y13.914
X34.713 Y13.829
X34.253 Y13.692
X33.733 Y13.489
X33.121 Y13.192
X32.469 Y12.808
X31.847 Y12.377
X31.254 Y11.906
X30.689 Y11.403
X30.152 Y10.87
X29.642 Y10.311
X29.162 Y9.726
X28.712 Y9.118
X28.291 Y8.489
X27.901 Y7.84
X27.543 Y7.173
X27.217 Y6.49
X26.923 Y5.793
X26.662 Y5.083
X26.435 Y4.361
X26.242 Y3.629
X26.085 Y2.889
X25.964 Y2.142
X25.878 Y1.39
X25.827 Y0.635
X25.813 Y-0.122
X25.834 Y-0.878
X25.891 Y-1.633
X25.982 Y-2.384
X26.109 Y-3.13
X26.27 Y-3.87
X26.466 Y-4.6
X26.697 Y-5.321
X26.962 Y-6.03
X27.261 Y-6.725
X27.591 Y-7.406
X27.954 Y-8.07
X28.348 Y-8.716
X28.771 Y-9.344
X29.223 Y-9.95
X29.703 Y-10.535
X30.21 Y-11.097
X30.744 Y-11.634
X31.302 Y-12.145
X31.884 Y-12.629
X32.488 Y-13.084
X33.113 Y-13.511
X33.717 Y-13.883
X33.871 Y-13.959
X34.036 Y-14.006
X34.206 Y-14.021
X37.751
X37.922 Y-14.025
X37.996 Y-14.03
G3 X38.421 Y-13.657 Z8.85 I0.026 J0.399 F800
G1 Y-13.594
X38.41 Y-13.532
X38.398 Y-13.492 F1300
X38.381 Y-13.454
G3 X37.985 Y-13.649 I-0.198 J-0.098
X38.28 Y-13.75 I0.198 J0.098
X37.928 Y-13.031 I-0.176 J0.359
X37.798 Y-13.649 I0.176 J-0.359
G1 X37.824 Y-13.678
X37.912 Y-13.769 F600
G3 X38.438 Y-14.104 Z8.65 I1.096 J1.141
G1 X38.61 Y-14.164 F1300
X38.652 Y-14.181
X38.782 Y-14.239
X38.981 Y-14.353
X39.125 Y-14.463
X39.204 Y-14.525
X39.297 Y-14.613
X39.378 Y-14.696
X39.469 Y-14.808
X39.573 Y-14.936
X39.708 Y-15.054
X39.881 Y-15.184
X40.08 Y-15.309
X40.333 Y-15.441
X40.642 Y-15.572
X41.014 Y-15.696
X41.47 Y-15.807
X42.039 Y-15.899
X42.702 Y-15.952
X43.459
X44.214 Y-15.893
X44.963 Y-15.787
X45.704 Y-15.637
X46.437 Y-15.448
X47.159 Y-15.222
X47.87 Y-14.961
X48.567 Y-14.667
X49.25 Y-14.342
X49.918 Y-13.985
X50.569 Y-13.599
X51.201 Y-13.183
X51.813 Y-12.739
X52.177 Y-12.448
X52.234 Y-12.398
X52.287 Y-12.344
X52.336 Y-12.285
X52.359 Y-12.256
X52.454 Y-12.118
X53.686 Y-10.227
X53.733 Y-10.136
X53.947 Y-9.712
X54.032 Y-9.54
X54.778 Y-7.993
X54.853 Y-7.821
X55.041 Y-7.305
X55.624 Y-5.553
X55.704 Y-5.252
X55.712 Y-5.19 F800
X55.707 Y-5.127
X55.691 Y-5.067
X55.663 Y-5.011
X55.608 Y-4.923
X55.57 Y-4.859 Z8.657
X55.533 Y-4.797 Z8.678
X55.498 Y-4.74 Z8.712
X55.467 Y-4.689 Z8.758
X55.445 Y-4.651 Z8.807
X55.428 Y-4.62 Z8.862
X55.415 Y-4.598 Z8.922
X55.407 Y-4.584 Z8.985
X55.404 Y-4.579 Z9.05
G0 Z9.45
X39.167 Y-13.67
G1 Z9.05 F600
X39.168 Y-13.678 Z8.972
X39.17 Y-13.701 Z8.897
X39.173 Y-13.737 Z8.828
X39.178 Y-13.787 Z8.767
X39.184 Y-13.847 Z8.717
X39.19 Y-13.916 Z8.68
X39.197 Y-13.991 Z8.658
X39.204 Y-14.069 Z8.65
G3 X39.469 Y-14.808 I1.576 J0.147
G1 X39.513 Y-14.868 F1300
X39.622 Y-15.04
X39.71 Y-15.212
X39.773 Y-15.384
X39.813 Y-15.512
X39.868 Y-15.668
X39.942 Y-15.815
X40.033 Y-15.953
X40.135 Y-16.083
X40.257 Y-16.213
X40.418 Y-16.359
X40.599 Y-16.499
X40.821 Y-16.644
X41.095 Y-16.793
X41.398 Y-16.927
X41.515 Y-16.968
X41.616 Y-16.997
X41.719 Y-17.015
X41.824 Y-17.02
G3 X42.21 Y-16.621 Z8.845 I-0.014 J0.4 F800
G1 Z8.846
Y-16.607 Z8.85
X42.202 Y-16.544
X42.186 Y-16.484
X42.152 Y-16.414 F1300
X42.107 Y-16.353
X42.05 Y-16.301
X40.44 Y-15.092
X40.374 Y-15.052
X40.301 Y-15.025
X40.225 Y-15.013
X40.162 Y-15.014 F600
X40.099 Y-15.025
G3 X39.813 Y-15.512 Z8.65 I0.101 J-0.387
G1 X39.826 Y-15.556 F1300
X39.856 Y-15.728
X39.874 Y-15.9
X39.878 Y-16.072
X39.872 Y-16.166
X39.87 Y-16.331
X39.933 Y-16.55
X40.056 Y-16.743
X40.228 Y-16.893
X40.435 Y-16.988
X40.661 Y-17.02
G3 X41.047 Y-16.621 Z8.845 I-0.014 J0.4 F800
G1 Z8.846
X41.046 Y-16.607 Z8.85
X41.039 Y-16.544
X41.022 Y-16.484
X40.989 Y-16.414 F1300
X40.943 Y-16.352
X40.567 Y-15.937
X40.526 Y-15.898
X40.481 Y-15.865
X40.431 Y-15.839
X40.371 Y-15.818 F600
X40.309 Y-15.807
G3 X39.872 Y-16.166 Z8.65 I-0.039 J-0.398
G1 X39.867 Y-16.243 F1300
X39.822 Y-16.587
X39.823 Y-16.63
X39.828 Y-16.673
X39.838 Y-16.716
X39.854 Y-16.759
X39.875 Y-16.802
X39.904 Y-16.844
X39.94 Y-16.887
X39.987 Y-16.931
X40.029 Y-16.961
X40.072 Y-16.984
X40.114 Y-17.001
X40.157 Y-17.012
X40.2 Y-17.019
X40.243 Y-17.02
X44.969
X45.724 Y-16.983
X46.389 Y-16.902
X47.13 Y-16.75
X47.859 Y-16.544
X48.573 Y-16.295
X49.273 Y-16.008
X49.584 Y-15.862
X49.763 Y-15.753
X49.912 Y-15.606
X50.026 Y-15.43
X50.097 Y-15.233
G3 X49.784 Y-14.762 Z8.85 I-0.392 J0.079 F800
G1 X49.721 Y-14.755
X49.658 Y-14.757
X49.586 Y-14.772 F1300
X44.864 Y-16.239
G3 X44.607 Y-16.484 I0.119 J-0.382
G1 X44.59 Y-16.544 F600
X44.583 Y-16.607
G3 X44.969 Y-17.02 Z8.65 I0.4 J-0.014
G1 X48.921 F1300
X49.201 Y-17.006
X49.229 Y-17.003
X49.461 Y-16.941
X49.67 Y-16.822
X49.841 Y-16.654
X49.964 Y-16.447
X50.03 Y-16.216
X50.035 Y-15.976
G3 X49.582 Y-15.637 Z8.85 I-0.396 J-0.057 F800
G1 X49.521 Y-15.651
X49.462 Y-15.675
X49.421 Y-15.698 F1300
X49.383 Y-15.726
X48.679 Y-16.314
X48.629 Y-16.363
X48.589 Y-16.42
X48.56 Y-16.484
X48.543 Y-16.544 F600
X48.536 Y-16.607
G3 X48.921 Y-17.02 Z8.65 I0.4 J-0.014
G1 X49.609 F1300
X49.781 Y-17.018
X49.824 Y-17.012
X49.867 Y-17
X49.91 Y-16.983
X49.953 Y-16.96
X49.993 Y-16.931
X50.038 Y-16.888
X50.073 Y-16.845
X50.102 Y-16.802
X50.124 Y-16.757
X50.14 Y-16.714
X50.15 Y-16.672
X50.155 Y-16.63
X50.156 Y-16.587
X50.152 Y-16.548
X50.145 Y-16.509
X50.096 Y-16.321
G3 X49.609 Y-16.034 Z8.85 I-0.387 J-0.1 F800
G1 X49.549 Y-16.054
X49.493 Y-16.084
G3 X49.924 Y-16.758 I0.215 J-0.337 F1300
X50.073 Y-16.255 I-0.215 J0.337
G1 X49.76 Y-15.569
G3 X48.996 Y-15.735 I-0.364 J-0.166
X49.683 Y-16.014 I0.4 J0
G1 X49.71 Y-15.985
X49.792 Y-15.889 F600
G3 X50.073 Y-15.332 Z8.65 I-1.245 J0.977
G1 X50.102 Y-15.212 F1300
X50.158 Y-15.04
X50.239 Y-14.868
X50.296 Y-14.76
X50.338 Y-14.696
X50.456 Y-14.525
X50.64 Y-14.305
X52.063 Y-12.634
X52.187 Y-12.481
X52.336 Y-12.285
G3 X52.386 Y-11.918 I-0.326 J0.231 F800
G1 X52.353 Y-11.867 Z8.655
X52.321 Y-11.817 Z8.669
X52.291 Y-11.77 Z8.692
X52.245 Y-11.741 Z8.724
X52.204 Y-11.716 Z8.765
X52.17 Y-11.694 Z8.813
X52.141 Y-11.676 Z8.867
X52.118 Y-11.67 Z8.925
X52.104 Y-11.665 Z8.987
X52.099 Y-11.664 Z9.05
G0 Z9.25
X54.867 Y6.408
G1 Z8.85 F600
X54.919 Y6.523
G2 X55.087 Y6.873 Z8.726 I11.011 J-5.081
G1 X55.109 Y6.928 Z8.707
X55.12 Y6.987 Z8.688
Y7.047 Z8.669
X55.108 Y7.106 Z8.65
X55.042 Y7.306 F1300
X54.852 Y7.821
X54.776 Y7.993
X54.033 Y9.54
X53.948 Y9.712
X53.733 Y10.134
X53.684 Y10.228
X52.455 Y12.118
X52.359 Y12.257
X52.187 Y12.48
X52.062 Y12.634
X50.984 Y13.902
X50.531 Y14.383
X50.146 Y14.732
X49.675 Y15.094
X49.063 Y15.491
X48.397 Y15.85
X47.708 Y16.163
X47.002 Y16.435
X46.282 Y16.67
X45.552 Y16.869
X45.202 Y16.947
X45.135 Y16.96
X45.067 Y16.967
X44.999 Y16.97
G3 X44.613 Y16.57 Z8.845 I0.014 J-0.4 F800
G1 Z8.846
Y16.556 Z8.85
X44.62 Y16.493
X44.637 Y16.433
G3 X44.829 Y16.214 I0.376 J0.137 F1300
G1 X50.487 Y13.298
G3 X50.809 Y13.279 I0.183 J0.356
G1 X50.866 Y13.305 F600
X50.919 Y13.34
G3 X51.07 Y13.653 Z8.735 I-0.249 J0.313
G1 Y13.654
G3 X50.984 Y13.902 Z8.65 I-0.4 J0
G1 X50.64 Y14.307 F1300
X50.459 Y14.525
X50.344 Y14.697
X50.296 Y14.77
X50.247 Y14.869
X50.169 Y15.041
X50.124 Y15.174
X50.113 Y15.212
X50.091 Y15.307
X50.047 Y15.466
X49.984 Y15.62
X49.897 Y15.793
X49.789 Y15.97
X49.64 Y16.175
X49.449 Y16.398
X49.211 Y16.634
X49.075 Y16.749
X48.894 Y16.869
X48.689 Y16.944
X48.473 Y16.97
G3 X48.087 Y16.57 Z8.845 I0.014 J-0.4 F800
G1 Z8.846
Y16.556 Z8.85
X48.094 Y16.493
X48.111 Y16.433
X48.144 Y16.363 F1300
X48.19 Y16.301
X49.402 Y14.964
G3 X49.647 Y14.836 I0.296 J0.269
G1 X49.71 Y14.833 F600
X49.773 Y14.84
G3 X50.091 Y15.307 Z8.65 I-0.075 J0.393
G1 X50.074 Y15.384 F1300
X50.048 Y15.556
X50.037 Y15.728
X50.045 Y15.9
X50.065 Y16.072
X50.074 Y16.124
X50.096 Y16.288
X50.05 Y16.501
X49.943 Y16.691
X49.784 Y16.841
X49.587 Y16.937
X49.371 Y16.97
G3 X48.985 Y16.57 Z8.845 I0.014 J-0.4 F800
G1 Z8.846
X48.986 Y16.556 Z8.85
X48.993 Y16.493
X49.01 Y16.433
X49.038 Y16.371 F1300
X49.077 Y16.315
X49.376 Y15.954
X49.425 Y15.905
X49.481 Y15.864
X49.538 Y15.837 F600
X49.599 Y15.819
G3 X50.074 Y16.124 Z8.65 I0.085 J0.391
G1 X50.096 Y16.244 F1300
X50.139 Y16.416
X50.158 Y16.502
X50.161 Y16.545
X50.159 Y16.588
X50.148 Y16.654
X50.138 Y16.687
X50.124 Y16.721
X50.104 Y16.76
X50.078 Y16.798
X50.045 Y16.836
X49.999 Y16.88
X49.953 Y16.912
X49.917 Y16.931
X49.883 Y16.946
X49.849 Y16.956
X49.781 Y16.968
X49.609 Y16.97
X41.016
X40.666 Y16.952
X40.415 Y16.881
X40.194 Y16.742
X40.021 Y16.547
X39.912 Y16.31
X39.874 Y16.052
G3 X40.286 Y15.665 Z8.85 I0.4 J0.013 F800
G1 X40.348 Y15.672
X40.409 Y15.688
X40.457 Y15.709 F1300
X40.501 Y15.736
X41.23 Y16.241
X41.277 Y16.28
X41.319 Y16.325
X41.352 Y16.377
X41.378 Y16.433
X41.395 Y16.493 F600
X41.402 Y16.556
G3 X41.016 Y16.97 Z8.65 I-0.4 J0.014
G1 X40.243 F1300
X40.2 Y16.968
X40.157 Y16.961
X40.111 Y16.949
X40.066 Y16.931
X40.026 Y16.909
X39.985 Y16.88
X39.922 Y16.82
X39.897 Y16.79
X39.877 Y16.76
X39.855 Y16.717
X39.839 Y16.674
X39.828 Y16.631
X39.822 Y16.588
X39.82 Y16.545
X39.824 Y16.502
X39.849 Y16.321
G3 X40.074 Y16.026 I0.394 J0.068 F800
G1 X40.132 Y16.013 Z8.655
X40.189 Y16.001 Z8.668
X40.243 Y15.989 Z8.69
X40.296 Y16.001 Z8.722
X40.342 Y16.011 Z8.762
X40.383 Y16.02 Z8.809
X40.415 Y16.028 Z8.861
X40.438 Y16.04 Z8.921
X40.452 Y16.048 Z8.985
X40.457 Y16.05 Z9.05
G0 Z18
X36.958 Y13.553
Z9.45
G1 Z9.05 F600
X36.951 Y13.557 Z8.972
X36.931 Y13.568 Z8.897
X36.9 Y13.587 Z8.828
X36.857 Y13.613 Z8.767
X36.805 Y13.644 Z8.717
X36.745 Y13.679 Z8.68
X36.681 Y13.717 Z8.658
X36.614 Y13.757 Z8.65
G3 X35.86 Y13.979 I-0.809 J-1.36
G1 X33.798 F1300
X33.626 Y13.981
X33.454 Y13.989
X33.363 Y14
X33.199 Y14.012
X32.99 Y14.009
X32.735 Y13.985
X32.459 Y13.937
X32.137 Y13.853
X31.766 Y13.724
X31.341 Y13.536
X30.864 Y13.279
X30.308 Y12.918
X29.708 Y12.456
X29.146 Y11.95
X28.617 Y11.409
X28.119 Y10.839
X27.651 Y10.244
X27.213 Y9.627
X26.805 Y8.989
X26.427 Y8.334
X26.078 Y7.663
X25.759 Y6.977
X25.469 Y6.277
X25.21 Y5.566
X24.982 Y4.845
X24.785 Y4.114
X24.62 Y3.375
X24.487 Y2.631
X24.386 Y1.88
X24.319 Y1.127
X24.285 Y0.371
X24.284 Y-0.386
X24.315 Y-1.142
X24.378 Y-1.896
X24.473 Y-2.647
X24.6 Y-3.393
X24.759 Y-4.133
X24.949 Y-4.865
X25.171 Y-5.589
X25.423 Y-6.302
X25.707 Y-7.004
X26.021 Y-7.692
X26.365 Y-8.366
X26.738 Y-9.025
X27.139 Y-9.667
X27.566 Y-10.291
X28.02 Y-10.897
X28.499 Y-11.483
X29.003 Y-12.048
X29.53 Y-12.59
X30.081 Y-13.11
X30.653 Y-13.605
X31.247 Y-14.074
X31.541 Y-14.286
X31.775 Y-14.409
X32.033 Y-14.461
X32.296 Y-14.439
X32.542 Y-14.344
X32.767 Y-14.219
X32.853 Y-14.181
X32.939 Y-14.148
X33.11 Y-14.093
X33.282 Y-14.052
X33.454 Y-14.032
X33.626 Y-14.024
X33.798 Y-14.021
X34.206
G3 X34.557 Y-13.456 I-0.014 J0.4 F800
G1 X34.524 Y-13.385 Z8.658
X34.493 Y-13.316 Z8.68
X34.464 Y-13.254 Z8.717
X34.439 Y-13.198 Z8.767
X34.419 Y-13.153 Z8.828
X34.403 Y-13.12 Z8.897
X34.394 Y-13.099 Z8.972
X34.391 Y-13.092 Z9.05
G0 Z9.45
X34.402 Y13.446
G1 Z9.05 F600
X34.396 Y13.451 Z8.972
X34.378 Y13.465 Z8.897
X34.349 Y13.488 Z8.828
X34.309 Y13.518 Z8.767
X34.261 Y13.555 Z8.717
X34.206 Y13.597 Z8.68
X34.147 Y13.643 Z8.658
X34.085 Y13.691 Z8.65
G3 X33.363 Y14 I-0.966 J-1.254
G1 X33.282 Y14.01 F1300
X33.11 Y14.051
X32.939 Y14.106
X32.767 Y14.175
X32.595 Y14.268
X32.555 Y14.294
X32.412 Y14.376
X32.258 Y14.435
X32.099 Y14.479
X31.927 Y14.509
X31.729 Y14.528
X31.518 Y14.531
X31.261 Y14.514
X30.984 Y14.473
X30.672 Y14.402
X30.306 Y14.286
X29.922 Y14.129
X29.476 Y13.904
X28.968 Y13.594
X28.425 Y13.199
X27.85 Y12.706
X27.314 Y12.173
X26.812 Y11.606
X26.342 Y11.013
X25.902 Y10.397
X25.491 Y9.761
X25.109 Y9.108
X24.755 Y8.44
X24.428 Y7.757
X24.129 Y7.062
X23.858 Y6.355
X23.616 Y5.638
X23.403 Y4.912
X23.22 Y4.178
X23.066 Y3.437
X22.942 Y2.69
X22.849 Y1.94
X22.785 Y1.185
X22.751 Y0.429
X22.747 Y-0.327
X22.772 Y-1.084
X22.827 Y-1.838
X22.912 Y-2.59
X23.026 Y-3.338
X23.17 Y-4.081
X23.343 Y-4.818
X23.546 Y-5.547
X23.777 Y-6.268
X24.037 Y-6.978
X24.326 Y-7.678
X24.642 Y-8.366
X24.984 Y-9.04
X25.353 Y-9.701
X25.748 Y-10.347
X26.168 Y-10.977
X26.611 Y-11.59
X27.079 Y-12.184
X27.571 Y-12.76
X28.085 Y-13.315
X28.62 Y-13.85
X29.177 Y-14.363
X29.697 Y-14.805
X30.017 Y-15.035
X30.328 Y-15.223
X30.576 Y-15.347
X30.747 Y-15.416
X31.001 Y-15.479
X31.261 Y-15.469
X31.509 Y-15.387
X31.725 Y-15.24
X31.891 Y-15.039
G3 X31.593 Y-14.445 I-0.348 J0.197 F800
G1 X31.515 Y-14.435 Z8.658
X31.441 Y-14.426 Z8.68
X31.372 Y-14.417 Z8.717
X31.312 Y-14.41 Z8.767
X31.263 Y-14.404 Z8.828
X31.226 Y-14.399 Z8.897
X31.203 Y-14.396 Z8.972
X31.196 Y-14.395 Z9.05
G0 Z9.45
X33.247 Y13.342
G1 Z9.05 F600
X33.243 Y13.349 Z8.972
X33.233 Y13.369 Z8.897
X33.217 Y13.402 Z8.828
X33.195 Y13.447 Z8.767
X33.168 Y13.501 Z8.717
X33.137 Y13.563 Z8.68
X33.103 Y13.63 Z8.658
X33.069 Y13.7 Z8.65
G3 X32.555 Y14.294 I-1.417 J-0.705
G1 X32.464 Y14.353 F1300
X32.423 Y14.385
X32.261 Y14.525
X32.097 Y14.697
X32.061 Y14.744
X31.956 Y14.872
X31.832 Y14.98
X31.694 Y15.071
X31.548 Y15.147
X31.394 Y15.209
X31.231 Y15.259
X31.035 Y15.304
X30.826 Y15.333
X30.58 Y15.348
X30.314 Y15.343
X30.011 Y15.312
X29.678 Y15.251
X29.305 Y15.151
X28.904 Y15.009
X28.438 Y14.799
X27.967 Y14.541
X27.426 Y14.184
X26.832 Y13.721
X26.275 Y13.208
X25.753 Y12.66
X25.265 Y12.082
X24.807 Y11.479
X24.378 Y10.856
X23.978 Y10.214
X23.605 Y9.555
X23.259 Y8.882
X22.939 Y8.196
X22.646 Y7.498
X22.379 Y6.79
X22.139 Y6.073
X21.926 Y5.346
X21.74 Y4.613
X21.582 Y3.873
X21.45 Y3.128
X21.346 Y2.378
X21.27 Y1.625
X21.222 Y0.87
X21.202 Y0.113
X21.21 Y-0.643
X21.246 Y-1.399
X21.309 Y-2.153
X21.399 Y-2.905
X21.516 Y-3.652
X21.661 Y-4.395
X21.833 Y-5.132
X22.032 Y-5.862
X22.258 Y-6.584
X22.51 Y-7.298
X22.787 Y-8.002
X23.091 Y-8.695
X23.42 Y-9.377
X23.774 Y-10.045
X24.153 Y-10.701
X24.555 Y-11.342
X24.98 Y-11.968
