(adap1)
(T1  D=4 CR=0 - ZMIN=0 - flat end mill)
G90 G94
G17
G21
G28 G91 Z0
G90

(Adaptive5 2)
T1
S18000 M3
G54
G0 X-65.674 Y1.673
Z28
Z18
Z10.25
G3 X-66.604 Y-0.463 Z10.163 I0.923 J-1.673 F600
X-64.779 Y-1.909 Z10.075 I1.852 J0.463
X-62.915 Y-0.518 Z9.988 I0.027 J1.907
X-63.781 Y1.639 Z9.9 I-1.835 J0.515
X-66.087 Y1.355 Z9.813 I-0.968 J-1.64
X-66.403 Y-0.943 Z9.725 I1.336 J-1.355
X-64.264 Y-1.838 Z9.637 I1.651 J0.943
X-62.852 Y-0.002 Z9.55 I-0.487 J1.836
X-66.652 Y-0.002 I-1.9 J0
X-62.852 Y-0.002 I1.9 J0
G1 X-62.806 Y1.062 F1300
X-62.783 Y1.328
X-62.834 Y1.623
X-62.95 Y1.9
X-63.116 Y2.15
X-63.321 Y2.369
X-63.557 Y2.554
X-63.816 Y2.706
X-64.092 Y2.821
X-64.381 Y2.902
X-64.678 Y2.948
X-64.978 Y2.959
X-65.277 Y2.936
X-65.572 Y2.881
X-65.859 Y2.795
X-66.136 Y2.679
X-66.399 Y2.534
X-66.645 Y2.364
X-66.873 Y2.168
X-67.08 Y1.951
X-67.264 Y1.714
X-67.423 Y1.46
X-67.556 Y1.191
X-67.661 Y0.91
X-67.738 Y0.62
X-67.786 Y0.324
X-67.805 Y0.024
X-67.793 Y-0.275
X-67.753 Y-0.573
X-67.683 Y-0.864
X-67.585 Y-1.148
X-67.459 Y-1.42
X-67.307 Y-1.679
X-67.131 Y-1.922
X-66.931 Y-2.146
X-66.711 Y-2.349
X-66.472 Y-2.53
X-66.216 Y-2.687
X-65.946 Y-2.817
X-65.664 Y-2.921
X-65.374 Y-2.996
X-65.077 Y-3.043
X-64.778 Y-3.06
X-64.478 Y-3.048
X-64.181 Y-3.007
X-63.889 Y-2.936
X-63.606 Y-2.838
X-63.334 Y-2.712
X-63.075 Y-2.56
X-62.832 Y-2.383
X-62.608 Y-2.184
X-62.405 Y-1.963
X-62.224 Y-1.724
X-62.067 Y-1.468
X-61.92 Y-1.167
X-61.758 Y-0.757
X-61.607 Y-0.262
X-61.528 Y0.101
X-61.483 Y0.43
X-61.466 Y0.731
X-61.474 Y1.031
X-61.508 Y1.329
X-61.567 Y1.624
X-61.653 Y1.911
X-61.764 Y2.189
X-61.902 Y2.456
X-62.063 Y2.709
X-62.246 Y2.947
X-62.451 Y3.166
X-62.674 Y3.366
X-62.914 Y3.547
X-63.168 Y3.706
X-63.436 Y3.842
X-63.713 Y3.956
X-63.999 Y4.046
X-64.295 Y4.113
X-64.602 Y4.157
X-64.902 Y4.176
X-65.211 Y4.17
X-65.53 Y4.139
X-65.845 Y4.082
X-66.148 Y4.001
X-66.452 Y3.894
X-66.754 Y3.759
X-67.045 Y3.6
X-67.317 Y3.422
X-67.576 Y3.22
X-67.825 Y2.993
X-68.057 Y2.743
X-68.267 Y2.478
X-68.451 Y2.201
X-68.615 Y1.907
X-68.758 Y1.594
X-68.876 Y1.268
X-68.966 Y0.937
X-69.029 Y0.606
X-69.065 Y0.267
X-69.074 Y-0.079
X-69.055 Y-0.429
X-69.009 Y-0.773
X-68.936 Y-1.107
X-68.837 Y-1.433
X-68.709 Y-1.756
X-68.555 Y-2.07
X-68.376 Y-2.372
X-68.176 Y-2.654
X-67.957 Y-2.915
X-67.715 Y-3.162
X-67.45 Y-3.391
X-67.166 Y-3.599
X-66.869 Y-3.782
X-66.564 Y-3.938
X-66.246 Y-4.069
X-65.914 Y-4.176
X-65.572 Y-4.257
X-65.224 Y-4.31
X-64.878 Y-4.334
X-64.536 Y-4.331
X-64.191 Y-4.299
X-63.846 Y-4.24
X-63.504 Y-4.152
X-63.173 Y-4.039
X-62.859 Y-3.901
X-62.556 Y-3.739
X-62.262 Y-3.55
X-61.982 Y-3.336
X-61.714 Y-3.094
X-61.459 Y-2.825
X-61.209 Y-2.513
X-60.957 Y-2.142
X-60.732 Y-1.746
X-60.541 Y-1.336
X-60.387 Y-0.921
X-60.269 Y-0.503
X-60.186 Y-0.087
X-60.139 Y0.324
X-60.125 Y0.727
X-60.144 Y1.125
X-60.193 Y1.513
X-60.272 Y1.889
X-60.38 Y2.255
X-60.515 Y2.606
X-60.677 Y2.943
X-60.867 Y3.269
X-61.083 Y3.579
X-61.324 Y3.872
X-61.59 Y4.147
X-61.88 Y4.402
X-62.191 Y4.634
X-62.522 Y4.842
X-62.873 Y5.025
X-63.239 Y5.179
X-63.62 Y5.305
X-64.014 Y5.402
X-64.419 Y5.467
X-64.83 Y5.499
X-65.245 Y5.498
X-65.662 Y5.464
X-66.08 Y5.396
X-66.493 Y5.293
X-66.898 Y5.158
X-67.293 Y4.989
X-67.677 Y4.787
X-68.046 Y4.554
X-68.396 Y4.291
X-68.725 Y3.999
X-69.03 Y3.682
X-69.311 Y3.338
X-69.565 Y2.971
X-69.789 Y2.584
X-69.981 Y2.18
X-70.141 Y1.761
X-70.267 Y1.33
X-70.358 Y0.887
X-70.413 Y0.437
X-70.433 Y-0.015
X-70.416 Y-0.466
X-70.362 Y-0.916
X-70.273 Y-1.362
X-70.147 Y-1.8
X-69.987 Y-2.226
X-69.794 Y-2.637
X-69.568 Y-3.032
X-69.311 Y-3.408
X-69.023 Y-3.763
X-68.708 Y-4.094
X-68.368 Y-4.398
X-68.005 Y-4.674
X-67.621 Y-4.919
X-67.217 Y-5.134
X-66.797 Y-5.316
X-66.364 Y-5.463
X-65.921 Y-5.575
X-65.472 Y-5.651
X-65.017 Y-5.69
X-64.558 Y-5.693
X-64.101 Y-5.659
X-63.65 Y-5.589
X-63.206 Y-5.483
X-62.772 Y-5.342
X-62.35 Y-5.166
X-61.94 Y-4.955
X-61.544 Y-4.709
X-61.161 Y-4.426
X-60.787 Y-4.1
X-60.429 Y-3.733
X-60.093 Y-3.329
X-59.942 Y-3.112
X-59.919 Y-3.075
X-59.898 Y-3.036
X-59.398 Y-2.055
X-59.277 Y-1.814
X-59.257 Y-1.753
X-59.246 Y-1.693
X-58.997 Y-0.12
X-58.982 Y0
X-58.997 Y0.121
X-59.246 Y1.694
X-59.257 Y1.754
X-59.277 Y1.814
X-59.645 Y2.54
X-60.051 Y3.337
X-60.099 Y3.408
X-60.194 Y3.508
X-61.308 Y4.621
X-61.343 Y4.653
X-61.378 Y4.678
X-61.449 Y4.717
X-62.873 Y5.443
X-62.937 Y5.473
X-63.001 Y5.494
X-64.193 Y5.684
X-64.694 Y5.763
X-64.754 Y5.767
X-64.815 Y5.762
X-66.386 Y5.513
X-66.507 Y5.492
X-66.567 Y5.472
X-66.628 Y5.442
X-68.079 Y4.703
X-68.11 Y4.685
X-68.14 Y4.664
X-68.2 Y4.613
X-69.366 Y3.447
X-69.394 Y3.417
X-69.417 Y3.387
X-69.485 Y3.266
X-70.101 Y2.056
X-70.223 Y1.814
X-70.244 Y1.749
X-70.256 Y1.683
X-70.503 Y0.121
X-70.518 Y0
X-70.503 Y-0.12
X-70.256 Y-1.683
X-70.244 Y-1.749
X-70.223 Y-1.814
X-69.772 Y-2.702
X-69.485 Y-3.265
X-69.418 Y-3.386
X-69.395 Y-3.416
X-69.367 Y-3.446
X-68.2 Y-4.613
X-68.14 Y-4.664
X-68.11 Y-4.685
X-68.053 Y-4.716
X-66.628 Y-5.442
X-66.568 Y-5.471
X-66.507 Y-5.492
X-66.386 Y-5.513
X-64.815 Y-5.762
X-64.754 Y-5.767
X-64.694 Y-5.763
X-63.243 Y-5.534
X-63.001 Y-5.494
X-62.936 Y-5.473
X-62.871 Y-5.442
X-61.447 Y-4.716
X-61.377 Y-4.678
X-61.343 Y-4.652
X-61.308 Y-4.621
X-60.194 Y-3.507
X-60.099 Y-3.408
X-60.073 Y-3.372
X-60.051 Y-3.336
X-59.898 Y-3.036
G3 X-59.915 Y-2.666 I-0.363 J0.169 F800
G1 X-59.956 Y-2.621 Z9.555
X-59.996 Y-2.578 Z9.569
X-60.035 Y-2.536 Z9.592
X-60.085 Y-2.517 Z9.624
X-60.13 Y-2.499 Z9.665
X-60.168 Y-2.484 Z9.713
X-60.199 Y-2.472 Z9.767
X-60.223 Y-2.469 Z9.825
X-60.238 Y-2.468 Z9.887
X-60.243 Y-2.467 Z9.95
G0 X-65.674 Y1.673
Z9.8
G3 X-66.604 Y-0.463 Z9.712 I0.923 J-1.673 F600
X-64.779 Y-1.909 Z9.625 I1.852 J0.463
X-62.915 Y-0.518 Z9.538 I0.027 J1.907
X-63.782 Y1.639 Z9.45 I-1.835 J0.515
X-66.087 Y1.355 Z9.363 I-0.968 J-1.64
X-66.403 Y-0.943 Z9.275 I1.336 J-1.355
X-64.264 Y-1.838 Z9.188 I1.651 J0.943
X-62.852 Y-0.002 Z9.1 I-0.487 J1.836
X-66.652 Y-0.002 I-1.9 J0
X-62.852 Y-0.002 I1.9 J0
G1 X-62.806 Y1.062 F1300
X-62.783 Y1.328
X-62.834 Y1.623
X-62.95 Y1.9
X-63.116 Y2.15
X-63.321 Y2.369
X-63.557 Y2.554
X-63.816 Y2.706
X-64.092 Y2.821
X-64.381 Y2.902
X-64.678 Y2.948
X-64.978 Y2.959
X-65.277 Y2.936
X-65.572 Y2.881
X-65.859 Y2.795
X-66.136 Y2.679
X-66.399 Y2.534
X-66.645 Y2.364
X-66.873 Y2.168
X-67.08 Y1.951
X-67.264 Y1.714
X-67.423 Y1.46
X-67.556 Y1.191
X-67.661 Y0.91
X-67.738 Y0.62
X-67.786 Y0.324
X-67.805 Y0.024
X-67.793 Y-0.275
X-67.753 Y-0.573
X-67.683 Y-0.864
X-67.585 Y-1.148
X-67.459 Y-1.42
X-67.307 Y-1.679
X-67.131 Y-1.922
X-66.931 Y-2.146
X-66.711 Y-2.349
X-66.472 Y-2.53
X-66.216 Y-2.687
X-65.946 Y-2.817
X-65.664 Y-2.921
X-65.374 Y-2.996
X-65.077 Y-3.043
X-64.778 Y-3.06
X-64.478 Y-3.048
X-64.181 Y-3.007
X-63.889 Y-2.936
X-63.606 Y-2.838
X-63.334 Y-2.712
X-63.075 Y-2.56
X-62.832 Y-2.383
X-62.608 Y-2.184
X-62.405 Y-1.963
X-62.224 Y-1.724
X-62.067 Y-1.468
X-61.92 Y-1.167
X-61.758 Y-0.757
X-61.607 Y-0.262
X-61.528 Y0.101
X-61.483 Y0.43
X-61.466 Y0.731
X-61.474 Y1.031
X-61.508 Y1.329
X-61.567 Y1.624
X-61.653 Y1.911
X-61.764 Y2.189
X-61.902 Y2.456
X-62.063 Y2.709
X-62.246 Y2.947
X-62.451 Y3.166
X-62.674 Y3.366
X-62.914 Y3.547
X-63.168 Y3.706
X-63.436 Y3.842
X-63.713 Y3.956
X-63.999 Y4.046
X-64.295 Y4.113
X-64.602 Y4.157
X-64.902 Y4.176
X-65.211 Y4.17
X-65.53 Y4.139
X-65.845 Y4.082
X-66.148 Y4.001
X-66.452 Y3.894
X-66.754 Y3.759
X-67.045 Y3.6
X-67.317 Y3.422
X-67.576 Y3.22
X-67.825 Y2.993
X-68.057 Y2.743
X-68.267 Y2.478
X-68.451 Y2.201
X-68.615 Y1.907
X-68.758 Y1.594
X-68.876 Y1.268
X-68.966 Y0.937
X-69.029 Y0.606
X-69.065 Y0.267
X-69.074 Y-0.079
X-69.055 Y-0.429
X-69.009 Y-0.773
X-68.936 Y-1.107
X-68.837 Y-1.433
X-68.709 Y-1.756
X-68.555 Y-2.07
X-68.376 Y-2.372
X-68.176 Y-2.654
X-67.957 Y-2.915
X-67.715 Y-3.162
X-67.45 Y-3.391
X-67.166 Y-3.599
X-66.869 Y-3.782
X-66.564 Y-3.938
X-66.246 Y-4.069
X-65.914 Y-4.176
X-65.572 Y-4.257
X-65.224 Y-4.31
X-64.878 Y-4.334
X-64.536 Y-4.331
X-64.191 Y-4.299
X-63.846 Y-4.24
X-63.504 Y-4.152
X-63.173 Y-4.039
X-62.859 Y-3.901
X-62.556 Y-3.739
X-62.262 Y-3.55
X-61.982 Y-3.336
X-61.714 Y-3.094
X-61.459 Y-2.825
X-61.209 Y-2.513
X-60.957 Y-2.142
X-60.732 Y-1.746
X-60.541 Y-1.336
X-60.387 Y-0.921
X-60.269 Y-0.503
X-60.186 Y-0.087
X-60.139 Y0.324
X-60.125 Y0.727
X-60.144 Y1.125
X-60.193 Y1.513
X-60.272 Y1.889
X-60.38 Y2.255
X-60.515 Y2.606
X-60.677 Y2.943
X-60.867 Y3.269
X-61.083 Y3.579
X-61.324 Y3.872
X-61.59 Y4.147
X-61.88 Y4.402
X-62.191 Y4.634
X-62.522 Y4.842
X-62.873 Y5.025
X-63.239 Y5.179
X-63.62 Y5.305
X-64.014 Y5.402
X-64.419 Y5.467
X-64.83 Y5.499
X-65.245 Y5.498
X-65.662 Y5.464
X-66.08 Y5.396
X-66.493 Y5.293
X-66.898 Y5.158
X-67.293 Y4.989
X-67.677 Y4.787
X-68.046 Y4.554
X-68.396 Y4.291
X-68.725 Y3.999
X-69.03 Y3.682
X-69.311 Y3.338
X-69.565 Y2.971
X-69.789 Y2.584
X-69.981 Y2.18
X-70.141 Y1.761
X-70.267 Y1.33
X-70.358 Y0.887
X-70.413 Y0.437
X-70.433 Y-0.015
X-70.416 Y-0.466
X-70.362 Y-0.916
X-70.273 Y-1.362
X-70.147 Y-1.8
X-69.987 Y-2.226
X-69.794 Y-2.637
X-69.568 Y-3.032
X-69.311 Y-3.408
X-69.023 Y-3.763
X-68.708 Y-4.094
X-68.368 Y-4.398
X-68.005 Y-4.674
X-67.621 Y-4.919
X-67.217 Y-5.134
X-66.797 Y-5.316
X-66.364 Y-5.463
X-65.921 Y-5.575
X-65.472 Y-5.651
X-65.017 Y-5.69
X-64.558 Y-5.693
X-64.101 Y-5.659
X-63.65 Y-5.589
X-63.206 Y-5.483
X-62.772 Y-5.342
X-62.35 Y-5.166
X-61.94 Y-4.955
X-61.544 Y-4.709
X-61.161 Y-4.426
X-60.787 Y-4.1
X-60.429 Y-3.733
X-60.093 Y-3.329
X-59.942 Y-3.112
X-59.919 Y-3.075
X-59.898 Y-3.036
X-59.398 Y-2.055
X-59.277 Y-1.814
X-59.257 Y-1.753
X-59.246 Y-1.693
X-58.997 Y-0.12
X-58.982 Y0
X-58.997 Y0.121
X-59.246 Y1.694
X-59.257 Y1.754
X-59.277 Y1.814
X-59.645 Y2.54
X-60.051 Y3.337
X-60.099 Y3.408
X-60.194 Y3.508
X-61.308 Y4.621
X-61.343 Y4.653
X-61.378 Y4.678
X-61.449 Y4.717
X-62.873 Y5.443
X-62.937 Y5.473
X-63.001 Y5.494
X-64.193 Y5.684
X-64.694 Y5.763
X-64.754 Y5.767
X-64.815 Y5.762
X-66.386 Y5.513
X-66.507 Y5.492
X-66.567 Y5.472
X-66.628 Y5.442
X-68.079 Y4.703
X-68.11 Y4.685
X-68.14 Y4.664
X-68.2 Y4.613
X-69.366 Y3.447
X-69.394 Y3.417
X-69.417 Y3.387
X-69.485 Y3.266
X-70.101 Y2.056
X-70.223 Y1.814
X-70.244 Y1.749
X-70.256 Y1.683
X-70.503 Y0.121
X-70.518 Y0
X-70.503 Y-0.12
X-70.256 Y-1.683
X-70.244 Y-1.749
X-70.223 Y-1.814
X-69.772 Y-2.702
X-69.485 Y-3.265
X-69.418 Y-3.386
X-69.395 Y-3.416
X-69.367 Y-3.446
X-68.2 Y-4.613
X-68.14 Y-4.664
X-68.11 Y-4.685
X-68.053 Y-4.716
X-66.628 Y-5.442
X-66.568 Y-5.471
X-66.507 Y-5.492
X-66.386 Y-5.513
X-64.815 Y-5.762
X-64.754 Y-5.767
X-64.694 Y-5.763
X-63.243 Y-5.534
X-63.001 Y-5.494
X-62.936 Y-5.473
X-62.871 Y-5.442
X-61.447 Y-4.716
X-61.377 Y-4.678
X-61.343 Y-4.652
X-61.308 Y-4.621
X-60.194 Y-3.507
X-60.099 Y-3.408
X-60.073 Y-3.372
X-60.051 Y-3.336
X-59.898 Y-3.036
G3 X-59.915 Y-2.666 I-0.363 J0.169 F800
G1 X-59.956 Y-2.621 Z9.105
X-59.996 Y-2.578 Z9.119
X-60.035 Y-2.536 Z9.142
X-60.085 Y-2.517 Z9.174
X-60.13 Y-2.499 Z9.215
X-60.168 Y-2.484 Z9.263
X-60.199 Y-2.472 Z9.317
X-60.223 Y-2.469 Z9.375
X-60.238 Y-2.468 Z9.437
X-60.243 Y-2.467 Z9.5
G0 X-65.674 Y1.673
Z9.35
G3 X-66.604 Y-0.463 Z9.262 I0.923 J-1.673 F600
X-64.779 Y-1.909 Z9.175 I1.852 J0.463
X-62.915 Y-0.518 Z9.087 I0.027 J1.907
X-63.782 Y1.639 Z9 I-1.835 J0.515
X-66.087 Y1.355 Z8.913 I-0.968 J-1.64
X-66.403 Y-0.943 Z8.825 I1.336 J-1.355
X-64.264 Y-1.838 Z8.738 I1.651 J0.943
X-62.852 Y-0.002 Z8.65 I-0.487 J1.836
X-66.652 Y-0.002 I-1.9 J0
X-62.852 Y-0.002 I1.9 J0
G1 X-62.806 Y1.062 F1300
X-62.783 Y1.328
X-62.834 Y1.623
X-62.95 Y1.9
X-63.116 Y2.15
X-63.321 Y2.369
X-63.557 Y2.554
X-63.816 Y2.706
X-64.092 Y2.821
X-64.381 Y2.902
X-64.678 Y2.948
X-64.978 Y2.959
X-65.277 Y2.936
X-65.572 Y2.881
X-65.859 Y2.795
X-66.136 Y2.679
X-66.399 Y2.534
X-66.645 Y2.364
X-66.873 Y2.168
X-67.08 Y1.951
X-67.264 Y1.714
X-67.423 Y1.46
X-67.556 Y1.191
X-67.661 Y0.91
X-67.738 Y0.62
X-67.786 Y0.324
X-67.805 Y0.024
X-67.793 Y-0.275
X-67.753 Y-0.573
X-67.683 Y-0.864
X-67.585 Y-1.148
X-67.459 Y-1.42
X-67.307 Y-1.679
X-67.131 Y-1.922
X-66.931 Y-2.146
X-66.711 Y-2.349
X-66.472 Y-2.53
X-66.216 Y-2.687
X-65.946 Y-2.817
X-65.664 Y-2.921
X-65.374 Y-2.996
X-65.077 Y-3.043
X-64.778 Y-3.06
X-64.478 Y-3.048
X-64.181 Y-3.007
X-63.889 Y-2.936
X-63.606 Y-2.838
X-63.334 Y-2.712
X-63.075 Y-2.56
X-62.832 Y-2.383
X-62.608 Y-2.184
X-62.405 Y-1.963
X-62.224 Y-1.724
X-62.067 Y-1.468
X-61.92 Y-1.167
X-61.758 Y-0.757
X-61.607 Y-0.262
X-61.528 Y0.101
X-61.483 Y0.43
X-61.466 Y0.731
X-61.474 Y1.031
X-61.508 Y1.329
X-61.567 Y1.624
X-61.653 Y1.911
X-61.764 Y2.189
X-61.902 Y2.456
X-62.063 Y2.709
X-62.246 Y2.947
X-62.451 Y3.166
X-62.674 Y3.366
X-62.914 Y3.547
X-63.168 Y3.706
X-63.436 Y3.842
X-63.713 Y3.956
X-63.999 Y4.046
X-64.295 Y4.113
X-64.602 Y4.157
X-64.902 Y4.176
X-65.211 Y4.17
X-65.53 Y4.139
X-65.845 Y4.082
X-66.148 Y4.001
X-66.452 Y3.894
X-66.754 Y3.759
X-67.045 Y3.6
X-67.317 Y3.422
X-67.576 Y3.22
X-67.825 Y2.993
X-68.057 Y2.743
X-68.267 Y2.478
X-68.451 Y2.201
X-68.615 Y1.907
X-68.758 Y1.594
X-68.876 Y1.268
X-68.966 Y0.937
X-69.029 Y0.606
X-69.065 Y0.267
X-69.074 Y-0.079
X-69.055 Y-0.429
X-69.009 Y-0.773
X-68.936 Y-1.107
X-68.837 Y-1.433
X-68.709 Y-1.756
X-68.555 Y-2.07
X-68.376 Y-2.372
X-68.176 Y-2.654
X-67.957 Y-2.915
X-67.715 Y-3.162
X-67.45 Y-3.391
X-67.166 Y-3.599
X-66.869 Y-3.782
X-66.564 Y-3.938
X-66.246 Y-4.069
X-65.914 Y-4.176
X-65.572 Y-4.257
X-65.224 Y-4.31
X-64.878 Y-4.334
X-64.536 Y-4.331
X-64.191 Y-4.299
X-63.846 Y-4.24
X-63.504 Y-4.152
X-63.173 Y-4.039
X-62.859 Y-3.901
X-62.556 Y-3.739
X-62.262 Y-3.55
X-61.982 Y-3.336
X-61.714 Y-3.094
X-61.459 Y-2.825
X-61.209 Y-2.513
X-60.957 Y-2.142
X-60.732 Y-1.746
X-60.541 Y-1.336
X-60.387 Y-0.921
X-60.269 Y-0.503
X-60.186 Y-0.087
X-60.139 Y0.324
X-60.125 Y0.727
X-60.144 Y1.125
X-60.193 Y1.513
X-60.272 Y1.889
X-60.38 Y2.255
X-60.515 Y2.606
X-60.677 Y2.943
X-60.867 Y3.269
X-61.083 Y3.579
X-61.324 Y3.872
X-61.59 Y4.147
X-61.88 Y4.402
X-62.191 Y4.634
X-62.522 Y4.842
X-62.873 Y5.025
X-63.239 Y5.179
X-63.62 Y5.305
X-64.014 Y5.402
X-64.419 Y5.467
X-64.83 Y5.499
X-65.245 Y5.498
X-65.662 Y5.464
X-66.08 Y5.396
X-66.493 Y5.293
X-66.898 Y5.158
X-67.293 Y4.989
X-67.677 Y4.787
X-68.046 Y4.554
X-68.396 Y4.291
X-68.725 Y3.999
X-69.03 Y3.682
X-69.311 Y3.338
X-69.565 Y2.971
X-69.789 Y2.584
X-69.981 Y2.18
X-70.141 Y1.761
X-70.267 Y1.33
X-70.358 Y0.887
X-70.413 Y0.437
X-70.433 Y-0.015
X-70.416 Y-0.466
X-70.362 Y-0.916
X-70.273 Y-1.362
X-70.147 Y-1.8
X-69.987 Y-2.226
X-69.794 Y-2.637
X-69.568 Y-3.032
X-69.311 Y-3.408
X-69.023 Y-3.763
X-68.708 Y-4.094
X-68.368 Y-4.398
X-68.005 Y-4.674
X-67.621 Y-4.919
X-67.217 Y-5.134
X-66.797 Y-5.316
X-66.364 Y-5.463
X-65.921 Y-5.575
X-65.472 Y-5.651
X-65.017 Y-5.69
X-64.558 Y-5.693
X-64.101 Y-5.659
X-63.65 Y-5.589
X-63.206 Y-5.483
X-62.772 Y-5.342
X-62.35 Y-5.166
X-61.94 Y-4.955
X-61.544 Y-4.709
X-61.161 Y-4.426
X-60.787 Y-4.1
X-60.429 Y-3.733
X-60.093 Y-3.329
X-59.942 Y-3.112
X-59.919 Y-3.075
X-59.898 Y-3.036
X-59.398 Y-2.055
X-59.277 Y-1.814
X-59.257 Y-1.753
X-59.246 Y-1.693
X-58.997 Y-0.12
X-58.982 Y0
X-58.997 Y0.121
X-59.246 Y1.694
X-59.257 Y1.754
X-59.277 Y1.814
X-59.645 Y2.54
X-60.051 Y3.337
X-60.099 Y3.408
X-60.194 Y3.508
X-61.308 Y4.621
X-61.343 Y4.653
X-61.378 Y4.678
X-61.449 Y4.717
X-62.873 Y5.443
X-62.937 Y5.473
X-63.001 Y5.494
X-64.193 Y5.684
X-64.694 Y5.763
X-64.754 Y5.767
X-64.815 Y5.762
X-66.386 Y5.513
X-66.507 Y5.492
X-66.567 Y5.472
X-66.628 Y5.442
X-68.079 Y4.703
X-68.11 Y4.685
X-68.14 Y4.664
X-68.2 Y4.613
X-69.366 Y3.447
X-69.394 Y3.417
X-69.417 Y3.387
X-69.485 Y3.266
X-70.101 Y2.056
X-70.223 Y1.814
X-70.244 Y1.749
X-70.256 Y1.683
X-70.503 Y0.121
X-70.518 Y0
X-70.503 Y-0.12
X-70.256 Y-1.683
X-70.244 Y-1.749
X-70.223 Y-1.814
X-69.772 Y-2.702
X-69.485 Y-3.265
X-69.418 Y-3.386
X-69.395 Y-3.416
X-69.367 Y-3.446
X-68.2 Y-4.613
X-68.14 Y-4.664
X-68.11 Y-4.685
X-68.053 Y-4.716
X-66.628 Y-5.442
X-66.568 Y-5.471
X-66.507 Y-5.492
X-66.386 Y-5.513
X-64.815 Y-5.762
X-64.754 Y-5.767
X-64.694 Y-5.763
X-63.243 Y-5.534
X-63.001 Y-5.494
X-62.936 Y-5.473
X-62.871 Y-5.442
X-61.447 Y-4.716
X-61.377 Y-4.678
X-61.343 Y-4.652
X-61.308 Y-4.621
X-60.194 Y-3.507
X-60.099 Y-3.408
X-60.073 Y-3.372
X-60.051 Y-3.336
X-59.898 Y-3.036
G3 X-59.915 Y-2.666 I-0.363 J0.169 F800
G1 X-59.956 Y-2.621 Z8.655
X-59.996 Y-2.578 Z8.669
X-60.035 Y-2.536 Z8.692
X-60.085 Y-2.517 Z8.724
X-60.13 Y-2.499 Z8.765
X-60.168 Y-2.484 Z8.813
X-60.199 Y-2.472 Z8.867
X-60.223 Y-2.469 Z8.925
X-60.238 Y-2.468 Z8.987
X-60.243 Y-2.467 Z9.05
G0 X-65.674 Y1.673
Z8.9
G3 X-66.604 Y-0.463 Z8.813 I0.923 J-1.673 F600
X-64.779 Y-1.909 Z8.725 I1.852 J0.463
X-62.915 Y-0.518 Z8.637 I0.027 J1.907
X-63.782 Y1.639 Z8.55 I-1.835 J0.515
X-66.087 Y1.355 Z8.462 I-0.968 J-1.64
X-66.403 Y-0.943 Z8.375 I1.336 J-1.355
X-64.264 Y-1.838 Z8.288 I1.651 J0.943
X-62.852 Y-0.002 Z8.2 I-0.487 J1.836
X-66.652 Y-0.002 I-1.9 J0
X-62.852 Y-0.002 I1.9 J0
G1 X-62.806 Y1.062 F1300
X-62.783 Y1.328
X-62.834 Y1.623
X-62.95 Y1.9
X-63.116 Y2.15
X-63.321 Y2.369
X-63.557 Y2.554
X-63.816 Y2.706
X-64.092 Y2.821
X-64.381 Y2.902
X-64.678 Y2.948
X-64.978 Y2.959
X-65.277 Y2.936
X-65.572 Y2.881
X-65.859 Y2.795
X-66.136 Y2.679
X-66.399 Y2.534
X-66.645 Y2.364
X-66.873 Y2.168
X-67.08 Y1.951
X-67.264 Y1.714
X-67.423 Y1.46
X-67.556 Y1.191
X-67.661 Y0.91
X-67.738 Y0.62
X-67.786 Y0.324
X-67.805 Y0.024
X-67.793 Y-0.275
X-67.753 Y-0.573
X-67.683 Y-0.864
X-67.585 Y-1.148
X-67.459 Y-1.42
X-67.307 Y-1.679
X-67.131 Y-1.922
X-66.931 Y-2.146
X-66.711 Y-2.349
X-66.472 Y-2.53
X-66.216 Y-2.687
X-65.946 Y-2.817
X-65.664 Y-2.921
X-65.374 Y-2.996
X-65.077 Y-3.043
X-64.778 Y-3.06
X-64.478 Y-3.048
X-64.181 Y-3.007
X-63.889 Y-2.936
X-63.606 Y-2.838
X-63.334 Y-2.712
X-63.075 Y-2.56
X-62.832 Y-2.383
X-62.608 Y-2.184
X-62.405 Y-1.963
X-62.224 Y-1.724
X-62.067 Y-1.468
X-61.92 Y-1.167
X-61.758 Y-0.757
X-61.607 Y-0.262
X-61.528 Y0.101
X-61.483 Y0.43
X-61.466 Y0.731
X-61.474 Y1.031
X-61.508 Y1.329
X-61.567 Y1.624
X-61.653 Y1.911
X-61.764 Y2.189
X-61.902 Y2.456
X-62.063 Y2.709
X-62.246 Y2.947
X-62.451 Y3.166
X-62.674 Y3.366
X-62.914 Y3.547
X-63.168 Y3.706
X-63.436 Y3.842
X-63.713 Y3.956
X-63.999 Y4.046
X-64.295 Y4.113
X-64.602 Y4.157
X-64.902 Y4.176
X-65.211 Y4.17
X-65.53 Y4.139
X-65.845 Y4.082
X-66.148 Y4.001
X-66.452 Y3.894
X-66.754 Y3.759
X-67.045 Y3.6
X-67.317 Y3.422
X-67.576 Y3.22
X-67.825 Y2.993
X-68.057 Y2.743
X-68.267 Y2.478
X-68.451 Y2.201
X-68.615 Y1.907
X-68.758 Y1.594
X-68.876 Y1.268
X-68.966 Y0.937
X-69.029 Y0.606
X-69.065 Y0.267
X-69.074 Y-0.079
X-69.055 Y-0.429
X-69.009 Y-0.773
X-68.936 Y-1.107
X-68.837 Y-1.433
X-68.709 Y-1.756
X-68.555 Y-2.07
X-68.376 Y-2.372
X-68.176 Y-2.654
X-67.957 Y-2.915
X-67.715 Y-3.162
X-67.45 Y-3.391
X-67.166 Y-3.599
X-66.869 Y-3.782
X-66.564 Y-3.938
X-66.246 Y-4.069
X-65.914 Y-4.176
X-65.572 Y-4.257
X-65.224 Y-4.31
X-64.878 Y-4.334
X-64.536 Y-4.331
X-64.191 Y-4.299
X-63.846 Y-4.24
X-63.504 Y-4.152
X-63.173 Y-4.039
X-62.859 Y-3.901
X-62.556 Y-3.739
X-62.262 Y-3.55
X-61.982 Y-3.336
X-61.714 Y-3.094
X-61.459 Y-2.825
X-61.209 Y-2.513
X-60.957 Y-2.142
X-60.732 Y-1.746
X-60.541 Y-1.336
X-60.387 Y-0.921
X-60.269 Y-0.503
X-60.186 Y-0.087
X-60.139 Y0.324
X-60.125 Y0.727
X-60.144 Y1.125
X-60.193 Y1.513
X-60.272 Y1.889
X-60.38 Y2.255
X-60.515 Y2.606
X-60.677 Y2.943
X-60.867 Y3.269
X-61.083 Y3.579
X-61.324 Y3.872
X-61.59 Y4.147
X-61.88 Y4.402
X-62.191 Y4.634
X-62.522 Y4.842
X-62.873 Y5.025
X-63.239 Y5.179
X-63.62 Y5.305
X-64.014 Y5.402
X-64.419 Y5.467
X-64.83 Y5.499
X-65.245 Y5.498
X-65.662 Y5.464
X-66.08 Y5.396
X-66.493 Y5.293
X-66.898 Y5.158
X-67.293 Y4.989
X-67.677 Y4.787
X-68.046 Y4.554
X-68.396 Y4.291
X-68.725 Y3.999
X-69.03 Y3.682
X-69.311 Y3.338
X-69.565 Y2.971
X-69.789 Y2.584
X-69.981 Y2.18
X-70.141 Y1.761
X-70.267 Y1.33
X-70.358 Y0.887
X-70.413 Y0.437
X-70.433 Y-0.015
X-70.416 Y-0.466
X-70.362 Y-0.916
X-70.273 Y-1.362
X-70.147 Y-1.8
X-69.987 Y-2.226
X-69.794 Y-2.637
X-69.568 Y-3.032
X-69.311 Y-3.408
X-69.023 Y-3.763
X-68.708 Y-4.094
X-68.368 Y-4.398
X-68.005 Y-4.674
X-67.621 Y-4.919
X-67.217 Y-5.134
X-66.797 Y-5.316
X-66.364 Y-5.463
X-65.921 Y-5.575
X-65.472 Y-5.651
X-65.017 Y-5.69
X-64.558 Y-5.693
X-64.101 Y-5.659
X-63.65 Y-5.589
X-63.206 Y-5.483
X-62.772 Y-5.342
X-62.35 Y-5.166
X-61.94 Y-4.955
X-61.544 Y-4.709
X-61.161 Y-4.426
X-60.787 Y-4.1
X-60.429 Y-3.733
X-60.093 Y-3.329
X-59.942 Y-3.112
X-59.919 Y-3.075
X-59.898 Y-3.036
X-59.398 Y-2.055
X-59.277 Y-1.814
X-59.257 Y-1.753
X-59.246 Y-1.693
X-58.997 Y-0.12
X-58.982 Y0
X-58.997 Y0.121
X-59.246 Y1.694
X-59.257 Y1.754
X-59.277 Y1.814
X-59.645 Y2.54
X-60.051 Y3.337
X-60.099 Y3.408
X-60.194 Y3.508
X-61.308 Y4.621
X-61.343 Y4.653
X-61.378 Y4.678
X-61.449 Y4.717
X-62.873 Y5.443
X-62.937 Y5.473
X-63.001 Y5.494
X-64.193 Y5.684
X-64.694 Y5.763
X-64.754 Y5.767
X-64.815 Y5.762
X-66.386 Y5.513
X-66.507 Y5.492
X-66.567 Y5.472
X-66.628 Y5.442
X-68.079 Y4.703
X-68.11 Y4.685
X-68.14 Y4.664
X-68.2 Y4.613
X-69.366 Y3.447
X-69.394 Y3.417
X-69.417 Y3.387
X-69.485 Y3.266
X-70.101 Y2.056
X-70.223 Y1.814
X-70.244 Y1.749
X-70.256 Y1.683
X-70.503 Y0.121
X-70.518 Y0
X-70.503 Y-0.12
X-70.256 Y-1.683
X-70.244 Y-1.749
X-70.223 Y-1.814
X-69.772 Y-2.702
X-69.485 Y-3.265
X-69.418 Y-3.386
X-69.395 Y-3.416
X-69.367 Y-3.446
X-68.2 Y-4.613
X-68.14 Y-4.664
X-68.11 Y-4.685
X-68.053 Y-4.716
X-66.628 Y-5.442
X-66.568 Y-5.471
X-66.507 Y-5.492
X-66.386 Y-5.513
X-64.815 Y-5.762
X-64.754 Y-5.767
X-64.694 Y-5.763
X-63.243 Y-5.534
X-63.001 Y-5.494
X-62.936 Y-5.473
X-62.871 Y-5.442
X-61.447 Y-4.716
X-61.377 Y-4.678
X-61.343 Y-4.652
X-61.308 Y-4.621
X-60.194 Y-3.507
X-60.099 Y-3.408
X-60.073 Y-3.372
X-60.051 Y-3.336
X-59.898 Y-3.036
G3 X-59.915 Y-2.666 I-0.363 J0.169 F800
G1 X-59.956 Y-2.621 Z8.205
X-59.996 Y-2.578 Z8.219
X-60.035 Y-2.536 Z8.242
X-60.085 Y-2.517 Z8.274
X-60.13 Y-2.499 Z8.315
X-60.168 Y-2.484 Z8.363
X-60.199 Y-2.472 Z8.417
X-60.223 Y-2.469 Z8.475
X-60.238 Y-2.468 Z8.537
X-60.243 Y-2.467 Z8.6
G0 X-65.674 Y1.673
Z8.45
G3 X-66.604 Y-0.463 Z8.363 I0.923 J-1.673 F600
X-64.779 Y-1.909 Z8.275 I1.852 J0.463
X-62.915 Y-0.518 Z8.188 I0.027 J1.907
X-63.782 Y1.639 Z8.1 I-1.835 J0.515
X-66.087 Y1.355 Z8.012 I-0.968 J-1.64
X-66.403 Y-0.943 Z7.925 I1.336 J-1.355
X-64.264 Y-1.838 Z7.838 I1.651 J0.943
X-62.852 Y-0.002 Z7.75 I-0.487 J1.836
X-66.652 Y-0.002 I-1.9 J0
X-62.852 Y-0.002 I1.9 J0
G1 X-62.806 Y1.062 F1300
X-62.783 Y1.328
X-62.834 Y1.623
X-62.95 Y1.9
X-63.116 Y2.15
X-63.321 Y2.369
X-63.557 Y2.554
X-63.816 Y2.706
X-64.092 Y2.821
X-64.381 Y2.902
X-64.678 Y2.948
X-64.978 Y2.959
X-65.277 Y2.936
X-65.572 Y2.881
X-65.859 Y2.795
X-66.136 Y2.679
X-66.399 Y2.534
X-66.645 Y2.364
X-66.873 Y2.168
X-67.08 Y1.951
X-67.264 Y1.714
X-67.423 Y1.46
X-67.556 Y1.191
X-67.661 Y0.91
X-67.738 Y0.62
X-67.786 Y0.324
X-67.805 Y0.024
X-67.793 Y-0.275
X-67.753 Y-0.573
X-67.683 Y-0.864
X-67.585 Y-1.148
X-67.459 Y-1.42
X-67.307 Y-1.679
X-67.131 Y-1.922
X-66.931 Y-2.146
X-66.711 Y-2.349
X-66.472 Y-2.53
X-66.216 Y-2.687
X-65.946 Y-2.817
X-65.664 Y-2.921
X-65.374 Y-2.996
X-65.077 Y-3.043
X-64.778 Y-3.06
X-64.478 Y-3.048
X-64.181 Y-3.007
X-63.889 Y-2.936
X-63.606 Y-2.838
X-63.334 Y-2.712
X-63.075 Y-2.56
X-62.832 Y-2.383
X-62.608 Y-2.184
X-62.405 Y-1.963
X-62.224 Y-1.724
X-62.067 Y-1.468
X-61.92 Y-1.167
X-61.758 Y-0.757
X-61.607 Y-0.262
X-61.528 Y0.101
X-61.483 Y0.43
X-61.466 Y0.731
X-61.474 Y1.031
X-61.508 Y1.329
X-61.567 Y1.624
X-61.653 Y1.911
X-61.764 Y2.189
X-61.902 Y2.456
X-62.063 Y2.709
X-62.246 Y2.947
X-62.451 Y3.166
X-62.674 Y3.366
X-62.914 Y3.547
X-63.168 Y3.706
X-63.436 Y3.842
X-63.713 Y3.956
X-63.999 Y4.046
X-64.295 Y4.113
X-64.602 Y4.157
X-64.902 Y4.176
X-65.211 Y4.17
X-65.53 Y4.139
X-65.845 Y4.082
X-66.148 Y4.001
X-66.452 Y3.894
X-66.754 Y3.759
X-67.045 Y3.6
X-67.317 Y3.422
X-67.576 Y3.22
X-67.825 Y2.993
X-68.057 Y2.743
X-68.267 Y2.478
X-68.451 Y2.201
X-68.615 Y1.907
X-68.758 Y1.594
X-68.876 Y1.268
X-68.966 Y0.937
X-69.029 Y0.606
X-69.065 Y0.267
X-69.074 Y-0.079
X-69.055 Y-0.429
X-69.009 Y-0.773
X-68.936 Y-1.107
X-68.837 Y-1.433
X-68.709 Y-1.756
X-68.555 Y-2.07
X-68.376 Y-2.372
X-68.176 Y-2.654
X-67.957 Y-2.915
X-67.715 Y-3.162
X-67.45 Y-3.391
X-67.166 Y-3.599
X-66.869 Y-3.782
X-66.564 Y-3.938
X-66.246 Y-4.069
X-65.914 Y-4.176
X-65.572 Y-4.257
X-65.224 Y-4.31
X-64.878 Y-4.334
X-64.536 Y-4.331
X-64.191 Y-4.299
X-63.846 Y-4.24
X-63.504 Y-4.152
X-63.173 Y-4.039
X-62.859 Y-3.901
X-62.556 Y-3.739
X-62.262 Y-3.55
X-61.982 Y-3.336
X-61.714 Y-3.094
X-61.459 Y-2.825
X-61.209 Y-2.513
X-60.957 Y-2.142
X-60.732 Y-1.746
X-60.541 Y-1.336
X-60.387 Y-0.921
X-60.269 Y-0.503
X-60.186 Y-0.087
X-60.139 Y0.324
X-60.125 Y0.727
X-60.144 Y1.125
X-60.193 Y1.513
X-60.272 Y1.889
X-60.38 Y2.255
X-60.515 Y2.606
X-60.677 Y2.943
X-60.867 Y3.269
X-61.083 Y3.579
X-61.324 Y3.872
X-61.59 Y4.147
X-61.88 Y4.402
X-62.191 Y4.634
X-62.522 Y4.842
X-62.873 Y5.025
X-63.239 Y5.179
X-63.62 Y5.305
X-64.014 Y5.402
X-64.419 Y5.467
X-64.83 Y5.499
X-65.245 Y5.498
X-65.662 Y5.464
X-66.08 Y5.396
X-66.493 Y5.293
X-66.898 Y5.158
X-67.293 Y4.989
X-67.677 Y4.787
X-68.046 Y4.554
X-68.396 Y4.291
X-68.725 Y3.999
X-69.03 Y3.682
X-69.311 Y3.338
X-69.565 Y2.971
X-69.789 Y2.584
X-69.981 Y2.18
X-70.141 Y1.761
X-70.267 Y1.33
X-70.358 Y0.887
X-70.413 Y0.437
X-70.433 Y-0.015
X-70.416 Y-0.466
X-70.362 Y-0.916
X-70.273 Y-1.362
X-70.147 Y-1.8
X-69.987 Y-2.226
X-69.794 Y-2.637
X-69.568 Y-3.032
X-69.311 Y-3.408
X-69.023 Y-3.763
X-68.708 Y-4.094
X-68.368 Y-4.398
X-68.005 Y-4.674
X-67.621 Y-4.919
X-67.217 Y-5.134
X-66.797 Y-5.316
X-66.364 Y-5.463
X-65.921 Y-5.575
X-65.472 Y-5.651
X-65.017 Y-5.69
X-64.558 Y-5.693
X-64.101 Y-5.659
X-63.65 Y-5.589
X-63.206 Y-5.483
X-62.772 Y-5.342
X-62.35 Y-5.166
X-61.94 Y-4.955
X-61.544 Y-4.709
X-61.161 Y-4.426
X-60.787 Y-4.1
X-60.429 Y-3.733
X-60.093 Y-3.329
X-59.942 Y-3.112
X-59.919 Y-3.075
X-59.898 Y-3.036
X-59.398 Y-2.055
X-59.277 Y-1.814
X-59.257 Y-1.753
X-59.246 Y-1.693
X-58.997 Y-0.12
X-58.982 Y0
X-58.997 Y0.121
X-59.246 Y1.694
X-59.257 Y1.754
X-59.277 Y1.814
X-59.645 Y2.54
X-60.051 Y3.337
X-60.099 Y3.408
X-60.194 Y3.508
X-61.308 Y4.621
X-61.343 Y4.653
X-61.378 Y4.678
X-61.449 Y4.717
X-62.873 Y5.443
X-62.937 Y5.473
X-63.001 Y5.494
X-64.193 Y5.684
X-64.694 Y5.763
X-64.754 Y5.767
X-64.815 Y5.762
X-66.386 Y5.513
X-66.507 Y5.492
X-66.567 Y5.472
X-66.628 Y5.442
X-68.079 Y4.703
X-68.11 Y4.685
X-68.14 Y4.664
X-68.2 Y4.613
X-69.366 Y3.447
X-69.394 Y3.417
X-69.417 Y3.387
X-69.485 Y3.266
X-70.101 Y2.056
X-70.223 Y1.814
X-70.244 Y1.749
X-70.256 Y1.683
X-70.503 Y0.121
X-70.518 Y0
X-70.503 Y-0.12
X-70.256 Y-1.683
X-70.244 Y-1.749
X-70.223 Y-1.814
X-69.772 Y-2.702
X-69.485 Y-3.265
X-69.418 Y-3.386
X-69.395 Y-3.416
X-69.367 Y-3.446
X-68.2 Y-4.613
X-68.14 Y-4.664
X-68.11 Y-4.685
X-68.053 Y-4.716
X-66.628 Y-5.442
X-66.568 Y-5.471
X-66.507 Y-5.492
X-66.386 Y-5.513
X-64.815 Y-5.762
X-64.754 Y-5.767
X-64.694 Y-5.763
X-63.243 Y-5.534
X-63.001 Y-5.494
X-62.936 Y-5.473
X-62.871 Y-5.442
X-61.447 Y-4.716
X-61.377 Y-4.678
X-61.343 Y-4.652
X-61.308 Y-4.621
X-60.194 Y-3.507
X-60.099 Y-3.408
X-60.073 Y-3.372
X-60.051 Y-3.336
X-59.898 Y-3.036
G3 X-59.915 Y-2.666 I-0.363 J0.169 F800
G1 X-59.956 Y-2.621 Z7.755
X-59.996 Y-2.578 Z7.769
X-60.035 Y-2.536 Z7.792
X-60.085 Y-2.517 Z7.824
X-60.13 Y-2.499 Z7.865
X-60.168 Y-2.484 Z7.913
X-60.199 Y-2.472 Z7.967
X-60.223 Y-2.469 Z8.025
X-60.238 Y-2.468 Z8.087
X-60.243 Y-2.467 Z8.15
G0 X-65.674 Y1.673
Z8
G3 X-66.604 Y-0.463 Z7.912 I0.923 J-1.673 F600
X-64.779 Y-1.909 Z7.825 I1.852 J0.463
X-62.915 Y-0.518 Z7.738 I0.027 J1.907
X-63.782 Y1.639 Z7.65 I-1.835 J0.515
X-66.087 Y1.355 Z7.563 I-0.968 J-1.64
X-66.403 Y-0.943 Z7.475 I1.336 J-1.355
X-64.264 Y-1.838 Z7.387 I1.651 J0.943
X-62.852 Y-0.002 Z7.3 I-0.487 J1.836
X-66.652 Y-0.002 I-1.9 J0
X-62.852 Y-0.002 I1.9 J0
G1 X-62.806 Y1.062 F1300
X-62.783 Y1.328
X-62.834 Y1.623
X-62.95 Y1.9
X-63.116 Y2.15
X-63.321 Y2.369
X-63.557 Y2.554
X-63.816 Y2.706
X-64.092 Y2.821
X-64.381 Y2.902
X-64.678 Y2.948
X-64.978 Y2.959
X-65.277 Y2.936
X-65.572 Y2.881
X-65.859 Y2.795
X-66.136 Y2.679
X-66.399 Y2.534
X-66.645 Y2.364
X-66.873 Y2.168
X-67.08 Y1.951
X-67.264 Y1.714
X-67.423 Y1.46
X-67.556 Y1.191
X-67.661 Y0.91
X-67.738 Y0.62
X-67.786 Y0.324
X-67.805 Y0.024
X-67.793 Y-0.275
X-67.753 Y-0.573
X-67.683 Y-0.864
X-67.585 Y-1.148
X-67.459 Y-1.42
X-67.307 Y-1.679
X-67.131 Y-1.922
X-66.931 Y-2.146
X-66.711 Y-2.349
X-66.472 Y-2.53
X-66.216 Y-2.687
X-65.946 Y-2.817
X-65.664 Y-2.921
X-65.374 Y-2.996
X-65.077 Y-3.043
X-64.778 Y-3.06
X-64.478 Y-3.048
X-64.181 Y-3.007
X-63.889 Y-2.936
X-63.606 Y-2.838
X-63.334 Y-2.712
X-63.075 Y-2.56
X-62.832 Y-2.383
X-62.608 Y-2.184
X-62.405 Y-1.963
X-62.224 Y-1.724
X-62.067 Y-1.468
X-61.92 Y-1.167
X-61.758 Y-0.757
X-61.607 Y-0.262
X-61.528 Y0.101
X-61.483 Y0.43
X-61.466 Y0.731
X-61.474 Y1.031
X-61.508 Y1.329
X-61.567 Y1.624
X-61.653 Y1.911
X-61.764 Y2.189
X-61.902 Y2.456
X-62.063 Y2.709
X-62.246 Y2.947
X-62.451 Y3.166
X-62.674 Y3.366
X-62.914 Y3.547
X-63.168 Y3.706
X-63.436 Y3.842
X-63.713 Y3.956
X-63.999 Y4.046
X-64.295 Y4.113
X-64.602 Y4.157
X-64.902 Y4.176
X-65.211 Y4.17
X-65.53 Y4.139
X-65.845 Y4.082
X-66.148 Y4.001
X-66.452 Y3.894
X-66.754 Y3.759
X-67.045 Y3.6
X-67.317 Y3.422
X-67.576 Y3.22
X-67.825 Y2.993
X-68.057 Y2.743
X-68.267 Y2.478
X-68.451 Y2.201
X-68.615 Y1.907
X-68.758 Y1.594
X-68.876 Y1.268
X-68.966 Y0.937
X-69.029 Y0.606
X-69.065 Y0.267
X-69.074 Y-0.079
X-69.055 Y-0.429
X-69.009 Y-0.773
X-68.936 Y-1.107
X-68.837 Y-1.433
X-68.709 Y-1.756
X-68.555 Y-2.07
X-68.376 Y-2.372
X-68.176 Y-2.654
X-67.957 Y-2.915
X-67.715 Y-3.162
X-67.45 Y-3.391
X-67.166 Y-3.599
X-66.869 Y-3.782
X-66.564 Y-3.938
X-66.246 Y-4.069
X-65.914 Y-4.176
X-65.572 Y-4.257
X-65.224 Y-4.31
X-64.878 Y-4.334
X-64.536 Y-4.331
X-64.191 Y-4.299
X-63.846 Y-4.24
X-63.504 Y-4.152
X-63.173 Y-4.039
X-62.859 Y-3.901
X-62.556 Y-3.739
X-62.262 Y-3.55
X-61.982 Y-3.336
X-61.714 Y-3.094
X-61.459 Y-2.825
X-61.209 Y-2.513
X-60.957 Y-2.142
X-60.732 Y-1.746
X-60.541 Y-1.336
X-60.387 Y-0.921
X-60.269 Y-0.503
X-60.186 Y-0.087
X-60.139 Y0.324
X-60.125 Y0.727
X-60.144 Y1.125
X-60.193 Y1.513
X-60.272 Y1.889
X-60.38 Y2.255
X-60.515 Y2.606
X-60.677 Y2.943
X-60.867 Y3.269
X-61.083 Y3.579
X-61.324 Y3.872
X-61.59 Y4.147
X-61.88 Y4.402
X-62.191 Y4.634
X-62.522 Y4.842
X-62.873 Y5.025
X-63.239 Y5.179
X-63.62 Y5.305
X-64.014 Y5.402
X-64.419 Y5.467
X-64.83 Y5.499
X-65.245 Y5.498
X-65.662 Y5.464
X-66.08 Y5.396
X-66.493 Y5.293
X-66.898 Y5.158
X-67.293 Y4.989
X-67.677 Y4.787
X-68.046 Y4.554
X-68.396 Y4.291
X-68.725 Y3.999
X-69.03 Y3.682
X-69.311 Y3.338
X-69.565 Y2.971
X-69.789 Y2.584
X-69.981 Y2.18
X-70.141 Y1.761
X-70.267 Y1.33
X-70.358 Y0.887
X-70.413 Y0.437
X-70.433 Y-0.015
X-70.416 Y-0.466
X-70.362 Y-0.916
X-70.273 Y-1.362
X-70.147 Y-1.8
X-69.987 Y-2.226
X-69.794 Y-2.637
X-69.568 Y-3.032
X-69.311 Y-3.408
X-69.023 Y-3.763
X-68.708 Y-4.094
X-68.368 Y-4.398
X-68.005 Y-4.674
X-67.621 Y-4.919
X-67.217 Y-5.134
X-66.797 Y-5.316
X-66.364 Y-5.463
X-65.921 Y-5.575
X-65.472 Y-5.651
X-65.017 Y-5.69
X-64.558 Y-5.693
X-64.101 Y-5.659
X-63.65 Y-5.589
X-63.206 Y-5.483
X-62.772 Y-5.342
X-62.35 Y-5.166
X-61.94 Y-4.955
X-61.544 Y-4.709
X-61.161 Y-4.426
X-60.787 Y-4.1
X-60.429 Y-3.733
X-60.093 Y-3.329
X-59.942 Y-3.112
X-59.919 Y-3.075
X-59.898 Y-3.036
X-59.398 Y-2.055
X-59.277 Y-1.814
X-59.257 Y-1.753
X-59.246 Y-1.693
X-58.997 Y-0.12
X-58.982 Y0
X-58.997 Y0.121
X-59.246 Y1.694
X-59.257 Y1.754
X-59.277 Y1.814
X-59.645 Y2.54
X-60.051 Y3.337
X-60.099 Y3.408
X-60.194 Y3.508
X-61.308 Y4.621
X-61.343 Y4.653
X-61.378 Y4.678
X-61.449 Y4.717
X-62.873 Y5.443
X-62.937 Y5.473
X-63.001 Y5.494
X-64.193 Y5.684
X-64.694 Y5.763
X-64.754 Y5.767
X-64.815 Y5.762
X-66.386 Y5.513
X-66.507 Y5.492
X-66.567 Y5.472
X-66.628 Y5.442
X-68.079 Y4.703
X-68.11 Y4.685
X-68.14 Y4.664
X-68.2 Y4.613
X-69.366 Y3.447
X-69.394 Y3.417
X-69.417 Y3.387
X-69.485 Y3.266
X-70.101 Y2.056
X-70.223 Y1.814
X-70.244 Y1.749
X-70.256 Y1.683
X-70.503 Y0.121
X-70.518 Y0
X-70.503 Y-0.12
X-70.256 Y-1.683
X-70.244 Y-1.749
X-70.223 Y-1.814
X-69.772 Y-2.702
X-69.485 Y-3.265
X-69.418 Y-3.386
X-69.395 Y-3.416
X-69.367 Y-3.446
X-68.2 Y-4.613
X-68.14 Y-4.664
X-68.11 Y-4.685
X-68.053 Y-4.716
X-66.628 Y-5.442
X-66.568 Y-5.471
X-66.507 Y-5.492
X-66.386 Y-5.513
X-64.815 Y-5.762
X-64.754 Y-5.767
X-64.694 Y-5.763
X-63.243 Y-5.534
X-63.001 Y-5.494
X-62.936 Y-5.473
X-62.871 Y-5.442
X-61.447 Y-4.716
X-61.377 Y-4.678
X-61.343 Y-4.652
X-61.308 Y-4.621
X-60.194 Y-3.507
X-60.099 Y-3.408
X-60.073 Y-3.372
X-60.051 Y-3.336
X-59.898 Y-3.036
G3 X-59.915 Y-2.666 I-0.363 J0.169 F800
G1 X-59.956 Y-2.621 Z7.305
X-59.996 Y-2.578 Z7.319
X-60.035 Y-2.536 Z7.342
X-60.085 Y-2.517 Z7.374
X-60.13 Y-2.499 Z7.415
X-60.168 Y-2.484 Z7.463
X-60.199 Y-2.472 Z7.517
X-60.223 Y-2.469 Z7.575
X-60.238 Y-2.468 Z7.637
X-60.243 Y-2.467 Z7.7
G0 X-65.674 Y1.673
Z7.55
G3 X-66.604 Y-0.463 Z7.463 I0.923 J-1.673 F600
X-64.779 Y-1.909 Z7.375 I1.852 J0.463
X-62.915 Y-0.518 Z7.287 I0.027 J1.907
X-63.782 Y1.639 Z7.2 I-1.835 J0.515
X-66.087 Y1.355 Z7.113 I-0.968 J-1.64
X-66.403 Y-0.943 Z7.025 I1.336 J-1.355
X-64.264 Y-1.838 Z6.938 I1.651 J0.943
X-62.852 Y-0.002 Z6.85 I-0.487 J1.836
X-66.652 Y-0.002 I-1.9 J0
X-62.852 Y-0.002 I1.9 J0
G1 X-62.806 Y1.062 F1300
X-62.783 Y1.328
X-62.834 Y1.623
X-62.95 Y1.9
X-63.116 Y2.15
X-63.321 Y2.369
X-63.557 Y2.554
X-63.816 Y2.706
X-64.092 Y2.821
X-64.381 Y2.902
X-64.678 Y2.948
X-64.978 Y2.959
X-65.277 Y2.936
X-65.572 Y2.881
X-65.859 Y2.795
X-66.136 Y2.679
X-66.399 Y2.534
X-66.645 Y2.364
X-66.873 Y2.168
X-67.08 Y1.951
X-67.264 Y1.714
X-67.423 Y1.46
X-67.556 Y1.191
X-67.661 Y0.91
X-67.738 Y0.62
X-67.786 Y0.324
X-67.805 Y0.024
X-67.793 Y-0.275
X-67.753 Y-0.573
X-67.683 Y-0.864
X-67.585 Y-1.148
X-67.459 Y-1.42
X-67.307 Y-1.679
X-67.131 Y-1.922
X-66.931 Y-2.146
X-66.711 Y-2.349
X-66.472 Y-2.53
X-66.216 Y-2.687
X-65.946 Y-2.817
X-65.664 Y-2.921
X-65.374 Y-2.996
X-65.077 Y-3.043
X-64.778 Y-3.06
X-64.478 Y-3.048
X-64.181 Y-3.007
X-63.889 Y-2.936
X-63.606 Y-2.838
X-63.334 Y-2.712
X-63.075 Y-2.56
X-62.832 Y-2.383
X-62.608 Y-2.184
X-62.405 Y-1.963
X-62.224 Y-1.724
X-62.067 Y-1.468
X-61.92 Y-1.167
X-61.758 Y-0.757
X-61.607 Y-0.262
X-61.528 Y0.101
X-61.483 Y0.43
X-61.466 Y0.731
X-61.474 Y1.031
X-61.508 Y1.329
X-61.567 Y1.624
X-61.653 Y1.911
X-61.764 Y2.189
X-61.902 Y2.456
X-62.063 Y2.709
X-62.246 Y2.947
X-62.451 Y3.166
X-62.674 Y3.366
X-62.914 Y3.547
X-63.168 Y3.706
X-63.436 Y3.842
X-63.713 Y3.956
X-63.999 Y4.046
X-64.295 Y4.113
X-64.602 Y4.157
X-64.902 Y4.176
X-65.211 Y4.17
X-65.53 Y4.139
X-65.845 Y4.082
X-66.148 Y4.001
X-66.452 Y3.894
X-66.754 Y3.759
X-67.045 Y3.6
X-67.317 Y3.422
X-67.576 Y3.22
X-67.825 Y2.993
X-68.057 Y2.743
X-68.267 Y2.478
X-68.451 Y2.201
X-68.615 Y1.907
X-68.758 Y1.594
X-68.876 Y1.268
X-68.966 Y0.937
X-69.029 Y0.606
X-69.065 Y0.267
X-69.074 Y-0.079
X-69.055 Y-0.429
X-69.009 Y-0.773
X-68.936 Y-1.107
X-68.837 Y-1.433
X-68.709 Y-1.756
X-68.555 Y-2.07
X-68.376 Y-2.372
X-68.176 Y-2.654
X-67.957 Y-2.915
X-67.715 Y-3.162
X-67.45 Y-3.391
X-67.166 Y-3.599
X-66.869 Y-3.782
X-66.564 Y-3.938
X-66.246 Y-4.069
X-65.914 Y-4.176
X-65.572 Y-4.257
X-65.224 Y-4.31
X-64.878 Y-4.334
X-64.536 Y-4.331
X-64.191 Y-4.299
X-63.846 Y-4.24
X-63.504 Y-4.152
X-63.173 Y-4.039
X-62.859 Y-3.901
X-62.556 Y-3.739
X-62.262 Y-3.55
X-61.982 Y-3.336
X-61.714 Y-3.094
X-61.459 Y-2.825
X-61.209 Y-2.513
X-60.957 Y-2.142
X-60.732 Y-1.746
X-60.541 Y-1.336
X-60.387 Y-0.921
X-60.269 Y-0.503
X-60.186 Y-0.087
X-60.139 Y0.324
X-60.125 Y0.727
X-60.144 Y1.125
X-60.193 Y1.513
X-60.272 Y1.889
X-60.38 Y2.255
X-60.515 Y2.606
X-60.677 Y2.943
X-60.867 Y3.269
X-61.083 Y3.579
X-61.324 Y3.872
X-61.59 Y4.147
X-61.88 Y4.402
X-62.191 Y4.634
X-62.522 Y4.842
X-62.873 Y5.025
X-63.239 Y5.179
X-63.62 Y5.305
X-64.014 Y5.402
X-64.419 Y5.467
X-64.83 Y5.499
X-65.245 Y5.498
X-65.662 Y5.464
X-66.08 Y5.396
X-66.493 Y5.293
X-66.898 Y5.158
X-67.293 Y4.989
X-67.677 Y4.787
X-68.046 Y4.554
X-68.396 Y4.291
X-68.725 Y3.999
X-69.03 Y3.682
X-69.311 Y3.338
X-69.565 Y2.971
X-69.789 Y2.584
X-69.981 Y2.18
X-70.141 Y1.761
X-70.267 Y1.33
X-70.358 Y0.887
X-70.413 Y0.437
X-70.433 Y-0.015
X-70.416 Y-0.466
X-70.362 Y-0.916
X-70.273 Y-1.362
X-70.147 Y-1.8
X-69.987 Y-2.226
X-69.794 Y-2.637
X-69.568 Y-3.032
X-69.311 Y-3.408
X-69.023 Y-3.763
X-68.708 Y-4.094
X-68.368 Y-4.398
X-68.005 Y-4.674
X-67.621 Y-4.919
X-67.217 Y-5.134
X-66.797 Y-5.316
X-66.364 Y-5.463
X-65.921 Y-5.575
X-65.472 Y-5.651
X-65.017 Y-5.69
X-64.558 Y-5.693
X-64.101 Y-5.659
X-63.65 Y-5.589
X-63.206 Y-5.483
X-62.772 Y-5.342
X-62.35 Y-5.166
X-61.94 Y-4.955
X-61.544 Y-4.709
X-61.161 Y-4.426
X-60.787 Y-4.1
X-60.429 Y-3.733
X-60.093 Y-3.329
X-59.942 Y-3.112
X-59.919 Y-3.075
X-59.898 Y-3.036
X-59.398 Y-2.055
X-59.277 Y-1.814
X-59.257 Y-1.753
X-59.246 Y-1.693
X-58.997 Y-0.12
X-58.982 Y0
X-58.997 Y0.121
X-59.246 Y1.694
X-59.257 Y1.754
X-59.277 Y1.814
X-59.645 Y2.54
X-60.051 Y3.337
X-60.099 Y3.408
X-60.194 Y3.508
X-61.308 Y4.621
X-61.343 Y4.653
X-61.378 Y4.678
X-61.449 Y4.717
X-62.873 Y5.443
X-62.937 Y5.473
X-63.001 Y5.494
X-64.193 Y5.684
X-64.694 Y5.763
X-64.754 Y5.767
X-64.815 Y5.762
X-66.386 Y5.513
X-66.507 Y5.492
X-66.567 Y5.472
X-66.628 Y5.442
X-68.079 Y4.703
X-68.11 Y4.685
X-68.14 Y4.664
X-68.2 Y4.613
X-69.366 Y3.447
X-69.394 Y3.417
X-69.417 Y3.387
X-69.485 Y3.266
X-70.101 Y2.056
X-70.223 Y1.814
X-70.244 Y1.749
X-70.256 Y1.683
X-70.503 Y0.121
X-70.518 Y0
X-70.503 Y-0.12
X-70.256 Y-1.683
X-70.244 Y-1.749
X-70.223 Y-1.814
X-69.772 Y-2.702
X-69.485 Y-3.265
X-69.418 Y-3.386
X-69.395 Y-3.416
X-69.367 Y-3.446
X-68.2 Y-4.613
X-68.14 Y-4.664
X-68.11 Y-4.685
X-68.053 Y-4.716
X-66.628 Y-5.442
X-66.568 Y-5.471
X-66.507 Y-5.492
X-66.386 Y-5.513
X-64.815 Y-5.762
X-64.754 Y-5.767
X-64.694 Y-5.763
X-63.243 Y-5.534
X-63.001 Y-5.494
X-62.936 Y-5.473
X-62.871 Y-5.442
X-61.447 Y-4.716
X-61.377 Y-4.678
X-61.343 Y-4.652
X-61.308 Y-4.621
X-60.194 Y-3.507
X-60.099 Y-3.408
X-60.073 Y-3.372
X-60.051 Y-3.336
X-59.898 Y-3.036
G3 X-59.915 Y-2.666 I-0.363 J0.169 F800
G1 X-59.956 Y-2.621 Z6.855
X-59.996 Y-2.578 Z6.869
X-60.035 Y-2.536 Z6.892
X-60.085 Y-2.517 Z6.924
X-60.13 Y-2.499 Z6.965
X-60.168 Y-2.484 Z7.013
X-60.199 Y-2.472 Z7.067
X-60.223 Y-2.469 Z7.125
X-60.238 Y-2.468 Z7.187
X-60.243 Y-2.467 Z7.25
G0 X-65.674 Y1.673
Z7.1
G3 X-66.604 Y-0.463 Z7.012 I0.923 J-1.673 F600
X-64.779 Y-1.909 Z6.925 I1.852 J0.463
X-62.915 Y-0.518 Z6.838 I0.027 J1.907
X-63.782 Y1.639 Z6.75 I-1.835 J0.515
X-66.087 Y1.355 Z6.662 I-0.968 J-1.64
X-66.403 Y-0.943 Z6.575 I1.336 J-1.355
X-64.264 Y-1.838 Z6.488 I1.651 J0.943
X-62.852 Y-0.002 Z6.4 I-0.487 J1.836
X-66.652 Y-0.002 I-1.9 J0
X-62.852 Y-0.002 I1.9 J0
G1 X-62.806 Y1.062 F1300
X-62.783 Y1.328
X-62.834 Y1.623
X-62.95 Y1.9
X-63.116 Y2.15
X-63.321 Y2.369
X-63.557 Y2.554
X-63.816 Y2.706
X-64.092 Y2.821
X-64.381 Y2.902
X-64.678 Y2.948
X-64.978 Y2.959
X-65.277 Y2.936
X-65.572 Y2.881
X-65.859 Y2.795
X-66.136 Y2.679
X-66.399 Y2.534
X-66.645 Y2.364
X-66.873 Y2.168
X-67.08 Y1.951
X-67.264 Y1.714
X-67.423 Y1.46
X-67.556 Y1.191
X-67.661 Y0.91
X-67.738 Y0.62
X-67.786 Y0.324
X-67.805 Y0.024
X-67.793 Y-0.275
X-67.753 Y-0.573
X-67.683 Y-0.864
X-67.585 Y-1.148
X-67.459 Y-1.42
X-67.307 Y-1.679
X-67.131 Y-1.922
X-66.931 Y-2.146
X-66.711 Y-2.349
X-66.472 Y-2.53
X-66.216 Y-2.687
X-65.946 Y-2.817
X-65.664 Y-2.921
X-65.374 Y-2.996
X-65.077 Y-3.043
X-64.778 Y-3.06
X-64.478 Y-3.048
X-64.181 Y-3.007
X-63.889 Y-2.936
X-63.606 Y-2.838
X-63.334 Y-2.712
X-63.075 Y-2.56
X-62.832 Y-2.383
X-62.608 Y-2.184
X-62.405 Y-1.963
X-62.224 Y-1.724
X-62.067 Y-1.468
X-61.92 Y-1.167
X-61.758 Y-0.757
X-61.607 Y-0.262
X-61.528 Y0.101
X-61.483 Y0.43
X-61.466 Y0.731
X-61.474 Y1.031
X-61.508 Y1.329
X-61.567 Y1.624
X-61.653 Y1.911
X-61.764 Y2.189
X-61.902 Y2.456
X-62.063 Y2.709
X-62.246 Y2.947
X-62.451 Y3.166
X-62.674 Y3.366
X-62.914 Y3.547
X-63.168 Y3.706
X-63.436 Y3.842
X-63.713 Y3.956
X-63.999 Y4.046
X-64.295 Y4.113
X-64.602 Y4.157
X-64.902 Y4.176
X-65.211 Y4.17
X-65.53 Y4.139
X-65.845 Y4.082
X-66.148 Y4.001
X-66.452 Y3.894
X-66.754 Y3.759
X-67.045 Y3.6
X-67.317 Y3.422
X-67.576 Y3.22
X-67.825 Y2.993
X-68.057 Y2.743
X-68.267 Y2.478
X-68.451 Y2.201
X-68.615 Y1.907
X-68.758 Y1.594
X-68.876 Y1.268
X-68.966 Y0.937
X-69.029 Y0.606
X-69.065 Y0.267
X-69.074 Y-0.079
X-69.055 Y-0.429
X-69.009 Y-0.773
X-68.936 Y-1.107
X-68.837 Y-1.433
X-68.709 Y-1.756
X-68.555 Y-2.07
X-68.376 Y-2.372
X-68.176 Y-2.654
X-67.957 Y-2.915
X-67.715 Y-3.162
X-67.45 Y-3.391
X-67.166 Y-3.599
X-66.869 Y-3.782
X-66.564 Y-3.938
X-66.246 Y-4.069
X-65.914 Y-4.176
X-65.572 Y-4.257
X-65.224 Y-4.31
X-64.878 Y-4.334
X-64.536 Y-4.331
X-64.191 Y-4.299
X-63.846 Y-4.24
X-63.504 Y-4.152
X-63.173 Y-4.039
X-62.859 Y-3.901
X-62.556 Y-3.739
X-62.262 Y-3.55
X-61.982 Y-3.336
X-61.714 Y-3.094
X-61.459 Y-2.825
X-61.209 Y-2.513
X-60.957 Y-2.142
X-60.732 Y-1.746
X-60.541 Y-1.336
X-60.387 Y-0.921
X-60.269 Y-0.503
X-60.186 Y-0.087
X-60.139 Y0.324
X-60.125 Y0.727
X-60.144 Y1.125
X-60.193 Y1.513
X-60.272 Y1.889
X-60.38 Y2.255
X-60.515 Y2.606
X-60.677 Y2.943
X-60.867 Y3.269
X-61.083 Y3.579
X-61.324 Y3.872
X-61.59 Y4.147
X-61.88 Y4.402
X-62.191 Y4.634
X-62.522 Y4.842
X-62.873 Y5.025
X-63.239 Y5.179
X-63.62 Y5.305
X-64.014 Y5.402
X-64.419 Y5.467
X-64.83 Y5.499
X-65.245 Y5.498
X-65.662 Y5.464
X-66.08 Y5.396
X-66.493 Y5.293
X-66.898 Y5.158
X-67.293 Y4.989
X-67.677 Y4.787
X-68.046 Y4.554
X-68.396 Y4.291
X-68.725 Y3.999
X-69.03 Y3.682
X-69.311 Y3.338
X-69.565 Y2.971
X-69.789 Y2.584
X-69.981 Y2.18
X-70.141 Y1.761
X-70.267 Y1.33
X-70.358 Y0.887
X-70.413 Y0.437
X-70.433 Y-0.015
X-70.416 Y-0.466
X-70.362 Y-0.916
X-70.273 Y-1.362
X-70.147 Y-1.8
X-69.987 Y-2.226
X-69.794 Y-2.637
X-69.568 Y-3.032
X-69.311 Y-3.408
X-69.023 Y-3.763
X-68.708 Y-4.094
X-68.368 Y-4.398
X-68.005 Y-4.674
X-67.621 Y-4.919
X-67.217 Y-5.134
X-66.797 Y-5.316
X-66.364 Y-5.463
X-65.921 Y-5.575
X-65.472 Y-5.651
X-65.017 Y-5.69
X-64.558 Y-5.693
X-64.101 Y-5.659
X-63.65 Y-5.589
X-63.206 Y-5.483
X-62.772 Y-5.342
X-62.35 Y-5.166
X-61.94 Y-4.955
X-61.544 Y-4.709
X-61.161 Y-4.426
X-60.787 Y-4.1
X-60.429 Y-3.733
X-60.093 Y-3.329
X-59.942 Y-3.112
X-59.919 Y-3.075
X-59.898 Y-3.036
X-59.398 Y-2.055
X-59.277 Y-1.814
X-59.257 Y-1.753
X-59.246 Y-1.693
X-58.997 Y-0.12
X-58.982 Y0
X-58.997 Y0.121
X-59.246 Y1.694
X-59.257 Y1.754
X-59.277 Y1.814
X-59.645 Y2.54
X-60.051 Y3.337
X-60.099 Y3.408
X-60.194 Y3.508
X-61.308 Y4.621
X-61.343 Y4.653
X-61.378 Y4.678
X-61.449 Y4.717
X-62.873 Y5.443
X-62.937 Y5.473
X-63.001 Y5.494
X-64.193 Y5.684
X-64.694 Y5.763
X-64.754 Y5.767
X-64.815 Y5.762
X-66.386 Y5.513
X-66.507 Y5.492
X-66.567 Y5.472
X-66.628 Y5.442
X-68.079 Y4.703
X-68.11 Y4.685
X-68.14 Y4.664
X-68.2 Y4.613
X-69.366 Y3.447
X-69.394 Y3.417
X-69.417 Y3.387
X-69.485 Y3.266
X-70.101 Y2.056
X-70.223 Y1.814
X-70.244 Y1.749
X-70.256 Y1.683
X-70.503 Y0.121
X-70.518 Y0
X-70.503 Y-0.12
X-70.256 Y-1.683
X-70.244 Y-1.749
X-70.223 Y-1.814
X-69.772 Y-2.702
X-69.485 Y-3.265
X-69.418 Y-3.386
X-69.395 Y-3.416
X-69.367 Y-3.446
X-68.2 Y-4.613
X-68.14 Y-4.664
X-68.11 Y-4.685
X-68.053 Y-4.716
X-66.628 Y-5.442
X-66.568 Y-5.471
X-66.507 Y-5.492
X-66.386 Y-5.513
X-64.815 Y-5.762
X-64.754 Y-5.767
X-64.694 Y-5.763
X-63.243 Y-5.534
X-63.001 Y-5.494
X-62.936 Y-5.473
X-62.871 Y-5.442
X-61.447 Y-4.716
X-61.377 Y-4.678
X-61.343 Y-4.652
X-61.308 Y-4.621
X-60.194 Y-3.507
X-60.099 Y-3.408
X-60.073 Y-3.372
X-60.051 Y-3.336
X-59.898 Y-3.036
G3 X-59.915 Y-2.666 I-0.363 J0.169 F800
G1 X-59.956 Y-2.621 Z6.405
X-59.996 Y-2.578 Z6.419
X-60.035 Y-2.536 Z6.442
X-60.085 Y-2.517 Z6.474
X-60.13 Y-2.499 Z6.515
X-60.168 Y-2.484 Z6.563
X-60.199 Y-2.472 Z6.617
X-60.223 Y-2.469 Z6.675
X-60.238 Y-2.468 Z6.737
X-60.243 Y-2.467 Z6.8
G0 X-65.674 Y1.673
Z6.65
G3 X-66.604 Y-0.463 Z6.563 I0.923 J-1.673 F600
X-64.779 Y-1.909 Z6.475 I1.852 J0.463
X-62.915 Y-0.518 Z6.387 I0.027 J1.907
X-63.782 Y1.639 Z6.3 I-1.835 J0.515
X-66.087 Y1.355 Z6.213 I-0.968 J-1.64
X-66.403 Y-0.943 Z6.125 I1.336 J-1.355
X-64.264 Y-1.838 Z6.037 I1.651 J0.943
X-62.852 Y-0.002 Z5.95 I-0.487 J1.836
X-66.652 Y-0.002 I-1.9 J0
X-62.852 Y-0.002 I1.9 J0
G1 X-62.806 Y1.062 F1300
X-62.783 Y1.328
X-62.834 Y1.623
X-62.95 Y1.9
X-63.116 Y2.15
X-63.321 Y2.369
X-63.557 Y2.554
X-63.816 Y2.706
X-64.092 Y2.821
X-64.381 Y2.902
X-64.678 Y2.948
X-64.978 Y2.959
X-65.277 Y2.936
X-65.572 Y2.881
X-65.859 Y2.795
X-66.136 Y2.679
X-66.399 Y2.534
X-66.645 Y2.364
X-66.873 Y2.168
X-67.08 Y1.951
X-67.264 Y1.714
X-67.423 Y1.46
X-67.556 Y1.191
X-67.661 Y0.91
X-67.738 Y0.62
X-67.786 Y0.324
X-67.805 Y0.024
X-67.793 Y-0.275
X-67.753 Y-0.573
X-67.683 Y-0.864
X-67.585 Y-1.148
X-67.459 Y-1.42
X-67.307 Y-1.679
X-67.131 Y-1.922
X-66.931 Y-2.146
X-66.711 Y-2.349
X-66.472 Y-2.53
X-66.216 Y-2.687
X-65.946 Y-2.817
X-65.664 Y-2.921
X-65.374 Y-2.996
X-65.077 Y-3.043
X-64.778 Y-3.06
X-64.478 Y-3.048
X-64.181 Y-3.007
X-63.889 Y-2.936
X-63.606 Y-2.838
X-63.334 Y-2.712
X-63.075 Y-2.56
X-62.832 Y-2.383
X-62.608 Y-2.184
X-62.405 Y-1.963
X-62.224 Y-1.724
X-62.067 Y-1.468
X-61.92 Y-1.167
X-61.758 Y-0.757
X-61.607 Y-0.262
X-61.528 Y0.101
X-61.483 Y0.43
X-61.466 Y0.731
X-61.474 Y1.031
X-61.508 Y1.329
X-61.567 Y1.624
X-61.653 Y1.911
X-61.764 Y2.189
X-61.902 Y2.456
X-62.063 Y2.709
X-62.246 Y2.947
X-62.451 Y3.166
X-62.674 Y3.366
X-62.914 Y3.547
X-63.168 Y3.706
X-63.436 Y3.842
X-63.713 Y3.956
X-63.999 Y4.046
X-64.295 Y4.113
X-64.602 Y4.157
X-64.902 Y4.176
X-65.211 Y4.17
X-65.53 Y4.139
X-65.845 Y4.082
X-66.148 Y4.001
X-66.452 Y3.894
X-66.754 Y3.759
X-67.045 Y3.6
X-67.317 Y3.422
X-67.576 Y3.22
X-67.825 Y2.993
X-68.057 Y2.743
X-68.267 Y2.478
X-68.451 Y2.201
X-68.615 Y1.907
X-68.758 Y1.594
X-68.876 Y1.268
X-68.966 Y0.937
X-69.029 Y0.606
X-69.065 Y0.267
X-69.074 Y-0.079
X-69.055 Y-0.429
X-69.009 Y-0.773
X-68.936 Y-1.107
X-68.837 Y-1.433
X-68.709 Y-1.756
X-68.555 Y-2.07
X-68.376 Y-2.372
X-68.176 Y-2.654
X-67.957 Y-2.915
X-67.715 Y-3.162
X-67.45 Y-3.391
X-67.166 Y-3.599
X-66.869 Y-3.782
X-66.564 Y-3.938
X-66.246 Y-4.069
X-65.914 Y-4.176
X-65.572 Y-4.257
X-65.224 Y-4.31
X-64.878 Y-4.334
X-64.536 Y-4.331
X-64.191 Y-4.299
X-63.846 Y-4.24
X-63.504 Y-4.152
X-63.173 Y-4.039
X-62.859 Y-3.901
X-62.556 Y-3.739
X-62.262 Y-3.55
X-61.982 Y-3.336
X-61.714 Y-3.094
X-61.459 Y-2.825
X-61.209 Y-2.513
X-60.957 Y-2.142
X-60.732 Y-1.746
X-60.541 Y-1.336
X-60.387 Y-0.921
X-60.269 Y-0.503
X-60.186 Y-0.087
X-60.139 Y0.324
X-60.125 Y0.727
X-60.144 Y1.125
X-60.193 Y1.513
X-60.272 Y1.889
X-60.38 Y2.255
X-60.515 Y2.606
X-60.677 Y2.943
X-60.867 Y3.269
X-61.083 Y3.579
X-61.324 Y3.872
X-61.59 Y4.147
X-61.88 Y4.402
X-62.191 Y4.634
X-62.522 Y4.842
X-62.873 Y5.025
X-63.239 Y5.179
X-63.62 Y5.305
X-64.014 Y5.402
X-64.419 Y5.467
X-64.83 Y5.499
X-65.245 Y5.498
X-65.662 Y5.464
X-66.08 Y5.396
X-66.493 Y5.293
X-66.898 Y5.158
X-67.293 Y4.989
X-67.677 Y4.787
X-68.046 Y4.554
X-68.396 Y4.291
X-68.725 Y3.999
X-69.03 Y3.682
X-69.311 Y3.338
X-69.565 Y2.971
X-69.789 Y2.584
X-69.981 Y2.18
X-70.141 Y1.761
X-70.267 Y1.33
X-70.358 Y0.887
X-70.413 Y0.437
X-70.433 Y-0.015
X-70.416 Y-0.466
X-70.362 Y-0.916
X-70.273 Y-1.362
X-70.147 Y-1.8
X-69.987 Y-2.226
X-69.794 Y-2.637
X-69.568 Y-3.032
X-69.311 Y-3.408
X-69.023 Y-3.763
X-68.708 Y-4.094
X-68.368 Y-4.398
X-68.005 Y-4.674
X-67.621 Y-4.919
X-67.217 Y-5.134
X-66.797 Y-5.316
X-66.364 Y-5.463
X-65.921 Y-5.575
X-65.472 Y-5.651
X-65.017 Y-5.69
X-64.558 Y-5.693
X-64.101 Y-5.659
X-63.65 Y-5.589
X-63.206 Y-5.483
X-62.772 Y-5.342
X-62.35 Y-5.166
X-61.94 Y-4.955
X-61.544 Y-4.709
X-61.161 Y-4.426
X-60.787 Y-4.1
X-60.429 Y-3.733
X-60.093 Y-3.329
X-59.942 Y-3.112
X-59.919 Y-3.075
X-59.898 Y-3.036
X-59.398 Y-2.055
X-59.277 Y-1.814
X-59.257 Y-1.753
X-59.246 Y-1.693
X-58.997 Y-0.12
X-58.982 Y0
X-58.997 Y0.121
X-59.246 Y1.694
X-59.257 Y1.754
X-59.277 Y1.814
X-59.645 Y2.54
X-60.051 Y3.337
X-60.099 Y3.408
X-60.194 Y3.508
X-61.308 Y4.621
X-61.343 Y4.653
X-61.378 Y4.678
X-61.449 Y4.717
X-62.873 Y5.443
X-62.937 Y5.473
X-63.001 Y5.494
X-64.193 Y5.684
X-64.694 Y5.763
X-64.754 Y5.767
X-64.815 Y5.762
X-66.386 Y5.513
X-66.507 Y5.492
X-66.567 Y5.472
X-66.628 Y5.442
X-68.079 Y4.703
X-68.11 Y4.685
X-68.14 Y4.664
X-68.2 Y4.613
X-69.366 Y3.447
X-69.394 Y3.417
X-69.417 Y3.387
X-69.485 Y3.266
X-70.101 Y2.056
X-70.223 Y1.814
X-70.244 Y1.749
X-70.256 Y1.683
X-70.503 Y0.121
X-70.518 Y0
X-70.503 Y-0.12
X-70.256 Y-1.683
X-70.244 Y-1.749
X-70.223 Y-1.814
X-69.772 Y-2.702
X-69.485 Y-3.265
X-69.418 Y-3.386
X-69.395 Y-3.416
X-69.367 Y-3.446
X-68.2 Y-4.613
X-68.14 Y-4.664
X-68.11 Y-4.685
X-68.053 Y-4.716
X-66.628 Y-5.442
X-66.568 Y-5.471
X-66.507 Y-5.492
X-66.386 Y-5.513
X-64.815 Y-5.762
X-64.754 Y-5.767
X-64.694 Y-5.763
X-63.243 Y-5.534
X-63.001 Y-5.494
X-62.936 Y-5.473
X-62.871 Y-5.442
X-61.447 Y-4.716
X-61.377 Y-4.678
X-61.343 Y-4.652
X-61.308 Y-4.621
X-60.194 Y-3.507
X-60.099 Y-3.408
X-60.073 Y-3.372
X-60.051 Y-3.336
X-59.898 Y-3.036
G3 X-59.915 Y-2.666 I-0.363 J0.169 F800
G1 X-59.956 Y-2.621 Z5.955
X-59.996 Y-2.578 Z5.969
X-60.035 Y-2.536 Z5.992
X-60.085 Y-2.517 Z6.024
X-60.13 Y-2.499 Z6.065
X-60.168 Y-2.484 Z6.113
X-60.199 Y-2.472 Z6.167
X-60.223 Y-2.469 Z6.225
X-60.238 Y-2.468 Z6.287
X-60.243 Y-2.467 Z6.35
G0 X-65.674 Y1.673
Z6.2
G3 X-66.604 Y-0.463 Z6.113 I0.923 J-1.673 F600
X-64.779 Y-1.909 Z6.025 I1.852 J0.463
X-62.915 Y-0.518 Z5.938 I0.027 J1.907
X-63.782 Y1.639 Z5.85 I-1.835 J0.515
X-66.087 Y1.355 Z5.762 I-0.968 J-1.64
X-66.403 Y-0.943 Z5.675 I1.336 J-1.355
X-64.264 Y-1.838 Z5.588 I1.651 J0.943
X-62.852 Y-0.002 Z5.5 I-0.487 J1.836
X-66.652 Y-0.002 I-1.9 J0
X-62.852 Y-0.002 I1.9 J0
G1 X-62.806 Y1.062 F1300
X-62.783 Y1.328
X-62.834 Y1.623
X-62.95 Y1.9
X-63.116 Y2.15
X-63.321 Y2.369
X-63.557 Y2.554
X-63.816 Y2.706
X-64.092 Y2.821
X-64.381 Y2.902
X-64.678 Y2.948
X-64.978 Y2.959
X-65.277 Y2.936
X-65.572 Y2.881
X-65.859 Y2.795
X-66.136 Y2.679
X-66.399 Y2.534
X-66.645 Y2.364
X-66.873 Y2.168
X-67.08 Y1.951
X-67.264 Y1.714
X-67.423 Y1.46
X-67.556 Y1.191
X-67.661 Y0.91
X-67.738 Y0.62
X-67.786 Y0.324
X-67.805 Y0.024
X-67.793 Y-0.275
X-67.753 Y-0.573
X-67.683 Y-0.864
X-67.585 Y-1.148
X-67.459 Y-1.42
X-67.307 Y-1.679
X-67.131 Y-1.922
X-66.931 Y-2.146
X-66.711 Y-2.349
X-66.472 Y-2.53
X-66.216 Y-2.687
X-65.946 Y-2.817
X-65.664 Y-2.921
X-65.374 Y-2.996
X-65.077 Y-3.043
X-64.778 Y-3.06
X-64.478 Y-3.048
X-64.181 Y-3.007
X-63.889 Y-2.936
X-63.606 Y-2.838
X-63.334 Y-2.712
X-63.075 Y-2.56
X-62.832 Y-2.383
X-62.608 Y-2.184
X-62.405 Y-1.963
X-62.224 Y-1.724
X-62.067 Y-1.468
X-61.92 Y-1.167
X-61.758 Y-0.757
X-61.607 Y-0.262
X-61.528 Y0.101
X-61.483 Y0.43
X-61.466 Y0.731
X-61.474 Y1.031
X-61.508 Y1.329
X-61.567 Y1.624
X-61.653 Y1.911
X-61.764 Y2.189
X-61.902 Y2.456
X-62.063 Y2.709
X-62.246 Y2.947
X-62.451 Y3.166
X-62.674 Y3.366
X-62.914 Y3.547
X-63.168 Y3.706
X-63.436 Y3.842
X-63.713 Y3.956
X-63.999 Y4.046
X-64.295 Y4.113
X-64.602 Y4.157
X-64.902 Y4.176
X-65.211 Y4.17
X-65.53 Y4.139
X-65.845 Y4.082
X-66.148 Y4.001
X-66.452 Y3.894
X-66.754 Y3.759
X-67.045 Y3.6
X-67.317 Y3.422
X-67.576 Y3.22
X-67.825 Y2.993
X-68.057 Y2.743
X-68.267 Y2.478
X-68.451 Y2.201
X-68.615 Y1.907
X-68.758 Y1.594
X-68.876 Y1.268
X-68.966 Y0.937
X-69.029 Y0.606
X-69.065 Y0.267
X-69.074 Y-0.079
X-69.055 Y-0.429
X-69.009 Y-0.773
X-68.936 Y-1.107
X-68.837 Y-1.433
X-68.709 Y-1.756
X-68.555 Y-2.07
X-68.376 Y-2.372
X-68.176 Y-2.654
X-67.957 Y-2.915
X-67.715 Y-3.162
X-67.45 Y-3.391
X-67.166 Y-3.599
X-66.869 Y-3.782
X-66.564 Y-3.938
X-66.246 Y-4.069
X-65.914 Y-4.176
X-65.572 Y-4.257
X-65.224 Y-4.31
X-64.878 Y-4.334
X-64.536 Y-4.331
X-64.191 Y-4.299
X-63.846 Y-4.24
X-63.504 Y-4.152
X-63.173 Y-4.039
X-62.859 Y-3.901
X-62.556 Y-3.739
X-62.262 Y-3.55
X-61.982 Y-3.336
X-61.714 Y-3.094
X-61.459 Y-2.825
X-61.209 Y-2.513
X-60.957 Y-2.142
X-60.732 Y-1.746
X-60.541 Y-1.336
X-60.387 Y-0.921
X-60.269 Y-0.503
X-60.186 Y-0.087
X-60.139 Y0.324
X-60.125 Y0.727
X-60.144 Y1.125
X-60.193 Y1.513
X-60.272 Y1.889
X-60.38 Y2.255
X-60.515 Y2.606
X-60.677 Y2.943
X-60.867 Y3.269
X-61.083 Y3.579
X-61.324 Y3.872
X-61.59 Y4.147
X-61.88 Y4.402
X-62.191 Y4.634
X-62.522 Y4.842
X-62.873 Y5.025
X-63.239 Y5.179
X-63.62 Y5.305
X-64.014 Y5.402
X-64.419 Y5.467
X-64.83 Y5.499
X-65.245 Y5.498
X-65.662 Y5.464
X-66.08 Y5.396
X-66.493 Y5.293
X-66.898 Y5.158
X-67.293 Y4.989
X-67.677 Y4.787
X-68.046 Y4.554
X-68.396 Y4.291
X-68.725 Y3.999
X-69.03 Y3.682
X-69.311 Y3.338
X-69.565 Y2.971
X-69.789 Y2.584
X-69.981 Y2.18
X-70.141 Y1.761
X-70.267 Y1.33
X-70.358 Y0.887
X-70.413 Y0.437
X-70.433 Y-0.015
X-70.416 Y-0.466
X-70.362 Y-0.916
X-70.273 Y-1.362
X-70.147 Y-1.8
X-69.987 Y-2.226
X-69.794 Y-2.637
X-69.568 Y-3.032
X-69.311 Y-3.408
X-69.023 Y-3.763
X-68.708 Y-4.094
X-68.368 Y-4.398
X-68.005 Y-4.674
X-67.621 Y-4.919
X-67.217 Y-5.134
X-66.797 Y-5.316
X-66.364 Y-5.463
X-65.921 Y-5.575
X-65.472 Y-5.651
X-65.017 Y-5.69
X-64.558 Y-5.693
X-64.101 Y-5.659
X-63.65 Y-5.589
X-63.206 Y-5.483
X-62.772 Y-5.342
X-62.35 Y-5.166
X-61.94 Y-4.955
X-61.544 Y-4.709
X-61.161 Y-4.426
X-60.787 Y-4.1
X-60.429 Y-3.733
X-60.093 Y-3.329
X-59.942 Y-3.112
X-59.919 Y-3.075
X-59.898 Y-3.036
X-59.398 Y-2.055
X-59.277 Y-1.814
X-59.257 Y-1.753
X-59.246 Y-1.693
X-58.997 Y-0.12
X-58.982 Y0
X-58.997 Y0.121
X-59.246 Y1.694
X-59.257 Y1.754
X-59.277 Y1.814
X-59.645 Y2.54
X-60.051 Y3.337
X-60.099 Y3.408
X-60.194 Y3.508
X-61.308 Y4.621
X-61.343 Y4.653
X-61.378 Y4.678
X-61.449 Y4.717
X-62.873 Y5.443
X-62.937 Y5.473
X-63.001 Y5.494
X-64.193 Y5.684
X-64.694 Y5.763
X-64.754 Y5.767
X-64.815 Y5.762
X-66.386 Y5.513
X-66.507 Y5.492
X-66.567 Y5.472
X-66.628 Y5.442
X-68.079 Y4.703
X-68.11 Y4.685
X-68.14 Y4.664
X-68.2 Y4.613
X-69.366 Y3.447
X-69.394 Y3.417
X-69.417 Y3.387
X-69.485 Y3.266
X-70.101 Y2.056
X-70.223 Y1.814
X-70.244 Y1.749
X-70.256 Y1.683
X-70.503 Y0.121
X-70.518 Y0
X-70.503 Y-0.12
X-70.256 Y-1.683
X-70.244 Y-1.749
X-70.223 Y-1.814
X-69.772 Y-2.702
X-69.485 Y-3.265
X-69.418 Y-3.386
X-69.395 Y-3.416
X-69.367 Y-3.446
X-68.2 Y-4.613
X-68.14 Y-4.664
X-68.11 Y-4.685
X-68.053 Y-4.716
X-66.628 Y-5.442
X-66.568 Y-5.471
X-66.507 Y-5.492
X-66.386 Y-5.513
X-64.815 Y-5.762
X-64.754 Y-5.767
X-64.694 Y-5.763
X-63.243 Y-5.534
X-63.001 Y-5.494
X-62.936 Y-5.473
X-62.871 Y-5.442
X-61.447 Y-4.716
X-61.377 Y-4.678
X-61.343 Y-4.652
X-61.308 Y-4.621
X-60.194 Y-3.507
X-60.099 Y-3.408
X-60.073 Y-3.372
X-60.051 Y-3.336
X-59.898 Y-3.036
G3 X-59.915 Y-2.666 I-0.363 J0.169 F800
G1 X-59.956 Y-2.621 Z5.505
X-59.996 Y-2.578 Z5.519
X-60.035 Y-2.536 Z5.542
X-60.085 Y-2.517 Z5.574
X-60.13 Y-2.499 Z5.615
X-60.168 Y-2.484 Z5.663
X-60.199 Y-2.472 Z5.717
X-60.223 Y-2.469 Z5.775
X-60.238 Y-2.468 Z5.837
X-60.243 Y-2.467 Z5.9
G0 X-65.674 Y1.673
Z5.75
G3 X-66.604 Y-0.463 Z5.662 I0.923 J-1.673 F600
X-64.779 Y-1.909 Z5.575 I1.852 J0.463
X-62.915 Y-0.518 Z5.488 I0.027 J1.907
X-63.782 Y1.639 Z5.4 I-1.835 J0.515
X-66.087 Y1.355 Z5.313 I-0.968 J-1.64
X-66.403 Y-0.943 Z5.225 I1.336 J-1.355
X-64.264 Y-1.838 Z5.137 I1.651 J0.943
X-62.852 Y-0.002 Z5.05 I-0.487 J1.836
X-66.652 Y-0.002 I-1.9 J0
X-62.852 Y-0.002 I1.9 J0
G1 X-62.806 Y1.062 F1300
X-62.783 Y1.328
X-62.834 Y1.623
X-62.95 Y1.9
X-63.116 Y2.15
X-63.321 Y2.369
X-63.557 Y2.554
X-63.816 Y2.706
X-64.092 Y2.821
X-64.381 Y2.902
X-64.678 Y2.948
X-64.978 Y2.959
X-65.277 Y2.936
X-65.572 Y2.881
X-65.859 Y2.795
X-66.136 Y2.679
X-66.399 Y2.534
X-66.645 Y2.364
X-66.873 Y2.168
X-67.08 Y1.951
X-67.264 Y1.714
X-67.423 Y1.46
X-67.556 Y1.191
X-67.661 Y0.91
X-67.738 Y0.62
X-67.786 Y0.324
X-67.805 Y0.024
X-67.793 Y-0.275
X-67.753 Y-0.573
X-67.683 Y-0.864
X-67.585 Y-1.148
X-67.459 Y-1.42
X-67.307 Y-1.679
X-67.131 Y-1.922
X-66.931 Y-2.146
X-66.711 Y-2.349
X-66.472 Y-2.53
X-66.216 Y-2.687
X-65.946 Y-2.817
X-65.664 Y-2.921
X-65.374 Y-2.996
X-65.077 Y-3.043
X-64.778 Y-3.06
X-64.478 Y-3.048
X-64.181 Y-3.007
X-63.889 Y-2.936
X-63.606 Y-2.838
X-63.334 Y-2.712
X-63.075 Y-2.56
X-62.832 Y-2.383
X-62.608 Y-2.184
X-62.405 Y-1.963
X-62.224 Y-1.724
X-62.067 Y-1.468
X-61.92 Y-1.167
X-61.758 Y-0.757
X-61.607 Y-0.262
X-61.528 Y0.101
X-61.483 Y0.43
X-61.466 Y0.731
X-61.474 Y1.031
X-61.508 Y1.329
X-61.567 Y1.624
X-61.653 Y1.911
X-61.764 Y2.189
X-61.902 Y2.456
X-62.063 Y2.709
X-62.246 Y2.947
X-62.451 Y3.166
X-62.674 Y3.366
X-62.914 Y3.547
X-63.168 Y3.706
X-63.436 Y3.842
X-63.713 Y3.956
X-63.999 Y4.046
X-64.295 Y4.113
X-64.602 Y4.157
X-64.902 Y4.176
X-65.211 Y4.17
X-65.53 Y4.139
X-65.845 Y4.082
X-66.148 Y4.001
X-66.452 Y3.894
X-66.754 Y3.759
X-67.045 Y3.6
X-67.317 Y3.422
X-67.576 Y3.22
X-67.825 Y2.993
X-68.057 Y2.743
X-68.267 Y2.478
X-68.451 Y2.201
X-68.615 Y1.907
X-68.758 Y1.594
X-68.876 Y1.268
X-68.966 Y0.937
X-69.029 Y0.606
X-69.065 Y0.267
X-69.074 Y-0.079
X-69.055 Y-0.429
X-69.009 Y-0.773
X-68.936 Y-1.107
X-68.837 Y-1.433
X-68.709 Y-1.756
X-68.555 Y-2.07
X-68.376 Y-2.372
X-68.176 Y-2.654
X-67.957 Y-2.915
X-67.715 Y-3.162
X-67.45 Y-3.391
X-67.166 Y-3.599
X-66.869 Y-3.782
X-66.564 Y-3.938
X-66.246 Y-4.069
X-65.914 Y-4.176
X-65.572 Y-4.257
X-65.224 Y-4.31
X-64.878 Y-4.334
X-64.536 Y-4.331
X-64.191 Y-4.299
X-63.846 Y-4.24
X-63.504 Y-4.152
X-63.173 Y-4.039
X-62.859 Y-3.901
X-62.556 Y-3.739
X-62.262 Y-3.55
X-61.982 Y-3.336
X-61.714 Y-3.094
X-61.459 Y-2.825
X-61.209 Y-2.513
X-60.957 Y-2.142
X-60.732 Y-1.746
X-60.541 Y-1.336
X-60.387 Y-0.921
X-60.269 Y-0.503
X-60.186 Y-0.087
X-60.139 Y0.324
X-60.125 Y0.727
X-60.144 Y1.125
X-60.193 Y1.513
X-60.272 Y1.889
X-60.38 Y2.255
X-60.515 Y2.606
X-60.677 Y2.943
X-60.867 Y3.269
X-61.083 Y3.579
X-61.324 Y3.872
X-61.59 Y4.147
X-61.88 Y4.402
X-62.191 Y4.634
X-62.522 Y4.842
X-62.873 Y5.025
X-63.239 Y5.179
X-63.62 Y5.305
X-64.014 Y5.402
X-64.419 Y5.467
X-64.83 Y5.499
X-65.245 Y5.498
X-65.662 Y5.464
X-66.08 Y5.396
X-66.493 Y5.293
X-66.898 Y5.158
X-67.293 Y4.989
X-67.677 Y4.787
X-68.046 Y4.554
X-68.396 Y4.291
X-68.725 Y3.999
X-69.03 Y3.682
X-69.311 Y3.338
X-69.565 Y2.971
X-69.789 Y2.584
X-69.981 Y2.18
X-70.141 Y1.761
X-70.267 Y1.33
X-70.358 Y0.887
X-70.413 Y0.437
X-70.433 Y-0.015
X-70.416 Y-0.466
X-70.362 Y-0.916
X-70.273 Y-1.362
X-70.147 Y-1.8
X-69.987 Y-2.226
X-69.794 Y-2.637
X-69.568 Y-3.032
X-69.311 Y-3.408
X-69.023 Y-3.763
X-68.708 Y-4.094
X-68.368 Y-4.398
X-68.005 Y-4.674
X-67.621 Y-4.919
X-67.217 Y-5.134
X-66.797 Y-5.316
X-66.364 Y-5.463
X-65.921 Y-5.575
X-65.472 Y-5.651
X-65.017 Y-5.69
X-64.558 Y-5.693
X-64.101 Y-5.659
X-63.65 Y-5.589
X-63.206 Y-5.483
X-62.772 Y-5.342
X-62.35 Y-5.166
X-61.94 Y-4.955
X-61.544 Y-4.709
X-61.161 Y-4.426
X-60.787 Y-4.1
X-60.429 Y-3.733
X-60.093 Y-3.329
X-59.942 Y-3.112
X-59.919 Y-3.075
X-59.898 Y-3.036
X-59.398 Y-2.055
X-59.277 Y-1.814
X-59.257 Y-1.753
X-59.246 Y-1.693
X-58.997 Y-0.12
X-58.982 Y0
X-58.997 Y0.121
X-59.246 Y1.694
X-59.257 Y1.754
X-59.277 Y1.814
X-59.645 Y2.54
X-60.051 Y3.337
X-60.099 Y3.408
X-60.194 Y3.508
X-61.308 Y4.621
X-61.343 Y4.653
X-61.378 Y4.678
X-61.449 Y4.717
X-62.873 Y5.443
X-62.937 Y5.473
X-63.001 Y5.494
X-64.193 Y5.684
X-64.694 Y5.763
X-64.754 Y5.767
X-64.815 Y5.762
X-66.386 Y5.513
X-66.507 Y5.492
X-66.567 Y5.472
X-66.628 Y5.442
X-68.079 Y4.703
X-68.11 Y4.685
X-68.14 Y4.664
X-68.2 Y4.613
X-69.366 Y3.447
X-69.394 Y3.417
X-69.417 Y3.387
X-69.485 Y3.266
X-70.101 Y2.056
X-70.223 Y1.814
X-70.244 Y1.749
X-70.256 Y1.683
X-70.503 Y0.121
X-70.518 Y0
X-70.503 Y-0.12
X-70.256 Y-1.683
X-70.244 Y-1.749
X-70.223 Y-1.814
X-69.772 Y-2.702
X-69.485 Y-3.265
X-69.418 Y-3.386
X-69.395 Y-3.416
X-69.367 Y-3.446
X-68.2 Y-4.613
X-68.14 Y-4.664
X-68.11 Y-4.685
X-68.053 Y-4.716
X-66.628 Y-5.442
X-66.568 Y-5.471
X-66.507 Y-5.492
X-66.386 Y-5.513
X-64.815 Y-5.762
X-64.754 Y-5.767
X-64.694 Y-5.763
X-63.243 Y-5.534
X-63.001 Y-5.494
X-62.936 Y-5.473
X-62.871 Y-5.442
X-61.447 Y-4.716
X-61.377 Y-4.678
X-61.343 Y-4.652
X-61.308 Y-4.621
X-60.194 Y-3.507
X-60.099 Y-3.408
X-60.073 Y-3.372
X-60.051 Y-3.336
X-59.898 Y-3.036
G3 X-59.915 Y-2.666 I-0.363 J0.169 F800
G1 X-59.956 Y-2.621 Z5.055
X-59.996 Y-2.578 Z5.069
X-60.035 Y-2.536 Z5.092
X-60.085 Y-2.517 Z5.124
X-60.13 Y-2.499 Z5.165
X-60.168 Y-2.484 Z5.213
X-60.199 Y-2.472 Z5.267
X-60.223 Y-2.469 Z5.325
X-60.238 Y-2.468 Z5.387
X-60.243 Y-2.467 Z5.45
G0 X-65.674 Y1.673
Z5.3
G3 X-66.604 Y-0.463 Z5.213 I0.923 J-1.673 F600
X-64.779 Y-1.909 Z5.125 I1.852 J0.463
X-62.915 Y-0.518 Z5.037 I0.027 J1.907
X-63.782 Y1.639 Z4.95 I-1.835 J0.515
X-66.087 Y1.355 Z4.863 I-0.968 J-1.64
X-66.403 Y-0.943 Z4.775 I1.336 J-1.355
X-64.264 Y-1.838 Z4.688 I1.651 J0.943
X-62.852 Y-0.002 Z4.6 I-0.487 J1.836
X-66.652 Y-0.002 I-1.9 J0
X-62.852 Y-0.002 I1.9 J0
G1 X-62.806 Y1.062 F1300
X-62.783 Y1.328
X-62.834 Y1.623
X-62.95 Y1.9
X-63.116 Y2.15
X-63.321 Y2.369
X-63.557 Y2.554
X-63.816 Y2.706
X-64.092 Y2.821
X-64.381 Y2.902
X-64.678 Y2.948
X-64.978 Y2.959
X-65.277 Y2.936
X-65.572 Y2.881
X-65.859 Y2.795
X-66.136 Y2.679
X-66.399 Y2.534
X-66.645 Y2.364
X-66.873 Y2.168
X-67.08 Y1.951
X-67.264 Y1.714
X-67.423 Y1.46
X-67.556 Y1.191
X-67.661 Y0.91
X-67.738 Y0.62
X-67.786 Y0.324
X-67.805 Y0.024
X-67.793 Y-0.275
X-67.753 Y-0.573
X-67.683 Y-0.864
X-67.585 Y-1.148
X-67.459 Y-1.42
X-67.307 Y-1.679
X-67.131 Y-1.922
X-66.931 Y-2.146
X-66.711 Y-2.349
X-66.472 Y-2.53
X-66.216 Y-2.687
X-65.946 Y-2.817
X-65.664 Y-2.921
X-65.374 Y-2.996
X-65.077 Y-3.043
X-64.778 Y-3.06
X-64.478 Y-3.048
X-64.181 Y-3.007
X-63.889 Y-2.936
X-63.606 Y-2.838
X-63.334 Y-2.712
X-63.075 Y-2.56
X-62.832 Y-2.383
X-62.608 Y-2.184
X-62.405 Y-1.963
X-62.224 Y-1.724
X-62.067 Y-1.468
X-61.92 Y-1.167
X-61.758 Y-0.757
X-61.607 Y-0.262
X-61.528 Y0.101
X-61.483 Y0.43
X-61.466 Y0.731
X-61.474 Y1.031
X-61.508 Y1.329
X-61.567 Y1.624
X-61.653 Y1.911
X-61.764 Y2.189
X-61.902 Y2.456
X-62.063 Y2.709
X-62.246 Y2.947
X-62.451 Y3.166
X-62.674 Y3.366
X-62.914 Y3.547
X-63.168 Y3.706
X-63.436 Y3.842
X-63.713 Y3.956
X-63.999 Y4.046
X-64.295 Y4.113
X-64.602 Y4.157
X-64.902 Y4.176
X-65.211 Y4.17
X-65.53 Y4.139
X-65.845 Y4.082
X-66.148 Y4.001
X-66.452 Y3.894
X-66.754 Y3.759
X-67.045 Y3.6
X-67.317 Y3.422
X-67.576 Y3.22
X-67.825 Y2.993
X-68.057 Y2.743
X-68.267 Y2.478
X-68.451 Y2.201
X-68.615 Y1.907
X-68.758 Y1.594
X-68.876 Y1.268
X-68.966 Y0.937
X-69.029 Y0.606
X-69.065 Y0.267
X-69.074 Y-0.079
X-69.055 Y-0.429
X-69.009 Y-0.773
X-68.936 Y-1.107
X-68.837 Y-1.433
X-68.709 Y-1.756
X-68.555 Y-2.07
X-68.376 Y-2.372
X-68.176 Y-2.654
X-67.957 Y-2.915
X-67.715 Y-3.162
X-67.45 Y-3.391
X-67.166 Y-3.599
X-66.869 Y-3.782
X-66.564 Y-3.938
X-66.246 Y-4.069
X-65.914 Y-4.176
X-65.572 Y-4.257
X-65.224 Y-4.31
X-64.878 Y-4.334
X-64.536 Y-4.331
X-64.191 Y-4.299
X-63.846 Y-4.24
X-63.504 Y-4.152
X-63.173 Y-4.039
X-62.859 Y-3.901
X-62.556 Y-3.739
X-62.262 Y-3.55
X-61.982 Y-3.336
X-61.714 Y-3.094
X-61.459 Y-2.825
X-61.209 Y-2.513
X-60.957 Y-2.142
X-60.732 Y-1.746
X-60.541 Y-1.336
X-60.387 Y-0.921
X-60.269 Y-0.503
X-60.186 Y-0.087
X-60.139 Y0.324
X-60.125 Y0.727
X-60.144 Y1.125
X-60.193 Y1.513
X-60.272 Y1.889
X-60.38 Y2.255
X-60.515 Y2.606
X-60.677 Y2.943
X-60.867 Y3.269
X-61.083 Y3.579
X-61.324 Y3.872
X-61.59 Y4.147
X-61.88 Y4.402
X-62.191 Y4.634
X-62.522 Y4.842
X-62.873 Y5.025
X-63.239 Y5.179
X-63.62 Y5.305
X-64.014 Y5.402
X-64.419 Y5.467
X-64.83 Y5.499
X-65.245 Y5.498
X-65.662 Y5.464
X-66.08 Y5.396
X-66.493 Y5.293
X-66.898 Y5.158
X-67.293 Y4.989
X-67.677 Y4.787
X-68.046 Y4.554
X-68.396 Y4.291
X-68.725 Y3.999
X-69.03 Y3.682
X-69.311 Y3.338
X-69.565 Y2.971
X-69.789 Y2.584
X-69.981 Y2.18
X-70.141 Y1.761
X-70.267 Y1.33
X-70.358 Y0.887
X-70.413 Y0.437
X-70.433 Y-0.015
X-70.416 Y-0.466
X-70.362 Y-0.916
X-70.273 Y-1.362
X-70.147 Y-1.8
X-69.987 Y-2.226
X-69.794 Y-2.637
X-69.568 Y-3.032
X-69.311 Y-3.408
X-69.023 Y-3.763
X-68.708 Y-4.094
X-68.368 Y-4.398
X-68.005 Y-4.674
X-67.621 Y-4.919
X-67.217 Y-5.134
X-66.797 Y-5.316
X-66.364 Y-5.463
X-65.921 Y-5.575
X-65.472 Y-5.651
X-65.017 Y-5.69
X-64.558 Y-5.693
X-64.101 Y-5.659
X-63.65 Y-5.589
X-63.206 Y-5.483
X-62.772 Y-5.342
X-62.35 Y-5.166
X-61.94 Y-4.955
X-61.544 Y-4.709
X-61.161 Y-4.426
X-60.787 Y-4.1
X-60.429 Y-3.733
X-60.093 Y-3.329
X-59.942 Y-3.112
X-59.919 Y-3.075
X-59.898 Y-3.036
X-59.398 Y-2.055
X-59.277 Y-1.814
X-59.257 Y-1.753
X-59.246 Y-1.693
X-58.997 Y-0.12
X-58.982 Y0
X-58.997 Y0.121
X-59.246 Y1.694
X-59.257 Y1.754
X-59.277 Y1.814
X-59.645 Y2.54
X-60.051 Y3.337
X-60.099 Y3.408
X-60.194 Y3.508
X-61.308 Y4.621
X-61.343 Y4.653
X-61.378 Y4.678
X-61.449 Y4.717
X-62.873 Y5.443
X-62.937 Y5.473
X-63.001 Y5.494
X-64.193 Y5.684
X-64.694 Y5.763
X-64.754 Y5.767
X-64.815 Y5.762
X-66.386 Y5.513
X-66.507 Y5.492
X-66.567 Y5.472
X-66.628 Y5.442
X-68.079 Y4.703
X-68.11 Y4.685
X-68.14 Y4.664
X-68.2 Y4.613
X-69.366 Y3.447
X-69.394 Y3.417
X-69.417 Y3.387
X-69.485 Y3.266
X-70.101 Y2.056
X-70.223 Y1.814
X-70.244 Y1.749
X-70.256 Y1.683
X-70.503 Y0.121
X-70.518 Y0
X-70.503 Y-0.12
X-70.256 Y-1.683
X-70.244 Y-1.749
X-70.223 Y-1.814
X-69.772 Y-2.702
X-69.485 Y-3.265
X-69.418 Y-3.386
X-69.395 Y-3.416
X-69.367 Y-3.446
X-68.2 Y-4.613
X-68.14 Y-4.664
X-68.11 Y-4.685
X-68.053 Y-4.716
X-66.628 Y-5.442
X-66.568 Y-5.471
X-66.507 Y-5.492
X-66.386 Y-5.513
X-64.815 Y-5.762
X-64.754 Y-5.767
X-64.694 Y-5.763
X-63.243 Y-5.534
X-63.001 Y-5.494
X-62.936 Y-5.473
X-62.871 Y-5.442
X-61.447 Y-4.716
X-61.377 Y-4.678
X-61.343 Y-4.652
X-61.308 Y-4.621
X-60.194 Y-3.507
X-60.099 Y-3.408
X-60.073 Y-3.372
X-60.051 Y-3.336
X-59.898 Y-3.036
G3 X-59.915 Y-2.666 I-0.363 J0.169 F800
G1 X-59.956 Y-2.621 Z4.605
X-59.996 Y-2.578 Z4.619
X-60.035 Y-2.536 Z4.642
X-60.085 Y-2.517 Z4.674
X-60.13 Y-2.499 Z4.715
X-60.168 Y-2.484 Z4.763
X-60.199 Y-2.472 Z4.817
X-60.223 Y-2.469 Z4.875
X-60.238 Y-2.468 Z4.937
X-60.243 Y-2.467 Z5
G0 X-65.674 Y1.673
Z4.85
G3 X-66.604 Y-0.463 Z4.762 I0.923 J-1.673 F600
X-64.779 Y-1.909 Z4.675 I1.852 J0.463
X-62.915 Y-0.518 Z4.588 I0.027 J1.907
X-63.782 Y1.639 Z4.5 I-1.835 J0.515
X-66.087 Y1.355 Z4.412 I-0.968 J-1.64
X-66.403 Y-0.943 Z4.325 I1.336 J-1.355
X-64.264 Y-1.838 Z4.238 I1.651 J0.943
X-62.852 Y-0.002 Z4.15 I-0.487 J1.836
X-66.652 Y-0.002 I-1.9 J0
X-62.852 Y-0.002 I1.9 J0
G1 X-62.806 Y1.062 F1300
X-62.783 Y1.328
X-62.834 Y1.623
X-62.95 Y1.9
X-63.116 Y2.15
X-63.321 Y2.369
X-63.557 Y2.554
X-63.816 Y2.706
X-64.092 Y2.821
X-64.381 Y2.902
X-64.678 Y2.948
X-64.978 Y2.959
X-65.277 Y2.936
X-65.572 Y2.881
X-65.859 Y2.795
X-66.136 Y2.679
X-66.399 Y2.534
X-66.645 Y2.364
X-66.873 Y2.168
X-67.08 Y1.951
X-67.264 Y1.714
X-67.423 Y1.46
X-67.556 Y1.191
X-67.661 Y0.91
X-67.738 Y0.62
X-67.786 Y0.324
X-67.805 Y0.024
X-67.793 Y-0.275
X-67.753 Y-0.573
X-67.683 Y-0.864
X-67.585 Y-1.148
X-67.459 Y-1.42
X-67.307 Y-1.679
X-67.131 Y-1.922
X-66.931 Y-2.146
X-66.711 Y-2.349
X-66.472 Y-2.53
X-66.216 Y-2.687
X-65.946 Y-2.817
X-65.664 Y-2.921
X-65.374 Y-2.996
X-65.077 Y-3.043
X-64.778 Y-3.06
X-64.478 Y-3.048
X-64.181 Y-3.007
X-63.889 Y-2.936
X-63.606 Y-2.838
X-63.334 Y-2.712
X-63.075 Y-2.56
X-62.832 Y-2.383
X-62.608 Y-2.184
X-62.405 Y-1.963
X-62.224 Y-1.724
X-62.067 Y-1.468
X-61.92 Y-1.167
X-61.758 Y-0.757
X-61.607 Y-0.262
X-61.528 Y0.101
X-61.483 Y0.43
X-61.466 Y0.731
X-61.474 Y1.031
X-61.508 Y1.329
X-61.567 Y1.624
X-61.653 Y1.911
X-61.764 Y2.189
X-61.902 Y2.456
X-62.063 Y2.709
X-62.246 Y2.947
X-62.451 Y3.166
X-62.674 Y3.366
X-62.914 Y3.547
X-63.168 Y3.706
X-63.436 Y3.842
X-63.713 Y3.956
X-63.999 Y4.046
X-64.295 Y4.113
X-64.602 Y4.157
X-64.902 Y4.176
X-65.211 Y4.17
X-65.53 Y4.139
X-65.845 Y4.082
X-66.148 Y4.001
X-66.452 Y3.894
X-66.754 Y3.759
X-67.045 Y3.6
X-67.317 Y3.422
X-67.576 Y3.22
X-67.825 Y2.993
X-68.057 Y2.743
X-68.267 Y2.478
X-68.451 Y2.201
X-68.615 Y1.907
X-68.758 Y1.594
X-68.876 Y1.268
X-68.966 Y0.937
X-69.029 Y0.606
X-69.065 Y0.267
X-69.074 Y-0.079
X-69.055 Y-0.429
X-69.009 Y-0.773
X-68.936 Y-1.107
X-68.837 Y-1.433
X-68.709 Y-1.756
X-68.555 Y-2.07
X-68.376 Y-2.372
X-68.176 Y-2.654
X-67.957 Y-2.915
X-67.715 Y-3.162
X-67.45 Y-3.391
X-67.166 Y-3.599
X-66.869 Y-3.782
X-66.564 Y-3.938
X-66.246 Y-4.069
X-65.914 Y-4.176
X-65.572 Y-4.257
X-65.224 Y-4.31
X-64.878 Y-4.334
X-64.536 Y-4.331
X-64.191 Y-4.299
X-63.846 Y-4.24
X-63.504 Y-4.152
X-63.173 Y-4.039
X-62.859 Y-3.901
X-62.556 Y-3.739
X-62.262 Y-3.55
X-61.982 Y-3.336
X-61.714 Y-3.094
X-61.459 Y-2.825
X-61.209 Y-2.513
X-60.957 Y-2.142
X-60.732 Y-1.746
X-60.541 Y-1.336
X-60.387 Y-0.921
X-60.269 Y-0.503
X-60.186 Y-0.087
X-60.139 Y0.324
X-60.125 Y0.727
X-60.144 Y1.125
X-60.193 Y1.513
X-60.272 Y1.889
X-60.38 Y2.255
X-60.515 Y2.606
X-60.677 Y2.943
X-60.867 Y3.269
X-61.083 Y3.579
X-61.324 Y3.872
X-61.59 Y4.147
X-61.88 Y4.402
X-62.191 Y4.634
X-62.522 Y4.842
X-62.873 Y5.025
X-63.239 Y5.179
X-63.62 Y5.305
X-64.014 Y5.402
X-64.419 Y5.467
X-64.83 Y5.499
X-65.245 Y5.498
X-65.662 Y5.464
X-66.08 Y5.396
X-66.493 Y5.293
X-66.898 Y5.158
X-67.293 Y4.989
X-67.677 Y4.787
X-68.046 Y4.554
X-68.396 Y4.291
X-68.725 Y3.999
X-69.03 Y3.682
X-69.311 Y3.338
X-69.565 Y2.971
X-69.789 Y2.584
X-69.981 Y2.18
X-70.141 Y1.761
X-70.267 Y1.33
X-70.358 Y0.887
X-70.413 Y0.437
X-70.433 Y-0.015
X-70.416 Y-0.466
X-70.362 Y-0.916
X-70.273 Y-1.362
X-70.147 Y-1.8
X-69.987 Y-2.226
X-69.794 Y-2.637
X-69.568 Y-3.032
X-69.311 Y-3.408
X-69.023 Y-3.763
X-68.708 Y-4.094
X-68.368 Y-4.398
X-68.005 Y-4.674
X-67.621 Y-4.919
X-67.217 Y-5.134
X-66.797 Y-5.316
X-66.364 Y-5.463
X-65.921 Y-5.575
X-65.472 Y-5.651
X-65.017 Y-5.69
X-64.558 Y-5.693
X-64.101 Y-5.659
X-63.65 Y-5.589
X-63.206 Y-5.483
X-62.772 Y-5.342
X-62.35 Y-5.166
X-61.94 Y-4.955
X-61.544 Y-4.709
X-61.161 Y-4.426
X-60.787 Y-4.1
X-60.429 Y-3.733
X-60.093 Y-3.329
X-59.942 Y-3.112
X-59.919 Y-3.075
X-59.898 Y-3.036
X-59.398 Y-2.055
X-59.277 Y-1.814
X-59.257 Y-1.753
X-59.246 Y-1.693
X-58.997 Y-0.12
X-58.982 Y0
X-58.997 Y0.121
X-59.246 Y1.694
X-59.257 Y1.754
X-59.277 Y1.814
X-59.645 Y2.54
X-60.051 Y3.337
X-60.099 Y3.408
X-60.194 Y3.508
X-61.308 Y4.621
X-61.343 Y4.653
X-61.378 Y4.678
X-61.449 Y4.717
X-62.873 Y5.443
X-62.937 Y5.473
X-63.001 Y5.494
X-64.193 Y5.684
X-64.694 Y5.763
X-64.754 Y5.767
X-64.815 Y5.762
X-66.386 Y5.513
X-66.507 Y5.492
X-66.567 Y5.472
X-66.628 Y5.442
X-68.079 Y4.703
X-68.11 Y4.685
X-68.14 Y4.664
X-68.2 Y4.613
X-69.366 Y3.447
X-69.394 Y3.417
X-69.417 Y3.387
X-69.485 Y3.266
X-70.101 Y2.056
X-70.223 Y1.814
X-70.244 Y1.749
X-70.256 Y1.683
X-70.503 Y0.121
X-70.518 Y0
X-70.503 Y-0.12
X-70.256 Y-1.683
X-70.244 Y-1.749
X-70.223 Y-1.814
X-69.772 Y-2.702
X-69.485 Y-3.265
X-69.418 Y-3.386
X-69.395 Y-3.416
X-69.367 Y-3.446
X-68.2 Y-4.613
X-68.14 Y-4.664
X-68.11 Y-4.685
X-68.053 Y-4.716
X-66.628 Y-5.442
X-66.568 Y-5.471
X-66.507 Y-5.492
X-66.386 Y-5.513
X-64.815 Y-5.762
X-64.754 Y-5.767
X-64.694 Y-5.763
X-63.243 Y-5.534
X-63.001 Y-5.494
X-62.936 Y-5.473
X-62.871 Y-5.442
X-61.447 Y-4.716
X-61.377 Y-4.678
X-61.343 Y-4.652
X-61.308 Y-4.621
X-60.194 Y-3.507
X-60.099 Y-3.408
X-60.073 Y-3.372
X-60.051 Y-3.336
X-59.898 Y-3.036
G3 X-59.915 Y-2.666 I-0.363 J0.169 F800
G1 X-59.956 Y-2.621 Z4.155
X-59.996 Y-2.578 Z4.169
X-60.035 Y-2.536 Z4.192
X-60.085 Y-2.517 Z4.224
X-60.13 Y-2.499 Z4.265
X-60.168 Y-2.484 Z4.313
X-60.199 Y-2.472 Z4.367
X-60.223 Y-2.469 Z4.425
X-60.238 Y-2.468 Z4.487
X-60.243 Y-2.467 Z4.55
G0 X-65.674 Y1.673
Z4.4
G3 X-66.604 Y-0.463 Z4.313 I0.923 J-1.673 F600
X-64.779 Y-1.909 Z4.225 I1.852 J0.463
X-62.915 Y-0.518 Z4.137 I0.027 J1.907
X-63.782 Y1.639 Z4.05 I-1.835 J0.515
X-66.087 Y1.355 Z3.963 I-0.968 J-1.64
X-66.403 Y-0.943 Z3.875 I1.336 J-1.355
X-64.264 Y-1.838 Z3.787 I1.651 J0.943
X-62.852 Y-0.002 Z3.7 I-0.487 J1.836
X-66.652 Y-0.002 I-1.9 J0
X-62.852 Y-0.002 I1.9 J0
G1 X-62.806 Y1.062 F1300
X-62.783 Y1.328
X-62.834 Y1.623
X-62.95 Y1.9
X-63.116 Y2.15
X-63.321 Y2.369
X-63.557 Y2.554
X-63.816 Y2.706
X-64.092 Y2.821
X-64.381 Y2.902
X-64.678 Y2.948
X-64.978 Y2.959
X-65.277 Y2.936
X-65.572 Y2.881
X-65.859 Y2.795
X-66.136 Y2.679
X-66.399 Y2.534
X-66.645 Y2.364
X-66.873 Y2.168
X-67.08 Y1.951
X-67.264 Y1.714
X-67.423 Y1.46
X-67.556 Y1.191
X-67.661 Y0.91
X-67.738 Y0.62
X-67.786 Y0.324
X-67.805 Y0.024
X-67.793 Y-0.275
X-67.753 Y-0.573
X-67.683 Y-0.864
X-67.585 Y-1.148
X-67.459 Y-1.42
X-67.307 Y-1.679
X-67.131 Y-1.922
X-66.931 Y-2.146
X-66.711 Y-2.349
X-66.472 Y-2.53
X-66.216 Y-2.687
X-65.946 Y-2.817
X-65.664 Y-2.921
X-65.374 Y-2.996
X-65.077 Y-3.043
X-64.778 Y-3.06
X-64.478 Y-3.048
X-64.181 Y-3.007
X-63.889 Y-2.936
X-63.606 Y-2.838
X-63.334 Y-2.712
X-63.075 Y-2.56
X-62.832 Y-2.383
X-62.608 Y-2.184
X-62.405 Y-1.963
X-62.224 Y-1.724
X-62.067 Y-1.468
X-61.92 Y-1.167
X-61.758 Y-0.757
X-61.607 Y-0.262
X-61.528 Y0.101
X-61.483 Y0.43
X-61.466 Y0.731
X-61.474 Y1.031
X-61.508 Y1.329
X-61.567 Y1.624
X-61.653 Y1.911
X-61.764 Y2.189
X-61.902 Y2.456
X-62.063 Y2.709
X-62.246 Y2.947
X-62.451 Y3.166
X-62.674 Y3.366
X-62.914 Y3.547
X-63.168 Y3.706
X-63.436 Y3.842
X-63.713 Y3.956
X-63.999 Y4.046
X-64.295 Y4.113
X-64.602 Y4.157
X-64.902 Y4.176
X-65.211 Y4.17
X-65.53 Y4.139
X-65.845 Y4.082
X-66.148 Y4.001
X-66.452 Y3.894
X-66.754 Y3.759
X-67.045 Y3.6
X-67.317 Y3.422
X-67.576 Y3.22
X-67.825 Y2.993
X-68.057 Y2.743
X-68.267 Y2.478
X-68.451 Y2.201
X-68.615 Y1.907
X-68.758 Y1.594
X-68.876 Y1.268
X-68.966 Y0.937
X-69.029 Y0.606
X-69.065 Y0.267
X-69.074 Y-0.079
X-69.055 Y-0.429
X-69.009 Y-0.773
X-68.936 Y-1.107
X-68.837 Y-1.433
X-68.709 Y-1.756
X-68.555 Y-2.07
X-68.376 Y-2.372
X-68.176 Y-2.654
X-67.957 Y-2.915
X-67.715 Y-3.162
X-67.45 Y-3.391
X-67.166 Y-3.599
X-66.869 Y-3.782
X-66.564 Y-3.938
X-66.246 Y-4.069
X-65.914 Y-4.176
X-65.572 Y-4.257
X-65.224 Y-4.31
X-64.878 Y-4.334
X-64.536 Y-4.331
X-64.191 Y-4.299
X-63.846 Y-4.24
X-63.504 Y-4.152
X-63.173 Y-4.039
X-62.859 Y-3.901
X-62.556 Y-3.739
X-62.262 Y-3.55
X-61.982 Y-3.336
X-61.714 Y-3.094
X-61.459 Y-2.825
X-61.209 Y-2.513
X-60.957 Y-2.142
X-60.732 Y-1.746
X-60.541 Y-1.336
X-60.387 Y-0.921
X-60.269 Y-0.503
X-60.186 Y-0.087
X-60.139 Y0.324
X-60.125 Y0.727
X-60.144 Y1.125
X-60.193 Y1.513
X-60.272 Y1.889
X-60.38 Y2.255
X-60.515 Y2.606
X-60.677 Y2.943
X-60.867 Y3.269
X-61.083 Y3.579
X-61.324 Y3.872
X-61.59 Y4.147
X-61.88 Y4.402
X-62.191 Y4.634
X-62.522 Y4.842
X-62.873 Y5.025
X-63.239 Y5.179
X-63.62 Y5.305
X-64.014 Y5.402
X-64.419 Y5.467
X-64.83 Y5.499
X-65.245 Y5.498
X-65.662 Y5.464
X-66.08 Y5.396
X-66.493 Y5.293
X-66.898 Y5.158
X-67.293 Y4.989
X-67.677 Y4.787
X-68.046 Y4.554
X-68.396 Y4.291
X-68.725 Y3.999
X-69.03 Y3.682
X-69.311 Y3.338
X-69.565 Y2.971
X-69.789 Y2.584
X-69.981 Y2.18
X-70.141 Y1.761
X-70.267 Y1.33
X-70.358 Y0.887
X-70.413 Y0.437
X-70.433 Y-0.015
X-70.416 Y-0.466
X-70.362 Y-0.916
X-70.273 Y-1.362
X-70.147 Y-1.8
X-69.987 Y-2.226
X-69.794 Y-2.637
X-69.568 Y-3.032
X-69.311 Y-3.408
X-69.023 Y-3.763
X-68.708 Y-4.094
X-68.368 Y-4.398
X-68.005 Y-4.674
X-67.621 Y-4.919
X-67.217 Y-5.134
X-66.797 Y-5.316
X-66.364 Y-5.463
X-65.921 Y-5.575
X-65.472 Y-5.651
X-65.017 Y-5.69
X-64.558 Y-5.693
X-64.101 Y-5.659
X-63.65 Y-5.589
X-63.206 Y-5.483
X-62.772 Y-5.342
X-62.35 Y-5.166
X-61.94 Y-4.955
X-61.544 Y-4.709
X-61.161 Y-4.426
X-60.787 Y-4.1
X-60.429 Y-3.733
X-60.093 Y-3.329
X-59.942 Y-3.112
X-59.919 Y-3.075
X-59.898 Y-3.036
X-59.398 Y-2.055
X-59.277 Y-1.814
X-59.257 Y-1.753
X-59.246 Y-1.693
X-58.997 Y-0.12
X-58.982 Y0
X-58.997 Y0.121
X-59.246 Y1.694
X-59.257 Y1.754
X-59.277 Y1.814
X-59.645 Y2.54
X-60.051 Y3.337
X-60.099 Y3.408
X-60.194 Y3.508
X-61.308 Y4.621
X-61.343 Y4.653
X-61.378 Y4.678
X-61.449 Y4.717
X-62.873 Y5.443
X-62.937 Y5.473
X-63.001 Y5.494
X-64.193 Y5.684
X-64.694 Y5.763
X-64.754 Y5.767
X-64.815 Y5.762
X-66.386 Y5.513
X-66.507 Y5.492
X-66.567 Y5.472
X-66.628 Y5.442
X-68.079 Y4.703
X-68.11 Y4.685
X-68.14 Y4.664
X-68.2 Y4.613
X-69.366 Y3.447
X-69.394 Y3.417
X-69.417 Y3.387
X-69.485 Y3.266
X-70.101 Y2.056
X-70.223 Y1.814
X-70.244 Y1.749
X-70.256 Y1.683
X-70.503 Y0.121
X-70.518 Y0
X-70.503 Y-0.12
X-70.256 Y-1.683
X-70.244 Y-1.749
X-70.223 Y-1.814
X-69.772 Y-2.702
X-69.485 Y-3.265
X-69.418 Y-3.386
X-69.395 Y-3.416
X-69.367 Y-3.446
X-68.2 Y-4.613
X-68.14 Y-4.664
X-68.11 Y-4.685
X-68.053 Y-4.716
X-66.628 Y-5.442
X-66.568 Y-5.471
X-66.507 Y-5.492
X-66.386 Y-5.513
X-64.815 Y-5.762
X-64.754 Y-5.767
X-64.694 Y-5.763
X-63.243 Y-5.534
X-63.001 Y-5.494
X-62.936 Y-5.473
X-62.871 Y-5.442
X-61.447 Y-4.716
X-61.377 Y-4.678
X-61.343 Y-4.652
X-61.308 Y-4.621
X-60.194 Y-3.507
X-60.099 Y-3.408
X-60.073 Y-3.372
X-60.051 Y-3.336
X-59.898 Y-3.036
G3 X-59.915 Y-2.666 I-0.363 J0.169 F800
G1 X-59.956 Y-2.621 Z3.705
X-59.996 Y-2.578 Z3.719
X-60.035 Y-2.536 Z3.742
X-60.085 Y-2.517 Z3.774
X-60.13 Y-2.499 Z3.815
X-60.168 Y-2.484 Z3.863
X-60.199 Y-2.472 Z3.917
X-60.223 Y-2.469 Z3.975
X-60.238 Y-2.468 Z4.037
X-60.243 Y-2.467 Z4.1
G0 X-65.674 Y1.673
Z3.95
G3 X-66.604 Y-0.463 Z3.862 I0.923 J-1.673 F600
X-64.779 Y-1.909 Z3.775 I1.852 J0.463
X-62.915 Y-0.518 Z3.688 I0.027 J1.907
X-63.782 Y1.639 Z3.6 I-1.835 J0.515
X-66.087 Y1.355 Z3.513 I-0.968 J-1.64
X-66.403 Y-0.943 Z3.425 I1.336 J-1.355
X-64.264 Y-1.838 Z3.338 I1.651 J0.943
X-62.852 Y-0.002 Z3.25 I-0.487 J1.836
X-66.652 Y-0.002 I-1.9 J0
X-62.852 Y-0.002 I1.9 J0
G1 X-62.806 Y1.062 F1300
X-62.783 Y1.328
X-62.834 Y1.623
X-62.95 Y1.9
X-63.116 Y2.15
X-63.321 Y2.369
X-63.557 Y2.554
X-63.816 Y2.706
X-64.092 Y2.821
X-64.381 Y2.902
X-64.678 Y2.948
X-64.978 Y2.959
X-65.277 Y2.936
X-65.572 Y2.881
X-65.859 Y2.795
X-66.136 Y2.679
X-66.399 Y2.534
X-66.645 Y2.364
X-66.873 Y2.168
X-67.08 Y1.951
X-67.264 Y1.714
X-67.423 Y1.46
X-67.556 Y1.191
X-67.661 Y0.91
X-67.738 Y0.62
X-67.786 Y0.324
X-67.805 Y0.024
X-67.793 Y-0.275
X-67.753 Y-0.573
X-67.683 Y-0.864
X-67.585 Y-1.148
X-67.459 Y-1.42
X-67.307 Y-1.679
X-67.131 Y-1.922
X-66.931 Y-2.146
X-66.711 Y-2.349
X-66.472 Y-2.53
X-66.216 Y-2.687
X-65.946 Y-2.817
X-65.664 Y-2.921
X-65.374 Y-2.996
X-65.077 Y-3.043
X-64.778 Y-3.06
X-64.478 Y-3.048
X-64.181 Y-3.007
X-63.889 Y-2.936
X-63.606 Y-2.838
X-63.334 Y-2.712
X-63.075 Y-2.56
X-62.832 Y-2.383
X-62.608 Y-2.184
X-62.405 Y-1.963
X-62.224 Y-1.724
X-62.067 Y-1.468
X-61.92 Y-1.167
X-61.758 Y-0.757
X-61.607 Y-0.262
X-61.528 Y0.101
X-61.483 Y0.43
X-61.466 Y0.731
X-61.474 Y1.031
X-61.508 Y1.329
X-61.567 Y1.624
X-61.653 Y1.911
X-61.764 Y2.189
X-61.902 Y2.456
X-62.063 Y2.709
X-62.246 Y2.947
X-62.451 Y3.166
X-62.674 Y3.366
X-62.914 Y3.547
X-63.168 Y3.706
X-63.436 Y3.842
X-63.713 Y3.956
X-63.999 Y4.046
X-64.295 Y4.113
X-64.602 Y4.157
X-64.902 Y4.176
X-65.211 Y4.17
X-65.53 Y4.139
X-65.845 Y4.082
X-66.148 Y4.001
X-66.452 Y3.894
X-66.754 Y3.759
X-67.045 Y3.6
X-67.317 Y3.422
X-67.576 Y3.22
X-67.825 Y2.993
X-68.057 Y2.743
X-68.267 Y2.478
X-68.451 Y2.201
X-68.615 Y1.907
X-68.758 Y1.594
X-68.876 Y1.268
X-68.966 Y0.937
X-69.029 Y0.606
X-69.065 Y0.267
X-69.074 Y-0.079
X-69.055 Y-0.429
X-69.009 Y-0.773
X-68.936 Y-1.107
X-68.837 Y-1.433
X-68.709 Y-1.756
X-68.555 Y-2.07
X-68.376 Y-2.372
X-68.176 Y-2.654
X-67.957 Y-2.915
X-67.715 Y-3.162
X-67.45 Y-3.391
X-67.166 Y-3.599
X-66.869 Y-3.782
X-66.564 Y-3.938
X-66.246 Y-4.069
X-65.914 Y-4.176
X-65.572 Y-4.257
X-65.224 Y-4.31
X-64.878 Y-4.334
X-64.536 Y-4.331
X-64.191 Y-4.299
X-63.846 Y-4.24
X-63.504 Y-4.152
X-63.173 Y-4.039
X-62.859 Y-3.901
X-62.556 Y-3.739
X-62.262 Y-3.55
X-61.982 Y-3.336
X-61.714 Y-3.094
X-61.459 Y-2.825
X-61.209 Y-2.513
X-60.957 Y-2.142
X-60.732 Y-1.746
X-60.541 Y-1.336
X-60.387 Y-0.921
X-60.269 Y-0.503
X-60.186 Y-0.087
X-60.139 Y0.324
X-60.125 Y0.727
X-60.144 Y1.125
X-60.193 Y1.513
X-60.272 Y1.889
X-60.38 Y2.255
X-60.515 Y2.606
X-60.677 Y2.943
X-60.867 Y3.269
X-61.083 Y3.579
X-61.324 Y3.872
X-61.59 Y4.147
X-61.88 Y4.402
X-62.191 Y4.634
X-62.522 Y4.842
X-62.873 Y5.025
X-63.239 Y5.179
X-63.62 Y5.305
X-64.014 Y5.402
X-64.419 Y5.467
X-64.83 Y5.499
X-65.245 Y5.498
X-65.662 Y5.464
X-66.08 Y5.396
X-66.493 Y5.293
X-66.898 Y5.158
X-67.293 Y4.989
X-67.677 Y4.787
X-68.046 Y4.554
X-68.396 Y4.291
X-68.725 Y3.999
X-69.03 Y3.682
X-69.311 Y3.338
X-69.565 Y2.971
X-69.789 Y2.584
X-69.981 Y2.18
X-70.141 Y1.761
X-70.267 Y1.33
X-70.358 Y0.887
X-70.413 Y0.437
X-70.433 Y-0.015
X-70.416 Y-0.466
X-70.362 Y-0.916
X-70.273 Y-1.362
X-70.147 Y-1.8
X-69.987 Y-2.226
X-69.794 Y-2.637
X-69.568 Y-3.032
X-69.311 Y-3.408
X-69.023 Y-3.763
X-68.708 Y-4.094
X-68.368 Y-4.398
X-68.005 Y-4.674
X-67.621 Y-4.919
X-67.217 Y-5.134
X-66.797 Y-5.316
X-66.364 Y-5.463
X-65.921 Y-5.575
X-65.472 Y-5.651
X-65.017 Y-5.69
X-64.558 Y-5.693
X-64.101 Y-5.659
X-63.65 Y-5.589
X-63.206 Y-5.483
X-62.772 Y-5.342
X-62.35 Y-5.166
X-61.94 Y-4.955
X-61.544 Y-4.709
X-61.161 Y-4.426
X-60.787 Y-4.1
X-60.429 Y-3.733
X-60.093 Y-3.329
X-59.942 Y-3.112
X-59.919 Y-3.075
X-59.898 Y-3.036
X-59.398 Y-2.055
X-59.277 Y-1.814
X-59.257 Y-1.753
X-59.246 Y-1.693
X-58.997 Y-0.12
X-58.982 Y0
X-58.997 Y0.121
X-59.246 Y1.694
X-59.257 Y1.754
X-59.277 Y1.814
X-59.645 Y2.54
X-60.051 Y3.337
X-60.099 Y3.408
X-60.194 Y3.508
X-61.308 Y4.621
X-61.343 Y4.653
X-61.378 Y4.678
X-61.449 Y4.717
X-62.873 Y5.443
X-62.937 Y5.473
X-63.001 Y5.494
X-64.193 Y5.684
X-64.694 Y5.763
X-64.754 Y5.767
X-64.815 Y5.762
X-66.386 Y5.513
X-66.507 Y5.492
X-66.567 Y5.472
X-66.628 Y5.442
X-68.079 Y4.703
X-68.11 Y4.685
X-68.14 Y4.664
X-68.2 Y4.613
X-69.366 Y3.447
X-69.394 Y3.417
X-69.417 Y3.387
X-69.485 Y3.266
X-70.101 Y2.056
X-70.223 Y1.814
X-70.244 Y1.749
X-70.256 Y1.683
X-70.503 Y0.121
X-70.518 Y0
X-70.503 Y-0.12
X-70.256 Y-1.683
X-70.244 Y-1.749
X-70.223 Y-1.814
X-69.772 Y-2.702
X-69.485 Y-3.265
X-69.418 Y-3.386
X-69.395 Y-3.416
X-69.367 Y-3.446
X-68.2 Y-4.613
X-68.14 Y-4.664
X-68.11 Y-4.685
X-68.053 Y-4.716
X-66.628 Y-5.442
X-66.568 Y-5.471
X-66.507 Y-5.492
X-66.386 Y-5.513
X-64.815 Y-5.762
X-64.754 Y-5.767
X-64.694 Y-5.763
X-63.243 Y-5.534
X-63.001 Y-5.494
X-62.936 Y-5.473
X-62.871 Y-5.442
X-61.447 Y-4.716
X-61.377 Y-4.678
X-61.343 Y-4.652
X-61.308 Y-4.621
X-60.194 Y-3.507
X-60.099 Y-3.408
X-60.073 Y-3.372
X-60.051 Y-3.336
X-59.898 Y-3.036
G3 X-59.915 Y-2.666 I-0.363 J0.169 F800
G1 X-59.956 Y-2.621 Z3.255
X-59.996 Y-2.578 Z3.269
X-60.035 Y-2.536 Z3.292
X-60.085 Y-2.517 Z3.324
X-60.13 Y-2.499 Z3.365
X-60.168 Y-2.484 Z3.413
X-60.199 Y-2.472 Z3.467
X-60.223 Y-2.469 Z3.525
X-60.238 Y-2.468 Z3.587
X-60.243 Y-2.467 Z3.65
G0 X-65.674 Y1.673
Z3.5
G3 X-66.604 Y-0.463 Z3.412 I0.923 J-1.673 F600
X-64.779 Y-1.909 Z3.325 I1.852 J0.463
X-62.915 Y-0.518 Z3.237 I0.027 J1.907
X-63.782 Y1.639 Z3.15 I-1.835 J0.515
X-66.087 Y1.355 Z3.063 I-0.968 J-1.64
X-66.403 Y-0.943 Z2.975 I1.336 J-1.355
X-64.264 Y-1.838 Z2.888 I1.651 J0.943
X-62.852 Y-0.002 Z2.8 I-0.487 J1.836
X-66.652 Y-0.002 I-1.9 J0
X-62.852 Y-0.002 I1.9 J0
G1 X-62.806 Y1.062 F1300
X-62.783 Y1.328
X-62.834 Y1.623
X-62.95 Y1.9
X-63.116 Y2.15
X-63.321 Y2.369
X-63.557 Y2.554
X-63.816 Y2.706
X-64.092 Y2.821
X-64.381 Y2.902
X-64.678 Y2.948
X-64.978 Y2.959
X-65.277 Y2.936
X-65.572 Y2.881
X-65.859 Y2.795
X-66.136 Y2.679
X-66.399 Y2.534
X-66.645 Y2.364
X-66.873 Y2.168
X-67.08 Y1.951
X-67.264 Y1.714
X-67.423 Y1.46
X-67.556 Y1.191
X-67.661 Y0.91
X-67.738 Y0.62
X-67.786 Y0.324
X-67.805 Y0.024
X-67.793 Y-0.275
X-67.753 Y-0.573
X-67.683 Y-0.864
X-67.585 Y-1.148
X-67.459 Y-1.42
X-67.307 Y-1.679
X-67.131 Y-1.922
X-66.931 Y-2.146
X-66.711 Y-2.349
X-66.472 Y-2.53
X-66.216 Y-2.687
X-65.946 Y-2.817
X-65.664 Y-2.921
X-65.374 Y-2.996
X-65.077 Y-3.043
X-64.778 Y-3.06
X-64.478 Y-3.048
X-64.181 Y-3.007
X-63.889 Y-2.936
X-63.606 Y-2.838
X-63.334 Y-2.712
X-63.075 Y-2.56
X-62.832 Y-2.383
X-62.608 Y-2.184
X-62.405 Y-1.963
X-62.224 Y-1.724
X-62.067 Y-1.468
X-61.92 Y-1.167
X-61.758 Y-0.757
X-61.607 Y-0.262
X-61.528 Y0.101
X-61.483 Y0.43
X-61.466 Y0.731
X-61.474 Y1.031
X-61.508 Y1.329
X-61.567 Y1.624
X-61.653 Y1.911
X-61.764 Y2.189
X-61.902 Y2.456
X-62.063 Y2.709
X-62.246 Y2.947
X-62.451 Y3.166
X-62.674 Y3.366
X-62.914 Y3.547
X-63.168 Y3.706
X-63.436 Y3.842
X-63.713 Y3.956
X-63.999 Y4.046
X-64.295 Y4.113
X-64.602 Y4.157
X-64.902 Y4.176
X-65.211 Y4.17
X-65.53 Y4.139
X-65.845 Y4.082
X-66.148 Y4.001
X-66.452 Y3.894
X-66.754 Y3.759
X-67.045 Y3.6
X-67.317 Y3.422
X-67.576 Y3.22
X-67.825 Y2.993
X-68.057 Y2.743
X-68.267 Y2.478
X-68.451 Y2.201
X-68.615 Y1.907
X-68.758 Y1.594
X-68.876 Y1.268
X-68.966 Y0.937
X-69.029 Y0.606
X-69.065 Y0.267
X-69.074 Y-0.079
X-69.055 Y-0.429
X-69.009 Y-0.773
X-68.936 Y-1.107
X-68.837 Y-1.433
X-68.709 Y-1.756
X-68.555 Y-2.07
X-68.376 Y-2.372
X-68.176 Y-2.654
X-67.957 Y-2.915
X-67.715 Y-3.162
X-67.45 Y-3.391
X-67.166 Y-3.599
X-66.869 Y-3.782
X-66.564 Y-3.938
X-66.246 Y-4.069
X-65.914 Y-4.176
X-65.572 Y-4.257
X-65.224 Y-4.31
X-64.878 Y-4.334
X-64.536 Y-4.331
X-64.191 Y-4.299
X-63.846 Y-4.24
X-63.504 Y-4.152
X-63.173 Y-4.039
X-62.859 Y-3.901
X-62.556 Y-3.739
X-62.262 Y-3.55
X-61.982 Y-3.336
X-61.714 Y-3.094
X-61.459 Y-2.825
X-61.209 Y-2.513
X-60.957 Y-2.142
X-60.732 Y-1.746
X-60.541 Y-1.336
X-60.387 Y-0.921
X-60.269 Y-0.503
X-60.186 Y-0.087
X-60.139 Y0.324
X-60.125 Y0.727
X-60.144 Y1.125
X-60.193 Y1.513
X-60.272 Y1.889
X-60.38 Y2.255
X-60.515 Y2.606
X-60.677 Y2.943
X-60.867 Y3.269
X-61.083 Y3.579
X-61.324 Y3.872
X-61.59 Y4.147
X-61.88 Y4.402
X-62.191 Y4.634
X-62.522 Y4.842
X-62.873 Y5.025
X-63.239 Y5.179
X-63.62 Y5.305
X-64.014 Y5.402
X-64.419 Y5.467
X-64.83 Y5.499
X-65.245 Y5.498
X-65.662 Y5.464
X-66.08 Y5.396
X-66.493 Y5.293
X-66.898 Y5.158
X-67.293 Y4.989
X-67.677 Y4.787
X-68.046 Y4.554
X-68.396 Y4.291
X-68.725 Y3.999
X-69.03 Y3.682
X-69.311 Y3.338
X-69.565 Y2.971
X-69.789 Y2.584
X-69.981 Y2.18
X-70.141 Y1.761
X-70.267 Y1.33
X-70.358 Y0.887
X-70.413 Y0.437
X-70.433 Y-0.015
X-70.416 Y-0.466
X-70.362 Y-0.916
X-70.273 Y-1.362
X-70.147 Y-1.8
X-69.987 Y-2.226
X-69.794 Y-2.637
X-69.568 Y-3.032
X-69.311 Y-3.408
X-69.023 Y-3.763
X-68.708 Y-4.094
X-68.368 Y-4.398
X-68.005 Y-4.674
X-67.621 Y-4.919
X-67.217 Y-5.134
X-66.797 Y-5.316
X-66.364 Y-5.463
X-65.921 Y-5.575
X-65.472 Y-5.651
X-65.017 Y-5.69
X-64.558 Y-5.693
X-64.101 Y-5.659
X-63.65 Y-5.589
X-63.206 Y-5.483
X-62.772 Y-5.342
X-62.35 Y-5.166
X-61.94 Y-4.955
X-61.544 Y-4.709
X-61.161 Y-4.426
X-60.787 Y-4.1
X-60.429 Y-3.733
X-60.093 Y-3.329
X-59.942 Y-3.112
X-59.919 Y-3.075
X-59.898 Y-3.036
X-59.398 Y-2.055
X-59.277 Y-1.814
X-59.257 Y-1.753
X-59.246 Y-1.693
X-58.997 Y-0.12
X-58.982 Y0
X-58.997 Y0.121
X-59.246 Y1.694
X-59.257 Y1.754
X-59.277 Y1.814
X-59.645 Y2.54
X-60.051 Y3.337
X-60.099 Y3.408
X-60.194 Y3.508
X-61.308 Y4.621
X-61.343 Y4.653
X-61.378 Y4.678
X-61.449 Y4.717
X-62.873 Y5.443
X-62.937 Y5.473
X-63.001 Y5.494
X-64.193 Y5.684
X-64.694 Y5.763
X-64.754 Y5.767
X-64.815 Y5.762
X-66.386 Y5.513
X-66.507 Y5.492
X-66.567 Y5.472
X-66.628 Y5.442
X-68.079 Y4.703
X-68.11 Y4.685
X-68.14 Y4.664
X-68.2 Y4.613
X-69.366 Y3.447
X-69.394 Y3.417
X-69.417 Y3.387
X-69.485 Y3.266
X-70.101 Y2.056
X-70.223 Y1.814
X-70.244 Y1.749
X-70.256 Y1.683
X-70.503 Y0.121
X-70.518 Y0
X-70.503 Y-0.12
X-70.256 Y-1.683
X-70.244 Y-1.749
X-70.223 Y-1.814
X-69.772 Y-2.702
X-69.485 Y-3.265
X-69.418 Y-3.386
X-69.395 Y-3.416
X-69.367 Y-3.446
X-68.2 Y-4.613
X-68.14 Y-4.664
X-68.11 Y-4.685
X-68.053 Y-4.716
X-66.628 Y-5.442
X-66.568 Y-5.471
X-66.507 Y-5.492
X-66.386 Y-5.513
X-64.815 Y-5.762
X-64.754 Y-5.767
X-64.694 Y-5.763
X-63.243 Y-5.534
X-63.001 Y-5.494
X-62.936 Y-5.473
X-62.871 Y-5.442
X-61.447 Y-4.716
X-61.377 Y-4.678
X-61.343 Y-4.652
X-61.308 Y-4.621
X-60.194 Y-3.507
X-60.099 Y-3.408
X-60.073 Y-3.372
X-60.051 Y-3.336
X-59.898 Y-3.036
G3 X-59.915 Y-2.666 I-0.363 J0.169 F800
G1 X-59.956 Y-2.621 Z2.805
X-59.996 Y-2.578 Z2.819
X-60.035 Y-2.536 Z2.842
X-60.085 Y-2.517 Z2.874
X-60.13 Y-2.499 Z2.915
X-60.168 Y-2.484 Z2.963
X-60.199 Y-2.472 Z3.017
X-60.223 Y-2.469 Z3.075
X-60.238 Y-2.468 Z3.137
X-60.243 Y-2.467 Z3.2
G0 X-65.674 Y1.673
Z3.05
G3 X-66.604 Y-0.463 Z2.963 I0.923 J-1.673 F600
X-64.779 Y-1.909 Z2.875 I1.852 J0.463
X-62.915 Y-0.518 Z2.787 I0.027 J1.907
X-63.782 Y1.639 Z2.7 I-1.835 J0.515
X-66.087 Y1.355 Z2.612 I-0.968 J-1.64
X-66.403 Y-0.943 Z2.525 I1.336 J-1.355
X-64.264 Y-1.838 Z2.438 I1.651 J0.943
X-62.852 Y-0.002 Z2.35 I-0.487 J1.836
X-66.652 Y-0.002 I-1.9 J0
X-62.852 Y-0.002 I1.9 J0
G1 X-62.806 Y1.062 F1300
X-62.783 Y1.328
X-62.834 Y1.623
X-62.95 Y1.9
X-63.116 Y2.15
X-63.321 Y2.369
X-63.557 Y2.554
X-63.816 Y2.706
X-64.092 Y2.821
X-64.381 Y2.902
X-64.678 Y2.948
X-64.978 Y2.959
X-65.277 Y2.936
X-65.572 Y2.881
X-65.859 Y2.795
X-66.136 Y2.679
X-66.399 Y2.534
X-66.645 Y2.364
X-66.873 Y2.168
X-67.08 Y1.951
X-67.264 Y1.714
X-67.423 Y1.46
X-67.556 Y1.191
X-67.661 Y0.91
X-67.738 Y0.62
X-67.786 Y0.324
X-67.805 Y0.024
X-67.793 Y-0.275
X-67.753 Y-0.573
X-67.683 Y-0.864
X-67.585 Y-1.148
X-67.459 Y-1.42
X-67.307 Y-1.679
X-67.131 Y-1.922
X-66.931 Y-2.146
X-66.711 Y-2.349
X-66.472 Y-2.53
X-66.216 Y-2.687
X-65.946 Y-2.817
X-65.664 Y-2.921
X-65.374 Y-2.996
X-65.077 Y-3.043
X-64.778 Y-3.06
X-64.478 Y-3.048
X-64.181 Y-3.007
X-63.889 Y-2.936
X-63.606 Y-2.838
X-63.334 Y-2.712
X-63.075 Y-2.56
X-62.832 Y-2.383
X-62.608 Y-2.184
X-62.405 Y-1.963
X-62.224 Y-1.724
X-62.067 Y-1.468
X-61.92 Y-1.167
X-61.758 Y-0.757
X-61.607 Y-0.262
X-61.528 Y0.101
X-61.483 Y0.43
X-61.466 Y0.731
X-61.474 Y1.031
X-61.508 Y1.329
X-61.567 Y1.624
X-61.653 Y1.911
X-61.764 Y2.189
X-61.902 Y2.456
X-62.063 Y2.709
X-62.246 Y2.947
X-62.451 Y3.166
X-62.674 Y3.366
X-62.914 Y3.547
X-63.168 Y3.706
X-63.436 Y3.842
X-63.713 Y3.956
X-63.999 Y4.046
X-64.295 Y4.113
X-64.602 Y4.157
X-64.902 Y4.176
X-65.211 Y4.17
X-65.53 Y4.139
X-65.845 Y4.082
X-66.148 Y4.001
X-66.452 Y3.894
X-66.754 Y3.759
X-67.045 Y3.6
X-67.317 Y3.422
X-67.576 Y3.22
X-67.825 Y2.993
X-68.057 Y2.743
X-68.267 Y2.478
X-68.451 Y2.201
X-68.615 Y1.907
X-68.758 Y1.594
X-68.876 Y1.268
X-68.966 Y0.937
X-69.029 Y0.606
X-69.065 Y0.267
X-69.074 Y-0.079
X-69.055 Y-0.429
X-69.009 Y-0.773
X-68.936 Y-1.107
X-68.837 Y-1.433
X-68.709 Y-1.756
X-68.555 Y-2.07
X-68.376 Y-2.372
X-68.176 Y-2.654
X-67.957 Y-2.915
X-67.715 Y-3.162
X-67.45 Y-3.391
X-67.166 Y-3.599
X-66.869 Y-3.782
X-66.564 Y-3.938
X-66.246 Y-4.069
X-65.914 Y-4.176
X-65.572 Y-4.257
X-65.224 Y-4.31
X-64.878 Y-4.334
X-64.536 Y-4.331
X-64.191 Y-4.299
X-63.846 Y-4.24
X-63.504 Y-4.152
X-63.173 Y-4.039
X-62.859 Y-3.901
X-62.556 Y-3.739
X-62.262 Y-3.55
X-61.982 Y-3.336
X-61.714 Y-3.094
X-61.459 Y-2.825
X-61.209 Y-2.513
X-60.957 Y-2.142
X-60.732 Y-1.746
X-60.541 Y-1.336
X-60.387 Y-0.921
X-60.269 Y-0.503
X-60.186 Y-0.087
X-60.139 Y0.324
X-60.125 Y0.727
X-60.144 Y1.125
X-60.193 Y1.513
X-60.272 Y1.889
X-60.38 Y2.255
X-60.515 Y2.606
X-60.677 Y2.943
X-60.867 Y3.269
X-61.083 Y3.579
X-61.324 Y3.872
X-61.59 Y4.147
X-61.88 Y4.402
X-62.191 Y4.634
X-62.522 Y4.842
X-62.873 Y5.025
X-63.239 Y5.179
X-63.62 Y5.305
X-64.014 Y5.402
X-64.419 Y5.467
X-64.83 Y5.499
X-65.245 Y5.498
X-65.662 Y5.464
X-66.08 Y5.396
X-66.493 Y5.293
X-66.898 Y5.158
X-67.293 Y4.989
X-67.677 Y4.787
X-68.046 Y4.554
X-68.396 Y4.291
X-68.725 Y3.999
X-69.03 Y3.682
X-69.311 Y3.338
X-69.565 Y2.971
X-69.789 Y2.584
X-69.981 Y2.18
X-70.141 Y1.761
X-70.267 Y1.33
X-70.358 Y0.887
X-70.413 Y0.437
X-70.433 Y-0.015
X-70.416 Y-0.466
X-70.362 Y-0.916
X-70.273 Y-1.362
X-70.147 Y-1.8
X-69.987 Y-2.226
X-69.794 Y-2.637
X-69.568 Y-3.032
X-69.311 Y-3.408
X-69.023 Y-3.763
X-68.708 Y-4.094
X-68.368 Y-4.398
X-68.005 Y-4.674
X-67.621 Y-4.919
X-67.217 Y-5.134
X-66.797 Y-5.316
X-66.364 Y-5.463
X-65.921 Y-5.575
X-65.472 Y-5.651
X-65.017 Y-5.69
X-64.558 Y-5.693
X-64.101 Y-5.659
X-63.65 Y-5.589
X-63.206 Y-5.483
X-62.772 Y-5.342
X-62.35 Y-5.166
X-61.94 Y-4.955
X-61.544 Y-4.709
X-61.161 Y-4.426
X-60.787 Y-4.1
X-60.429 Y-3.733
X-60.093 Y-3.329
X-59.942 Y-3.112
X-59.919 Y-3.075
X-59.898 Y-3.036
X-59.398 Y-2.055
X-59.277 Y-1.814
X-59.257 Y-1.753
X-59.246 Y-1.693
X-58.997 Y-0.12
X-58.982 Y0
X-58.997 Y0.121
X-59.246 Y1.694
X-59.257 Y1.754
X-59.277 Y1.814
X-59.645 Y2.54
X-60.051 Y3.337
X-60.099 Y3.408
X-60.194 Y3.508
X-61.308 Y4.621
X-61.343 Y4.653
X-61.378 Y4.678
X-61.449 Y4.717
X-62.873 Y5.443
X-62.937 Y5.473
X-63.001 Y5.494
X-64.193 Y5.684
X-64.694 Y5.763
X-64.754 Y5.767
X-64.815 Y5.762
X-66.386 Y5.513
X-66.507 Y5.492
X-66.567 Y5.472
X-66.628 Y5.442
X-68.079 Y4.703
X-68.11 Y4.685
X-68.14 Y4.664
X-68.2 Y4.613
X-69.366 Y3.447
X-69.394 Y3.417
X-69.417 Y3.387
X-69.485 Y3.266
X-70.101 Y2.056
X-70.223 Y1.814
X-70.244 Y1.749
X-70.256 Y1.683
X-70.503 Y0.121
X-70.518 Y0
X-70.503 Y-0.12
X-70.256 Y-1.683
X-70.244 Y-1.749
X-70.223 Y-1.814
X-69.772 Y-2.702
X-69.485 Y-3.265
X-69.418 Y-3.386
X-69.395 Y-3.416
X-69.367 Y-3.446
X-68.2 Y-4.613
X-68.14 Y-4.664
X-68.11 Y-4.685
X-68.053 Y-4.716
X-66.628 Y-5.442
X-66.568 Y-5.471
X-66.507 Y-5.492
X-66.386 Y-5.513
X-64.815 Y-5.762
X-64.754 Y-5.767
X-64.694 Y-5.763
X-63.243 Y-5.534
X-63.001 Y-5.494
X-62.936 Y-5.473
X-62.871 Y-5.442
X-61.447 Y-4.716
X-61.377 Y-4.678
X-61.343 Y-4.652
X-61.308 Y-4.621
X-60.194 Y-3.507
X-60.099 Y-3.408
X-60.073 Y-3.372
X-60.051 Y-3.336
X-59.898 Y-3.036
G3 X-59.915 Y-2.666 I-0.363 J0.169 F800
G1 X-59.956 Y-2.621 Z2.355
X-59.996 Y-2.578 Z2.369
X-60.035 Y-2.536 Z2.392
X-60.085 Y-2.517 Z2.424
X-60.13 Y-2.499 Z2.465
X-60.168 Y-2.484 Z2.513
X-60.199 Y-2.472 Z2.567
X-60.223 Y-2.469 Z2.625
X-60.238 Y-2.468 Z2.687
X-60.243 Y-2.467 Z2.75
G0 X-65.674 Y1.673
Z2.6
G3 X-66.604 Y-0.463 Z2.513 I0.923 J-1.673 F600
X-64.779 Y-1.909 Z2.425 I1.852 J0.463
X-62.915 Y-0.518 Z2.338 I0.027 J1.907
X-63.782 Y1.639 Z2.25 I-1.835 J0.515
X-66.087 Y1.355 Z2.162 I-0.968 J-1.64
X-66.403 Y-0.943 Z2.075 I1.336 J-1.355
X-64.264 Y-1.838 Z1.987 I1.651 J0.943
X-62.852 Y-0.002 Z1.9 I-0.487 J1.836
X-66.652 Y-0.002 I-1.9 J0
X-62.852 Y-0.002 I1.9 J0
G1 X-62.806 Y1.062 F1300
X-62.783 Y1.328
X-62.834 Y1.623
X-62.95 Y1.9
X-63.116 Y2.15
X-63.321 Y2.369
X-63.557 Y2.554
X-63.816 Y2.706
X-64.092 Y2.821
X-64.381 Y2.902
X-64.678 Y2.948
X-64.978 Y2.959
X-65.277 Y2.936
X-65.572 Y2.881
X-65.859 Y2.795
X-66.136 Y2.679
X-66.399 Y2.534
X-66.645 Y2.364
X-66.873 Y2.168
X-67.08 Y1.951
X-67.264 Y1.714
X-67.423 Y1.46
X-67.556 Y1.191
X-67.661 Y0.91
X-67.738 Y0.62
X-67.786 Y0.324
X-67.805 Y0.024
X-67.793 Y-0.275
X-67.753 Y-0.573
X-67.683 Y-0.864
X-67.585 Y-1.148
X-67.459 Y-1.42
X-67.307 Y-1.679
X-67.131 Y-1.922
X-66.931 Y-2.146
X-66.711 Y-2.349
X-66.472 Y-2.53
X-66.216 Y-2.687
X-65.946 Y-2.817
X-65.664 Y-2.921
X-65.374 Y-2.996
X-65.077 Y-3.043
X-64.778 Y-3.06
X-64.478 Y-3.048
X-64.181 Y-3.007
X-63.889 Y-2.936
X-63.606 Y-2.838
X-63.334 Y-2.712
X-63.075 Y-2.56
X-62.832 Y-2.383
X-62.608 Y-2.184
X-62.405 Y-1.963
X-62.224 Y-1.724
X-62.067 Y-1.468
X-61.92 Y-1.167
X-61.758 Y-0.757
X-61.607 Y-0.262
X-61.528 Y0.101
X-61.483 Y0.43
X-61.466 Y0.731
X-61.474 Y1.031
X-61.508 Y1.329
X-61.567 Y1.624
X-61.653 Y1.911
X-61.764 Y2.189
X-61.902 Y2.456
X-62.063 Y2.709
X-62.246 Y2.947
X-62.451 Y3.166
X-62.674 Y3.366
X-62.914 Y3.547
X-63.168 Y3.706
X-63.436 Y3.842
X-63.713 Y3.956
X-63.999 Y4.046
X-64.295 Y4.113
X-64.602 Y4.157
X-64.902 Y4.176
X-65.211 Y4.17
X-65.53 Y4.139
X-65.845 Y4.082
X-66.148 Y4.001
X-66.452 Y3.894
X-66.754 Y3.759
X-67.045 Y3.6
X-67.317 Y3.422
X-67.576 Y3.22
X-67.825 Y2.993
X-68.057 Y2.743
X-68.267 Y2.478
X-68.451 Y2.201
X-68.615 Y1.907
X-68.758 Y1.594
X-68.876 Y1.268
X-68.966 Y0.937
X-69.029 Y0.606
X-69.065 Y0.267
X-69.074 Y-0.079
X-69.055 Y-0.429
X-69.009 Y-0.773
X-68.936 Y-1.107
X-68.837 Y-1.433
X-68.709 Y-1.756
X-68.555 Y-2.07
X-68.376 Y-2.372
X-68.176 Y-2.654
X-67.957 Y-2.915
X-67.715 Y-3.162
X-67.45 Y-3.391
X-67.166 Y-3.599
X-66.869 Y-3.782
X-66.564 Y-3.938
X-66.246 Y-4.069
X-65.914 Y-4.176
X-65.572 Y-4.257
X-65.224 Y-4.31
X-64.878 Y-4.334
X-64.536 Y-4.331
X-64.191 Y-4.299
X-63.846 Y-4.24
X-63.504 Y-4.152
X-63.173 Y-4.039
X-62.859 Y-3.901
X-62.556 Y-3.739
X-62.262 Y-3.55
X-61.982 Y-3.336
X-61.714 Y-3.094
X-61.459 Y-2.825
X-61.209 Y-2.513
X-60.957 Y-2.142
X-60.732 Y-1.746
X-60.541 Y-1.336
X-60.387 Y-0.921
X-60.269 Y-0.503
X-60.186 Y-0.087
X-60.139 Y0.324
X-60.125 Y0.727
X-60.144 Y1.125
X-60.193 Y1.513
X-60.272 Y1.889
X-60.38 Y2.255
X-60.515 Y2.606
X-60.677 Y2.943
X-60.867 Y3.269
X-61.083 Y3.579
X-61.324 Y3.872
X-61.59 Y4.147
X-61.88 Y4.402
X-62.191 Y4.634
X-62.522 Y4.842
X-62.873 Y5.025
X-63.239 Y5.179
X-63.62 Y5.305
X-64.014 Y5.402
X-64.419 Y5.467
X-64.83 Y5.499
X-65.245 Y5.498
X-65.662 Y5.464
X-66.08 Y5.396
X-66.493 Y5.293
X-66.898 Y5.158
X-67.293 Y4.989
X-67.677 Y4.787
X-68.046 Y4.554
X-68.396 Y4.291
X-68.725 Y3.999
X-69.03 Y3.682
X-69.311 Y3.338
X-69.565 Y2.971
X-69.789 Y2.584
X-69.981 Y2.18
X-70.141 Y1.761
X-70.267 Y1.33
X-70.358 Y0.887
X-70.413 Y0.437
X-70.433 Y-0.015
X-70.416 Y-0.466
X-70.362 Y-0.916
X-70.273 Y-1.362
X-70.147 Y-1.8
X-69.987 Y-2.226
X-69.794 Y-2.637
X-69.568 Y-3.032
X-69.311 Y-3.408
X-69.023 Y-3.763
X-68.708 Y-4.094
X-68.368 Y-4.398
X-68.005 Y-4.674
X-67.621 Y-4.919
X-67.217 Y-5.134
X-66.797 Y-5.316
X-66.364 Y-5.463
X-65.921 Y-5.575
X-65.472 Y-5.651
X-65.017 Y-5.69
X-64.558 Y-5.693
X-64.101 Y-5.659
X-63.65 Y-5.589
X-63.206 Y-5.483
X-62.772 Y-5.342
X-62.35 Y-5.166
X-61.94 Y-4.955
X-61.544 Y-4.709
X-61.161 Y-4.426
X-60.787 Y-4.1
X-60.429 Y-3.733
X-60.093 Y-3.329
X-59.942 Y-3.112
X-59.919 Y-3.075
X-59.898 Y-3.036
X-59.398 Y-2.055
X-59.277 Y-1.814
X-59.257 Y-1.753
X-59.246 Y-1.693
X-58.997 Y-0.12
X-58.982 Y0
X-58.997 Y0.121
X-59.246 Y1.694
X-59.257 Y1.754
X-59.277 Y1.814
X-59.645 Y2.54
X-60.051 Y3.337
X-60.099 Y3.408
X-60.194 Y3.508
X-61.308 Y4.621
X-61.343 Y4.653
X-61.378 Y4.678
X-61.449 Y4.717
X-62.873 Y5.443
X-62.937 Y5.473
X-63.001 Y5.494
X-64.193 Y5.684
X-64.694 Y5.763
X-64.754 Y5.767
X-64.815 Y5.762
X-66.386 Y5.513
X-66.507 Y5.492
X-66.567 Y5.472
X-66.628 Y5.442
X-68.079 Y4.703
X-68.11 Y4.685
X-68.14 Y4.664
X-68.2 Y4.613
X-69.366 Y3.447
X-69.394 Y3.417
X-69.417 Y3.387
X-69.485 Y3.266
X-70.101 Y2.056
X-70.223 Y1.814
X-70.244 Y1.749
X-70.256 Y1.683
X-70.503 Y0.121
X-70.518 Y0
X-70.503 Y-0.12
X-70.256 Y-1.683
X-70.244 Y-1.749
X-70.223 Y-1.814
X-69.772 Y-2.702
X-69.485 Y-3.265
X-69.418 Y-3.386
X-69.395 Y-3.416
X-69.367 Y-3.446
X-68.2 Y-4.613
X-68.14 Y-4.664
X-68.11 Y-4.685
X-68.053 Y-4.716
X-66.628 Y-5.442
X-66.568 Y-5.471
X-66.507 Y-5.492
X-66.386 Y-5.513
X-64.815 Y-5.762
X-64.754 Y-5.767
X-64.694 Y-5.763
X-63.243 Y-5.534
X-63.001 Y-5.494
X-62.936 Y-5.473
X-62.871 Y-5.442
X-61.447 Y-4.716
X-61.377 Y-4.678
X-61.343 Y-4.652
X-61.308 Y-4.621
X-60.194 Y-3.507
X-60.099 Y-3.408
X-60.073 Y-3.372
X-60.051 Y-3.336
X-59.898 Y-3.036
G3 X-59.915 Y-2.666 I-0.363 J0.169 F800
G1 X-59.956 Y-2.621 Z1.905
X-59.996 Y-2.578 Z1.919
X-60.035 Y-2.536 Z1.942
X-60.085 Y-2.517 Z1.974
X-60.13 Y-2.499 Z2.015
X-60.168 Y-2.484 Z2.063
X-60.199 Y-2.472 Z2.117
X-60.223 Y-2.469 Z2.175
X-60.238 Y-2.468 Z2.237
X-60.243 Y-2.467 Z2.3
G0 X-65.674 Y1.673
Z2.15
G3 X-66.604 Y-0.463 Z2.063 I0.923 J-1.673 F600
X-64.779 Y-1.909 Z1.975 I1.852 J0.463
X-62.915 Y-0.518 Z1.888 I0.027 J1.907
X-63.782 Y1.639 Z1.8 I-1.835 J0.515
X-66.087 Y1.355 Z1.712 I-0.968 J-1.64
X-66.403 Y-0.943 Z1.625 I1.336 J-1.355
X-64.264 Y-1.838 Z1.538 I1.651 J0.943
X-62.852 Y-0.002 Z1.45 I-0.487 J1.836
X-66.652 Y-0.002 I-1.9 J0
X-62.852 Y-0.002 I1.9 J0
G1 X-62.806 Y1.062 F1300
X-62.783 Y1.328
X-62.834 Y1.623
X-62.95 Y1.9
X-63.116 Y2.15
X-63.321 Y2.369
X-63.557 Y2.554
X-63.816 Y2.706
X-64.092 Y2.821
X-64.381 Y2.902
X-64.678 Y2.948
X-64.978 Y2.959
X-65.277 Y2.936
X-65.572 Y2.881
X-65.859 Y2.795
X-66.136 Y2.679
X-66.399 Y2.534
X-66.645 Y2.364
X-66.873 Y2.168
X-67.08 Y1.951
X-67.264 Y1.714
X-67.423 Y1.46
X-67.556 Y1.191
X-67.661 Y0.91
X-67.738 Y0.62
X-67.786 Y0.324
X-67.805 Y0.024
X-67.793 Y-0.275
X-67.753 Y-0.573
X-67.683 Y-0.864
X-67.585 Y-1.148
X-67.459 Y-1.42
X-67.307 Y-1.679
X-67.131 Y-1.922
X-66.931 Y-2.146
X-66.711 Y-2.349
X-66.472 Y-2.53
X-66.216 Y-2.687
X-65.946 Y-2.817
X-65.664 Y-2.921
X-65.374 Y-2.996
X-65.077 Y-3.043
X-64.778 Y-3.06
X-64.478 Y-3.048
X-64.181 Y-3.007
X-63.889 Y-2.936
X-63.606 Y-2.838
X-63.334 Y-2.712
X-63.075 Y-2.56
X-62.832 Y-2.383
X-62.608 Y-2.184
X-62.405 Y-1.963
X-62.224 Y-1.724
X-62.067 Y-1.468
X-61.92 Y-1.167
X-61.758 Y-0.757
X-61.607 Y-0.262
X-61.528 Y0.101
X-61.483 Y0.43
X-61.466 Y0.731
X-61.474 Y1.031
X-61.508 Y1.329
X-61.567 Y1.624
X-61.653 Y1.911
X-61.764 Y2.189
X-61.902 Y2.456
X-62.063 Y2.709
X-62.246 Y2.947
X-62.451 Y3.166
X-62.674 Y3.366
X-62.914 Y3.547
X-63.168 Y3.706
X-63.436 Y3.842
X-63.713 Y3.956
X-63.999 Y4.046
X-64.295 Y4.113
X-64.602 Y4.157
X-64.902 Y4.176
X-65.211 Y4.17
X-65.53 Y4.139
X-65.845 Y4.082
X-66.148 Y4.001
X-66.452 Y3.894
X-66.754 Y3.759
X-67.045 Y3.6
X-67.317 Y3.422
X-67.576 Y3.22
X-67.825 Y2.993
X-68.057 Y2.743
X-68.267 Y2.478
X-68.451 Y2.201
X-68.615 Y1.907
X-68.758 Y1.594
X-68.876 Y1.268
X-68.966 Y0.937
X-69.029 Y0.606
X-69.065 Y0.267
X-69.074 Y-0.079
X-69.055 Y-0.429
X-69.009 Y-0.773
X-68.936 Y-1.107
X-68.837 Y-1.433
X-68.709 Y-1.756
X-68.555 Y-2.07
X-68.376 Y-2.372
X-68.176 Y-2.654
X-67.957 Y-2.915
X-67.715 Y-3.162
X-67.45 Y-3.391
X-67.166 Y-3.599
X-66.869 Y-3.782
X-66.564 Y-3.938
X-66.246 Y-4.069
X-65.914 Y-4.176
X-65.572 Y-4.257
X-65.224 Y-4.31
X-64.878 Y-4.334
X-64.536 Y-4.331
X-64.191 Y-4.299
X-63.846 Y-4.24
X-63.504 Y-4.152
X-63.173 Y-4.039
X-62.859 Y-3.901
X-62.556 Y-3.739
X-62.262 Y-3.55
X-61.982 Y-3.336
X-61.714 Y-3.094
X-61.459 Y-2.825
X-61.209 Y-2.513
X-60.957 Y-2.142
X-60.732 Y-1.746
X-60.541 Y-1.336
X-60.387 Y-0.921
X-60.269 Y-0.503
X-60.186 Y-0.087
X-60.139 Y0.324
X-60.125 Y0.727
X-60.144 Y1.125
X-60.193 Y1.513
X-60.272 Y1.889
X-60.38 Y2.255
X-60.515 Y2.606
X-60.677 Y2.943
X-60.867 Y3.269
X-61.083 Y3.579
X-61.324 Y3.872
X-61.59 Y4.147
X-61.88 Y4.402
X-62.191 Y4.634
X-62.522 Y4.842
X-62.873 Y5.025
X-63.239 Y5.179
X-63.62 Y5.305
X-64.014 Y5.402
X-64.419 Y5.467
X-64.83 Y5.499
X-65.245 Y5.498
X-65.662 Y5.464
X-66.08 Y5.396
X-66.493 Y5.293
X-66.898 Y5.158
X-67.293 Y4.989
X-67.677 Y4.787
X-68.046 Y4.554
X-68.396 Y4.291
X-68.725 Y3.999
X-69.03 Y3.682
X-69.311 Y3.338
X-69.565 Y2.971
X-69.789 Y2.584
X-69.981 Y2.18
X-70.141 Y1.761
X-70.267 Y1.33
X-70.358 Y0.887
X-70.413 Y0.437
X-70.433 Y-0.015
X-70.416 Y-0.466
X-70.362 Y-0.916
X-70.273 Y-1.362
X-70.147 Y-1.8
X-69.987 Y-2.226
X-69.794 Y-2.637
X-69.568 Y-3.032
X-69.311 Y-3.408
X-69.023 Y-3.763
X-68.708 Y-4.094
X-68.368 Y-4.398
X-68.005 Y-4.674
X-67.621 Y-4.919
X-67.217 Y-5.134
X-66.797 Y-5.316
X-66.364 Y-5.463
X-65.921 Y-5.575
X-65.472 Y-5.651
X-65.017 Y-5.69
X-64.558 Y-5.693
X-64.101 Y-5.659
X-63.65 Y-5.589
X-63.206 Y-5.483
X-62.772 Y-5.342
X-62.35 Y-5.166
X-61.94 Y-4.955
X-61.544 Y-4.709
X-61.161 Y-4.426
X-60.787 Y-4.1
X-60.429 Y-3.733
X-60.093 Y-3.329
X-59.942 Y-3.112
X-59.919 Y-3.075
X-59.898 Y-3.036
X-59.398 Y-2.055
X-59.277 Y-1.814
X-59.257 Y-1.753
