(bore1)
(T1  D=4 CR=0 - ZMIN=0 - flat end mill)
G90 G94
G17
G21
G28 G91 Z0
G90

(Bore1 14)
T1
S18000 M3
G54
G0 X70.15 Y18.25
Z25
Z12.3
G1 Z10.7 F600
G19 G3 Y18.65 Z10.3 J0.4 K0
G1 Y18.85
G17 G3 X69.75 Y19.25 I-0.4 J0
X69.75 Y16.75 Z10.2 I0 J-1.25 F1000
X69.75 Y19.25 Z10.1 I0 J1.25
X69.75 Y16.75 Z10 I0 J-1.25
X69.75 Y19.25 Z9.9 I0 J1.25
X69.75 Y16.75 Z9.8 I0 J-1.25
X69.75 Y19.25 Z9.7 I0 J1.25
X69.75 Y16.75 Z9.6 I0 J-1.25
X69.75 Y19.25 Z9.5 I0 J1.25
X69.75 Y16.75 Z9.4 I0 J-1.25
X69.75 Y19.25 Z9.3 I0 J1.25
X69.75 Y16.75 Z9.2 I0 J-1.25
X69.75 Y19.25 Z9.1 I0 J1.25
X69.75 Y16.75 Z9 I0 J-1.25
X69.75 Y19.25 Z8.9 I0 J1.25
X69.75 Y16.75 Z8.8 I0 J-1.25
X69.75 Y19.25 Z8.7 I0 J1.25
X69.75 Y16.75 Z8.6 I0 J-1.25
X69.75 Y19.25 Z8.5 I0 J1.25
X69.75 Y16.75 Z8.4 I0 J-1.25
X69.75 Y19.25 Z8.3 I0 J1.25
X69.75 Y16.75 Z8.2 I0 J-1.25
X69.75 Y19.25 Z8.1 I0 J1.25
X69.75 Y16.75 Z8 I0 J-1.25
X69.75 Y19.25 Z7.9 I0 J1.25
X69.75 Y16.75 Z7.8 I0 J-1.25
X69.75 Y19.25 Z7.7 I0 J1.25
X69.75 Y16.75 Z7.6 I0 J-1.25
X69.75 Y19.25 Z7.5 I0 J1.25
X69.75 Y16.75 Z7.4 I0 J-1.25
X69.75 Y19.25 Z7.3 I0 J1.25
X69.75 Y16.75 Z7.2 I0 J-1.25
X69.75 Y19.25 Z7.1 I0 J1.25
X69.75 Y16.75 Z7 I0 J-1.25
X69.75 Y19.25 Z6.9 I0 J1.25
X69.75 Y16.75 Z6.8 I0 J-1.25
X69.75 Y19.25 Z6.7 I0 J1.25
X69.75 Y16.75 Z6.6 I0 J-1.25
X69.75 Y19.25 Z6.5 I0 J1.25
X69.75 Y16.75 Z6.4 I0 J-1.25
X69.75 Y19.25 Z6.3 I0 J1.25
X69.75 Y16.75 Z6.2 I0 J-1.25
X69.75 Y19.25 Z6.1 I0 J1.25
X69.75 Y16.75 Z6 I0 J-1.25
X69.75 Y19.25 Z5.9 I0 J1.25
X69.75 Y16.75 Z5.8 I0 J-1.25
X69.75 Y19.25 Z5.7 I0 J1.25
X69.75 Y16.75 Z5.6 I0 J-1.25
X69.75 Y19.25 Z5.5 I0 J1.25
X69.75 Y16.75 Z5.4 I0 J-1.25
X69.75 Y19.25 Z5.3 I0 J1.25
X69.75 Y16.75 Z5.2 I0 J-1.25
X69.75 Y19.25 Z5.1 I0 J1.25
X69.75 Y16.75 Z5 I0 J-1.25
X69.75 Y19.25 Z4.9 I0 J1.25
X69.75 Y16.75 Z4.8 I0 J-1.25
X69.75 Y19.25 Z4.7 I0 J1.25
X69.75 Y16.75 Z4.6 I0 J-1.25
X69.75 Y19.25 Z4.5 I0 J1.25
X69.75 Y16.75 Z4.4 I0 J-1.25
X69.75 Y19.25 Z4.3 I0 J1.25
X69.75 Y16.75 Z4.2 I0 J-1.25
X69.75 Y19.25 Z4.1 I0 J1.25
X69.75 Y16.75 Z4 I0 J-1.25
X69.75 Y19.25 Z3.9 I0 J1.25
X69.75 Y16.75 Z3.8 I0 J-1.25
X69.75 Y19.25 Z3.7 I0 J1.25
X69.75 Y16.75 Z3.6 I0 J-1.25
X69.75 Y19.25 Z3.5 I0 J1.25
X69.75 Y16.75 Z3.4 I0 J-1.25
X69.75 Y19.25 Z3.3 I0 J1.25
X69.75 Y16.75 Z3.2 I0 J-1.25
X69.75 Y19.25 Z3.1 I0 J1.25
X69.75 Y16.75 Z3 I0 J-1.25
X69.75 Y19.25 Z2.9 I0 J1.25
X69.75 Y16.75 Z2.8 I0 J-1.25
X69.75 Y19.25 Z2.7 I0 J1.25
X69.75 Y16.75 Z2.6 I0 J-1.25
X69.75 Y19.25 Z2.5 I0 J1.25
X69.75 Y16.75 Z2.4 I0 J-1.25
X69.75 Y19.25 Z2.3 I0 J1.25
X69.75 Y16.75 Z2.2 I0 J-1.25
X69.75 Y19.25 Z2.1 I0 J1.25
X69.75 Y16.75 Z2 I0 J-1.25
X69.75 Y19.25 Z1.9 I0 J1.25
X69.75 Y16.75 Z1.8 I0 J-1.25
X69.75 Y19.25 Z1.7 I0 J1.25
X69.75 Y16.75 Z1.6 I0 J-1.25
X69.75 Y19.25 Z1.5 I0 J1.25
X69.75 Y16.75 Z1.4 I0 J-1.25
X69.75 Y19.25 Z1.3 I0 J1.25
X69.75 Y16.75 Z1.2 I0 J-1.25
X69.75 Y19.25 Z1.1 I0 J1.25
X69.75 Y16.75 Z1 I0 J-1.25
X69.75 Y19.25 Z0.9 I0 J1.25
X69.75 Y16.75 Z0.8 I0 J-1.25
X69.75 Y19.25 Z0.7 I0 J1.25
X69.75 Y16.75 Z0.6 I0 J-1.25
X69.75 Y19.25 Z0.5 I0 J1.25
X69.75 Y16.75 Z0.4 I0 J-1.25
X69.75 Y19.25 Z0.3 I0 J1.25
X69.75 Y16.75 Z0.2 I0 J-1.25
X69.75 Y19.25 Z0.1 I0 J1.25
X69.75 Y16.75 Z0 I0 J-1.25
X69.75 Y19.25 I0 J1.25
X69.75 Y16.75 I0 J-1.25
X70.15 Y17.15 I0 J0.4 F800
G1 Y17.35
G19 G3 Y17.75 Z0.4 J0 K0.4
G0 Z19
Y-17.75
Z12.3
G1 Z10.7 F600
G3 Y-17.35 Z10.3 J0.4 K0
G1 Y-17.15
G17 G3 X69.75 Y-16.75 I-0.4 J0
X69.75 Y-19.25 Z10.2 I0 J-1.25 F1000
X69.75 Y-16.75 Z10.1 I0 J1.25
X69.75 Y-19.25 Z10 I0 J-1.25
X69.75 Y-16.75 Z9.9 I0 J1.25
X69.75 Y-19.25 Z9.8 I0 J-1.25
X69.75 Y-16.75 Z9.7 I0 J1.25
X69.75 Y-19.25 Z9.6 I0 J-1.25
X69.75 Y-16.75 Z9.5 I0 J1.25
X69.75 Y-19.25 Z9.4 I0 J-1.25
X69.75 Y-16.75 Z9.3 I0 J1.25
X69.75 Y-19.25 Z9.2 I0 J-1.25
X69.75 Y-16.75 Z9.1 I0 J1.25
X69.75 Y-19.25 Z9 I0 J-1.25
X69.75 Y-16.75 Z8.9 I0 J1.25
X69.75 Y-19.25 Z8.8 I0 J-1.25
X69.75 Y-16.75 Z8.7 I0 J1.25
X69.75 Y-19.25 Z8.6 I0 J-1.25
X69.75 Y-16.75 Z8.5 I0 J1.25
X69.75 Y-19.25 Z8.4 I0 J-1.25
X69.75 Y-16.75 Z8.3 I0 J1.25
X69.75 Y-19.25 Z8.2 I0 J-1.25
X69.75 Y-16.75 Z8.1 I0 J1.25
X69.75 Y-19.25 Z8 I0 J-1.25
X69.75 Y-16.75 Z7.9 I0 J1.25
X69.75 Y-19.25 Z7.8 I0 J-1.25
X69.75 Y-16.75 Z7.7 I0 J1.25
X69.75 Y-19.25 Z7.6 I0 J-1.25
X69.75 Y-16.75 Z7.5 I0 J1.25
X69.75 Y-19.25 Z7.4 I0 J-1.25
X69.75 Y-16.75 Z7.3 I0 J1.25
X69.75 Y-19.25 Z7.2 I0 J-1.25
X69.75 Y-16.75 Z7.1 I0 J1.25
X69.75 Y-19.25 Z7 I0 J-1.25
X69.75 Y-16.75 Z6.9 I0 J1.25
X69.75 Y-19.25 Z6.8 I0 J-1.25
X69.75 Y-16.75 Z6.7 I0 J1.25
X69.75 Y-19.25 Z6.6 I0 J-1.25
X69.75 Y-16.75 Z6.5 I0 J1.25
X69.75 Y-19.25 Z6.4 I0 J-1.25
X69.75 Y-16.75 Z6.3 I0 J1.25
X69.75 Y-19.25 Z6.2 I0 J-1.25
X69.75 Y-16.75 Z6.1 I0 J1.25
X69.75 Y-19.25 Z6 I0 J-1.25
X69.75 Y-16.75 Z5.9 I0 J1.25
X69.75 Y-19.25 Z5.8 I0 J-1.25
X69.75 Y-16.75 Z5.7 I0 J1.25
X69.75 Y-19.25 Z5.6 I0 J-1.25
X69.75 Y-16.75 Z5.5 I0 J1.25
X69.75 Y-19.25 Z5.4 I0 J-1.25
X69.75 Y-16.75 Z5.3 I0 J1.25
X69.75 Y-19.25 Z5.2 I0 J-1.25
X69.75 Y-16.75 Z5.1 I0 J1.25
X69.75 Y-19.25 Z5 I0 J-1.25
X69.75 Y-16.75 Z4.9 I0 J1.25
X69.75 Y-19.25 Z4.8 I0 J-1.25
X69.75 Y-16.75 Z4.7 I0 J1.25
X69.75 Y-19.25 Z4.6 I0 J-1.25
X69.75 Y-16.75 Z4.5 I0 J1.25
X69.75 Y-19.25 Z4.4 I0 J-1.25
X69.75 Y-16.75 Z4.3 I0 J1.25
X69.75 Y-19.25 Z4.2 I0 J-1.25
X69.75 Y-16.75 Z4.1 I0 J1.25
X69.75 Y-19.25 Z4 I0 J-1.25
X69.75 Y-16.75 Z3.9 I0 J1.25
X69.75 Y-19.25 Z3.8 I0 J-1.25
X69.75 Y-16.75 Z3.7 I0 J1.25
X69.75 Y-19.25 Z3.6 I0 J-1.25
X69.75 Y-16.75 Z3.5 I0 J1.25
X69.75 Y-19.25 Z3.4 I0 J-1.25
X69.75 Y-16.75 Z3.3 I0 J1.25
X69.75 Y-19.25 Z3.2 I0 J-1.25
X69.75 Y-16.75 Z3.1 I0 J1.25
X69.75 Y-19.25 Z3 I0 J-1.25
X69.75 Y-16.75 Z2.9 I0 J1.25
X69.75 Y-19.25 Z2.8 I0 J-1.25
X69.75 Y-16.75 Z2.7 I0 J1.25
X69.75 Y-19.25 Z2.6 I0 J-1.25
X69.75 Y-16.75 Z2.5 I0 J1.25
X69.75 Y-19.25 Z2.4 I0 J-1.25
X69.75 Y-16.75 Z2.3 I0 J1.25
X69.75 Y-19.25 Z2.2 I0 J-1.25
X69.75 Y-16.75 Z2.1 I0 J1.25
X69.75 Y-19.25 Z2 I0 J-1.25
X69.75 Y-16.75 Z1.9 I0 J1.25
X69.75 Y-19.25 Z1.8 I0 J-1.25
X69.75 Y-16.75 Z1.7 I0 J1.25
X69.75 Y-19.25 Z1.6 I0 J-1.25
X69.75 Y-16.75 Z1.5 I0 J1.25
X69.75 Y-19.25 Z1.4 I0 J-1.25
X69.75 Y-16.75 Z1.3 I0 J1.25
X69.75 Y-19.25 Z1.2 I0 J-1.25
X69.75 Y-16.75 Z1.1 I0 J1.25
X69.75 Y-19.25 Z1 I0 J-1.25
X69.75 Y-16.75 Z0.9 I0 J1.25
X69.75 Y-19.25 Z0.8 I0 J-1.25
X69.75 Y-16.75 Z0.7 I0 J1.25
X69.75 Y-19.25 Z0.6 I0 J-1.25
X69.75 Y-16.75 Z0.5 I0 J1.25
X69.75 Y-19.25 Z0.4 I0 J-1.25
X69.75 Y-16.75 Z0.3 I0 J1.25
X69.75 Y-19.25 Z0.2 I0 J-1.25
X69.75 Y-16.75 Z0.1 I0 J1.25
X69.75 Y-19.25 Z0 I0 J-1.25
X69.75 Y-16.75 I0 J1.25
X69.75 Y-19.25 I0 J-1.25
X70.15 Y-18.85 I0 J0.4 F800
G1 Y-18.65
G19 G3 Y-18.25 Z0.4 J0 K0.4
G0 Z25
G17
G28 G91 Z0
G90
G28 G91 X0 Y0
G90
M5
M30
