(cont3)
(T1  D=4 CR=0 - ZMIN=0 - flat end mill)
G90 G94
G17
G21
G28 G91 Z0
G90

(2D Contour7)
T1
S18000 M3
G54
G0 X50.215 Y16.587
Z30
Z10.25
G1 Z9.5 F30
G3 X50.003 Y16.969 I-0.212 J0.133 F1000
G1 X40.003
G3 X40.003 Y16.469 I0 J-0.25
G1 X50.003
X50.066 Y16.477
X50.124 Y16.501
X50.175 Y16.538
X50.215 Y16.587
Z9 F30
G3 X50.003 Y16.969 I-0.212 J0.133 F1000
G1 X40.003
G3 X40.003 Y16.469 I0 J-0.25
G1 X50.003
X50.066 Y16.477
X50.124 Y16.501
X50.175 Y16.538
X50.215 Y16.587
Z8.5 F30
G3 X50.003 Y16.969 I-0.212 J0.133 F1000
G1 X40.003
G3 X40.003 Y16.469 I0 J-0.25
G1 X50.003
X50.066 Y16.477
X50.124 Y16.501
X50.175 Y16.538
X50.215 Y16.587
Z8 F30
G3 X50.003 Y16.969 I-0.212 J0.133 F1000
G1 X40.003
G3 X40.003 Y16.469 I0 J-0.25
G1 X50.003
X50.066 Y16.477
X50.124 Y16.501
X50.175 Y16.538
X50.215 Y16.587
Z7.5 F30
G3 X50.003 Y16.969 I-0.212 J0.133 F1000
G1 X40.003
G3 X40.003 Y16.469 I0 J-0.25
G1 X50.003
X50.066 Y16.477
X50.124 Y16.501
X50.175 Y16.538
X50.215 Y16.587
Z7 F30
G3 X50.003 Y16.969 I-0.212 J0.133 F1000
G1 X40.003
G3 X40.003 Y16.469 I0 J-0.25
G1 X50.003
X50.066 Y16.477
X50.124 Y16.501
X50.175 Y16.538
X50.215 Y16.587
Z6.5 F30
G3 X50.003 Y16.969 I-0.212 J0.133 F1000
G1 X40.003
G3 X40.003 Y16.469 I0 J-0.25
G1 X50.003
X50.066 Y16.477
X50.124 Y16.501
X50.175 Y16.538
X50.215 Y16.587
Z6 F30
G3 X50.003 Y16.969 I-0.212 J0.133 F1000
G1 X40.003
G3 X40.003 Y16.469 I0 J-0.25
G1 X50.003
X50.066 Y16.477
X50.124 Y16.501
X50.175 Y16.538
X50.215 Y16.587
Z5.5 F30
G3 X50.003 Y16.969 I-0.212 J0.133 F1000
G1 X40.003
G3 X40.003 Y16.469 I0 J-0.25
G1 X50.003
X50.066 Y16.477
X50.124 Y16.501
X50.175 Y16.538
X50.215 Y16.587
Z5 F30
G3 X50.003 Y16.969 I-0.212 J0.133 F1000
G1 X40.003
G3 X40.003 Y16.469 I0 J-0.25
G1 X50.003
X50.066 Y16.477
X50.124 Y16.501
X50.175 Y16.538
X50.215 Y16.587
Z4.5 F30
G3 X50.003 Y16.969 I-0.212 J0.133 F1000
G1 X40.003
G3 X40.003 Y16.469 I0 J-0.25
G1 X50.003
X50.066 Y16.477
X50.124 Y16.501
X50.175 Y16.538
X50.215 Y16.587
Z4 F30
G3 X50.003 Y16.969 I-0.212 J0.133 F1000
G1 X40.003
G3 X40.003 Y16.469 I0 J-0.25
G1 X50.003
X50.066 Y16.477
X50.124 Y16.501
X50.175 Y16.538
X50.215 Y16.587
Z3.5 F30
G3 X50.003 Y16.969 I-0.212 J0.133 F1000
G1 X40.003
G3 X40.003 Y16.469 I0 J-0.25
G1 X50.003
X50.066 Y16.477
X50.124 Y16.501
X50.175 Y16.538
X50.215 Y16.587
Z3 F30
G3 X50.003 Y16.969 I-0.212 J0.133 F1000
G1 X40.003
G3 X40.003 Y16.469 I0 J-0.25
G1 X50.003
X50.066 Y16.477
X50.124 Y16.501
X50.175 Y16.538
X50.215 Y16.587
Z2.5 F30
G3 X50.003 Y16.969 I-0.212 J0.133 F1000
G1 X40.003
G3 X40.003 Y16.469 I0 J-0.25
G1 X50.003
X50.066 Y16.477
X50.124 Y16.501
X50.175 Y16.538
X50.215 Y16.587
Z2 F30
G3 X50.003 Y16.969 I-0.212 J0.133 F1000
G1 X40.003
G3 X40.003 Y16.469 I0 J-0.25
G1 X50.003
X50.066 Y16.477
X50.124 Y16.501
X50.175 Y16.538
X50.215 Y16.587
Z1.5 F30
G3 X50.003 Y16.969 I-0.212 J0.133 F1000
G1 X40.003
G3 X40.003 Y16.469 I0 J-0.25
G1 X50.003
X50.066 Y16.477
X50.124 Y16.501
X50.175 Y16.538
X50.215 Y16.587
Z1 F30
G3 X50.003 Y16.969 I-0.212 J0.133 F1000
G1 X40.003
G3 X40.003 Y16.469 I0 J-0.25
G1 X50.003
X50.066 Y16.477
X50.124 Y16.501
X50.175 Y16.538
X50.215 Y16.587
Z0.5 F30
G3 X50.003 Y16.969 I-0.212 J0.133 F1000
G1 X40.003
G3 X40.003 Y16.469 I0 J-0.25
G1 X50.003
X50.066 Y16.477
X50.124 Y16.501
X50.175 Y16.538
X50.215 Y16.587
Z0 F30
G3 X50.003 Y16.969 I-0.212 J0.133 F1000
G1 X40.003
G3 X40.003 Y16.469 I0 J-0.25
G1 X50.003
X50.066 Y16.477
X50.124 Y16.501
X50.175 Y16.538
X50.215 Y16.587
G0 Z20
X31.739 Y16.635
Z10.25
G1 Z9.5 F30
G3 X31.503 Y16.969 I-0.235 J0.084 F1000
G1 X21.503
G3 X21.503 Y16.469 I0 J-0.25
G1 X31.503
G3 X31.739 Y16.635 I0 J0.25
G1 Z9 F30
G3 X31.503 Y16.969 I-0.235 J0.084 F1000
G1 X21.503
G3 X21.503 Y16.469 I0 J-0.25
G1 X31.503
G3 X31.739 Y16.635 I0 J0.25
G1 Z8.5 F30
G3 X31.503 Y16.969 I-0.235 J0.084 F1000
G1 X21.503
G3 X21.503 Y16.469 I0 J-0.25
G1 X31.503
G3 X31.739 Y16.635 I0 J0.25
G1 Z8 F30
G3 X31.503 Y16.969 I-0.235 J0.084 F1000
G1 X21.503
G3 X21.503 Y16.469 I0 J-0.25
G1 X31.503
G3 X31.739 Y16.635 I0 J0.25
G1 Z7.5 F30
G3 X31.503 Y16.969 I-0.235 J0.084 F1000
G1 X21.503
G3 X21.503 Y16.469 I0 J-0.25
G1 X31.503
G3 X31.739 Y16.635 I0 J0.25
G1 Z7 F30
G3 X31.503 Y16.969 I-0.235 J0.084 F1000
G1 X21.503
G3 X21.503 Y16.469 I0 J-0.25
G1 X31.503
G3 X31.739 Y16.635 I0 J0.25
G1 Z6.5 F30
G3 X31.503 Y16.969 I-0.235 J0.084 F1000
G1 X21.503
G3 X21.503 Y16.469 I0 J-0.25
G1 X31.503
G3 X31.739 Y16.635 I0 J0.25
G1 Z6 F30
G3 X31.503 Y16.969 I-0.235 J0.084 F1000
G1 X21.503
G3 X21.503 Y16.469 I0 J-0.25
G1 X31.503
G3 X31.739 Y16.635 I0 J0.25
G1 Z5.5 F30
G3 X31.503 Y16.969 I-0.235 J0.084 F1000
G1 X21.503
G3 X21.503 Y16.469 I0 J-0.25
G1 X31.503
G3 X31.739 Y16.635 I0 J0.25
G1 Z5 F30
G3 X31.503 Y16.969 I-0.235 J0.084 F1000
G1 X21.503
G3 X21.503 Y16.469 I0 J-0.25
G1 X31.503
G3 X31.739 Y16.635 I0 J0.25
G1 Z4.5 F30
G3 X31.503 Y16.969 I-0.235 J0.084 F1000
G1 X21.503
G3 X21.503 Y16.469 I0 J-0.25
G1 X31.503
G3 X31.739 Y16.635 I0 J0.25
G1 Z4 F30
G3 X31.503 Y16.969 I-0.235 J0.084 F1000
G1 X21.503
G3 X21.503 Y16.469 I0 J-0.25
G1 X31.503
G3 X31.739 Y16.635 I0 J0.25
G1 Z3.5 F30
G3 X31.503 Y16.969 I-0.235 J0.084 F1000
G1 X21.503
G3 X21.503 Y16.469 I0 J-0.25
G1 X31.503
G3 X31.739 Y16.635 I0 J0.25
G1 Z3 F30
G3 X31.503 Y16.969 I-0.235 J0.084 F1000
G1 X21.503
G3 X21.503 Y16.469 I0 J-0.25
G1 X31.503
G3 X31.739 Y16.635 I0 J0.25
G1 Z2.5 F30
G3 X31.503 Y16.969 I-0.235 J0.084 F1000
G1 X21.503
G3 X21.503 Y16.469 I0 J-0.25
G1 X31.503
G3 X31.739 Y16.635 I0 J0.25
G1 Z2 F30
G3 X31.503 Y16.969 I-0.235 J0.084 F1000
G1 X21.503
G3 X21.503 Y16.469 I0 J-0.25
G1 X31.503
G3 X31.739 Y16.635 I0 J0.25
G1 Z1.5 F30
G3 X31.503 Y16.969 I-0.235 J0.084 F1000
G1 X21.503
G3 X21.503 Y16.469 I0 J-0.25
G1 X31.503
G3 X31.739 Y16.635 I0 J0.25
G1 Z1 F30
G3 X31.503 Y16.969 I-0.235 J0.084 F1000
G1 X21.503
G3 X21.503 Y16.469 I0 J-0.25
G1 X31.503
G3 X31.739 Y16.635 I0 J0.25
G1 Z0.5 F30
G3 X31.503 Y16.969 I-0.235 J0.084 F1000
G1 X21.503
G3 X21.503 Y16.469 I0 J-0.25
G1 X31.503
G3 X31.739 Y16.635 I0 J0.25
G1 Z0 F30
G3 X31.503 Y16.969 I-0.235 J0.084 F1000
G1 X21.503
G3 X21.503 Y16.469 I0 J-0.25
G1 X31.503
G3 X31.739 Y16.635 I0 J0.25
G0 Z20
X31.734 Y-16.675
Z10.25
G1 Z9.5 F30
G3 X31.503 Y-16.521 I-0.231 J-0.096 F1000
G1 X21.503
G3 X21.503 Y-17.021 I0 J-0.25
G1 X31.503
G3 X31.734 Y-16.675 I0 J0.25
G1 Z9 F30
G3 X31.503 Y-16.521 I-0.231 J-0.096 F1000
G1 X21.503
G3 X21.503 Y-17.021 I0 J-0.25
G1 X31.503
G3 X31.734 Y-16.675 I0 J0.25
G1 Z8.5 F30
G3 X31.503 Y-16.521 I-0.231 J-0.096 F1000
G1 X21.503
G3 X21.503 Y-17.021 I0 J-0.25
G1 X31.503
G3 X31.734 Y-16.675 I0 J0.25
G1 Z8 F30
G3 X31.503 Y-16.521 I-0.231 J-0.096 F1000
G1 X21.503
G3 X21.503 Y-17.021 I0 J-0.25
G1 X31.503
G3 X31.734 Y-16.675 I0 J0.25
G1 Z7.5 F30
G3 X31.503 Y-16.521 I-0.231 J-0.096 F1000
G1 X21.503
G3 X21.503 Y-17.021 I0 J-0.25
G1 X31.503
G3 X31.734 Y-16.675 I0 J0.25
G1 Z7 F30
G3 X31.503 Y-16.521 I-0.231 J-0.096 F1000
G1 X21.503
G3 X21.503 Y-17.021 I0 J-0.25
G1 X31.503
G3 X31.734 Y-16.675 I0 J0.25
G1 Z6.5 F30
G3 X31.503 Y-16.521 I-0.231 J-0.096 F1000
G1 X21.503
G3 X21.503 Y-17.021 I0 J-0.25
G1 X31.503
G3 X31.734 Y-16.675 I0 J0.25
G1 Z6 F30
G3 X31.503 Y-16.521 I-0.231 J-0.096 F1000
G1 X21.503
G3 X21.503 Y-17.021 I0 J-0.25
G1 X31.503
G3 X31.734 Y-16.675 I0 J0.25
G1 Z5.5 F30
G3 X31.503 Y-16.521 I-0.231 J-0.096 F1000
G1 X21.503
G3 X21.503 Y-17.021 I0 J-0.25
G1 X31.503
G3 X31.734 Y-16.675 I0 J0.25
G1 Z5 F30
G3 X31.503 Y-16.521 I-0.231 J-0.096 F1000
G1 X21.503
G3 X21.503 Y-17.021 I0 J-0.25
G1 X31.503
G3 X31.734 Y-16.675 I0 J0.25
G1 Z4.5 F30
G3 X31.503 Y-16.521 I-0.231 J-0.096 F1000
G1 X21.503
G3 X21.503 Y-17.021 I0 J-0.25
G1 X31.503
G3 X31.734 Y-16.675 I0 J0.25
G1 Z4 F30
G3 X31.503 Y-16.521 I-0.231 J-0.096 F1000
G1 X21.503
G3 X21.503 Y-17.021 I0 J-0.25
G1 X31.503
G3 X31.734 Y-16.675 I0 J0.25
G1 Z3.5 F30
G3 X31.503 Y-16.521 I-0.231 J-0.096 F1000
G1 X21.503
G3 X21.503 Y-17.021 I0 J-0.25
G1 X31.503
G3 X31.734 Y-16.675 I0 J0.25
G1 Z3 F30
G3 X31.503 Y-16.521 I-0.231 J-0.096 F1000
G1 X21.503
G3 X21.503 Y-17.021 I0 J-0.25
G1 X31.503
G3 X31.734 Y-16.675 I0 J0.25
G1 Z2.5 F30
G3 X31.503 Y-16.521 I-0.231 J-0.096 F1000
G1 X21.503
G3 X21.503 Y-17.021 I0 J-0.25
G1 X31.503
G3 X31.734 Y-16.675 I0 J0.25
G1 Z2 F30
G3 X31.503 Y-16.521 I-0.231 J-0.096 F1000
G1 X21.503
G3 X21.503 Y-17.021 I0 J-0.25
G1 X31.503
G3 X31.734 Y-16.675 I0 J0.25
G1 Z1.5 F30
G3 X31.503 Y-16.521 I-0.231 J-0.096 F1000
G1 X21.503
G3 X21.503 Y-17.021 I0 J-0.25
G1 X31.503
G3 X31.734 Y-16.675 I0 J0.25
G1 Z1 F30
G3 X31.503 Y-16.521 I-0.231 J-0.096 F1000
G1 X21.503
G3 X21.503 Y-17.021 I0 J-0.25
G1 X31.503
G3 X31.734 Y-16.675 I0 J0.25
G1 Z0.5 F30
G3 X31.503 Y-16.521 I-0.231 J-0.096 F1000
G1 X21.503
G3 X21.503 Y-17.021 I0 J-0.25
G1 X31.503
G3 X31.734 Y-16.675 I0 J0.25
G1 Z0 F30
G3 X31.503 Y-16.521 I-0.231 J-0.096 F1000
G1 X21.503
G3 X21.503 Y-17.021 I0 J-0.25
G1 X31.503
G3 X31.734 Y-16.675 I0 J0.25
G0 Z20
X50.206 Y-16.624
Z10.25
G1 Z9.5 F30
X50.166 Y-16.58 F1000
X50.117 Y-16.548
X50.062 Y-16.527
X50.003 Y-16.521
X40.003
G3 X40.003 Y-17.021 I0 J-0.25
G1 X50.003
G3 X50.206 Y-16.624 I0 J0.25
G1 Z9 F30
X50.166 Y-16.58 F1000
X50.117 Y-16.548
X50.062 Y-16.527
X50.003 Y-16.521
X40.003
G3 X40.003 Y-17.021 I0 J-0.25
G1 X50.003
G3 X50.206 Y-16.624 I0 J0.25
G1 Z8.5 F30
X50.166 Y-16.58 F1000
X50.117 Y-16.548
X50.062 Y-16.527
X50.003 Y-16.521
X40.003
G3 X40.003 Y-17.021 I0 J-0.25
G1 X50.003
G3 X50.206 Y-16.624 I0 J0.25
G1 Z8 F30
X50.166 Y-16.58 F1000
X50.117 Y-16.548
X50.062 Y-16.527
X50.003 Y-16.521
X40.003
G3 X40.003 Y-17.021 I0 J-0.25
G1 X50.003
G3 X50.206 Y-16.624 I0 J0.25
G1 Z7.5 F30
X50.166 Y-16.58 F1000
X50.117 Y-16.548
X50.062 Y-16.527
X50.003 Y-16.521
X40.003
G3 X40.003 Y-17.021 I0 J-0.25
G1 X50.003
G3 X50.206 Y-16.624 I0 J0.25
G1 Z7 F30
X50.166 Y-16.58 F1000
X50.117 Y-16.548
X50.062 Y-16.527
X50.003 Y-16.521
X40.003
G3 X40.003 Y-17.021 I0 J-0.25
G1 X50.003
G3 X50.206 Y-16.624 I0 J0.25
G1 Z6.5 F30
X50.166 Y-16.58 F1000
X50.117 Y-16.548
X50.062 Y-16.527
X50.003 Y-16.521
X40.003
G3 X40.003 Y-17.021 I0 J-0.25
G1 X50.003
G3 X50.206 Y-16.624 I0 J0.25
G1 Z6 F30
X50.166 Y-16.58 F1000
X50.117 Y-16.548
X50.062 Y-16.527
X50.003 Y-16.521
X40.003
G3 X40.003 Y-17.021 I0 J-0.25
G1 X50.003
G3 X50.206 Y-16.624 I0 J0.25
G1 Z5.5 F30
X50.166 Y-16.58 F1000
X50.117 Y-16.548
X50.062 Y-16.527
X50.003 Y-16.521
X40.003
G3 X40.003 Y-17.021 I0 J-0.25
G1 X50.003
G3 X50.206 Y-16.624 I0 J0.25
G1 Z5 F30
X50.166 Y-16.58 F1000
X50.117 Y-16.548
X50.062 Y-16.527
X50.003 Y-16.521
X40.003
G3 X40.003 Y-17.021 I0 J-0.25
G1 X50.003
G3 X50.206 Y-16.624 I0 J0.25
G1 Z4.5 F30
X50.166 Y-16.58 F1000
X50.117 Y-16.548
X50.062 Y-16.527
X50.003 Y-16.521
X40.003
G3 X40.003 Y-17.021 I0 J-0.25
G1 X50.003
G3 X50.206 Y-16.624 I0 J0.25
G1 Z4 F30
X50.166 Y-16.58 F1000
X50.117 Y-16.548
X50.062 Y-16.527
X50.003 Y-16.521
X40.003
G3 X40.003 Y-17.021 I0 J-0.25
G1 X50.003
G3 X50.206 Y-16.624 I0 J0.25
G1 Z3.5 F30
X50.166 Y-16.58 F1000
X50.117 Y-16.548
X50.062 Y-16.527
X50.003 Y-16.521
X40.003
G3 X40.003 Y-17.021 I0 J-0.25
G1 X50.003
G3 X50.206 Y-16.624 I0 J0.25
G1 Z3 F30
X50.166 Y-16.58 F1000
X50.117 Y-16.548
X50.062 Y-16.527
X50.003 Y-16.521
X40.003
G3 X40.003 Y-17.021 I0 J-0.25
G1 X50.003
G3 X50.206 Y-16.624 I0 J0.25
G1 Z2.5 F30
X50.166 Y-16.58 F1000
X50.117 Y-16.548
X50.062 Y-16.527
X50.003 Y-16.521
X40.003
G3 X40.003 Y-17.021 I0 J-0.25
G1 X50.003
G3 X50.206 Y-16.624 I0 J0.25
G1 Z2 F30
X50.166 Y-16.58 F1000
X50.117 Y-16.548
X50.062 Y-16.527
X50.003 Y-16.521
X40.003
G3 X40.003 Y-17.021 I0 J-0.25
G1 X50.003
G3 X50.206 Y-16.624 I0 J0.25
G1 Z1.5 F30
X50.166 Y-16.58 F1000
X50.117 Y-16.548
X50.062 Y-16.527
X50.003 Y-16.521
X40.003
G3 X40.003 Y-17.021 I0 J-0.25
G1 X50.003
G3 X50.206 Y-16.624 I0 J0.25
G1 Z1 F30
X50.166 Y-16.58 F1000
X50.117 Y-16.548
X50.062 Y-16.527
X50.003 Y-16.521
X40.003
G3 X40.003 Y-17.021 I0 J-0.25
G1 X50.003
G3 X50.206 Y-16.624 I0 J0.25
G1 Z0.5 F30
X50.166 Y-16.58 F1000
X50.117 Y-16.548
X50.062 Y-16.527
X50.003 Y-16.521
X40.003
G3 X40.003 Y-17.021 I0 J-0.25
G1 X50.003
G3 X50.206 Y-16.624 I0 J0.25
G1 Z0 F30
X50.166 Y-16.58 F1000
X50.117 Y-16.548
X50.062 Y-16.527
X50.003 Y-16.521
X40.003
G3 X40.003 Y-17.021 I0 J-0.25
G1 X50.003
G3 X50.206 Y-16.624 I0 J0.25
G0 Z30
G28 G91 Z0
G90
G28 G91 X0 Y0
G90
M5
M30
