(cont2_60)
(T1  D=4 CR=0 - ZMIN=0 - flat end mill)
G90 G94
G17
G21
G28 G91 Z0
G90

(2D Contour1 7)
T1
S18000 M3
G54
G0 X-60.01 Y-0.4
Z25
Z15
G1 Z12 F600
Z9.4
G18 G2 X-59.61 Z9 I0.4 K0
G1 X-59.21
G17 G3 X-58.81 Y0 I0 J0.4
X-70.69 Y0 I-5.94 J0 F1000
X-58.81 Y0 I5.94 J0
X-59.21 Y0.4 I-0.4 J0 F800
G1 X-59.61
G18 G3 X-60.01 Z9.4 I0 K0.4
G1 Y-0.4 F1000
Z8.4 F600
G2 X-59.61 Z8 I0.4 K0
G1 X-59.21
G17 G3 X-58.81 Y0 I0 J0.4
X-70.69 Y0 I-5.94 J0 F1000
X-58.81 Y0 I5.94 J0
X-59.21 Y0.4 I-0.4 J0 F800
G1 X-59.61
G18 G3 X-60.01 Z8.4 I0 K0.4
G1 Y-0.4 F1000
Z7.4 F600
G2 X-59.61 Z7 I0.4 K0
G1 X-59.21
G17 G3 X-58.81 Y0 I0 J0.4
X-70.69 Y0 I-5.94 J0 F1000
X-58.81 Y0 I5.94 J0
X-59.21 Y0.4 I-0.4 J0 F800
G1 X-59.61
G18 G3 X-60.01 Z7.4 I0 K0.4
G1 Y-0.4 F1000
Z6.4 F600
G2 X-59.61 Z6 I0.4 K0
G1 X-59.21
G17 G3 X-58.81 Y0 I0 J0.4
X-70.69 Y0 I-5.94 J0 F1000
X-58.81 Y0 I5.94 J0
X-59.21 Y0.4 I-0.4 J0 F800
G1 X-59.61
G18 G3 X-60.01 Z6.4 I0 K0.4
G1 Y-0.4 F1000
Z5.4 F600
G2 X-59.61 Z5 I0.4 K0
G1 X-59.21
G17 G3 X-58.81 Y0 I0 J0.4
X-70.69 Y0 I-5.94 J0 F1000
X-58.81 Y0 I5.94 J0
X-59.21 Y0.4 I-0.4 J0 F800
G1 X-59.61
G18 G3 X-60.01 Z5.4 I0 K0.4
G1 Y-0.4 F1000
Z4.4 F600
G2 X-59.61 Z4 I0.4 K0
G1 X-59.21
G17 G3 X-58.81 Y0 I0 J0.4
X-70.69 Y0 I-5.94 J0 F1000
X-58.81 Y0 I5.94 J0
X-59.21 Y0.4 I-0.4 J0 F800
G1 X-59.61
G18 G3 X-60.01 Z4.4 I0 K0.4
G1 Y-0.4 F1000
Z3.4 F600
G2 X-59.61 Z3 I0.4 K0
G1 X-59.21
G17 G3 X-58.81 Y0 I0 J0.4
X-70.69 Y0 I-5.94 J0 F1000
X-58.81 Y0 I5.94 J0
X-59.21 Y0.4 I-0.4 J0 F800
G1 X-59.61
G18 G3 X-60.01 Z3.4 I0 K0.4
G1 Y-0.4 F1000
Z2.4 F600
G2 X-59.61 Z2 I0.4 K0
G1 X-59.21
G17 G3 X-58.81 Y0 I0 J0.4
X-70.69 Y0 I-5.94 J0 F1000
X-58.81 Y0 I5.94 J0
X-59.21 Y0.4 I-0.4 J0 F800
G1 X-59.61
G18 G3 X-60.01 Z2.4 I0 K0.4
G1 Y-0.4 F1000
Z1.4 F600
G2 X-59.61 Z1 I0.4 K0
G1 X-59.21
G17 G3 X-58.81 Y0 I0 J0.4
X-70.69 Y0 I-5.94 J0 F1000
X-58.81 Y0 I5.94 J0
X-59.21 Y0.4 I-0.4 J0 F800
G1 X-59.61
G18 G3 X-60.01 Z1.4 I0 K0.4
G1 Y-0.4 F1000
Z0.4 F600
G2 X-59.61 Z0 I0.4 K0
G1 X-59.21
G17 G3 X-58.81 Y0 I0 J0.4
X-70.69 Y0 I-5.94 J0 F1000
X-58.81 Y0 I5.94 J0
X-59.21 Y0.4 I-0.4 J0 F800
G1 X-59.61
G18 G3 X-60.01 Z0.4 I0 K0.4
G0 Z25
G17
G28 G91 Z0
G90
G28 G91 X0 Y0
G90
M5
M30
