(cont1)
(T1  D=4 CR=0 - ZMIN=0.1 - flat end mill)
G90 G94
G17
G21
G28 G91 Z0
G90

(2D Contour6 2)
T1
S18000 M3
G54
G0 X83.55 Y4.919
Z30
Z15
G1 Z11.5 F30
Z9.9
G18 G3 X83.15 Z9.5 I-0.4 K0 F600
G1 X78.15
G17 G3 X77.75 Y4.519 I0 J-0.4
G1 Y-23 F1300
G2 X74.75 Y-26 I-3 J0
G1 X22.907
G2 X17.957 Y-23.95 I0 J7
G1 X7.3 Y-13.293
G3 X6.593 Y-13 I-0.707 J-0.707
G1 X-64.75
G2 X-64.75 Y13 I0 J13
G1 X6.593
G3 X7.3 Y13.293 I0 J1
G1 X17.957 Y23.95
G2 X22.907 Y26 I4.95 J-4.95
G1 X74.75
G2 X77.75 Y23 I0 J-3
G1 Y4.519
G2 X77.25 Y3.769 I-0.813 J0
G3 X76.75 Y3.019 I0.313 J-0.75
G1 Y-23
G2 X74.75 Y-25 I-2 J0
G1 X22.907
G2 X18.664 Y-23.243 I0 J6
G1 X8.007 Y-12.586
G3 X6.593 Y-12 I-1.414 J-1.414
G1 X-64.75
G2 X-64.75 Y12 I0 J12
G1 X6.593
G3 X8.007 Y12.586 I0 J2
G1 X18.664 Y23.243
G2 X22.907 Y25 I4.243 J-4.243
G1 X74.75
G2 X76.75 Y23 I0 J-2
G1 Y3.019
G3 X77.15 Y2.619 I0.4 J0 F800
G1 X82.15
G18 G2 X82.55 Z9.9 I0 K0.4
G1 X83.55 Y4.919 F1300
Z9.4 F30
G3 X83.15 Z9 I-0.4 K0 F600
G1 X78.15
G17 G3 X77.75 Y4.519 I0 J-0.4
G1 Y-23 F1300
G2 X74.75 Y-26 I-3 J0
G1 X22.907
G2 X17.957 Y-23.95 I0 J7
G1 X7.3 Y-13.293
G3 X6.593 Y-13 I-0.707 J-0.707
G1 X-64.75
G2 X-64.75 Y13 I0 J13
G1 X6.593
G3 X7.3 Y13.293 I0 J1
G1 X17.957 Y23.95
G2 X22.907 Y26 I4.95 J-4.95
G1 X74.75
G2 X77.75 Y23 I0 J-3
G1 Y4.519
G2 X77.25 Y3.769 I-0.813 J0
G3 X76.75 Y3.019 I0.313 J-0.75
G1 Y-23
G2 X74.75 Y-25 I-2 J0
G1 X22.907
G2 X18.664 Y-23.243 I0 J6
G1 X8.007 Y-12.586
G3 X6.593 Y-12 I-1.414 J-1.414
G1 X-64.75
G2 X-64.75 Y12 I0 J12
G1 X6.593
G3 X8.007 Y12.586 I0 J2
G1 X18.664 Y23.243
G2 X22.907 Y25 I4.243 J-4.243
G1 X74.75
G2 X76.75 Y23 I0 J-2
G1 Y3.019
G3 X77.15 Y2.619 I0.4 J0 F800
G1 X82.15
G18 G2 X82.55 Z9.4 I0 K0.4
G1 X83.55 Y4.919 F1300
Z8.9 F30
G3 X83.15 Z8.5 I-0.4 K0 F600
G1 X78.15
G17 G3 X77.75 Y4.519 I0 J-0.4
G1 Y-23 F1300
G2 X74.75 Y-26 I-3 J0
G1 X22.907
G2 X17.957 Y-23.95 I0 J7
G1 X7.3 Y-13.293
G3 X6.593 Y-13 I-0.707 J-0.707
G1 X-64.75
G2 X-64.75 Y13 I0 J13
G1 X6.593
G3 X7.3 Y13.293 I0 J1
G1 X17.957 Y23.95
G2 X22.907 Y26 I4.95 J-4.95
G1 X74.75
G2 X77.75 Y23 I0 J-3
G1 Y4.519
G2 X77.25 Y3.769 I-0.813 J0
G3 X76.75 Y3.019 I0.313 J-0.75
G1 Y-23
G2 X74.75 Y-25 I-2 J0
G1 X22.907
G2 X18.664 Y-23.243 I0 J6
G1 X8.007 Y-12.586
G3 X6.593 Y-12 I-1.414 J-1.414
G1 X-64.75
G2 X-64.75 Y12 I0 J12
G1 X6.593
G3 X8.007 Y12.586 I0 J2
G1 X18.664 Y23.243
G2 X22.907 Y25 I4.243 J-4.243
G1 X74.75
G2 X76.75 Y23 I0 J-2
G1 Y3.019
G3 X77.15 Y2.619 I0.4 J0 F800
G1 X82.15
G18 G2 X82.55 Z8.9 I0 K0.4
G1 X83.55 Y4.919 F1300
Z8.4 F30
G3 X83.15 Z8 I-0.4 K0 F600
G1 X78.15
G17 G3 X77.75 Y4.519 I0 J-0.4
G1 Y-23 F1300
G2 X74.75 Y-26 I-3 J0
G1 X22.907
G2 X17.957 Y-23.95 I0 J7
G1 X7.3 Y-13.293
G3 X6.593 Y-13 I-0.707 J-0.707
G1 X-64.75
G2 X-64.75 Y13 I0 J13
G1 X6.593
G3 X7.3 Y13.293 I0 J1
G1 X17.957 Y23.95
G2 X22.907 Y26 I4.95 J-4.95
G1 X74.75
G2 X77.75 Y23 I0 J-3
G1 Y4.519
G2 X77.25 Y3.769 I-0.813 J0
G3 X76.75 Y3.019 I0.313 J-0.75
G1 Y-23
G2 X74.75 Y-25 I-2 J0
G1 X22.907
G2 X18.664 Y-23.243 I0 J6
G1 X8.007 Y-12.586
G3 X6.593 Y-12 I-1.414 J-1.414
G1 X-64.75
G2 X-64.75 Y12 I0 J12
G1 X6.593
G3 X8.007 Y12.586 I0 J2
G1 X18.664 Y23.243
G2 X22.907 Y25 I4.243 J-4.243
G1 X74.75
G2 X76.75 Y23 I0 J-2
G1 Y3.019
G3 X77.15 Y2.619 I0.4 J0 F800
G1 X82.15
G18 G2 X82.55 Z8.4 I0 K0.4
G1 X83.55 Y4.919 F1300
Z7.9 F30
G3 X83.15 Z7.5 I-0.4 K0 F600
G1 X78.15
G17 G3 X77.75 Y4.519 I0 J-0.4
G1 Y-23 F1300
G2 X74.75 Y-26 I-3 J0
G1 X22.907
G2 X17.957 Y-23.95 I0 J7
G1 X7.3 Y-13.293
G3 X6.593 Y-13 I-0.707 J-0.707
G1 X-64.75
G2 X-64.75 Y13 I0 J13
G1 X6.593
G3 X7.3 Y13.293 I0 J1
G1 X17.957 Y23.95
G2 X22.907 Y26 I4.95 J-4.95
G1 X74.75
G2 X77.75 Y23 I0 J-3
G1 Y4.519
G2 X77.25 Y3.769 I-0.813 J0
G3 X76.75 Y3.019 I0.313 J-0.75
G1 Y-23
G2 X74.75 Y-25 I-2 J0
G1 X22.907
G2 X18.664 Y-23.243 I0 J6
G1 X8.007 Y-12.586
G3 X6.593 Y-12 I-1.414 J-1.414
G1 X-64.75
G2 X-64.75 Y12 I0 J12
G1 X6.593
G3 X8.007 Y12.586 I0 J2
G1 X18.664 Y23.243
G2 X22.907 Y25 I4.243 J-4.243
G1 X74.75
G2 X76.75 Y23 I0 J-2
G1 Y3.019
G3 X77.15 Y2.619 I0.4 J0 F800
G1 X82.15
G18 G2 X82.55 Z7.9 I0 K0.4
G1 X83.55 Y4.919 F1300
Z7.4 F30
G3 X83.15 Z7 I-0.4 K0 F600
G1 X78.15
G17 G3 X77.75 Y4.519 I0 J-0.4
G1 Y-23 F1300
G2 X74.75 Y-26 I-3 J0
G1 X22.907
G2 X17.957 Y-23.95 I0 J7
G1 X7.3 Y-13.293
G3 X6.593 Y-13 I-0.707 J-0.707
G1 X-64.75
G2 X-64.75 Y13 I0 J13
G1 X6.593
G3 X7.3 Y13.293 I0 J1
G1 X17.957 Y23.95
G2 X22.907 Y26 I4.95 J-4.95
G1 X74.75
G2 X77.75 Y23 I0 J-3
G1 Y4.519
G2 X77.25 Y3.769 I-0.813 J0
G3 X76.75 Y3.019 I0.313 J-0.75
G1 Y-23
G2 X74.75 Y-25 I-2 J0
G1 X22.907
G2 X18.664 Y-23.243 I0 J6
G1 X8.007 Y-12.586
G3 X6.593 Y-12 I-1.414 J-1.414
G1 X-64.75
G2 X-64.75 Y12 I0 J12
G1 X6.593
G3 X8.007 Y12.586 I0 J2
G1 X18.664 Y23.243
G2 X22.907 Y25 I4.243 J-4.243
G1 X74.75
G2 X76.75 Y23 I0 J-2
G1 Y3.019
G3 X77.15 Y2.619 I0.4 J0 F800
G1 X82.15
G18 G2 X82.55 Z7.4 I0 K0.4
G1 X83.55 Y4.919 F1300
Z6.9 F30
G3 X83.15 Z6.5 I-0.4 K0 F600
G1 X78.15
G17 G3 X77.75 Y4.519 I0 J-0.4
G1 Y-23 F1300
G2 X74.75 Y-26 I-3 J0
G1 X22.907
G2 X17.957 Y-23.95 I0 J7
G1 X7.3 Y-13.293
G3 X6.593 Y-13 I-0.707 J-0.707
G1 X-64.75
G2 X-64.75 Y13 I0 J13
G1 X6.593
G3 X7.3 Y13.293 I0 J1
G1 X17.957 Y23.95
G2 X22.907 Y26 I4.95 J-4.95
G1 X74.75
G2 X77.75 Y23 I0 J-3
G1 Y4.519
G2 X77.25 Y3.769 I-0.813 J0
G3 X76.75 Y3.019 I0.313 J-0.75
G1 Y-23
G2 X74.75 Y-25 I-2 J0
G1 X22.907
G2 X18.664 Y-23.243 I0 J6
G1 X8.007 Y-12.586
G3 X6.593 Y-12 I-1.414 J-1.414
G1 X-64.75
G2 X-64.75 Y12 I0 J12
G1 X6.593
G3 X8.007 Y12.586 I0 J2
G1 X18.664 Y23.243
G2 X22.907 Y25 I4.243 J-4.243
G1 X74.75
G2 X76.75 Y23 I0 J-2
G1 Y3.019
G3 X77.15 Y2.619 I0.4 J0 F800
G1 X82.15
G18 G2 X82.55 Z6.9 I0 K0.4
G1 X83.55 Y4.919 F1300
Z6.4 F30
G3 X83.15 Z6 I-0.4 K0 F600
G1 X78.15
G17 G3 X77.75 Y4.519 I0 J-0.4
G1 Y-23 F1300
G2 X74.75 Y-26 I-3 J0
G1 X22.907
G2 X17.957 Y-23.95 I0 J7
G1 X7.3 Y-13.293
G3 X6.593 Y-13 I-0.707 J-0.707
G1 X-64.75
G2 X-64.75 Y13 I0 J13
G1 X6.593
G3 X7.3 Y13.293 I0 J1
G1 X17.957 Y23.95
G2 X22.907 Y26 I4.95 J-4.95
G1 X74.75
G2 X77.75 Y23 I0 J-3
G1 Y4.519
G2 X77.25 Y3.769 I-0.813 J0
G3 X76.75 Y3.019 I0.313 J-0.75
G1 Y-23
G2 X74.75 Y-25 I-2 J0
G1 X22.907
G2 X18.664 Y-23.243 I0 J6
G1 X8.007 Y-12.586
G3 X6.593 Y-12 I-1.414 J-1.414
G1 X-64.75
G2 X-64.75 Y12 I0 J12
G1 X6.593
G3 X8.007 Y12.586 I0 J2
G1 X18.664 Y23.243
G2 X22.907 Y25 I4.243 J-4.243
G1 X74.75
G2 X76.75 Y23 I0 J-2
G1 Y3.019
G3 X77.15 Y2.619 I0.4 J0 F800
G1 X82.15
G18 G2 X82.55 Z6.4 I0 K0.4
G1 X83.55 Y4.919 F1300
Z5.9 F30
G3 X83.15 Z5.5 I-0.4 K0 F600
G1 X78.15
G17 G3 X77.75 Y4.519 I0 J-0.4
G1 Y-23 F1300
G2 X74.75 Y-26 I-3 J0
G1 X22.907
G2 X17.957 Y-23.95 I0 J7
G1 X7.3 Y-13.293
G3 X6.593 Y-13 I-0.707 J-0.707
G1 X-64.75
G2 X-64.75 Y13 I0 J13
G1 X6.593
G3 X7.3 Y13.293 I0 J1
G1 X17.957 Y23.95
G2 X22.907 Y26 I4.95 J-4.95
G1 X74.75
G2 X77.75 Y23 I0 J-3
G1 Y4.519
G2 X77.25 Y3.769 I-0.813 J0
G3 X76.75 Y3.019 I0.313 J-0.75
G1 Y-23
G2 X74.75 Y-25 I-2 J0
G1 X22.907
G2 X18.664 Y-23.243 I0 J6
G1 X8.007 Y-12.586
G3 X6.593 Y-12 I-1.414 J-1.414
G1 X-64.75
G2 X-64.75 Y12 I0 J12
G1 X6.593
G3 X8.007 Y12.586 I0 J2
G1 X18.664 Y23.243
G2 X22.907 Y25 I4.243 J-4.243
G1 X74.75
G2 X76.75 Y23 I0 J-2
G1 Y3.019
G3 X77.15 Y2.619 I0.4 J0 F800
G1 X82.15
G18 G2 X82.55 Z5.9 I0 K0.4
G1 X83.55 Y4.919 F1300
Z5.4 F30
G3 X83.15 Z5 I-0.4 K0 F600
G1 X78.15
G17 G3 X77.75 Y4.519 I0 J-0.4
G1 Y-23 F1300
G2 X74.75 Y-26 I-3 J0
G1 X22.907
G2 X17.957 Y-23.95 I0 J7
G1 X7.3 Y-13.293
G3 X6.593 Y-13 I-0.707 J-0.707
G1 X-64.75
G2 X-64.75 Y13 I0 J13
G1 X6.593
G3 X7.3 Y13.293 I0 J1
G1 X17.957 Y23.95
G2 X22.907 Y26 I4.95 J-4.95
G1 X74.75
G2 X77.75 Y23 I0 J-3
G1 Y4.519
G2 X77.25 Y3.769 I-0.813 J0
G3 X76.75 Y3.019 I0.313 J-0.75
G1 Y-23
G2 X74.75 Y-25 I-2 J0
G1 X22.907
G2 X18.664 Y-23.243 I0 J6
G1 X8.007 Y-12.586
G3 X6.593 Y-12 I-1.414 J-1.414
G1 X-64.75
G2 X-64.75 Y12 I0 J12
G1 X6.593
G3 X8.007 Y12.586 I0 J2
G1 X18.664 Y23.243
G2 X22.907 Y25 I4.243 J-4.243
G1 X74.75
G2 X76.75 Y23 I0 J-2
G1 Y3.019
G3 X77.15 Y2.619 I0.4 J0 F800
G1 X82.15
G18 G2 X82.55 Z5.4 I0 K0.4
G1 X83.55 Y4.919 F1300
Z4.9 F30
G3 X83.15 Z4.5 I-0.4 K0 F600
G1 X78.15
G17 G3 X77.75 Y4.519 I0 J-0.4
G1 Y-23 F1300
G2 X74.75 Y-26 I-3 J0
G1 X22.907
G2 X17.957 Y-23.95 I0 J7
G1 X7.3 Y-13.293
G3 X6.593 Y-13 I-0.707 J-0.707
G1 X-64.75
G2 X-64.75 Y13 I0 J13
G1 X6.593
G3 X7.3 Y13.293 I0 J1
G1 X17.957 Y23.95
G2 X22.907 Y26 I4.95 J-4.95
G1 X74.75
G2 X77.75 Y23 I0 J-3
G1 Y4.519
G2 X77.25 Y3.769 I-0.813 J0
G3 X76.75 Y3.019 I0.313 J-0.75
G1 Y-23
G2 X74.75 Y-25 I-2 J0
G1 X22.907
G2 X18.664 Y-23.243 I0 J6
G1 X8.007 Y-12.586
G3 X6.593 Y-12 I-1.414 J-1.414
G1 X-64.75
G2 X-64.75 Y12 I0 J12
G1 X6.593
G3 X8.007 Y12.586 I0 J2
G1 X18.664 Y23.243
G2 X22.907 Y25 I4.243 J-4.243
G1 X74.75
G2 X76.75 Y23 I0 J-2
G1 Y3.019
G3 X77.15 Y2.619 I0.4 J0 F800
G1 X82.15
G18 G2 X82.55 Z4.9 I0 K0.4
G1 X83.55 Y4.919 F1300
Z4.4 F30
G3 X83.15 Z4 I-0.4 K0 F600
G1 X78.15
G17 G3 X77.75 Y4.519 I0 J-0.4
G1 Y-23 F1300
G2 X74.75 Y-26 I-3 J0
G1 X22.907
G2 X17.957 Y-23.95 I0 J7
G1 X7.3 Y-13.293
G3 X6.593 Y-13 I-0.707 J-0.707
G1 X-64.75
G2 X-64.75 Y13 I0 J13
G1 X6.593
G3 X7.3 Y13.293 I0 J1
G1 X17.957 Y23.95
G2 X22.907 Y26 I4.95 J-4.95
G1 X74.75
G2 X77.75 Y23 I0 J-3
G1 Y4.519
G2 X77.25 Y3.769 I-0.813 J0
G3 X76.75 Y3.019 I0.313 J-0.75
G1 Y-23
G2 X74.75 Y-25 I-2 J0
G1 X22.907
G2 X18.664 Y-23.243 I0 J6
G1 X8.007 Y-12.586
G3 X6.593 Y-12 I-1.414 J-1.414
G1 X-64.75
G2 X-64.75 Y12 I0 J12
G1 X6.593
G3 X8.007 Y12.586 I0 J2
G1 X18.664 Y23.243
G2 X22.907 Y25 I4.243 J-4.243
G1 X74.75
G2 X76.75 Y23 I0 J-2
G1 Y3.019
G3 X77.15 Y2.619 I0.4 J0 F800
G1 X82.15
G18 G2 X82.55 Z4.4 I0 K0.4
G1 X83.55 Y4.919 F1300
Z3.9 F30
G3 X83.15 Z3.5 I-0.4 K0 F600
G1 X78.15
G17 G3 X77.75 Y4.519 I0 J-0.4
G1 Y-23 F1300
G2 X74.75 Y-26 I-3 J0
G1 X22.907
G2 X17.957 Y-23.95 I0 J7
G1 X7.3 Y-13.293
G3 X6.593 Y-13 I-0.707 J-0.707
G1 X-64.75
G2 X-64.75 Y13 I0 J13
G1 X6.593
G3 X7.3 Y13.293 I0 J1
G1 X17.957 Y23.95
G2 X22.907 Y26 I4.95 J-4.95
G1 X74.75
G2 X77.75 Y23 I0 J-3
G1 Y4.519
G2 X77.25 Y3.769 I-0.813 J0
G3 X76.75 Y3.019 I0.313 J-0.75
G1 Y-23
G2 X74.75 Y-25 I-2 J0
G1 X22.907
G2 X18.664 Y-23.243 I0 J6
G1 X8.007 Y-12.586
G3 X6.593 Y-12 I-1.414 J-1.414
G1 X-64.75
G2 X-64.75 Y12 I0 J12
G1 X6.593
G3 X8.007 Y12.586 I0 J2
G1 X18.664 Y23.243
G2 X22.907 Y25 I4.243 J-4.243
G1 X74.75
G2 X76.75 Y23 I0 J-2
G1 Y3.019
G3 X77.15 Y2.619 I0.4 J0 F800
G1 X82.15
G18 G2 X82.55 Z3.9 I0 K0.4
G1 X83.55 Y4.919 F1300
Z3.4 F30
G3 X83.15 Z3 I-0.4 K0 F600
G1 X78.15
G17 G3 X77.75 Y4.519 I0 J-0.4
G1 Y-23 F1300
G2 X74.75 Y-26 I-3 J0
G1 X22.907
G2 X17.957 Y-23.95 I0 J7
G1 X7.3 Y-13.293
G3 X6.593 Y-13 I-0.707 J-0.707
G1 X-64.75
G2 X-64.75 Y13 I0 J13
G1 X6.593
G3 X7.3 Y13.293 I0 J1
G1 X17.957 Y23.95
G2 X22.907 Y26 I4.95 J-4.95
G1 X74.75
G2 X77.75 Y23 I0 J-3
G1 Y4.519
G2 X77.25 Y3.769 I-0.813 J0
G3 X76.75 Y3.019 I0.313 J-0.75
G1 Y-23
G2 X74.75 Y-25 I-2 J0
G1 X22.907
G2 X18.664 Y-23.243 I0 J6
G1 X8.007 Y-12.586
G3 X6.593 Y-12 I-1.414 J-1.414
G1 X-64.75
G2 X-64.75 Y12 I0 J12
G1 X6.593
G3 X8.007 Y12.586 I0 J2
G1 X18.664 Y23.243
G2 X22.907 Y25 I4.243 J-4.243
G1 X74.75
G2 X76.75 Y23 I0 J-2
G1 Y3.019
G3 X77.15 Y2.619 I0.4 J0 F800
G1 X82.15
G18 G2 X82.55 Z3.4 I0 K0.4
G1 X83.55 Y4.919 F1300
Z2.9 F30
G3 X83.15 Z2.5 I-0.4 K0 F600
G1 X78.15
G17 G3 X77.75 Y4.519 I0 J-0.4
G1 Y-23 F1300
G2 X74.75 Y-26 I-3 J0
G1 X22.907
G2 X17.957 Y-23.95 I0 J7
G1 X7.3 Y-13.293
G3 X6.593 Y-13 I-0.707 J-0.707
G1 X-64.75
G2 X-64.75 Y13 I0 J13
G1 X6.593
G3 X7.3 Y13.293 I0 J1
G1 X17.957 Y23.95
G2 X22.907 Y26 I4.95 J-4.95
G1 X74.75
G2 X77.75 Y23 I0 J-3
G1 Y4.519
G2 X77.25 Y3.769 I-0.813 J0
G3 X76.75 Y3.019 I0.313 J-0.75
G1 Y-23
G2 X74.75 Y-25 I-2 J0
G1 X22.907
G2 X18.664 Y-23.243 I0 J6
G1 X8.007 Y-12.586
G3 X6.593 Y-12 I-1.414 J-1.414
G1 X-64.75
G2 X-64.75 Y12 I0 J12
G1 X6.593
G3 X8.007 Y12.586 I0 J2
G1 X18.664 Y23.243
G2 X22.907 Y25 I4.243 J-4.243
G1 X74.75
G2 X76.75 Y23 I0 J-2
G1 Y3.019
G3 X77.15 Y2.619 I0.4 J0 F800
G1 X82.15
G18 G2 X82.55 Z2.9 I0 K0.4
G1 X83.55 Y4.919 F1300
Z2.4 F30
G3 X83.15 Z2 I-0.4 K0 F600
G1 X78.15
G17 G3 X77.75 Y4.519 I0 J-0.4
G1 Y-23 F1300
G2 X74.75 Y-26 I-3 J0
G1 X22.907
G2 X17.957 Y-23.95 I0 J7
G1 X7.3 Y-13.293
G3 X6.593 Y-13 I-0.707 J-0.707
G1 X-64.75
G2 X-64.75 Y13 I0 J13
G1 X6.593
G3 X7.3 Y13.293 I0 J1
G1 X17.957 Y23.95
G2 X22.907 Y26 I4.95 J-4.95
G1 X74.75
G2 X77.75 Y23 I0 J-3
G1 Y4.519
G2 X77.25 Y3.769 I-0.813 J0
G3 X76.75 Y3.019 I0.313 J-0.75
G1 Y-23
G2 X74.75 Y-25 I-2 J0
G1 X22.907
G2 X18.664 Y-23.243 I0 J6
G1 X8.007 Y-12.586
G3 X6.593 Y-12 I-1.414 J-1.414
G1 X-64.75
G2 X-64.75 Y12 I0 J12
G1 X6.593
G3 X8.007 Y12.586 I0 J2
G1 X18.664 Y23.243
G2 X22.907 Y25 I4.243 J-4.243
G1 X74.75
G2 X76.75 Y23 I0 J-2
G1 Y3.019
G3 X77.15 Y2.619 I0.4 J0 F800
G1 X82.15
G18 G2 X82.55 Z2.4 I0 K0.4
G1 X83.55 Y4.919 F1300
Z1.9 F30
G3 X83.15 Z1.5 I-0.4 K0 F600
G1 X78.15
G17 G3 X77.75 Y4.519 I0 J-0.4
G1 Y-23 F1300
G2 X74.75 Y-26 I-3 J0
G1 X22.907
G2 X17.957 Y-23.95 I0 J7
G1 X7.3 Y-13.293
G3 X6.593 Y-13 I-0.707 J-0.707
G1 X-64.75
G2 X-64.75 Y13 I0 J13
G1 X6.593
G3 X7.3 Y13.293 I0 J1
G1 X17.957 Y23.95
G2 X22.907 Y26 I4.95 J-4.95
G1 X74.75
G2 X77.75 Y23 I0 J-3
G1 Y4.519
G2 X77.25 Y3.769 I-0.813 J0
G3 X76.75 Y3.019 I0.313 J-0.75
G1 Y-23
G2 X74.75 Y-25 I-2 J0
G1 X22.907
G2 X18.664 Y-23.243 I0 J6
G1 X8.007 Y-12.586
G3 X6.593 Y-12 I-1.414 J-1.414
G1 X-64.75
G2 X-64.75 Y12 I0 J12
G1 X6.593
G3 X8.007 Y12.586 I0 J2
G1 X18.664 Y23.243
G2 X22.907 Y25 I4.243 J-4.243
G1 X74.75
G2 X76.75 Y23 I0 J-2
G1 Y3.019
G3 X77.15 Y2.619 I0.4 J0 F800
G1 X82.15
G18 G2 X82.55 Z1.9 I0 K0.4
G1 X83.55 Y4.919 F1300
Z1.4 F30
G3 X83.15 Z1 I-0.4 K0 F600
G1 X78.15
G17 G3 X77.75 Y4.519 I0 J-0.4
G1 Y-23 F1300
G2 X74.75 Y-26 I-3 J0
G1 X22.907
G2 X17.957 Y-23.95 I0 J7
G1 X7.3 Y-13.293
G3 X6.593 Y-13 I-0.707 J-0.707
G1 X-64.75
G2 X-64.75 Y13 I0 J13
G1 X6.593
G3 X7.3 Y13.293 I0 J1
G1 X17.957 Y23.95
G2 X22.907 Y26 I4.95 J-4.95
G1 X74.75
G2 X77.75 Y23 I0 J-3
G1 Y4.519
G2 X77.25 Y3.769 I-0.813 J0
G3 X76.75 Y3.019 I0.313 J-0.75
G1 Y-23
G2 X74.75 Y-25 I-2 J0
G1 X22.907
G2 X18.664 Y-23.243 I0 J6
G1 X8.007 Y-12.586
G3 X6.593 Y-12 I-1.414 J-1.414
G1 X-64.75
G2 X-64.75 Y12 I0 J12
G1 X6.593
G3 X8.007 Y12.586 I0 J2
G1 X18.664 Y23.243
G2 X22.907 Y25 I4.243 J-4.243
G1 X74.75
G2 X76.75 Y23 I0 J-2
G1 Y3.019
G3 X77.15 Y2.619 I0.4 J0 F800
G1 X82.15
G18 G2 X82.55 Z1.4 I0 K0.4
G1 X83.55 Y4.919 F1300
Z0.9 F30
G3 X83.15 Z0.5 I-0.4 K0 F600
G1 X78.15
G17 G3 X77.75 Y4.519 I0 J-0.4
G1 Y-23 F1300
G2 X74.75 Y-26 I-3 J0
G1 X22.907
G2 X17.957 Y-23.95 I0 J7
G1 X7.3 Y-13.293
G3 X6.593 Y-13 I-0.707 J-0.707
G1 X-64.75
G2 X-64.75 Y13 I0 J13
G1 X6.593
G3 X7.3 Y13.293 I0 J1
G1 X17.957 Y23.95
G2 X22.907 Y26 I4.95 J-4.95
G1 X74.75
G2 X77.75 Y23 I0 J-3
G1 Y4.519
G2 X77.25 Y3.769 I-0.813 J0
G3 X76.75 Y3.019 I0.313 J-0.75
G1 Y-23
G2 X74.75 Y-25 I-2 J0
G1 X22.907
G2 X18.664 Y-23.243 I0 J6
G1 X8.007 Y-12.586
G3 X6.593 Y-12 I-1.414 J-1.414
G1 X-64.75
G2 X-64.75 Y12 I0 J12
G1 X6.593
G3 X8.007 Y12.586 I0 J2
G1 X18.664 Y23.243
G2 X22.907 Y25 I4.243 J-4.243
G1 X74.75
G2 X76.75 Y23 I0 J-2
G1 Y3.019
G3 X77.15 Y2.619 I0.4 J0 F800
G1 X82.15
G18 G2 X82.55 Z0.9 I0 K0.4
G1 X83.55 Y4.919 F1300
Z0.5 F30
G3 X83.15 Z0.1 I-0.4 K0 F600
G1 X78.15
G17 G3 X77.75 Y4.519 I0 J-0.4
G1 Y-23 F1300
G2 X74.75 Y-26 I-3 J0
G1 X22.907
G2 X17.957 Y-23.95 I0 J7
G1 X7.3 Y-13.293
G3 X6.593 Y-13 I-0.707 J-0.707
G1 X-64.75
G2 X-64.75 Y13 I0 J13
G1 X6.593
G3 X7.3 Y13.293 I0 J1
G1 X17.957 Y23.95
G2 X22.907 Y26 I4.95 J-4.95
G1 X74.75
G2 X77.75 Y23 I0 J-3
G1 Y4.519
G2 X77.25 Y3.769 I-0.813 J0
G3 X76.75 Y3.019 I0.313 J-0.75
G1 Y-23
G2 X74.75 Y-25 I-2 J0
G1 X22.907
G2 X18.664 Y-23.243 I0 J6
G1 X8.007 Y-12.586
G3 X6.593 Y-12 I-1.414 J-1.414
G1 X-64.75
G2 X-64.75 Y12 I0 J12
G1 X6.593
G3 X8.007 Y12.586 I0 J2
G1 X18.664 Y23.243
G2 X22.907 Y25 I4.243 J-4.243
G1 X74.75
G2 X76.75 Y23 I0 J-2
G1 Y3.019
G3 X77.15 Y2.619 I0.4 J0 F800
G1 X82.15
G18 G2 X82.55 Z0.5 I0 K0.4
G0 Z30
G17
G28 G91 Z0
G90
G28 G91 X0 Y0
G90
M5
M30
