(bore1)
(T1  D=6 CR=0 - ZMIN=5 - flat end mill)
G90 G94
G17
G21
G28 G91 Z0
G90

(Bore1 11)
T1
S18000 M3
G54
G0 X9.996 Y62.402
Z25.2
Z12.5
G1 Z11.1 F300
G19 G2 Y61.802 Z10.5 J-0.6 K0
G1 Y61.502
G17 G3 X10.496 Y61.002 I0.5 J0
X10.496 Y63.002 Z10.4 I0 J1 F350
X10.496 Y61.002 Z10.3 I0 J-1
X10.496 Y63.002 Z10.2 I0 J1
X10.496 Y61.002 Z10.1 I0 J-1
X10.496 Y63.002 Z10 I0 J1
X10.496 Y61.002 Z9.9 I0 J-1
X10.496 Y63.002 Z9.8 I0 J1
X10.496 Y61.002 Z9.7 I0 J-1
X10.496 Y63.002 Z9.6 I0 J1
X10.496 Y61.002 Z9.5 I0 J-1
X10.496 Y63.002 Z9.4 I0 J1
X10.496 Y61.002 Z9.3 I0 J-1
X10.496 Y63.002 Z9.2 I0 J1
X10.496 Y61.002 Z9.1 I0 J-1
X10.496 Y63.002 Z9 I0 J1
X10.496 Y61.002 Z8.9 I0 J-1
X10.496 Y63.002 Z8.8 I0 J1
X10.496 Y61.002 Z8.7 I0 J-1
X10.496 Y63.002 Z8.6 I0 J1
X10.496 Y61.002 Z8.5 I0 J-1
X10.496 Y63.002 Z8.4 I0 J1
X10.496 Y61.002 Z8.3 I0 J-1
X10.496 Y63.002 Z8.2 I0 J1
X10.496 Y61.002 Z8.1 I0 J-1
X10.496 Y63.002 Z8 I0 J1
X10.496 Y61.002 Z7.9 I0 J-1
X10.496 Y63.002 Z7.8 I0 J1
X10.496 Y61.002 Z7.7 I0 J-1
X10.496 Y63.002 Z7.6 I0 J1
X10.496 Y61.002 Z7.5 I0 J-1
X10.496 Y63.002 Z7.4 I0 J1
X10.496 Y61.002 Z7.3 I0 J-1
X10.496 Y63.002 Z7.2 I0 J1
X10.496 Y61.002 Z7.1 I0 J-1
X10.496 Y63.002 Z7 I0 J1
X10.496 Y61.002 Z6.9 I0 J-1
X10.496 Y63.002 Z6.8 I0 J1
X10.496 Y61.002 Z6.7 I0 J-1
X10.496 Y63.002 Z6.6 I0 J1
X10.496 Y61.002 Z6.5 I0 J-1
X10.496 Y63.002 Z6.4 I0 J1
X10.496 Y61.002 Z6.3 I0 J-1
X10.496 Y63.002 Z6.2 I0 J1
X10.496 Y61.002 Z6.1 I0 J-1
X10.496 Y63.002 Z6 I0 J1
X10.496 Y61.002 Z5.9 I0 J-1
X10.496 Y63.002 Z5.8 I0 J1
X10.496 Y61.002 Z5.7 I0 J-1
X10.496 Y63.002 Z5.6 I0 J1
X10.496 Y61.002 Z5.5 I0 J-1
X10.496 Y63.002 Z5.4 I0 J1
X10.496 Y61.002 Z5.3 I0 J-1
X10.496 Y63.002 Z5.2 I0 J1
X10.496 Y61.002 Z5.1 I0 J-1
X10.496 Y63.002 Z5 I0 J1
X10.496 Y61.002 I0 J-1
X10.496 Y63.002 I0 J1
X9.996 Y62.502 I0 J-0.5 F300
G1 Y62.202
G19 G2 Y61.602 Z5.6 J0 K0.6
G0 Z19.2
X-16.004 Y62.402
Z12.5
G1 Z11.1 F300
G2 Y61.802 Z10.5 J-0.6 K0
G1 Y61.502
G17 G3 X-15.504 Y61.002 I0.5 J0
X-15.504 Y63.002 Z10.4 I0 J1 F350
X-15.504 Y61.002 Z10.3 I0 J-1
X-15.504 Y63.002 Z10.2 I0 J1
X-15.504 Y61.002 Z10.1 I0 J-1
X-15.504 Y63.002 Z10 I0 J1
X-15.504 Y61.002 Z9.9 I0 J-1
X-15.504 Y63.002 Z9.8 I0 J1
X-15.504 Y61.002 Z9.7 I0 J-1
X-15.504 Y63.002 Z9.6 I0 J1
X-15.504 Y61.002 Z9.5 I0 J-1
X-15.504 Y63.002 Z9.4 I0 J1
X-15.504 Y61.002 Z9.3 I0 J-1
X-15.504 Y63.002 Z9.2 I0 J1
X-15.504 Y61.002 Z9.1 I0 J-1
X-15.504 Y63.002 Z9 I0 J1
X-15.504 Y61.002 Z8.9 I0 J-1
X-15.504 Y63.002 Z8.8 I0 J1
X-15.504 Y61.002 Z8.7 I0 J-1
X-15.504 Y63.002 Z8.6 I0 J1
X-15.504 Y61.002 Z8.5 I0 J-1
X-15.504 Y63.002 Z8.4 I0 J1
X-15.504 Y61.002 Z8.3 I0 J-1
X-15.504 Y63.002 Z8.2 I0 J1
X-15.504 Y61.002 Z8.1 I0 J-1
X-15.504 Y63.002 Z8 I0 J1
X-15.504 Y61.002 Z7.9 I0 J-1
X-15.504 Y63.002 Z7.8 I0 J1
X-15.504 Y61.002 Z7.7 I0 J-1
X-15.504 Y63.002 Z7.6 I0 J1
X-15.504 Y61.002 Z7.5 I0 J-1
X-15.504 Y63.002 Z7.4 I0 J1
X-15.504 Y61.002 Z7.3 I0 J-1
X-15.504 Y63.002 Z7.2 I0 J1
X-15.504 Y61.002 Z7.1 I0 J-1
X-15.504 Y63.002 Z7 I0 J1
X-15.504 Y61.002 Z6.9 I0 J-1
X-15.504 Y63.002 Z6.8 I0 J1
X-15.504 Y61.002 Z6.7 I0 J-1
X-15.504 Y63.002 Z6.6 I0 J1
X-15.504 Y61.002 Z6.5 I0 J-1
X-15.504 Y63.002 Z6.4 I0 J1
X-15.504 Y61.002 Z6.3 I0 J-1
X-15.504 Y63.002 Z6.2 I0 J1
X-15.504 Y61.002 Z6.1 I0 J-1
X-15.504 Y63.002 Z6 I0 J1
X-15.504 Y61.002 Z5.9 I0 J-1
X-15.504 Y63.002 Z5.8 I0 J1
X-15.504 Y61.002 Z5.7 I0 J-1
X-15.504 Y63.002 Z5.6 I0 J1
X-15.504 Y61.002 Z5.5 I0 J-1
X-15.504 Y63.002 Z5.4 I0 J1
X-15.504 Y61.002 Z5.3 I0 J-1
X-15.504 Y63.002 Z5.2 I0 J1
X-15.504 Y61.002 Z5.1 I0 J-1
X-15.504 Y63.002 Z5 I0 J1
X-15.504 Y61.002 I0 J-1
X-15.504 Y63.002 I0 J1
X-16.004 Y62.502 I0 J-0.5 F300
G1 Y62.202
G19 G2 Y61.602 Z5.6 J0 K0.6
G0 Z19.2
Y36.402
Z12.5
G1 Z11.1 F300
G2 Y35.802 Z10.5 J-0.6 K0
G1 Y35.502
G17 G3 X-15.504 Y35.002 I0.5 J0
X-15.504 Y37.002 Z10.4 I0 J1 F350
X-15.504 Y35.002 Z10.3 I0 J-1
X-15.504 Y37.002 Z10.2 I0 J1
X-15.504 Y35.002 Z10.1 I0 J-1
X-15.504 Y37.002 Z10 I0 J1
X-15.504 Y35.002 Z9.9 I0 J-1
X-15.504 Y37.002 Z9.8 I0 J1
X-15.504 Y35.002 Z9.7 I0 J-1
X-15.504 Y37.002 Z9.6 I0 J1
X-15.504 Y35.002 Z9.5 I0 J-1
X-15.504 Y37.002 Z9.4 I0 J1
X-15.504 Y35.002 Z9.3 I0 J-1
X-15.504 Y37.002 Z9.2 I0 J1
X-15.504 Y35.002 Z9.1 I0 J-1
X-15.504 Y37.002 Z9 I0 J1
X-15.504 Y35.002 Z8.9 I0 J-1
X-15.504 Y37.002 Z8.8 I0 J1
X-15.504 Y35.002 Z8.7 I0 J-1
X-15.504 Y37.002 Z8.6 I0 J1
X-15.504 Y35.002 Z8.5 I0 J-1
X-15.504 Y37.002 Z8.4 I0 J1
X-15.504 Y35.002 Z8.3 I0 J-1
X-15.504 Y37.002 Z8.2 I0 J1
X-15.504 Y35.002 Z8.1 I0 J-1
X-15.504 Y37.002 Z8 I0 J1
X-15.504 Y35.002 Z7.9 I0 J-1
X-15.504 Y37.002 Z7.8 I0 J1
X-15.504 Y35.002 Z7.7 I0 J-1
X-15.504 Y37.002 Z7.6 I0 J1
X-15.504 Y35.002 Z7.5 I0 J-1
X-15.504 Y37.002 Z7.4 I0 J1
X-15.504 Y35.002 Z7.3 I0 J-1
X-15.504 Y37.002 Z7.2 I0 J1
X-15.504 Y35.002 Z7.1 I0 J-1
X-15.504 Y37.002 Z7 I0 J1
X-15.504 Y35.002 Z6.9 I0 J-1
X-15.504 Y37.002 Z6.8 I0 J1
X-15.504 Y35.002 Z6.7 I0 J-1
X-15.504 Y37.002 Z6.6 I0 J1
X-15.504 Y35.002 Z6.5 I0 J-1
X-15.504 Y37.002 Z6.4 I0 J1
X-15.504 Y35.002 Z6.3 I0 J-1
X-15.504 Y37.002 Z6.2 I0 J1
X-15.504 Y35.002 Z6.1 I0 J-1
X-15.504 Y37.002 Z6 I0 J1
X-15.504 Y35.002 Z5.9 I0 J-1
X-15.504 Y37.002 Z5.8 I0 J1
X-15.504 Y35.002 Z5.7 I0 J-1
X-15.504 Y37.002 Z5.6 I0 J1
X-15.504 Y35.002 Z5.5 I0 J-1
X-15.504 Y37.002 Z5.4 I0 J1
X-15.504 Y35.002 Z5.3 I0 J-1
X-15.504 Y37.002 Z5.2 I0 J1
X-15.504 Y35.002 Z5.1 I0 J-1
X-15.504 Y37.002 Z5 I0 J1
X-15.504 Y35.002 I0 J-1
X-15.504 Y37.002 I0 J1
X-16.004 Y36.502 I0 J-0.5 F300
G1 Y36.202
G19 G2 Y35.602 Z5.6 J0 K0.6
G0 Z19.2
X9.996 Y36.402
Z12.5
G1 Z11.1 F300
G2 Y35.802 Z10.5 J-0.6 K0
G1 Y35.502
G17 G3 X10.496 Y35.002 I0.5 J0
X10.496 Y37.002 Z10.4 I0 J1 F350
X10.496 Y35.002 Z10.3 I0 J-1
X10.496 Y37.002 Z10.2 I0 J1
X10.496 Y35.002 Z10.1 I0 J-1
X10.496 Y37.002 Z10 I0 J1
X10.496 Y35.002 Z9.9 I0 J-1
X10.496 Y37.002 Z9.8 I0 J1
X10.496 Y35.002 Z9.7 I0 J-1
X10.496 Y37.002 Z9.6 I0 J1
X10.496 Y35.002 Z9.5 I0 J-1
X10.496 Y37.002 Z9.4 I0 J1
X10.496 Y35.002 Z9.3 I0 J-1
X10.496 Y37.002 Z9.2 I0 J1
X10.496 Y35.002 Z9.1 I0 J-1
X10.496 Y37.002 Z9 I0 J1
X10.496 Y35.002 Z8.9 I0 J-1
X10.496 Y37.002 Z8.8 I0 J1
X10.496 Y35.002 Z8.7 I0 J-1
X10.496 Y37.002 Z8.6 I0 J1
X10.496 Y35.002 Z8.5 I0 J-1
X10.496 Y37.002 Z8.4 I0 J1
X10.496 Y35.002 Z8.3 I0 J-1
X10.496 Y37.002 Z8.2 I0 J1
X10.496 Y35.002 Z8.1 I0 J-1
X10.496 Y37.002 Z8 I0 J1
X10.496 Y35.002 Z7.9 I0 J-1
X10.496 Y37.002 Z7.8 I0 J1
X10.496 Y35.002 Z7.7 I0 J-1
X10.496 Y37.002 Z7.6 I0 J1
X10.496 Y35.002 Z7.5 I0 J-1
X10.496 Y37.002 Z7.4 I0 J1
X10.496 Y35.002 Z7.3 I0 J-1
X10.496 Y37.002 Z7.2 I0 J1
X10.496 Y35.002 Z7.1 I0 J-1
X10.496 Y37.002 Z7 I0 J1
X10.496 Y35.002 Z6.9 I0 J-1
X10.496 Y37.002 Z6.8 I0 J1
X10.496 Y35.002 Z6.7 I0 J-1
X10.496 Y37.002 Z6.6 I0 J1
X10.496 Y35.002 Z6.5 I0 J-1
X10.496 Y37.002 Z6.4 I0 J1
X10.496 Y35.002 Z6.3 I0 J-1
X10.496 Y37.002 Z6.2 I0 J1
X10.496 Y35.002 Z6.1 I0 J-1
X10.496 Y37.002 Z6 I0 J1
X10.496 Y35.002 Z5.9 I0 J-1
X10.496 Y37.002 Z5.8 I0 J1
X10.496 Y35.002 Z5.7 I0 J-1
X10.496 Y37.002 Z5.6 I0 J1
X10.496 Y35.002 Z5.5 I0 J-1
X10.496 Y37.002 Z5.4 I0 J1
X10.496 Y35.002 Z5.3 I0 J-1
X10.496 Y37.002 Z5.2 I0 J1
X10.496 Y35.002 Z5.1 I0 J-1
X10.496 Y37.002 Z5 I0 J1
X10.496 Y35.002 I0 J-1
X10.496 Y37.002 I0 J1
X9.996 Y36.502 I0 J-0.5 F300
G1 Y36.202
G19 G2 Y35.602 Z5.6 J0 K0.6
G0 Z19.2
X21.4 Y13.961
Z12.5
G1 Z11.1 F300
G2 Y13.361 Z10.5 J-0.6 K0
G1 Y13.061
G17 G3 X22 Y12.461 I0.6 J0
X22 Y15.961 Z10.4 I0 J1.75 F350
X22 Y12.461 Z10.3 I0 J-1.75
X22 Y15.961 Z10.2 I0 J1.75
X22 Y12.461 Z10.1 I0 J-1.75
X22 Y15.961 Z10 I0 J1.75
X22 Y12.461 Z9.9 I0 J-1.75
X22 Y15.961 Z9.8 I0 J1.75
X22 Y12.461 Z9.7 I0 J-1.75
X22 Y15.961 Z9.6 I0 J1.75
X22 Y12.461 Z9.5 I0 J-1.75
X22 Y15.961 Z9.4 I0 J1.75
X22 Y12.461 Z9.3 I0 J-1.75
X22 Y15.961 Z9.2 I0 J1.75
X22 Y12.461 Z9.1 I0 J-1.75
X22 Y15.961 Z9 I0 J1.75
X22 Y12.461 Z8.9 I0 J-1.75
X22 Y15.961 Z8.8 I0 J1.75
X22 Y12.461 Z8.7 I0 J-1.75
X22 Y15.961 Z8.6 I0 J1.75
X22 Y12.461 Z8.5 I0 J-1.75
X22 Y15.961 Z8.4 I0 J1.75
X22 Y12.461 Z8.3 I0 J-1.75
X22 Y15.961 Z8.2 I0 J1.75
X22 Y12.461 Z8.1 I0 J-1.75
X22 Y15.961 Z8 I0 J1.75
X22 Y12.461 Z7.9 I0 J-1.75
X22 Y15.961 Z7.8 I0 J1.75
X22 Y12.461 Z7.7 I0 J-1.75
X22 Y15.961 Z7.6 I0 J1.75
X22 Y12.461 Z7.5 I0 J-1.75
X22 Y15.961 Z7.4 I0 J1.75
X22 Y12.461 Z7.3 I0 J-1.75
X22 Y15.961 Z7.2 I0 J1.75
X22 Y12.461 Z7.1 I0 J-1.75
X22 Y15.961 Z7 I0 J1.75
X22 Y12.461 Z6.9 I0 J-1.75
X22 Y15.961 Z6.8 I0 J1.75
X22 Y12.461 Z6.7 I0 J-1.75
X22 Y15.961 Z6.6 I0 J1.75
X22 Y12.461 Z6.5 I0 J-1.75
X22 Y15.961 Z6.4 I0 J1.75
X22 Y12.461 Z6.3 I0 J-1.75
X22 Y15.961 Z6.2 I0 J1.75
X22 Y12.461 Z6.1 I0 J-1.75
X22 Y15.961 Z6 I0 J1.75
X22 Y12.461 Z5.9 I0 J-1.75
X22 Y15.961 Z5.8 I0 J1.75
X22 Y12.461 Z5.7 I0 J-1.75
X22 Y15.961 Z5.6 I0 J1.75
X22 Y12.461 Z5.5 I0 J-1.75
X22 Y15.961 Z5.4 I0 J1.75
X22 Y12.461 Z5.3 I0 J-1.75
X22 Y15.961 Z5.2 I0 J1.75
X22 Y12.461 Z5.1 I0 J-1.75
X22 Y15.961 Z5 I0 J1.75
X22 Y12.461 I0 J-1.75
X22 Y15.961 I0 J1.75
X21.4 Y15.361 I0 J-0.6 F300
G1 Y15.061
G19 G2 Y14.461 Z5.6 J0 K0.6
G0 Z19.2
Y-6.039
Z12.5
G1 Z11.1 F300
G2 Y-6.639 Z10.5 J-0.6 K0
G1 Y-6.939
G17 G3 X22 Y-7.539 I0.6 J0
X22 Y-4.039 Z10.4 I0 J1.75 F350
X22 Y-7.539 Z10.3 I0 J-1.75
X22 Y-4.039 Z10.2 I0 J1.75
X22 Y-7.539 Z10.1 I0 J-1.75
X22 Y-4.039 Z10 I0 J1.75
X22 Y-7.539 Z9.9 I0 J-1.75
X22 Y-4.039 Z9.8 I0 J1.75
X22 Y-7.539 Z9.7 I0 J-1.75
X22 Y-4.039 Z9.6 I0 J1.75
X22 Y-7.539 Z9.5 I0 J-1.75
X22 Y-4.039 Z9.4 I0 J1.75
X22 Y-7.539 Z9.3 I0 J-1.75
X22 Y-4.039 Z9.2 I0 J1.75
X22 Y-7.539 Z9.1 I0 J-1.75
X22 Y-4.039 Z9 I0 J1.75
X22 Y-7.539 Z8.9 I0 J-1.75
X22 Y-4.039 Z8.8 I0 J1.75
X22 Y-7.539 Z8.7 I0 J-1.75
X22 Y-4.039 Z8.6 I0 J1.75
X22 Y-7.539 Z8.5 I0 J-1.75
X22 Y-4.039 Z8.4 I0 J1.75
X22 Y-7.539 Z8.3 I0 J-1.75
X22 Y-4.039 Z8.2 I0 J1.75
X22 Y-7.539 Z8.1 I0 J-1.75
X22 Y-4.039 Z8 I0 J1.75
X22 Y-7.539 Z7.9 I0 J-1.75
X22 Y-4.039 Z7.8 I0 J1.75
X22 Y-7.539 Z7.7 I0 J-1.75
X22 Y-4.039 Z7.6 I0 J1.75
X22 Y-7.539 Z7.5 I0 J-1.75
X22 Y-4.039 Z7.4 I0 J1.75
X22 Y-7.539 Z7.3 I0 J-1.75
X22 Y-4.039 Z7.2 I0 J1.75
X22 Y-7.539 Z7.1 I0 J-1.75
X22 Y-4.039 Z7 I0 J1.75
X22 Y-7.539 Z6.9 I0 J-1.75
X22 Y-4.039 Z6.8 I0 J1.75
X22 Y-7.539 Z6.7 I0 J-1.75
X22 Y-4.039 Z6.6 I0 J1.75
X22 Y-7.539 Z6.5 I0 J-1.75
X22 Y-4.039 Z6.4 I0 J1.75
X22 Y-7.539 Z6.3 I0 J-1.75
X22 Y-4.039 Z6.2 I0 J1.75
X22 Y-7.539 Z6.1 I0 J-1.75
X22 Y-4.039 Z6 I0 J1.75
X22 Y-7.539 Z5.9 I0 J-1.75
X22 Y-4.039 Z5.8 I0 J1.75
X22 Y-7.539 Z5.7 I0 J-1.75
X22 Y-4.039 Z5.6 I0 J1.75
X22 Y-7.539 Z5.5 I0 J-1.75
X22 Y-4.039 Z5.4 I0 J1.75
X22 Y-7.539 Z5.3 I0 J-1.75
X22 Y-4.039 Z5.2 I0 J1.75
X22 Y-7.539 Z5.1 I0 J-1.75
X22 Y-4.039 Z5 I0 J1.75
X22 Y-7.539 I0 J-1.75
X22 Y-4.039 I0 J1.75
X21.4 Y-4.639 I0 J-0.6 F300
G1 Y-4.939
G19 G2 Y-5.539 Z5.6 J0 K0.6
G0 Z19.2
X9.996 Y-27.598
Z12.5
G1 Z11.1 F300
G2 Y-28.198 Z10.5 J-0.6 K0
G1 Y-28.498
G17 G3 X10.496 Y-28.998 I0.5 J0
X10.496 Y-26.998 Z10.4 I0 J1 F350
X10.496 Y-28.998 Z10.3 I0 J-1
X10.496 Y-26.998 Z10.2 I0 J1
X10.496 Y-28.998 Z10.1 I0 J-1
X10.496 Y-26.998 Z10 I0 J1
X10.496 Y-28.998 Z9.9 I0 J-1
X10.496 Y-26.998 Z9.8 I0 J1
X10.496 Y-28.998 Z9.7 I0 J-1
X10.496 Y-26.998 Z9.6 I0 J1
X10.496 Y-28.998 Z9.5 I0 J-1
X10.496 Y-26.998 Z9.4 I0 J1
X10.496 Y-28.998 Z9.3 I0 J-1
X10.496 Y-26.998 Z9.2 I0 J1
X10.496 Y-28.998 Z9.1 I0 J-1
X10.496 Y-26.998 Z9 I0 J1
X10.496 Y-28.998 Z8.9 I0 J-1
X10.496 Y-26.998 Z8.8 I0 J1
X10.496 Y-28.998 Z8.7 I0 J-1
X10.496 Y-26.998 Z8.6 I0 J1
X10.496 Y-28.998 Z8.5 I0 J-1
X10.496 Y-26.998 Z8.4 I0 J1
X10.496 Y-28.998 Z8.3 I0 J-1
X10.496 Y-26.998 Z8.2 I0 J1
X10.496 Y-28.998 Z8.1 I0 J-1
X10.496 Y-26.998 Z8 I0 J1
X10.496 Y-28.998 Z7.9 I0 J-1
X10.496 Y-26.998 Z7.8 I0 J1
X10.496 Y-28.998 Z7.7 I0 J-1
X10.496 Y-26.998 Z7.6 I0 J1
X10.496 Y-28.998 Z7.5 I0 J-1
X10.496 Y-26.998 Z7.4 I0 J1
X10.496 Y-28.998 Z7.3 I0 J-1
X10.496 Y-26.998 Z7.2 I0 J1
X10.496 Y-28.998 Z7.1 I0 J-1
X10.496 Y-26.998 Z7 I0 J1
X10.496 Y-28.998 Z6.9 I0 J-1
X10.496 Y-26.998 Z6.8 I0 J1
X10.496 Y-28.998 Z6.7 I0 J-1
X10.496 Y-26.998 Z6.6 I0 J1
X10.496 Y-28.998 Z6.5 I0 J-1
X10.496 Y-26.998 Z6.4 I0 J1
X10.496 Y-28.998 Z6.3 I0 J-1
X10.496 Y-26.998 Z6.2 I0 J1
X10.496 Y-28.998 Z6.1 I0 J-1
X10.496 Y-26.998 Z6 I0 J1
X10.496 Y-28.998 Z5.9 I0 J-1
X10.496 Y-26.998 Z5.8 I0 J1
X10.496 Y-28.998 Z5.7 I0 J-1
X10.496 Y-26.998 Z5.6 I0 J1
X10.496 Y-28.998 Z5.5 I0 J-1
X10.496 Y-26.998 Z5.4 I0 J1
X10.496 Y-28.998 Z5.3 I0 J-1
X10.496 Y-26.998 Z5.2 I0 J1
X10.496 Y-28.998 Z5.1 I0 J-1
X10.496 Y-26.998 Z5 I0 J1
X10.496 Y-28.998 I0 J-1
X10.496 Y-26.998 I0 J1
X9.996 Y-27.498 I0 J-0.5 F300
G1 Y-27.798
G19 G2 Y-28.398 Z5.6 J0 K0.6
G0 Z19.2
X-16.004 Y-27.598
Z12.5
G1 Z11.1 F300
G2 Y-28.198 Z10.5 J-0.6 K0
G1 Y-28.498
G17 G3 X-15.504 Y-28.998 I0.5 J0
X-15.504 Y-26.998 Z10.4 I0 J1 F350
X-15.504 Y-28.998 Z10.3 I0 J-1
X-15.504 Y-26.998 Z10.2 I0 J1
X-15.504 Y-28.998 Z10.1 I0 J-1
X-15.504 Y-26.998 Z10 I0 J1
X-15.504 Y-28.998 Z9.9 I0 J-1
X-15.504 Y-26.998 Z9.8 I0 J1
X-15.504 Y-28.998 Z9.7 I0 J-1
X-15.504 Y-26.998 Z9.6 I0 J1
X-15.504 Y-28.998 Z9.5 I0 J-1
X-15.504 Y-26.998 Z9.4 I0 J1
X-15.504 Y-28.998 Z9.3 I0 J-1
X-15.504 Y-26.998 Z9.2 I0 J1
X-15.504 Y-28.998 Z9.1 I0 J-1
X-15.504 Y-26.998 Z9 I0 J1
X-15.504 Y-28.998 Z8.9 I0 J-1
X-15.504 Y-26.998 Z8.8 I0 J1
X-15.504 Y-28.998 Z8.7 I0 J-1
X-15.504 Y-26.998 Z8.6 I0 J1
X-15.504 Y-28.998 Z8.5 I0 J-1
X-15.504 Y-26.998 Z8.4 I0 J1
X-15.504 Y-28.998 Z8.3 I0 J-1
X-15.504 Y-26.998 Z8.2 I0 J1
X-15.504 Y-28.998 Z8.1 I0 J-1
X-15.504 Y-26.998 Z8 I0 J1
X-15.504 Y-28.998 Z7.9 I0 J-1
X-15.504 Y-26.998 Z7.8 I0 J1
X-15.504 Y-28.998 Z7.7 I0 J-1
X-15.504 Y-26.998 Z7.6 I0 J1
X-15.504 Y-28.998 Z7.5 I0 J-1
X-15.504 Y-26.998 Z7.4 I0 J1
X-15.504 Y-28.998 Z7.3 I0 J-1
X-15.504 Y-26.998 Z7.2 I0 J1
X-15.504 Y-28.998 Z7.1 I0 J-1
X-15.504 Y-26.998 Z7 I0 J1
X-15.504 Y-28.998 Z6.9 I0 J-1
X-15.504 Y-26.998 Z6.8 I0 J1
X-15.504 Y-28.998 Z6.7 I0 J-1
X-15.504 Y-26.998 Z6.6 I0 J1
X-15.504 Y-28.998 Z6.5 I0 J-1
X-15.504 Y-26.998 Z6.4 I0 J1
X-15.504 Y-28.998 Z6.3 I0 J-1
X-15.504 Y-26.998 Z6.2 I0 J1
X-15.504 Y-28.998 Z6.1 I0 J-1
X-15.504 Y-26.998 Z6 I0 J1
X-15.504 Y-28.998 Z5.9 I0 J-1
X-15.504 Y-26.998 Z5.8 I0 J1
X-15.504 Y-28.998 Z5.7 I0 J-1
X-15.504 Y-26.998 Z5.6 I0 J1
X-15.504 Y-28.998 Z5.5 I0 J-1
X-15.504 Y-26.998 Z5.4 I0 J1
X-15.504 Y-28.998 Z5.3 I0 J-1
X-15.504 Y-26.998 Z5.2 I0 J1
X-15.504 Y-28.998 Z5.1 I0 J-1
X-15.504 Y-26.998 Z5 I0 J1
X-15.504 Y-28.998 I0 J-1
X-15.504 Y-26.998 I0 J1
X-16.004 Y-27.498 I0 J-0.5 F300
G1 Y-27.798
G19 G2 Y-28.398 Z5.6 J0 K0.6
G0 Z19.2
Y-53.598
Z12.5
G1 Z11.1 F300
G2 Y-54.198 Z10.5 J-0.6 K0
G1 Y-54.498
G17 G3 X-15.504 Y-54.998 I0.5 J0
X-15.504 Y-52.998 Z10.4 I0 J1 F350
X-15.504 Y-54.998 Z10.3 I0 J-1
X-15.504 Y-52.998 Z10.2 I0 J1
X-15.504 Y-54.998 Z10.1 I0 J-1
X-15.504 Y-52.998 Z10 I0 J1
X-15.504 Y-54.998 Z9.9 I0 J-1
X-15.504 Y-52.998 Z9.8 I0 J1
X-15.504 Y-54.998 Z9.7 I0 J-1
X-15.504 Y-52.998 Z9.6 I0 J1
X-15.504 Y-54.998 Z9.5 I0 J-1
X-15.504 Y-52.998 Z9.4 I0 J1
X-15.504 Y-54.998 Z9.3 I0 J-1
X-15.504 Y-52.998 Z9.2 I0 J1
X-15.504 Y-54.998 Z9.1 I0 J-1
X-15.504 Y-52.998 Z9 I0 J1
X-15.504 Y-54.998 Z8.9 I0 J-1
X-15.504 Y-52.998 Z8.8 I0 J1
X-15.504 Y-54.998 Z8.7 I0 J-1
X-15.504 Y-52.998 Z8.6 I0 J1
X-15.504 Y-54.998 Z8.5 I0 J-1
X-15.504 Y-52.998 Z8.4 I0 J1
X-15.504 Y-54.998 Z8.3 I0 J-1
X-15.504 Y-52.998 Z8.2 I0 J1
X-15.504 Y-54.998 Z8.1 I0 J-1
X-15.504 Y-52.998 Z8 I0 J1
X-15.504 Y-54.998 Z7.9 I0 J-1
X-15.504 Y-52.998 Z7.8 I0 J1
X-15.504 Y-54.998 Z7.7 I0 J-1
X-15.504 Y-52.998 Z7.6 I0 J1
X-15.504 Y-54.998 Z7.5 I0 J-1
X-15.504 Y-52.998 Z7.4 I0 J1
X-15.504 Y-54.998 Z7.3 I0 J-1
X-15.504 Y-52.998 Z7.2 I0 J1
X-15.504 Y-54.998 Z7.1 I0 J-1
X-15.504 Y-52.998 Z7 I0 J1
X-15.504 Y-54.998 Z6.9 I0 J-1
X-15.504 Y-52.998 Z6.8 I0 J1
X-15.504 Y-54.998 Z6.7 I0 J-1
X-15.504 Y-52.998 Z6.6 I0 J1
X-15.504 Y-54.998 Z6.5 I0 J-1
X-15.504 Y-52.998 Z6.4 I0 J1
X-15.504 Y-54.998 Z6.3 I0 J-1
X-15.504 Y-52.998 Z6.2 I0 J1
X-15.504 Y-54.998 Z6.1 I0 J-1
X-15.504 Y-52.998 Z6 I0 J1
X-15.504 Y-54.998 Z5.9 I0 J-1
X-15.504 Y-52.998 Z5.8 I0 J1
X-15.504 Y-54.998 Z5.7 I0 J-1
X-15.504 Y-52.998 Z5.6 I0 J1
X-15.504 Y-54.998 Z5.5 I0 J-1
X-15.504 Y-52.998 Z5.4 I0 J1
X-15.504 Y-54.998 Z5.3 I0 J-1
X-15.504 Y-52.998 Z5.2 I0 J1
X-15.504 Y-54.998 Z5.1 I0 J-1
X-15.504 Y-52.998 Z5 I0 J1
X-15.504 Y-54.998 I0 J-1
X-15.504 Y-52.998 I0 J1
X-16.004 Y-53.498 I0 J-0.5 F300
G1 Y-53.798
G19 G2 Y-54.398 Z5.6 J0 K0.6
G0 Z19.2
X9.996 Y-53.598
Z12.5
G1 Z11.1 F300
G2 Y-54.198 Z10.5 J-0.6 K0
G1 Y-54.498
G17 G3 X10.496 Y-54.998 I0.5 J0
X10.496 Y-52.998 Z10.4 I0 J1 F350
X10.496 Y-54.998 Z10.3 I0 J-1
X10.496 Y-52.998 Z10.2 I0 J1
X10.496 Y-54.998 Z10.1 I0 J-1
X10.496 Y-52.998 Z10 I0 J1
X10.496 Y-54.998 Z9.9 I0 J-1
X10.496 Y-52.998 Z9.8 I0 J1
X10.496 Y-54.998 Z9.7 I0 J-1
X10.496 Y-52.998 Z9.6 I0 J1
X10.496 Y-54.998 Z9.5 I0 J-1
X10.496 Y-52.998 Z9.4 I0 J1
X10.496 Y-54.998 Z9.3 I0 J-1
X10.496 Y-52.998 Z9.2 I0 J1
X10.496 Y-54.998 Z9.1 I0 J-1
X10.496 Y-52.998 Z9 I0 J1
X10.496 Y-54.998 Z8.9 I0 J-1
X10.496 Y-52.998 Z8.8 I0 J1
X10.496 Y-54.998 Z8.7 I0 J-1
X10.496 Y-52.998 Z8.6 I0 J1
X10.496 Y-54.998 Z8.5 I0 J-1
X10.496 Y-52.998 Z8.4 I0 J1
X10.496 Y-54.998 Z8.3 I0 J-1
X10.496 Y-52.998 Z8.2 I0 J1
X10.496 Y-54.998 Z8.1 I0 J-1
X10.496 Y-52.998 Z8 I0 J1
X10.496 Y-54.998 Z7.9 I0 J-1
X10.496 Y-52.998 Z7.8 I0 J1
X10.496 Y-54.998 Z7.7 I0 J-1
X10.496 Y-52.998 Z7.6 I0 J1
X10.496 Y-54.998 Z7.5 I0 J-1
X10.496 Y-52.998 Z7.4 I0 J1
X10.496 Y-54.998 Z7.3 I0 J-1
X10.496 Y-52.998 Z7.2 I0 J1
X10.496 Y-54.998 Z7.1 I0 J-1
X10.496 Y-52.998 Z7 I0 J1
X10.496 Y-54.998 Z6.9 I0 J-1
X10.496 Y-52.998 Z6.8 I0 J1
X10.496 Y-54.998 Z6.7 I0 J-1
X10.496 Y-52.998 Z6.6 I0 J1
X10.496 Y-54.998 Z6.5 I0 J-1
X10.496 Y-52.998 Z6.4 I0 J1
X10.496 Y-54.998 Z6.3 I0 J-1
X10.496 Y-52.998 Z6.2 I0 J1
X10.496 Y-54.998 Z6.1 I0 J-1
X10.496 Y-52.998 Z6 I0 J1
X10.496 Y-54.998 Z5.9 I0 J-1
X10.496 Y-52.998 Z5.8 I0 J1
X10.496 Y-54.998 Z5.7 I0 J-1
X10.496 Y-52.998 Z5.6 I0 J1
X10.496 Y-54.998 Z5.5 I0 J-1
X10.496 Y-52.998 Z5.4 I0 J1
X10.496 Y-54.998 Z5.3 I0 J-1
X10.496 Y-52.998 Z5.2 I0 J1
X10.496 Y-54.998 Z5.1 I0 J-1
X10.496 Y-52.998 Z5 I0 J1
X10.496 Y-54.998 I0 J-1
X10.496 Y-52.998 I0 J1
X9.996 Y-53.498 I0 J-0.5 F300
G1 Y-53.798
G19 G2 Y-54.398 Z5.6 J0 K0.6
G0 Z25.2
G17
G28 G91 Z0
G90
G28 G91 X0 Y0
G90
M5
M30
