(bore2)
(T6  D=3.175 CR=0 - ZMIN=0 - flat end mill)
G90 G94
G17
G21
G28 G91 Z0
G90

(Bore2)
T6
(1/8" Flat-45 degree helix)
S18000 M3
G54
G0 X10.178 Y61.883
Z25.2
Z7.3
G1 Z5.617 F350
G19 G2 Y61.566 Z5.3 J-0.318 K0
G1 Y61.407
G17 G3 X10.496 Y61.089 I0.318 J0
X10.496 Y62.914 Z5.2 I0 J0.912
X10.496 Y61.089 Z5.1 I0 J-0.912
X10.496 Y62.914 Z5 I0 J0.912
X10.496 Y61.089 Z4.9 I0 J-0.912
X10.496 Y62.914 Z4.8 I0 J0.912
X10.496 Y61.089 Z4.7 I0 J-0.912
X10.496 Y62.914 Z4.6 I0 J0.912
X10.496 Y61.089 Z4.5 I0 J-0.912
X10.496 Y62.914 Z4.4 I0 J0.912
X10.496 Y61.089 Z4.3 I0 J-0.912
X10.496 Y62.914 Z4.2 I0 J0.912
X10.496 Y61.089 Z4.1 I0 J-0.912
X10.496 Y62.914 Z4 I0 J0.912
X10.496 Y61.089 Z3.9 I0 J-0.912
X10.496 Y62.914 Z3.8 I0 J0.912
X10.496 Y61.089 Z3.7 I0 J-0.912
X10.496 Y62.914 Z3.6 I0 J0.912
X10.496 Y61.089 Z3.5 I0 J-0.912
X10.496 Y62.914 Z3.4 I0 J0.912
X10.496 Y61.089 Z3.3 I0 J-0.912
X10.496 Y62.914 Z3.2 I0 J0.912
X10.496 Y61.089 Z3.1 I0 J-0.912
X10.496 Y62.914 Z3 I0 J0.913
X10.496 Y61.089 Z2.9 I0 J-0.913
X10.496 Y62.914 Z2.8 I0 J0.913
X10.496 Y61.089 Z2.7 I0 J-0.913
X10.496 Y62.914 Z2.6 I0 J0.913
X10.496 Y61.089 Z2.5 I0 J-0.913
X10.496 Y62.914 Z2.4 I0 J0.913
X10.496 Y61.089 Z2.3 I0 J-0.913
X10.496 Y62.914 Z2.2 I0 J0.913
X10.496 Y61.089 Z2.1 I0 J-0.913
X10.496 Y62.914 Z2 I0 J0.913
X10.496 Y61.089 Z1.9 I0 J-0.913
X10.496 Y62.914 Z1.8 I0 J0.913
X10.496 Y61.089 Z1.7 I0 J-0.913
X10.496 Y62.914 Z1.6 I0 J0.913
X10.496 Y61.089 Z1.5 I0 J-0.913
X10.496 Y62.914 Z1.4 I0 J0.913
X10.496 Y61.089 Z1.3 I0 J-0.913
X10.496 Y62.914 Z1.2 I0 J0.913
X10.496 Y61.089 Z1.1 I0 J-0.913
X10.496 Y62.914 Z1 I0 J0.913
X10.496 Y61.089 Z0.9 I0 J-0.913
X10.496 Y62.914 Z0.8 I0 J0.913
X10.496 Y61.089 Z0.7 I0 J-0.913
X10.496 Y62.914 Z0.6 I0 J0.913
X10.496 Y61.089 Z0.5 I0 J-0.913
X10.496 Y62.914 Z0.4 I0 J0.913
X10.496 Y61.089 Z0.3 I0 J-0.913
X10.496 Y62.914 Z0.2 I0 J0.913
X10.496 Y61.089 Z0.1 I0 J-0.913
X10.496 Y62.914 Z0 I0 J0.913
X10.496 Y61.089 I0 J-0.913
X10.496 Y62.914 I0 J0.913
X10.178 Y62.597 I0 J-0.318
G1 Y62.438
G19 G2 Y62.121 Z0.317 J0 K0.317
G0 Z19.2
X-15.822 Y61.883
Z7.3
G1 Z5.617 F350
G2 Y61.566 Z5.3 J-0.318 K0
G1 Y61.407
G17 G3 X-15.504 Y61.089 I0.318 J0
X-15.504 Y62.914 Z5.2 I0 J0.912
X-15.504 Y61.089 Z5.1 I0 J-0.912
X-15.504 Y62.914 Z5 I0 J0.912
X-15.504 Y61.089 Z4.9 I0 J-0.912
X-15.504 Y62.914 Z4.8 I0 J0.912
X-15.504 Y61.089 Z4.7 I0 J-0.912
X-15.504 Y62.914 Z4.6 I0 J0.912
X-15.504 Y61.089 Z4.5 I0 J-0.912
X-15.504 Y62.914 Z4.4 I0 J0.912
X-15.504 Y61.089 Z4.3 I0 J-0.912
X-15.504 Y62.914 Z4.2 I0 J0.912
X-15.504 Y61.089 Z4.1 I0 J-0.912
X-15.504 Y62.914 Z4 I0 J0.912
X-15.504 Y61.089 Z3.9 I0 J-0.912
X-15.504 Y62.914 Z3.8 I0 J0.912
X-15.504 Y61.089 Z3.7 I0 J-0.912
X-15.504 Y62.914 Z3.6 I0 J0.912
X-15.504 Y61.089 Z3.5 I0 J-0.912
X-15.504 Y62.914 Z3.4 I0 J0.912
X-15.504 Y61.089 Z3.3 I0 J-0.912
X-15.504 Y62.914 Z3.2 I0 J0.912
X-15.504 Y61.089 Z3.1 I0 J-0.912
X-15.504 Y62.914 Z3 I0 J0.913
X-15.504 Y61.089 Z2.9 I0 J-0.913
X-15.504 Y62.914 Z2.8 I0 J0.913
X-15.504 Y61.089 Z2.7 I0 J-0.913
X-15.504 Y62.914 Z2.6 I0 J0.913
X-15.504 Y61.089 Z2.5 I0 J-0.913
X-15.504 Y62.914 Z2.4 I0 J0.913
X-15.504 Y61.089 Z2.3 I0 J-0.913
X-15.504 Y62.914 Z2.2 I0 J0.913
X-15.504 Y61.089 Z2.1 I0 J-0.913
X-15.504 Y62.914 Z2 I0 J0.913
X-15.504 Y61.089 Z1.9 I0 J-0.913
X-15.504 Y62.914 Z1.8 I0 J0.913
X-15.504 Y61.089 Z1.7 I0 J-0.913
X-15.504 Y62.914 Z1.6 I0 J0.913
X-15.504 Y61.089 Z1.5 I0 J-0.913
X-15.504 Y62.914 Z1.4 I0 J0.913
X-15.504 Y61.089 Z1.3 I0 J-0.913
X-15.504 Y62.914 Z1.2 I0 J0.913
X-15.504 Y61.089 Z1.1 I0 J-0.913
X-15.504 Y62.914 Z1 I0 J0.913
X-15.504 Y61.089 Z0.9 I0 J-0.913
X-15.504 Y62.914 Z0.8 I0 J0.913
X-15.504 Y61.089 Z0.7 I0 J-0.913
X-15.504 Y62.914 Z0.6 I0 J0.913
X-15.504 Y61.089 Z0.5 I0 J-0.913
X-15.504 Y62.914 Z0.4 I0 J0.913
X-15.504 Y61.089 Z0.3 I0 J-0.913
X-15.504 Y62.914 Z0.2 I0 J0.913
X-15.504 Y61.089 Z0.1 I0 J-0.913
X-15.504 Y62.914 Z0 I0 J0.913
X-15.504 Y61.089 I0 J-0.913
X-15.504 Y62.914 I0 J0.913
X-15.822 Y62.597 I0 J-0.318
G1 Y62.438
G19 G2 Y62.121 Z0.317 J0 K0.317
G0 Z19.2
Y35.883
Z7.3
G1 Z5.617 F350
G2 Y35.566 Z5.3 J-0.318 K0
G1 Y35.407
G17 G3 X-15.504 Y35.089 I0.318 J0
X-15.504 Y36.914 Z5.2 I0 J0.912
X-15.504 Y35.089 Z5.1 I0 J-0.912
X-15.504 Y36.914 Z5 I0 J0.912
X-15.504 Y35.089 Z4.9 I0 J-0.912
X-15.504 Y36.914 Z4.8 I0 J0.912
X-15.504 Y35.089 Z4.7 I0 J-0.912
X-15.504 Y36.914 Z4.6 I0 J0.912
X-15.504 Y35.089 Z4.5 I0 J-0.912
X-15.504 Y36.914 Z4.4 I0 J0.912
X-15.504 Y35.089 Z4.3 I0 J-0.912
X-15.504 Y36.914 Z4.2 I0 J0.912
X-15.504 Y35.089 Z4.1 I0 J-0.912
X-15.504 Y36.914 Z4 I0 J0.912
X-15.504 Y35.089 Z3.9 I0 J-0.912
X-15.504 Y36.914 Z3.8 I0 J0.912
X-15.504 Y35.089 Z3.7 I0 J-0.912
X-15.504 Y36.914 Z3.6 I0 J0.912
X-15.504 Y35.089 Z3.5 I0 J-0.912
X-15.504 Y36.914 Z3.4 I0 J0.912
X-15.504 Y35.089 Z3.3 I0 J-0.912
X-15.504 Y36.914 Z3.2 I0 J0.912
X-15.504 Y35.089 Z3.1 I0 J-0.912
X-15.504 Y36.914 Z3 I0 J0.913
X-15.504 Y35.089 Z2.9 I0 J-0.913
X-15.504 Y36.914 Z2.8 I0 J0.913
X-15.504 Y35.089 Z2.7 I0 J-0.913
X-15.504 Y36.914 Z2.6 I0 J0.913
X-15.504 Y35.089 Z2.5 I0 J-0.913
X-15.504 Y36.914 Z2.4 I0 J0.913
X-15.504 Y35.089 Z2.3 I0 J-0.913
X-15.504 Y36.914 Z2.2 I0 J0.913
X-15.504 Y35.089 Z2.1 I0 J-0.913
X-15.504 Y36.914 Z2 I0 J0.913
X-15.504 Y35.089 Z1.9 I0 J-0.913
X-15.504 Y36.914 Z1.8 I0 J0.913
X-15.504 Y35.089 Z1.7 I0 J-0.913
X-15.504 Y36.914 Z1.6 I0 J0.913
X-15.504 Y35.089 Z1.5 I0 J-0.913
X-15.504 Y36.914 Z1.4 I0 J0.913
X-15.504 Y35.089 Z1.3 I0 J-0.913
X-15.504 Y36.914 Z1.2 I0 J0.913
X-15.504 Y35.089 Z1.1 I0 J-0.913
X-15.504 Y36.914 Z1 I0 J0.913
X-15.504 Y35.089 Z0.9 I0 J-0.913
X-15.504 Y36.914 Z0.8 I0 J0.913
X-15.504 Y35.089 Z0.7 I0 J-0.913
X-15.504 Y36.914 Z0.6 I0 J0.913
X-15.504 Y35.089 Z0.5 I0 J-0.913
X-15.504 Y36.914 Z0.4 I0 J0.913
X-15.504 Y35.089 Z0.3 I0 J-0.913
X-15.504 Y36.914 Z0.2 I0 J0.913
X-15.504 Y35.089 Z0.1 I0 J-0.913
X-15.504 Y36.914 Z0 I0 J0.913
X-15.504 Y35.089 I0 J-0.913
X-15.504 Y36.914 I0 J0.913
X-15.822 Y36.597 I0 J-0.318
G1 Y36.438
G19 G2 Y36.121 Z0.317 J0 K0.317
G0 Z19.2
X10.178 Y35.883
Z7.3
G1 Z5.617 F350
G2 Y35.566 Z5.3 J-0.318 K0
G1 Y35.407
G17 G3 X10.496 Y35.089 I0.318 J0
X10.496 Y36.914 Z5.2 I0 J0.912
X10.496 Y35.089 Z5.1 I0 J-0.912
X10.496 Y36.914 Z5 I0 J0.912
X10.496 Y35.089 Z4.9 I0 J-0.912
X10.496 Y36.914 Z4.8 I0 J0.912
X10.496 Y35.089 Z4.7 I0 J-0.912
X10.496 Y36.914 Z4.6 I0 J0.912
X10.496 Y35.089 Z4.5 I0 J-0.912
X10.496 Y36.914 Z4.4 I0 J0.912
X10.496 Y35.089 Z4.3 I0 J-0.912
X10.496 Y36.914 Z4.2 I0 J0.912
X10.496 Y35.089 Z4.1 I0 J-0.912
X10.496 Y36.914 Z4 I0 J0.912
X10.496 Y35.089 Z3.9 I0 J-0.912
X10.496 Y36.914 Z3.8 I0 J0.912
X10.496 Y35.089 Z3.7 I0 J-0.912
X10.496 Y36.914 Z3.6 I0 J0.912
X10.496 Y35.089 Z3.5 I0 J-0.912
X10.496 Y36.914 Z3.4 I0 J0.912
X10.496 Y35.089 Z3.3 I0 J-0.912
X10.496 Y36.914 Z3.2 I0 J0.912
X10.496 Y35.089 Z3.1 I0 J-0.912
X10.496 Y36.914 Z3 I0 J0.913
X10.496 Y35.089 Z2.9 I0 J-0.913
X10.496 Y36.914 Z2.8 I0 J0.913
X10.496 Y35.089 Z2.7 I0 J-0.913
X10.496 Y36.914 Z2.6 I0 J0.913
X10.496 Y35.089 Z2.5 I0 J-0.913
X10.496 Y36.914 Z2.4 I0 J0.913
X10.496 Y35.089 Z2.3 I0 J-0.913
X10.496 Y36.914 Z2.2 I0 J0.913
X10.496 Y35.089 Z2.1 I0 J-0.913
X10.496 Y36.914 Z2 I0 J0.913
X10.496 Y35.089 Z1.9 I0 J-0.913
X10.496 Y36.914 Z1.8 I0 J0.913
X10.496 Y35.089 Z1.7 I0 J-0.913
X10.496 Y36.914 Z1.6 I0 J0.913
X10.496 Y35.089 Z1.5 I0 J-0.913
X10.496 Y36.914 Z1.4 I0 J0.913
X10.496 Y35.089 Z1.3 I0 J-0.913
X10.496 Y36.914 Z1.2 I0 J0.913
X10.496 Y35.089 Z1.1 I0 J-0.913
X10.496 Y36.914 Z1 I0 J0.913
X10.496 Y35.089 Z0.9 I0 J-0.913
X10.496 Y36.914 Z0.8 I0 J0.913
X10.496 Y35.089 Z0.7 I0 J-0.913
X10.496 Y36.914 Z0.6 I0 J0.913
X10.496 Y35.089 Z0.5 I0 J-0.913
X10.496 Y36.914 Z0.4 I0 J0.913
X10.496 Y35.089 Z0.3 I0 J-0.913
X10.496 Y36.914 Z0.2 I0 J0.913
X10.496 Y35.089 Z0.1 I0 J-0.913
X10.496 Y36.914 Z0 I0 J0.913
X10.496 Y35.089 I0 J-0.913
X10.496 Y36.914 I0 J0.913
X10.178 Y36.597 I0 J-0.318
G1 Y36.438
G19 G2 Y36.121 Z0.317 J0 K0.317
G0 Z19.2
X21.683 Y13.842
Z7.3
G1 Z5.617 F350
G2 Y13.524 Z5.3 J-0.318 K0
G1 Y13.366
G17 G3 X22 Y13.048 I0.317 J0
X22 Y15.373 Z5.2 I0 J1.162
X22 Y13.048 Z5.1 I0 J-1.162
X22 Y15.373 Z5 I0 J1.162
X22 Y13.048 Z4.9 I0 J-1.162
X22 Y15.373 Z4.8 I0 J1.162
X22 Y13.048 Z4.7 I0 J-1.162
X22 Y15.373 Z4.6 I0 J1.162
X22 Y13.048 Z4.5 I0 J-1.162
X22 Y15.373 Z4.4 I0 J1.162
X22 Y13.048 Z4.3 I0 J-1.162
X22 Y15.373 Z4.2 I0 J1.162
X22 Y13.048 Z4.1 I0 J-1.162
X22 Y15.373 Z4 I0 J1.162
X22 Y13.048 Z3.9 I0 J-1.162
X22 Y15.373 Z3.8 I0 J1.162
X22 Y13.048 Z3.7 I0 J-1.162
X22 Y15.373 Z3.6 I0 J1.162
X22 Y13.048 Z3.5 I0 J-1.162
X22 Y15.373 Z3.4 I0 J1.162
X22 Y13.048 Z3.3 I0 J-1.162
X22 Y15.373 Z3.2 I0 J1.162
X22 Y13.048 Z3.1 I0 J-1.162
X22 Y15.373 Z3 I0 J1.162
X22 Y13.048 Z2.9 I0 J-1.162
X22 Y15.373 Z2.8 I0 J1.162
X22 Y13.048 Z2.7 I0 J-1.162
X22 Y15.373 Z2.6 I0 J1.162
X22 Y13.048 Z2.5 I0 J-1.162
X22 Y15.373 Z2.4 I0 J1.162
X22 Y13.048 Z2.3 I0 J-1.162
X22 Y15.373 Z2.2 I0 J1.162
X22 Y13.048 Z2.1 I0 J-1.162
X22 Y15.373 Z2 I0 J1.163
X22 Y13.048 Z1.9 I0 J-1.163
X22 Y15.373 Z1.8 I0 J1.163
X22 Y13.048 Z1.7 I0 J-1.163
X22 Y15.373 Z1.6 I0 J1.163
X22 Y13.048 Z1.5 I0 J-1.163
X22 Y15.373 Z1.4 I0 J1.163
X22 Y13.048 Z1.3 I0 J-1.163
X22 Y15.373 Z1.2 I0 J1.163
X22 Y13.048 Z1.1 I0 J-1.163
X22 Y15.373 Z1 I0 J1.163
X22 Y13.048 Z0.9 I0 J-1.163
X22 Y15.373 Z0.8 I0 J1.163
X22 Y13.048 Z0.7 I0 J-1.163
X22 Y15.373 Z0.6 I0 J1.163
X22 Y13.048 Z0.5 I0 J-1.163
X22 Y15.373 Z0.4 I0 J1.163
X22 Y13.048 Z0.3 I0 J-1.163
X22 Y15.373 Z0.2 I0 J1.163
X22 Y13.048 Z0.1 I0 J-1.163
X22 Y15.373 Z0 I0 J1.163
X22 Y13.048 I0 J-1.163
X22 Y15.373 I0 J1.163
X21.683 Y15.056 I0 J-0.318
G1 Y14.897
G19 G2 Y14.579 Z0.317 J0 K0.317
G0 Z19.2
Y-6.158
Z7.3
G1 Z5.617 F350
G2 Y-6.476 Z5.3 J-0.317 K0
G1 Y-6.634
G17 G3 X22 Y-6.952 I0.317 J0
X22 Y-4.627 Z5.2 I0 J1.162
X22 Y-6.952 Z5.1 I0 J-1.162
X22 Y-4.627 Z5 I0 J1.162
X22 Y-6.952 Z4.9 I0 J-1.162
X22 Y-4.627 Z4.8 I0 J1.162
X22 Y-6.952 Z4.7 I0 J-1.162
X22 Y-4.627 Z4.6 I0 J1.162
X22 Y-6.952 Z4.5 I0 J-1.162
X22 Y-4.627 Z4.4 I0 J1.162
X22 Y-6.952 Z4.3 I0 J-1.162
X22 Y-4.627 Z4.2 I0 J1.162
X22 Y-6.952 Z4.1 I0 J-1.162
X22 Y-4.627 Z4 I0 J1.162
X22 Y-6.952 Z3.9 I0 J-1.162
X22 Y-4.627 Z3.8 I0 J1.162
X22 Y-6.952 Z3.7 I0 J-1.162
X22 Y-4.627 Z3.6 I0 J1.162
X22 Y-6.952 Z3.5 I0 J-1.162
X22 Y-4.627 Z3.4 I0 J1.162
X22 Y-6.952 Z3.3 I0 J-1.162
X22 Y-4.627 Z3.2 I0 J1.162
X22 Y-6.952 Z3.1 I0 J-1.162
X22 Y-4.627 Z3 I0 J1.162
X22 Y-6.952 Z2.9 I0 J-1.162
X22 Y-4.627 Z2.8 I0 J1.162
X22 Y-6.952 Z2.7 I0 J-1.162
X22 Y-4.627 Z2.6 I0 J1.162
X22 Y-6.952 Z2.5 I0 J-1.162
X22 Y-4.627 Z2.4 I0 J1.162
X22 Y-6.952 Z2.3 I0 J-1.162
X22 Y-4.627 Z2.2 I0 J1.162
X22 Y-6.952 Z2.1 I0 J-1.162
X22 Y-4.627 Z2 I0 J1.162
X22 Y-6.952 Z1.9 I0 J-1.162
X22 Y-4.627 Z1.8 I0 J1.162
X22 Y-6.952 Z1.7 I0 J-1.162
X22 Y-4.627 Z1.6 I0 J1.162
X22 Y-6.952 Z1.5 I0 J-1.162
X22 Y-4.627 Z1.4 I0 J1.162
X22 Y-6.952 Z1.3 I0 J-1.162
X22 Y-4.627 Z1.2 I0 J1.162
X22 Y-6.952 Z1.1 I0 J-1.162
X22 Y-4.627 Z1 I0 J1.162
X22 Y-6.952 Z0.9 I0 J-1.162
X22 Y-4.627 Z0.8 I0 J1.162
X22 Y-6.952 Z0.7 I0 J-1.162
X22 Y-4.627 Z0.6 I0 J1.162
X22 Y-6.952 Z0.5 I0 J-1.162
X22 Y-4.627 Z0.4 I0 J1.162
X22 Y-6.952 Z0.3 I0 J-1.162
X22 Y-4.627 Z0.2 I0 J1.162
X22 Y-6.952 Z0.1 I0 J-1.162
X22 Y-4.627 Z0 I0 J1.162
X22 Y-6.952 I0 J-1.162
X22 Y-4.627 I0 J1.162
X21.683 Y-4.944 I0 J-0.317
G1 Y-5.103
G19 G2 Y-5.421 Z0.317 J0 K0.317
G0 Z19.2
X10.178 Y-28.117
Z7.3
G1 Z5.617 F350
G2 Y-28.434 Z5.3 J-0.318 K0
G1 Y-28.593
G17 G3 X10.496 Y-28.911 I0.318 J0
X10.496 Y-27.086 Z5.2 I0 J0.913
X10.496 Y-28.911 Z5.1 I0 J-0.913
X10.496 Y-27.086 Z5 I0 J0.913
X10.496 Y-28.911 Z4.9 I0 J-0.913
X10.496 Y-27.086 Z4.8 I0 J0.913
X10.496 Y-28.911 Z4.7 I0 J-0.913
X10.496 Y-27.086 Z4.6 I0 J0.913
X10.496 Y-28.911 Z4.5 I0 J-0.913
X10.496 Y-27.086 Z4.4 I0 J0.913
X10.496 Y-28.911 Z4.3 I0 J-0.913
X10.496 Y-27.086 Z4.2 I0 J0.913
X10.496 Y-28.911 Z4.1 I0 J-0.913
X10.496 Y-27.086 Z4 I0 J0.913
X10.496 Y-28.911 Z3.9 I0 J-0.913
X10.496 Y-27.086 Z3.8 I0 J0.913
X10.496 Y-28.911 Z3.7 I0 J-0.913
X10.496 Y-27.086 Z3.6 I0 J0.913
X10.496 Y-28.911 Z3.5 I0 J-0.913
X10.496 Y-27.086 Z3.4 I0 J0.913
X10.496 Y-28.911 Z3.3 I0 J-0.913
X10.496 Y-27.086 Z3.2 I0 J0.913
X10.496 Y-28.911 Z3.1 I0 J-0.913
X10.496 Y-27.086 Z3 I0 J0.913
X10.496 Y-28.911 Z2.9 I0 J-0.913
X10.496 Y-27.086 Z2.8 I0 J0.913
X10.496 Y-28.911 Z2.7 I0 J-0.913
X10.496 Y-27.086 Z2.6 I0 J0.913
X10.496 Y-28.911 Z2.5 I0 J-0.913
X10.496 Y-27.086 Z2.4 I0 J0.913
X10.496 Y-28.911 Z2.3 I0 J-0.913
X10.496 Y-27.086 Z2.2 I0 J0.913
X10.496 Y-28.911 Z2.1 I0 J-0.913
X10.496 Y-27.086 Z2 I0 J0.913
X10.496 Y-28.911 Z1.9 I0 J-0.913
X10.496 Y-27.086 Z1.8 I0 J0.913
X10.496 Y-28.911 Z1.7 I0 J-0.913
X10.496 Y-27.086 Z1.6 I0 J0.913
X10.496 Y-28.911 Z1.5 I0 J-0.913
X10.496 Y-27.086 Z1.4 I0 J0.913
X10.496 Y-28.911 Z1.3 I0 J-0.913
X10.496 Y-27.086 Z1.2 I0 J0.913
X10.496 Y-28.911 Z1.1 I0 J-0.913
X10.496 Y-27.086 Z1 I0 J0.913
X10.496 Y-28.911 Z0.9 I0 J-0.913
X10.496 Y-27.086 Z0.8 I0 J0.913
X10.496 Y-28.911 Z0.7 I0 J-0.913
X10.496 Y-27.086 Z0.6 I0 J0.913
X10.496 Y-28.911 Z0.5 I0 J-0.913
X10.496 Y-27.086 Z0.4 I0 J0.913
X10.496 Y-28.911 Z0.3 I0 J-0.913
X10.496 Y-27.086 Z0.2 I0 J0.913
X10.496 Y-28.911 Z0.1 I0 J-0.913
X10.496 Y-27.086 Z0 I0 J0.913
X10.496 Y-28.911 I0 J-0.913
X10.496 Y-27.086 I0 J0.913
X10.178 Y-27.403 I0 J-0.318
G1 Y-27.562
G19 G2 Y-27.879 Z0.317 J0 K0.317
G0 Z19.2
X-15.822 Y-28.117
Z7.3
G1 Z5.617 F350
G2 Y-28.434 Z5.3 J-0.318 K0
G1 Y-28.593
G17 G3 X-15.504 Y-28.911 I0.318 J0
X-15.504 Y-27.086 Z5.2 I0 J0.913
X-15.504 Y-28.911 Z5.1 I0 J-0.913
X-15.504 Y-27.086 Z5 I0 J0.913
X-15.504 Y-28.911 Z4.9 I0 J-0.913
X-15.504 Y-27.086 Z4.8 I0 J0.913
X-15.504 Y-28.911 Z4.7 I0 J-0.913
X-15.504 Y-27.086 Z4.6 I0 J0.913
X-15.504 Y-28.911 Z4.5 I0 J-0.913
X-15.504 Y-27.086 Z4.4 I0 J0.913
X-15.504 Y-28.911 Z4.3 I0 J-0.913
X-15.504 Y-27.086 Z4.2 I0 J0.913
X-15.504 Y-28.911 Z4.1 I0 J-0.913
X-15.504 Y-27.086 Z4 I0 J0.913
X-15.504 Y-28.911 Z3.9 I0 J-0.913
X-15.504 Y-27.086 Z3.8 I0 J0.913
X-15.504 Y-28.911 Z3.7 I0 J-0.913
X-15.504 Y-27.086 Z3.6 I0 J0.913
X-15.504 Y-28.911 Z3.5 I0 J-0.913
X-15.504 Y-27.086 Z3.4 I0 J0.913
X-15.504 Y-28.911 Z3.3 I0 J-0.913
X-15.504 Y-27.086 Z3.2 I0 J0.913
X-15.504 Y-28.911 Z3.1 I0 J-0.913
X-15.504 Y-27.086 Z3 I0 J0.913
X-15.504 Y-28.911 Z2.9 I0 J-0.913
X-15.504 Y-27.086 Z2.8 I0 J0.913
X-15.504 Y-28.911 Z2.7 I0 J-0.913
X-15.504 Y-27.086 Z2.6 I0 J0.913
X-15.504 Y-28.911 Z2.5 I0 J-0.913
X-15.504 Y-27.086 Z2.4 I0 J0.913
X-15.504 Y-28.911 Z2.3 I0 J-0.913
X-15.504 Y-27.086 Z2.2 I0 J0.913
X-15.504 Y-28.911 Z2.1 I0 J-0.913
X-15.504 Y-27.086 Z2 I0 J0.913
X-15.504 Y-28.911 Z1.9 I0 J-0.913
X-15.504 Y-27.086 Z1.8 I0 J0.913
X-15.504 Y-28.911 Z1.7 I0 J-0.913
X-15.504 Y-27.086 Z1.6 I0 J0.913
X-15.504 Y-28.911 Z1.5 I0 J-0.913
X-15.504 Y-27.086 Z1.4 I0 J0.913
X-15.504 Y-28.911 Z1.3 I0 J-0.913
X-15.504 Y-27.086 Z1.2 I0 J0.913
X-15.504 Y-28.911 Z1.1 I0 J-0.913
X-15.504 Y-27.086 Z1 I0 J0.913
X-15.504 Y-28.911 Z0.9 I0 J-0.913
X-15.504 Y-27.086 Z0.8 I0 J0.913
X-15.504 Y-28.911 Z0.7 I0 J-0.913
X-15.504 Y-27.086 Z0.6 I0 J0.913
X-15.504 Y-28.911 Z0.5 I0 J-0.913
X-15.504 Y-27.086 Z0.4 I0 J0.913
X-15.504 Y-28.911 Z0.3 I0 J-0.913
X-15.504 Y-27.086 Z0.2 I0 J0.913
X-15.504 Y-28.911 Z0.1 I0 J-0.913
X-15.504 Y-27.086 Z0 I0 J0.913
X-15.504 Y-28.911 I0 J-0.913
X-15.504 Y-27.086 I0 J0.913
X-15.822 Y-27.403 I0 J-0.318
G1 Y-27.562
G19 G2 Y-27.879 Z0.317 J0 K0.317
G0 Z19.2
X-14.682 Y-63.881
Z12.3
G1 Z10.618 F350
G3 Y-63.564 Z10.3 J0.317 K0
G1 Y-63.405
G17 G3 X-15 Y-63.088 I-0.318 J0
X-15 Y-64.912 Z10.2 I0 J-0.912
X-15 Y-63.088 Z10.1 I0 J0.912
X-15 Y-64.912 Z10 I0 J-0.912
X-15 Y-63.088 Z9.9 I0 J0.912
X-15 Y-64.912 Z9.8 I0 J-0.912
X-15 Y-63.088 Z9.7 I0 J0.912
X-15 Y-64.912 Z9.6 I0 J-0.912
X-15 Y-63.088 Z9.5 I0 J0.912
X-15 Y-64.912 Z9.4 I0 J-0.912
X-15 Y-63.088 Z9.3 I0 J0.912
X-15 Y-64.912 Z9.2 I0 J-0.912
X-15 Y-63.088 Z9.1 I0 J0.912
X-15 Y-64.912 Z9 I0 J-0.912
X-15 Y-63.088 Z8.9 I0 J0.912
X-15 Y-64.912 Z8.8 I0 J-0.912
X-15 Y-63.088 Z8.7 I0 J0.912
X-15 Y-64.912 Z8.6 I0 J-0.912
X-15 Y-63.088 Z8.5 I0 J0.912
X-15 Y-64.912 Z8.4 I0 J-0.912
X-15 Y-63.088 Z8.3 I0 J0.912
X-15 Y-64.912 Z8.2 I0 J-0.912
X-15 Y-63.088 Z8.1 I0 J0.912
X-15 Y-64.912 Z8 I0 J-0.912
X-15 Y-63.088 Z7.9 I0 J0.912
X-15 Y-64.912 Z7.8 I0 J-0.912
X-15 Y-63.088 Z7.7 I0 J0.912
X-15 Y-64.912 Z7.6 I0 J-0.912
X-15 Y-63.088 Z7.5 I0 J0.912
X-15 Y-64.912 Z7.4 I0 J-0.912
X-15 Y-63.088 Z7.3 I0 J0.912
X-15 Y-64.912 Z7.2 I0 J-0.912
X-15 Y-63.088 Z7.1 I0 J0.912
X-15 Y-64.912 Z7 I0 J-0.912
X-15 Y-63.088 Z6.9 I0 J0.912
X-15 Y-64.912 Z6.8 I0 J-0.912
X-15 Y-63.088 Z6.7 I0 J0.912
X-15 Y-64.912 Z6.6 I0 J-0.912
X-15 Y-63.088 Z6.5 I0 J0.912
X-15 Y-64.912 Z6.4 I0 J-0.912
X-15 Y-63.088 Z6.3 I0 J0.912
X-15 Y-64.912 Z6.2 I0 J-0.912
X-15 Y-63.088 Z6.1 I0 J0.912
X-15 Y-64.912 Z6 I0 J-0.912
X-15 Y-63.088 Z5.9 I0 J0.912
X-15 Y-64.912 Z5.8 I0 J-0.912
X-15 Y-63.088 Z5.7 I0 J0.912
X-15 Y-64.912 Z5.6 I0 J-0.912
X-15 Y-63.088 Z5.5 I0 J0.912
X-15 Y-64.912 Z5.4 I0 J-0.912
X-15 Y-63.088 Z5.3 I0 J0.912
X-15 Y-64.912 Z5.2 I0 J-0.912
X-15 Y-63.088 Z5.1 I0 J0.912
X-15 Y-64.912 Z5 I0 J-0.912
X-15 Y-63.088 Z4.9 I0 J0.912
X-15 Y-64.912 Z4.8 I0 J-0.912
X-15 Y-63.088 Z4.7 I0 J0.912
X-15 Y-64.912 Z4.6 I0 J-0.912
X-15 Y-63.088 Z4.5 I0 J0.912
X-15 Y-64.912 Z4.4 I0 J-0.912
X-15 Y-63.088 Z4.3 I0 J0.912
X-15 Y-64.912 Z4.2 I0 J-0.912
X-15 Y-63.088 Z4.1 I0 J0.912
X-15 Y-64.912 Z4 I0 J-0.912
X-15 Y-63.088 Z3.9 I0 J0.912
X-15 Y-64.912 Z3.8 I0 J-0.912
X-15 Y-63.088 Z3.7 I0 J0.912
X-15 Y-64.912 Z3.6 I0 J-0.912
X-15 Y-63.088 Z3.5 I0 J0.912
X-15 Y-64.912 Z3.4 I0 J-0.912
X-15 Y-63.088 Z3.3 I0 J0.912
X-15 Y-64.912 Z3.2 I0 J-0.912
X-15 Y-63.088 Z3.1 I0 J0.912
X-15 Y-64.912 Z3 I0 J-0.912
X-15 Y-63.088 Z2.9 I0 J0.912
X-15 Y-64.912 Z2.8 I0 J-0.912
X-15 Y-63.088 Z2.7 I0 J0.912
X-15 Y-64.912 Z2.6 I0 J-0.912
X-15 Y-63.088 Z2.5 I0 J0.912
X-15 Y-64.912 Z2.4 I0 J-0.912
X-15 Y-63.088 Z2.3 I0 J0.912
X-15 Y-64.912 Z2.2 I0 J-0.912
X-15 Y-63.088 Z2.1 I0 J0.912
X-15 Y-64.912 Z2 I0 J-0.912
X-15 Y-63.088 Z1.9 I0 J0.912
X-15 Y-64.912 Z1.8 I0 J-0.912
X-15 Y-63.088 Z1.7 I0 J0.912
X-15 Y-64.912 Z1.6 I0 J-0.912
X-15 Y-63.088 Z1.5 I0 J0.912
X-15 Y-64.912 Z1.4 I0 J-0.912
X-15 Y-63.088 Z1.3 I0 J0.912
X-15 Y-64.912 Z1.2 I0 J-0.912
X-15 Y-63.088 Z1.1 I0 J0.912
X-15 Y-64.912 Z1 I0 J-0.912
X-15 Y-63.088 Z0.9 I0 J0.912
X-15 Y-64.912 Z0.8 I0 J-0.912
X-15 Y-63.088 Z0.7 I0 J0.912
X-15 Y-64.912 Z0.6 I0 J-0.912
X-15 Y-63.088 Z0.5 I0 J0.912
X-15 Y-64.912 Z0.4 I0 J-0.912
X-15 Y-63.088 Z0.3 I0 J0.912
X-15 Y-64.912 Z0.2 I0 J-0.912
X-15 Y-63.088 Z0.1 I0 J0.912
X-15 Y-64.912 Z0 I0 J-0.912
X-15 Y-63.088 I0 J0.912
X-15 Y-64.912 I0 J-0.912
X-14.682 Y-64.595 I0 J0.317
G1 Y-64.436
G19 G3 Y-64.119 Z0.317 J0 K0.317
G0 Z19.2
X-15.822 Y-54.117
Z7.3
G1 Z5.617 F350
G2 Y-54.434 Z5.3 J-0.318 K0
G1 Y-54.593
G17 G3 X-15.504 Y-54.911 I0.318 J0
X-15.504 Y-53.086 Z5.2 I0 J0.912
X-15.504 Y-54.911 Z5.1 I0 J-0.912
X-15.504 Y-53.086 Z5 I0 J0.912
X-15.504 Y-54.911 Z4.9 I0 J-0.912
X-15.504 Y-53.086 Z4.8 I0 J0.912
X-15.504 Y-54.911 Z4.7 I0 J-0.912
X-15.504 Y-53.086 Z4.6 I0 J0.912
X-15.504 Y-54.911 Z4.5 I0 J-0.912
X-15.504 Y-53.086 Z4.4 I0 J0.912
X-15.504 Y-54.911 Z4.3 I0 J-0.912
X-15.504 Y-53.086 Z4.2 I0 J0.912
X-15.504 Y-54.911 Z4.1 I0 J-0.912
X-15.504 Y-53.086 Z4 I0 J0.912
X-15.504 Y-54.911 Z3.9 I0 J-0.912
X-15.504 Y-53.086 Z3.8 I0 J0.912
X-15.504 Y-54.911 Z3.7 I0 J-0.912
X-15.504 Y-53.086 Z3.6 I0 J0.912
X-15.504 Y-54.911 Z3.5 I0 J-0.912
X-15.504 Y-53.086 Z3.4 I0 J0.912
X-15.504 Y-54.911 Z3.3 I0 J-0.912
X-15.504 Y-53.086 Z3.2 I0 J0.912
X-15.504 Y-54.911 Z3.1 I0 J-0.912
X-15.504 Y-53.086 Z3 I0 J0.913
X-15.504 Y-54.911 Z2.9 I0 J-0.913
X-15.504 Y-53.086 Z2.8 I0 J0.913
X-15.504 Y-54.911 Z2.7 I0 J-0.913
X-15.504 Y-53.086 Z2.6 I0 J0.913
X-15.504 Y-54.911 Z2.5 I0 J-0.913
X-15.504 Y-53.086 Z2.4 I0 J0.913
X-15.504 Y-54.911 Z2.3 I0 J-0.913
X-15.504 Y-53.086 Z2.2 I0 J0.913
X-15.504 Y-54.911 Z2.1 I0 J-0.913
X-15.504 Y-53.086 Z2 I0 J0.913
X-15.504 Y-54.911 Z1.9 I0 J-0.913
X-15.504 Y-53.086 Z1.8 I0 J0.913
X-15.504 Y-54.911 Z1.7 I0 J-0.913
X-15.504 Y-53.086 Z1.6 I0 J0.913
X-15.504 Y-54.911 Z1.5 I0 J-0.913
X-15.504 Y-53.086 Z1.4 I0 J0.913
X-15.504 Y-54.911 Z1.3 I0 J-0.913
X-15.504 Y-53.086 Z1.2 I0 J0.913
X-15.504 Y-54.911 Z1.1 I0 J-0.913
X-15.504 Y-53.086 Z1 I0 J0.913
X-15.504 Y-54.911 Z0.9 I0 J-0.913
X-15.504 Y-53.086 Z0.8 I0 J0.913
X-15.504 Y-54.911 Z0.7 I0 J-0.913
X-15.504 Y-53.086 Z0.6 I0 J0.913
X-15.504 Y-54.911 Z0.5 I0 J-0.913
X-15.504 Y-53.086 Z0.4 I0 J0.913
X-15.504 Y-54.911 Z0.3 I0 J-0.913
X-15.504 Y-53.086 Z0.2 I0 J0.913
X-15.504 Y-54.911 Z0.1 I0 J-0.913
X-15.504 Y-53.086 Z0 I0 J0.913
X-15.504 Y-54.911 I0 J-0.913
X-15.504 Y-53.086 I0 J0.913
X-15.822 Y-53.403 I0 J-0.318
G1 Y-53.562
G19 G2 Y-53.879 Z0.317 J0 K0.317
G0 Z19.2
X10.178 Y-54.117
Z7.3
G1 Z5.617 F350
G2 Y-54.434 Z5.3 J-0.318 K0
G1 Y-54.593
G17 G3 X10.496 Y-54.911 I0.318 J0
X10.496 Y-53.086 Z5.2 I0 J0.912
X10.496 Y-54.911 Z5.1 I0 J-0.912
X10.496 Y-53.086 Z5 I0 J0.912
X10.496 Y-54.911 Z4.9 I0 J-0.912
X10.496 Y-53.086 Z4.8 I0 J0.912
X10.496 Y-54.911 Z4.7 I0 J-0.912
X10.496 Y-53.086 Z4.6 I0 J0.912
X10.496 Y-54.911 Z4.5 I0 J-0.912
X10.496 Y-53.086 Z4.4 I0 J0.912
X10.496 Y-54.911 Z4.3 I0 J-0.912
X10.496 Y-53.086 Z4.2 I0 J0.912
X10.496 Y-54.911 Z4.1 I0 J-0.912
X10.496 Y-53.086 Z4 I0 J0.912
X10.496 Y-54.911 Z3.9 I0 J-0.912
X10.496 Y-53.086 Z3.8 I0 J0.912
X10.496 Y-54.911 Z3.7 I0 J-0.912
X10.496 Y-53.086 Z3.6 I0 J0.912
X10.496 Y-54.911 Z3.5 I0 J-0.912
X10.496 Y-53.086 Z3.4 I0 J0.912
X10.496 Y-54.911 Z3.3 I0 J-0.912
X10.496 Y-53.086 Z3.2 I0 J0.912
X10.496 Y-54.911 Z3.1 I0 J-0.912
X10.496 Y-53.086 Z3 I0 J0.913
X10.496 Y-54.911 Z2.9 I0 J-0.913
X10.496 Y-53.086 Z2.8 I0 J0.913
X10.496 Y-54.911 Z2.7 I0 J-0.913
X10.496 Y-53.086 Z2.6 I0 J0.913
X10.496 Y-54.911 Z2.5 I0 J-0.913
X10.496 Y-53.086 Z2.4 I0 J0.913
X10.496 Y-54.911 Z2.3 I0 J-0.913
X10.496 Y-53.086 Z2.2 I0 J0.913
X10.496 Y-54.911 Z2.1 I0 J-0.913
X10.496 Y-53.086 Z2 I0 J0.913
X10.496 Y-54.911 Z1.9 I0 J-0.913
X10.496 Y-53.086 Z1.8 I0 J0.913
X10.496 Y-54.911 Z1.7 I0 J-0.913
X10.496 Y-53.086 Z1.6 I0 J0.913
X10.496 Y-54.911 Z1.5 I0 J-0.913
X10.496 Y-53.086 Z1.4 I0 J0.913
X10.496 Y-54.911 Z1.3 I0 J-0.913
X10.496 Y-53.086 Z1.2 I0 J0.913
X10.496 Y-54.911 Z1.1 I0 J-0.913
X10.496 Y-53.086 Z1 I0 J0.913
X10.496 Y-54.911 Z0.9 I0 J-0.913
X10.496 Y-53.086 Z0.8 I0 J0.913
X10.496 Y-54.911 Z0.7 I0 J-0.913
X10.496 Y-53.086 Z0.6 I0 J0.913
X10.496 Y-54.911 Z0.5 I0 J-0.913
X10.496 Y-53.086 Z0.4 I0 J0.913
X10.496 Y-54.911 Z0.3 I0 J-0.913
X10.496 Y-53.086 Z0.2 I0 J0.913
X10.496 Y-54.911 Z0.1 I0 J-0.913
X10.496 Y-53.086 Z0 I0 J0.913
X10.496 Y-54.911 I0 J-0.913
X10.496 Y-53.086 I0 J0.913
X10.178 Y-53.403 I0 J-0.318
G1 Y-53.562
G19 G2 Y-53.879 Z0.317 J0 K0.317
G0 Z19.2
X15.318 Y-63.881
Z12.3
G1 Z10.618 F350
G3 Y-63.564 Z10.3 J0.317 K0
G1 Y-63.405
G17 G3 X15 Y-63.088 I-0.318 J0
X15 Y-64.912 Z10.2 I0 J-0.912
X15 Y-63.088 Z10.1 I0 J0.912
X15 Y-64.912 Z10 I0 J-0.912
X15 Y-63.088 Z9.9 I0 J0.912
X15 Y-64.912 Z9.8 I0 J-0.912
X15 Y-63.088 Z9.7 I0 J0.912
X15 Y-64.912 Z9.6 I0 J-0.912
X15 Y-63.088 Z9.5 I0 J0.912
X15 Y-64.912 Z9.4 I0 J-0.912
X15 Y-63.088 Z9.3 I0 J0.912
X15 Y-64.912 Z9.2 I0 J-0.912
X15 Y-63.088 Z9.1 I0 J0.912
X15 Y-64.912 Z9 I0 J-0.912
X15 Y-63.088 Z8.9 I0 J0.912
X15 Y-64.912 Z8.8 I0 J-0.912
X15 Y-63.088 Z8.7 I0 J0.912
X15 Y-64.912 Z8.6 I0 J-0.912
X15 Y-63.088 Z8.5 I0 J0.912
X15 Y-64.912 Z8.4 I0 J-0.912
X15 Y-63.088 Z8.3 I0 J0.912
X15 Y-64.912 Z8.2 I0 J-0.912
X15 Y-63.088 Z8.1 I0 J0.912
X15 Y-64.912 Z8 I0 J-0.912
X15 Y-63.088 Z7.9 I0 J0.912
X15 Y-64.912 Z7.8 I0 J-0.912
X15 Y-63.088 Z7.7 I0 J0.912
X15 Y-64.912 Z7.6 I0 J-0.912
X15 Y-63.088 Z7.5 I0 J0.912
X15 Y-64.912 Z7.4 I0 J-0.912
X15 Y-63.088 Z7.3 I0 J0.912
X15 Y-64.912 Z7.2 I0 J-0.912
X15 Y-63.088 Z7.1 I0 J0.912
X15 Y-64.912 Z7 I0 J-0.912
X15 Y-63.088 Z6.9 I0 J0.912
X15 Y-64.912 Z6.8 I0 J-0.912
X15 Y-63.088 Z6.7 I0 J0.912
X15 Y-64.912 Z6.6 I0 J-0.912
X15 Y-63.088 Z6.5 I0 J0.912
X15 Y-64.912 Z6.4 I0 J-0.912
X15 Y-63.088 Z6.3 I0 J0.912
X15 Y-64.912 Z6.2 I0 J-0.912
X15 Y-63.088 Z6.1 I0 J0.912
X15 Y-64.912 Z6 I0 J-0.912
X15 Y-63.088 Z5.9 I0 J0.912
X15 Y-64.912 Z5.8 I0 J-0.912
X15 Y-63.088 Z5.7 I0 J0.912
X15 Y-64.912 Z5.6 I0 J-0.912
X15 Y-63.088 Z5.5 I0 J0.912
X15 Y-64.912 Z5.4 I0 J-0.912
X15 Y-63.088 Z5.3 I0 J0.912
X15 Y-64.912 Z5.2 I0 J-0.912
X15 Y-63.088 Z5.1 I0 J0.912
X15 Y-64.912 Z5 I0 J-0.912
X15 Y-63.088 Z4.9 I0 J0.912
X15 Y-64.912 Z4.8 I0 J-0.912
X15 Y-63.088 Z4.7 I0 J0.912
X15 Y-64.912 Z4.6 I0 J-0.912
X15 Y-63.088 Z4.5 I0 J0.912
X15 Y-64.912 Z4.4 I0 J-0.912
X15 Y-63.088 Z4.3 I0 J0.912
X15 Y-64.912 Z4.2 I0 J-0.912
X15 Y-63.088 Z4.1 I0 J0.912
X15 Y-64.912 Z4 I0 J-0.912
X15 Y-63.088 Z3.9 I0 J0.912
X15 Y-64.912 Z3.8 I0 J-0.912
X15 Y-63.088 Z3.7 I0 J0.912
X15 Y-64.912 Z3.6 I0 J-0.912
X15 Y-63.088 Z3.5 I0 J0.912
X15 Y-64.912 Z3.4 I0 J-0.912
X15 Y-63.088 Z3.3 I0 J0.912
X15 Y-64.912 Z3.2 I0 J-0.912
X15 Y-63.088 Z3.1 I0 J0.912
X15 Y-64.912 Z3 I0 J-0.912
X15 Y-63.088 Z2.9 I0 J0.912
X15 Y-64.912 Z2.8 I0 J-0.912
X15 Y-63.088 Z2.7 I0 J0.912
X15 Y-64.912 Z2.6 I0 J-0.912
X15 Y-63.088 Z2.5 I0 J0.912
X15 Y-64.912 Z2.4 I0 J-0.912
X15 Y-63.088 Z2.3 I0 J0.912
X15 Y-64.912 Z2.2 I0 J-0.912
X15 Y-63.088 Z2.1 I0 J0.912
X15 Y-64.912 Z2 I0 J-0.912
X15 Y-63.088 Z1.9 I0 J0.912
X15 Y-64.912 Z1.8 I0 J-0.912
X15 Y-63.088 Z1.7 I0 J0.912
X15 Y-64.912 Z1.6 I0 J-0.912
X15 Y-63.088 Z1.5 I0 J0.912
X15 Y-64.912 Z1.4 I0 J-0.912
X15 Y-63.088 Z1.3 I0 J0.912
X15 Y-64.912 Z1.2 I0 J-0.912
X15 Y-63.088 Z1.1 I0 J0.912
X15 Y-64.912 Z1 I0 J-0.912
X15 Y-63.088 Z0.9 I0 J0.912
X15 Y-64.912 Z0.8 I0 J-0.912
X15 Y-63.088 Z0.7 I0 J0.912
X15 Y-64.912 Z0.6 I0 J-0.912
X15 Y-63.088 Z0.5 I0 J0.912
X15 Y-64.912 Z0.4 I0 J-0.912
X15 Y-63.088 Z0.3 I0 J0.912
X15 Y-64.912 Z0.2 I0 J-0.912
X15 Y-63.088 Z0.1 I0 J0.912
X15 Y-64.912 Z0 I0 J-0.912
X15 Y-63.088 I0 J0.912
X15 Y-64.912 I0 J-0.912
X15.318 Y-64.595 I0 J0.317
G1 Y-64.436
G19 G3 Y-64.119 Z0.317 J0 K0.317
G0 Z25.2
G17
G28 G91 Z0
G90
G28 G91 X0 Y0
G90
M5
M30
