(cont1)
(T1  D=6 CR=0 - ZMIN=0 - flat end mill)
G90 G94
G17
G21
G28 G91 Z0
G90

(2D Contour1 4)
T1
S18000 M3
G54
G0 X-41.2 Y-69.6
Z25.2
Z15.2
G1 Z9.8 F500
G18 G2 X-40.6 Z9.2 I0.6 K0 F600
G1 X-33.6
G17 G3 X-33 Y-69 I0 J0.6
G1 Y69 F1300
G2 X-30 Y72 I3 J0
G1 X30
G2 X33 Y69 I0 J-3
G1 Y-69
G2 X30 Y-72 I-3 J0
G1 X-30
G2 X-33 Y-69 I0 J3
G3 X-33.6 Y-68.4 I-0.6 J0 F800
G1 X-40.6
G18 G3 X-41.2 Z9.8 I0 K0.6
G1 Y-69.6 F1300
Z8.8 F500
G2 X-40.6 Z8.2 I0.6 K0 F600
G1 X-33.6
G17 G3 X-33 Y-69 I0 J0.6
G1 Y69 F1300
G2 X-30 Y72 I3 J0
G1 X30
G2 X33 Y69 I0 J-3
G1 Y-69
G2 X30 Y-72 I-3 J0
G1 X-30
G2 X-33 Y-69 I0 J3
G3 X-33.6 Y-68.4 I-0.6 J0 F800
G1 X-40.6
G18 G3 X-41.2 Z8.8 I0 K0.6
G1 Y-69.6 F1300
Z7.8 F500
G2 X-40.6 Z7.2 I0.6 K0 F600
G1 X-33.6
G17 G3 X-33 Y-69 I0 J0.6
G1 Y69 F1300
G2 X-30 Y72 I3 J0
G1 X30
G2 X33 Y69 I0 J-3
G1 Y-69
G2 X30 Y-72 I-3 J0
G1 X-30
G2 X-33 Y-69 I0 J3
G3 X-33.6 Y-68.4 I-0.6 J0 F800
G1 X-40.6
G18 G3 X-41.2 Z7.8 I0 K0.6
G1 Y-69.6 F1300
Z6.8 F500
G2 X-40.6 Z6.2 I0.6 K0 F600
G1 X-33.6
G17 G3 X-33 Y-69 I0 J0.6
G1 Y69 F1300
G2 X-30 Y72 I3 J0
G1 X30
G2 X33 Y69 I0 J-3
G1 Y-69
G2 X30 Y-72 I-3 J0
G1 X-30
G2 X-33 Y-69 I0 J3
G3 X-33.6 Y-68.4 I-0.6 J0 F800
G1 X-40.6
G18 G3 X-41.2 Z6.8 I0 K0.6
G1 Y-69.6 F1300
Z5.8 F500
G2 X-40.6 Z5.2 I0.6 K0 F600
G1 X-33.6
G17 G3 X-33 Y-69 I0 J0.6
G1 Y69 F1300
G2 X-30 Y72 I3 J0
G1 X30
G2 X33 Y69 I0 J-3
G1 Y-69
G2 X30 Y-72 I-3 J0
G1 X-30
G2 X-33 Y-69 I0 J3
G3 X-33.6 Y-68.4 I-0.6 J0 F800
G1 X-40.6
G18 G3 X-41.2 Z5.8 I0 K0.6
G1 Y-69.6 F1300
Z4.8 F500
G2 X-40.6 Z4.2 I0.6 K0 F600
G1 X-33.6
G17 G3 X-33 Y-69 I0 J0.6
G1 Y69 F1300
G2 X-30 Y72 I3 J0
G1 X30
G2 X33 Y69 I0 J-3
G1 Y-69
G2 X30 Y-72 I-3 J0
G1 X-30
G2 X-33 Y-69 I0 J3
G3 X-33.6 Y-68.4 I-0.6 J0 F800
G1 X-40.6
G18 G3 X-41.2 Z4.8 I0 K0.6
G1 Y-69.6 F1300
Z3.8 F500
G2 X-40.6 Z3.2 I0.6 K0 F600
G1 X-33.6
G17 G3 X-33 Y-69 I0 J0.6
G1 Y69 F1300
G2 X-30 Y72 I3 J0
G1 X30
G2 X33 Y69 I0 J-3
G1 Y-69
G2 X30 Y-72 I-3 J0
G1 X-30
G2 X-33 Y-69 I0 J3
G3 X-33.6 Y-68.4 I-0.6 J0 F800
G1 X-40.6
G18 G3 X-41.2 Z3.8 I0 K0.6
G1 Y-69.6 F1300
Z2.8 F500
G2 X-40.6 Z2.2 I0.6 K0 F600
G1 X-33.6
G17 G3 X-33 Y-69 I0 J0.6
G1 Y69 F1300
G2 X-30 Y72 I3 J0
G1 X30
G2 X33 Y69 I0 J-3
G1 Y-69
G2 X30 Y-72 I-3 J0
G1 X-30
G2 X-33 Y-69 I0 J3
G3 X-33.6 Y-68.4 I-0.6 J0 F800
G1 X-40.6
G18 G3 X-41.2 Z2.8 I0 K0.6
G1 Y-69.6 F1300
Z1.8 F500
G2 X-40.6 Z1.2 I0.6 K0 F600
G1 X-33.6
G17 G3 X-33 Y-69 I0 J0.6
G1 Y69 F1300
G2 X-30 Y72 I3 J0
G1 X30
G2 X33 Y69 I0 J-3
G1 Y-69
G2 X30 Y-72 I-3 J0
G1 X-30
G2 X-33 Y-69 I0 J3
G3 X-33.6 Y-68.4 I-0.6 J0 F800
G1 X-40.6
G18 G3 X-41.2 Z1.8 I0 K0.6
G1 Y-69.6 F1300
Z1.2 F500
G2 X-40.6 Z0.6 I0.6 K0 F600
G1 X-33.6
G17 G3 X-33 Y-69 I0 J0.6
G1 Y69 F1300
G2 X-30 Y72 I3 J0
G1 X30
G2 X33 Y69 I0 J-3
G1 Y-69
G2 X30 Y-72 I-3 J0
G1 X-30
G2 X-33 Y-69 I0 J3
G3 X-33.6 Y-68.4 I-0.6 J0 F800
G1 X-40.6
G18 G3 X-41.2 Z1.2 I0 K0.6
G1 Y-69.6 F1300
Z0.6 F500
G2 X-40.6 Z0 I0.6 K0 F600
G1 X-33.6
G17 G3 X-33 Y-69 I0 J0.6
G1 Y69 F1300
G2 X-30 Y72 I3 J0
G1 X30
G2 X33 Y69 I0 J-3
G1 Y-69
G2 X30 Y-72 I-3 J0
G1 X-30
G2 X-33 Y-69 I0 J3
G3 X-33.6 Y-68.4 I-0.6 J0 F800
G1 X-40.6
G18 G3 X-41.2 Z0.6 I0 K0.6
G0 Z25.2
G17
G28 G91 Z0
G90
G28 G91 X0 Y0
G90
M5
M30
