(bore1)
(T6 D=3.175 CR=0 - ZMIN=0 - flat end mill)
G90 G94
G17
G21
G28 G91 Z0
G90

(Bore1 8)
T6
(18 Flat-45 degree helix)
S18000 M3
G17 G90 G94
G54
G0 X4.682 Y4.781
Z28.02
G0 Z9.5
G1 Z7.818 F500
G19 G2 Y4.464 Z7.5 J-0.318 K0
G1 Y4.305
G17 G3 X5 Y3.987 I0.318 J0
X5 Y6.013 Z7.409 I0 J1.013
X5 Y3.987 Z7.318 I0 J-1.013
X5 Y6.013 Z7.228 I0 J1.013
X5 Y3.987 Z7.137 I0 J-1.013
X5 Y6.013 Z7.046 I0 J1.013
X5 Y3.987 Z6.955 I0 J-1.013
X5 Y6.013 Z6.864 I0 J1.013
X5 Y3.987 Z6.774 I0 J-1.013
X5 Y6.013 Z6.683 I0 J1.013
X5 Y3.987 Z6.592 I0 J-1.013
X5 Y6.013 Z6.501 I0 J1.013
X5 Y3.987 Z6.41 I0 J-1.013
X5 Y6.013 Z6.32 I0 J1.013
X5 Y3.987 Z6.229 I0 J-1.013
X5 Y6.013 Z6.138 I0 J1.013
X5 Y3.987 Z6.047 I0 J-1.013
X5 Y6.013 Z5.957 I0 J1.013
X5 Y3.987 Z5.866 I0 J-1.013
X5 Y6.013 Z5.775 I0 J1.013
X5 Y3.987 Z5.684 I0 J-1.013
X5 Y6.013 Z5.593 I0 J1.013
X5 Y3.987 Z5.503 I0 J-1.013
X5 Y6.013 Z5.412 I0 J1.013
X5 Y3.987 Z5.321 I0 J-1.013
X5 Y6.013 Z5.23 I0 J1.013
X5 Y3.987 Z5.139 I0 J-1.013
X5 Y6.013 Z5.049 I0 J1.013
X5 Y3.987 Z4.958 I0 J-1.013
X5 Y6.013 Z4.867 I0 J1.013
X5 Y3.987 Z4.776 I0 J-1.013
X5 Y6.013 Z4.685 I0 J1.013
X5 Y3.987 Z4.595 I0 J-1.013
X5 Y6.013 Z4.504 I0 J1.013
X5 Y3.987 Z4.413 I0 J-1.013
X5 Y6.013 Z4.322 I0 J1.013
X5 Y3.987 Z4.231 I0 J-1.013
X5 Y6.013 Z4.141 I0 J1.013
X5 Y3.987 Z4.05 I0 J-1.013
X5 Y6.013 Z3.959 I0 J1.013
X5 Y3.987 Z3.868 I0 J-1.013
X5 Y6.013 Z3.777 I0 J1.013
X5 Y3.987 Z3.687 I0 J-1.013
X5 Y6.013 Z3.596 I0 J1.013
X5 Y3.987 Z3.505 I0 J-1.013
X5 Y6.013 Z3.414 I0 J1.013
X5 Y3.987 Z3.323 I0 J-1.013
X5 Y6.013 Z3.233 I0 J1.013
X5 Y3.987 Z3.142 I0 J-1.013
X5 Y6.013 Z3.051 I0 J1.013
X5 Y3.987 Z2.96 I0 J-1.013
X5 Y6.013 Z2.87 I0 J1.013
X5 Y3.987 Z2.779 I0 J-1.013
X5 Y6.013 Z2.688 I0 J1.013
X5 Y3.987 Z2.597 I0 J-1.013
X5 Y6.013 Z2.506 I0 J1.013
X5 Y3.987 Z2.416 I0 J-1.013
X5 Y6.013 Z2.325 I0 J1.013
X5 Y3.987 Z2.234 I0 J-1.013
X5 Y6.013 Z2.143 I0 J1.013
X5 Y3.987 Z2.052 I0 J-1.013
X5 Y6.013 Z1.962 I0 J1.013
X5 Y3.987 Z1.871 I0 J-1.013
X5 Y6.013 Z1.78 I0 J1.013
X5 Y3.987 Z1.689 I0 J-1.013
X5 Y6.013 Z1.598 I0 J1.013
X5 Y3.987 Z1.508 I0 J-1.013
X5 Y6.013 Z1.417 I0 J1.013
X5 Y3.987 Z1.326 I0 J-1.013
X5 Y6.013 Z1.235 I0 J1.013
X5 Y3.987 Z1.144 I0 J-1.013
X5 Y6.013 Z1.054 I0 J1.013
X5 Y3.987 Z0.963 I0 J-1.013
X5 Y6.013 Z0.872 I0 J1.013
X5 Y3.987 Z0.781 I0 J-1.013
X5 Y6.013 Z0.69 I0 J1.013
X5 Y3.987 Z0.6 I0 J-1.013
X5 Y6.013 Z0.509 I0 J1.013
X5 Y3.987 Z0.418 I0 J-1.013
X5 Y6.013 Z0.327 I0 J1.013
X5 Y3.987 Z0.236 I0 J-1.013
X5 Y6.013 Z0.146 I0 J1.013
X5 Y3.987 Z0.055 I0 J-1.013
X5.958 Y5.327 Z0 I0 J1.013
X4.042 Y4.673 I-0.958 J-0.327
X5.958 Y5.327 I0.958 J0.327
X5.555 Y5.525 I-0.301 J-0.102
G1 X5.405 Y5.474
X5.338 Y5.451 Z0.008
X5.275 Y5.429 Z0.031
X5.218 Y5.41 Z0.069
X5.17 Y5.393 Z0.12
X5.134 Y5.381 Z0.18
X5.112 Y5.374 Z0.247
X5.105 Y5.371 Z0.317
G0 Z18.02
X4.682 Y35.781
Z9.5
G1 Z7.818 F500
G19 G2 Y35.464 Z7.5 J-0.318 K0
G1 Y35.305
G17 G3 X5 Y34.987 I0.318 J0
X5 Y37.013 Z7.409 I0 J1.013
X5 Y34.987 Z7.318 I0 J-1.013
X5 Y37.013 Z7.228 I0 J1.013
X5 Y34.987 Z7.137 I0 J-1.013
X5 Y37.013 Z7.046 I0 J1.013
X5 Y34.987 Z6.955 I0 J-1.013
X5 Y37.013 Z6.864 I0 J1.013
X5 Y34.987 Z6.774 I0 J-1.013
X5 Y37.013 Z6.683 I0 J1.013
X5 Y34.987 Z6.592 I0 J-1.013
X5 Y37.013 Z6.501 I0 J1.013
X5 Y34.987 Z6.41 I0 J-1.013
X5 Y37.013 Z6.32 I0 J1.013
X5 Y34.987 Z6.229 I0 J-1.013
X5 Y37.013 Z6.138 I0 J1.013
X5 Y34.987 Z6.047 I0 J-1.013
X5 Y37.013 Z5.957 I0 J1.013
X5 Y34.987 Z5.866 I0 J-1.013
X5 Y37.013 Z5.775 I0 J1.013
X5 Y34.987 Z5.684 I0 J-1.013
X5 Y37.013 Z5.593 I0 J1.013
X5 Y34.987 Z5.503 I0 J-1.013
X5 Y37.013 Z5.412 I0 J1.013
X5 Y34.987 Z5.321 I0 J-1.013
X5 Y37.013 Z5.23 I0 J1.013
X5 Y34.987 Z5.139 I0 J-1.013
X5 Y37.013 Z5.049 I0 J1.013
X5 Y34.987 Z4.958 I0 J-1.013
X5 Y37.013 Z4.867 I0 J1.013
X5 Y34.987 Z4.776 I0 J-1.013
X5 Y37.013 Z4.685 I0 J1.013
X5 Y34.987 Z4.595 I0 J-1.013
X5 Y37.013 Z4.504 I0 J1.013
X5 Y34.987 Z4.413 I0 J-1.013
X5 Y37.013 Z4.322 I0 J1.013
X5 Y34.987 Z4.231 I0 J-1.013
X5 Y37.013 Z4.141 I0 J1.013
X5 Y34.987 Z4.05 I0 J-1.013
X5 Y37.013 Z3.959 I0 J1.013
X5 Y34.987 Z3.868 I0 J-1.013
X5 Y37.013 Z3.777 I0 J1.013
X5 Y34.987 Z3.687 I0 J-1.013
X5 Y37.013 Z3.596 I0 J1.013
X5 Y34.987 Z3.505 I0 J-1.013
X5 Y37.013 Z3.414 I0 J1.013
X5 Y34.987 Z3.323 I0 J-1.013
X5 Y37.013 Z3.233 I0 J1.013
X5 Y34.987 Z3.142 I0 J-1.013
X5 Y37.013 Z3.051 I0 J1.013
X5 Y34.987 Z2.96 I0 J-1.013
X5 Y37.013 Z2.87 I0 J1.013
X5 Y34.987 Z2.779 I0 J-1.013
X5 Y37.013 Z2.688 I0 J1.013
X5 Y34.987 Z2.597 I0 J-1.013
X5 Y37.012 Z2.506 I0 J1.013
X5 Y34.988 Z2.416 I0 J-1.012
X5 Y37.012 Z2.325 I0 J1.012
X5 Y34.988 Z2.234 I0 J-1.012
X5 Y37.012 Z2.143 I0 J1.012
X5 Y34.988 Z2.052 I0 J-1.012
X5 Y37.012 Z1.962 I0 J1.012
X5 Y34.988 Z1.871 I0 J-1.012
X5 Y37.012 Z1.78 I0 J1.012
X5 Y34.988 Z1.689 I0 J-1.012
X5 Y37.012 Z1.598 I0 J1.012
X5 Y34.988 Z1.508 I0 J-1.012
X5 Y37.012 Z1.417 I0 J1.012
X5 Y34.988 Z1.326 I0 J-1.012
X5 Y37.012 Z1.235 I0 J1.012
X5 Y34.988 Z1.144 I0 J-1.012
X5 Y37.012 Z1.054 I0 J1.012
X5 Y34.988 Z0.963 I0 J-1.012
X5 Y37.012 Z0.872 I0 J1.012
X5 Y34.988 Z0.781 I0 J-1.012
X5 Y37.012 Z0.69 I0 J1.012
X5 Y34.988 Z0.6 I0 J-1.012
X5 Y37.012 Z0.509 I0 J1.012
X5 Y34.988 Z0.418 I0 J-1.012
X5 Y37.012 Z0.327 I0 J1.012
X5 Y34.988 Z0.236 I0 J-1.012
X5 Y37.012 Z0.146 I0 J1.012
X5 Y34.988 Z0.055 I0 J-1.012
X5.958 Y36.327 Z0 I0 J1.012
X4.042 Y35.673 I-0.958 J-0.327
X5.958 Y36.327 I0.958 J0.327
X5.555 Y36.525 I-0.301 J-0.102
G1 X5.405 Y36.474
X5.338 Y36.451 Z0.008
X5.275 Y36.429 Z0.031
X5.218 Y36.41 Z0.069
X5.17 Y36.393 Z0.12
X5.134 Y36.381 Z0.18
X5.112 Y36.374 Z0.247
X5.105 Y36.371 Z0.317
G0 Z28.02
G28 G91 Z0
G90
G28 G91 X0 Y0
G90
M5
M30
