(chamfer1)
(T2 D=3 CR=0 TAPER=45deg - ZMIN=6.7 - chamfer mill)
G90 G94
G17
G21
G28 G91 Z0
G90

(2D Chamfer2 8)
T2
S15000 M3
G17 G90 G94
G54
G0 X0.25 Y5
Z28.02
G0 Z13.02
G1 Z10.02 F300
Z6.7
X0.55
Y27 F500
G2 X2 Y28.45 I1.45 J0
G1 X8
G2 X9.45 Y27 I0 J-1.45
G1 Y5
G2 X0.55 Y5 I-4.45 J0
G1 X0.25 F300
G0 Z18.02
X6.85
Z13.02
G1 Z10.02 F300
Z6.7
X7.15
G3 X2.85 Y5 I-2.15 J0 F500
X7.15 Y5 I2.15 J0
G1 X6.85 F300
G0 Z18.02
X9.75 Y58
Z13.02
G1 Z10.02 F300
Z6.7
X9.45
Y36 F500
G2 X0.55 Y36 I-4.45 J0
G1 Y58
G2 X2 Y59.45 I1.45 J0
G1 X8
G2 X9.45 Y58 I0 J-1.45
G1 X9.75 F300
G0 Z18.02
X6.838 Y36.207
Z13.02
G1 Z10.02 F300
Z6.7
X7.136 Y36.241
G3 X2.864 Y35.759 I-2.136 J-0.241 F500
X7.136 Y36.241 I2.136 J0.241
G1 X6.838 Y36.207 F300
G0 Z28.02
G28 G91 Z0
G90
G28 G91 X0 Y0
G90
M5
M30
