(contour2)
(T6 D=3.175 CR=0 - ZMIN=0 - flat end mill)
G90 G94
G17
G21
G28 G91 Z0
G90

(2D Contour2 6)
T6
(18 Flat-45 degree helix)
S18000 M3
G17 G90 G94
G54
G0 X-5.005 Y60.46
Z28.02
G0 Z11.02
G1 Z6.337 F300
X-4.998 Y60.457 Z6.267 F600
X-4.976 Y60.449 Z6.2
X-4.941 Y60.435 Z6.14
X-4.894 Y60.416 Z6.089
X-4.838 Y60.394 Z6.051
X-4.776 Y60.369 Z6.028
X-4.711 Y60.343 Z6.02
X-0.815 Y58.784
G3 X-0.402 Y58.961 I0.118 J0.295
G2 X2 Y60.588 I2.402 J-0.961 F1000
G1 X8
G2 X10.587 Y58 I0 J-2.588
G1 Y36
G2 X-0.587 Y36 I-5.587 J0
G1 Y58
G2 X-0.402 Y58.961 I2.587 J0
G3 X-0.579 Y59.374 I-0.295 J0.118 F600
G1 X-0.874 Y59.492
X-0.94 Y59.518 Z6.028
X-1.002 Y59.543 Z6.051
X-1.058 Y59.565 Z6.089
X-1.105 Y59.584 Z6.14
X-1.14 Y59.598 Z6.2
X-1.161 Y59.607 Z6.267
X-1.169 Y59.61 Z6.337
X-5.013 Y29.769 F1000
X-5.006 Y29.766 Z6.267 F600
X-4.984 Y29.756 Z6.2
X-4.95 Y29.741 Z6.14
X-4.904 Y29.721 Z6.089
X-4.849 Y29.696 Z6.051
X-4.788 Y29.669 Z6.028
X-4.723 Y29.64 Z6.02
X-0.784 Y27.89
G3 X-0.365 Y28.051 I0.129 J0.29
G2 X2 Y29.587 I2.365 J-1.051 F1000
G1 X8
G2 X10.587 Y27 I0 J-2.587
G1 Y5
G2 X-0.587 Y5 I-5.587 J0
G1 Y27
G2 X-0.365 Y28.051 I2.587 J0
G3 X-0.526 Y28.47 I-0.29 J0.129 F600
G1 X-0.816 Y28.599
X-0.88 Y28.627 Z6.028
X-0.942 Y28.655 Z6.051
X-0.997 Y28.679 Z6.089
X-1.043 Y28.7 Z6.14
X-1.077 Y28.715 Z6.2
X-1.099 Y28.724 Z6.267
X-1.106 Y28.728 Z6.337
X-5.013 Y29.769 F1000
Z4.337 F300
X-5.006 Y29.766 Z4.267 F600
X-4.984 Y29.756 Z4.2
X-4.95 Y29.741 Z4.14
X-4.904 Y29.721 Z4.089
X-4.849 Y29.696 Z4.051
X-4.788 Y29.669 Z4.028
X-4.723 Y29.64 Z4.02
X-0.784 Y27.89
G3 X-0.365 Y28.051 I0.129 J0.29
G2 X2 Y29.587 I2.365 J-1.051 F1000
G1 X8
G2 X10.587 Y27 I0 J-2.587
G1 Y5
G2 X-0.587 Y5 I-5.587 J0
G1 Y27
G2 X-0.365 Y28.051 I2.587 J0
G3 X-0.526 Y28.47 I-0.29 J0.129 F600
G1 X-0.816 Y28.599
X-0.88 Y28.627 Z4.028
X-0.942 Y28.655 Z4.051
X-0.997 Y28.679 Z4.089
X-1.043 Y28.7 Z4.14
X-1.077 Y28.715 Z4.2
X-1.099 Y28.724 Z4.267
X-1.106 Y28.728 Z4.337
X-5.005 Y60.46 F1000
X-4.998 Y60.457 Z4.267 F600
X-4.976 Y60.449 Z4.2
X-4.941 Y60.435 Z4.14
X-4.894 Y60.416 Z4.089
X-4.838 Y60.394 Z4.051
X-4.776 Y60.369 Z4.028
X-4.711 Y60.343 Z4.02
X-0.815 Y58.784
G3 X-0.402 Y58.961 I0.118 J0.295
G2 X2 Y60.588 I2.402 J-0.961 F1000
G1 X8
G2 X10.587 Y58 I0 J-2.588
G1 Y36
G2 X-0.587 Y36 I-5.587 J0
G1 Y58
G2 X-0.402 Y58.961 I2.587 J0
G3 X-0.579 Y59.374 I-0.295 J0.118 F600
G1 X-0.874 Y59.492
X-0.94 Y59.518 Z4.028
X-1.002 Y59.543 Z4.051
X-1.058 Y59.565 Z4.089
X-1.105 Y59.584 Z4.14
X-1.14 Y59.598 Z4.2
X-1.161 Y59.607 Z4.267
X-1.169 Y59.61 Z4.337
X-5.005 Y60.46 F1000
Z2.337 F300
X-4.998 Y60.457 Z2.267 F600
X-4.976 Y60.449 Z2.2
X-4.941 Y60.435 Z2.14
X-4.894 Y60.416 Z2.089
X-4.838 Y60.394 Z2.051
X-4.776 Y60.369 Z2.028
X-4.711 Y60.343 Z2.02
X-0.815 Y58.784
G3 X-0.402 Y58.961 I0.118 J0.295
G2 X2 Y60.588 I2.402 J-0.961 F1000
G1 X8
G2 X10.587 Y58 I0 J-2.588
G1 Y36
G2 X-0.587 Y36 I-5.587 J0
G1 Y58
G2 X-0.402 Y58.961 I2.587 J0
G3 X-0.579 Y59.374 I-0.295 J0.118 F600
G1 X-0.874 Y59.492
X-0.94 Y59.518 Z2.028
X-1.002 Y59.543 Z2.051
X-1.058 Y59.565 Z2.089
X-1.105 Y59.584 Z2.14
X-1.14 Y59.598 Z2.2
X-1.161 Y59.607 Z2.267
X-1.169 Y59.61 Z2.337
X-5.013 Y29.769 F1000
X-5.006 Y29.766 Z2.267 F600
X-4.984 Y29.756 Z2.2
X-4.95 Y29.741 Z2.14
X-4.904 Y29.721 Z2.089
X-4.849 Y29.696 Z2.051
X-4.788 Y29.669 Z2.028
X-4.723 Y29.64 Z2.02
X-0.784 Y27.89
G3 X-0.365 Y28.051 I0.129 J0.29
G2 X2 Y29.587 I2.365 J-1.051 F1000
G1 X8
G2 X10.587 Y27 I0 J-2.587
G1 Y5
G2 X-0.587 Y5 I-5.587 J0
G1 Y27
G2 X-0.365 Y28.051 I2.587 J0
G3 X-0.526 Y28.47 I-0.29 J0.129 F600
G1 X-0.816 Y28.599
X-0.88 Y28.627 Z2.028
X-0.942 Y28.655 Z2.051
X-0.997 Y28.679 Z2.089
X-1.043 Y28.7 Z2.14
X-1.077 Y28.715 Z2.2
X-1.099 Y28.724 Z2.267
X-1.106 Y28.728 Z2.337
X-5.013 Y29.769 F1000
Z0.317 F300
X-5.006 Y29.766 Z0.247 F600
X-4.984 Y29.756 Z0.18
X-4.95 Y29.741 Z0.12
X-4.904 Y29.721 Z0.069
X-4.849 Y29.696 Z0.031
X-4.788 Y29.669 Z0.008
X-4.723 Y29.64 Z0
X-0.784 Y27.89
G3 X-0.365 Y28.051 I0.129 J0.29
G2 X2 Y29.587 I2.365 J-1.051 F1000
G1 X8
G2 X10.587 Y27 I0 J-2.587
G1 Y26.834
Y25.247 Z1.2
Y22.072
Y20.484 Z0 F300
Y18.971 F1000
Y17.383 Z1.2
Y14.208
Y12.621 Z0 F300
Y10.331 F1000
Y8.743 Z1.2
Y5.568
Y5 Z0.77 F300
G2 X10.548 Y4.333 Z0.266 I-5.587 J0
X10.494 Y3.981 Z0 I-5.548 J0.667
X-0.587 Y5 I-5.494 J1.019 F1000
G1 Y27
G2 X-0.365 Y28.051 I2.587 J0
G3 X-0.526 Y28.47 I-0.29 J0.129 F600
G1 X-0.816 Y28.599
X-0.88 Y28.627 Z0.008
X-0.942 Y28.655 Z0.031
X-0.997 Y28.679 Z0.069
X-1.043 Y28.7 Z0.12
X-1.077 Y28.715 Z0.18
X-1.099 Y28.724 Z0.247
X-1.106 Y28.728 Z0.317
X-5.005 Y60.46 F1000
X-4.998 Y60.457 Z0.247 F600
X-4.976 Y60.449 Z0.18
X-4.941 Y60.435 Z0.12
X-4.894 Y60.416 Z0.069
X-4.838 Y60.394 Z0.031
X-4.776 Y60.369 Z0.008
X-4.711 Y60.343 Z0
X-0.815 Y58.784
G3 X-0.402 Y58.961 I0.118 J0.295
G2 X2 Y60.588 I2.402 J-0.961 F1000
G1 X8
G2 X10.587 Y58.027 I0 J-2.588
G1 Y58 Z0.02
Y56.439 Z1.2
Y53.264
Y51.677 Z0 F300
Y49.966 F1000
Y48.379 Z1.2
Y45.204
Y43.616 Z0 F300
Y41.898 F1000
Y40.31 Z1.2
Y37.135
Y36 Z0.342 F300
G2 X10.569 Y35.548 Z0 I-5.587 J0
X-0.587 Y36 I-5.569 J0.452 F1000
G1 Y58
G2 X-0.402 Y58.961 I2.587 J0
G3 X-0.579 Y59.374 I-0.295 J0.118 F600
G1 X-0.874 Y59.492
X-0.94 Y59.518 Z0.008
X-1.002 Y59.543 Z0.031
X-1.058 Y59.565 Z0.069
X-1.105 Y59.584 Z0.12
X-1.14 Y59.598 Z0.18
X-1.161 Y59.607 Z0.247
X-1.169 Y59.61 Z0.317
G0 Z28.02
G28 G91 Z0
G90
G28 G91 X0 Y0
G90
M5
M30
