(contour1)
(T6 D=3.175 CR=0 - ZMIN=0 - flat end mill)
G90 G94
G17
G21
G28 G91 Z0
G90

(2D Contour2 5)
T6
(18 Flat-45 degree helix)
S18000 M3
G17 G90 G94
G54
G0 X-2.574 Y59.806
Z28.02
G0 Z11.02
G1 Z9.52 F300
Z7.837
X-2.567 Y59.803 Z7.767 F600
X-2.546 Y59.793 Z7.7
X-2.511 Y59.777 Z7.64
X-2.466 Y59.755 Z7.589
X-2.411 Y59.73 Z7.551
X-2.351 Y59.701 Z7.528
X-2.287 Y59.671 Z7.52
X-2 Y59.535
G3 X-1.577 Y59.687 I0.135 J0.287
G2 X0.313 Y61.577 I3.577 J-1.687 F1000
G3 X0.465 Y62 I-0.135 J0.287 F600
G1 X0.33 Y62.287
X0.299 Y62.351 Z7.528
X0.271 Y62.412 Z7.551
X0.245 Y62.466 Z7.589
X0.224 Y62.512 Z7.64
X0.208 Y62.546 Z7.7
X0.198 Y62.567 Z7.767
X0.194 Y62.574 Z7.837
X9.806 F1000
X9.803 Y62.567 Z7.767 F600
X9.793 Y62.546 Z7.7
X9.777 Y62.511 Z7.64
X9.755 Y62.466 Z7.589
X9.73 Y62.411 Z7.551
X9.701 Y62.351 Z7.528
X9.671 Y62.287 Z7.52
X9.535 Y62
G3 X9.687 Y61.577 I0.287 J-0.135
G2 X11.955 Y58 I-1.687 J-3.577 F1000
G1 Y36
G2 X11.327 Y33.168 I-6.706 J0
X9.596 Y30.84 I-6.504 J3.031
G3 X9.639 Y30.55 I0.117 J-0.131
G2 X11.316 Y29.114 I-1.7 J-3.683
X11.955 Y27 I-3.177 J-2.114
G1 Y5
G2 X7.26 Y-1.577 I-6.955 J0
G3 X7.063 Y-1.981 I0.103 J-0.3 F600
G1 X7.166 Y-2.281
X7.189 Y-2.348 Z7.528
X7.211 Y-2.411 Z7.551
X7.231 Y-2.468 Z7.589
X7.247 Y-2.516 Z7.64
X7.259 Y-2.552 Z7.7
X7.267 Y-2.574 Z7.767
X7.27 Y-2.581 Z7.837
X2.73 F1000
X2.732 Y-2.574 Z7.767 F600
X2.74 Y-2.552 Z7.7
X2.752 Y-2.516 Z7.64
X2.769 Y-2.468 Z7.589
X2.788 Y-2.411 Z7.551
X2.81 Y-2.348 Z7.528
X2.833 Y-2.281 Z7.52
X2.936 Y-1.981
G3 X2.739 Y-1.577 I-0.3 J0.103
G2 X-1.577 Y2.739 I2.261 J6.577 F1000
G3 X-1.981 Y2.936 I-0.3 J-0.103 F600
G1 X-2.281 Y2.833
X-2.348 Y2.81 Z7.528
X-2.411 Y2.788 Z7.551
X-2.468 Y2.768 Z7.589
X-2.516 Y2.752 Z7.64
X-2.551 Y2.74 Z7.7
X-2.574 Y2.732 Z7.767
X-2.581 Y2.73 Z7.837
X-2.573 Y28.783 F1000
X-2.566 Y28.779 Z7.767 F600
X-2.545 Y28.769 Z7.7
X-2.511 Y28.753 Z7.64
X-2.465 Y28.731 Z7.589
X-2.411 Y28.705 Z7.551
X-2.351 Y28.675 Z7.528
X-2.287 Y28.645 Z7.52
X-2.001 Y28.507
G3 X-1.577 Y28.655 I0.138 J0.286
G2 X-1.316 Y29.114 I3.438 J-1.655 F1000
X0.361 Y30.55 I3.378 J-2.247
G3 X0.404 Y30.84 I-0.073 J0.159
G2 X-1.327 Y33.168 I4.772 J5.358
X-1.577 Y33.781 I6.079 J2.832
X-1.331 Y34.641 I0.73 J0.256
G3 X-0.981 Y35.463 I-0.592 J0.738
G2 X-1.005 Y36 I5.981 J0.537
G1 Y58
G2 X2 Y61.005 I3.005 J0
G1 X8
G2 X11.005 Y58 I0 J-3.005
G1 Y36
G2 X5.346 Y30.005 I-6.005 J0
G1 X8
G2 X11.005 Y27 I0 J-3.005
G1 Y5
G2 X-1.005 Y5 I-6.005 J0
G1 Y27
G2 X2 Y30.005 I3.005 J0
G1 X4.654
G2 X-0.981 Y35.463 I0.346 J5.995
X-0.839 Y35.718 I0.259 J0.023
G3 X-0.687 Y35.967 I-0.125 J0.247
G1 X-0.688 Y36
Y58
G2 X2 Y60.688 I2.688 J0
G1 X8
G2 X10.688 Y58 I0 J-2.688
G1 Y36
G2 X-0.687 Y35.967 I-5.688 J0
G3 X-1.007 Y36.283 I-0.317 J-0.002 F600
G1 X-1.324 Y36.281
X-1.395 Y36.28 Z7.528
X-1.462 Z7.551
X-1.522 Z7.589
X-1.572 Y36.279 Z7.64
X-1.61 Z7.7
X-1.634 Z7.767
X-1.642 Z7.837
X-3.489 Y29.836 F1000
X-3.482 Y29.832 Z7.767 F600
X-3.462 Y29.82 Z7.7
X-3.429 Y29.801 Z7.64
X-3.386 Y29.775 Z7.589
X-3.334 Y29.745 Z7.551
X-3.276 Y29.711 Z7.528
X-3.215 Y29.676 Z7.52
X-0.755 Y28.24
G3 X-0.321 Y28.355 I0.16 J0.274
G2 X2 Y29.688 I2.321 J-1.355 F1000
G1 X8
G2 X10.688 Y27 I0 J-2.688
G1 Y5
G2 X-0.688 Y5 I-5.688 J0
G1 Y27
G2 X-0.321 Y28.355 I2.688 J0
G3 X-0.435 Y28.789 I-0.274 J0.16 F600
G1 X-0.71 Y28.949
X-0.771 Y28.985 Z7.528
X-0.829 Y29.018 Z7.551
X-0.881 Y29.049 Z7.589
X-0.924 Y29.074 Z7.64
X-0.957 Y29.093 Z7.7
X-0.977 Y29.105 Z7.767
X-0.984 Y29.109 Z7.837
X-2.573 Y28.783 F1000
Z7.337 F300
X-2.566 Y28.779 Z7.267 F600
X-2.545 Y28.769 Z7.2
X-2.511 Y28.753 Z7.14
X-2.465 Y28.731 Z7.089
X-2.411 Y28.705 Z7.051
X-2.351 Y28.675 Z7.028
X-2.287 Y28.645 Z7.02
X-2.001 Y28.507
G3 X-1.577 Y28.655 I0.138 J0.286
G2 X-1.316 Y29.114 I3.438 J-1.655 F1000
X0.361 Y30.55 I3.378 J-2.247
G3 X0.404 Y30.84 I-0.073 J0.159
G2 X-1.327 Y33.168 I4.772 J5.358
X-1.577 Y33.781 I6.079 J2.832
G3 X-1.982 Y33.976 I-0.3 J-0.105 F600
G1 X-2.282 Y33.871
X-2.348 Y33.847 Z7.028
X-2.412 Y33.825 Z7.051
X-2.468 Y33.805 Z7.089
X-2.516 Y33.789 Z7.14
X-2.552 Y33.776 Z7.2
X-2.574 Y33.768 Z7.267
X-2.581 Y33.766 Z7.337
X-2.574 Y59.806 F1000
X-2.567 Y59.803 Z7.267 F600
X-2.546 Y59.793 Z7.2
X-2.511 Y59.777 Z7.14
X-2.466 Y59.755 Z7.089
X-2.411 Y59.73 Z7.051
X-2.351 Y59.701 Z7.028
X-2.287 Y59.671 Z7.02
X-2 Y59.535
G3 X-1.577 Y59.687 I0.135 J0.287
G2 X0.313 Y61.577 I3.577 J-1.687 F1000
G3 X0.465 Y62 I-0.135 J0.287 F600
G1 X0.33 Y62.287
X0.299 Y62.351 Z7.028
X0.271 Y62.412 Z7.051
X0.245 Y62.466 Z7.089
X0.224 Y62.512 Z7.14
X0.208 Y62.546 Z7.2
X0.198 Y62.567 Z7.267
X0.194 Y62.574 Z7.337
X9.806 F1000
X9.803 Y62.567 Z7.267 F600
X9.793 Y62.546 Z7.2
X9.777 Y62.511 Z7.14
X9.755 Y62.466 Z7.089
X9.73 Y62.411 Z7.051
X9.701 Y62.351 Z7.028
X9.671 Y62.287 Z7.02
X9.535 Y62
G3 X9.687 Y61.577 I0.287 J-0.135
G2 X11.955 Y58 I-1.687 J-3.577 F1000
G1 Y36
G2 X11.327 Y33.168 I-6.706 J0
X9.596 Y30.84 I-6.504 J3.031
G3 X9.639 Y30.55 I0.117 J-0.131
G2 X11.316 Y29.114 I-1.7 J-3.683
X11.955 Y27 I-3.177 J-2.114
G1 Y5
G2 X7.26 Y-1.577 I-6.955 J0
G3 X7.063 Y-1.981 I0.103 J-0.3 F600
G1 X7.166 Y-2.281
X7.189 Y-2.348 Z7.028
X7.211 Y-2.411 Z7.051
X7.231 Y-2.468 Z7.089
X7.247 Y-2.516 Z7.14
X7.259 Y-2.552 Z7.2
X7.267 Y-2.574 Z7.267
X7.27 Y-2.581 Z7.337
X2.73 F1000
X2.732 Y-2.574 Z7.267 F600
X2.74 Y-2.552 Z7.2
X2.752 Y-2.516 Z7.14
X2.769 Y-2.468 Z7.089
X2.788 Y-2.411 Z7.051
X2.81 Y-2.348 Z7.028
X2.833 Y-2.281 Z7.02
X2.936 Y-1.981
G3 X2.739 Y-1.577 I-0.3 J0.103
G2 X-1.577 Y2.739 I2.261 J6.577 F1000
X-1.328 Y3.606 I0.744 J0.256
G3 X-0.979 Y4.437 I-0.601 J0.742
G2 X-1.005 Y5 I5.979 J0.563
G1 Y27
G2 X2 Y30.005 I3.005 J0
G1 X4.654
G2 X-1.005 Y36 I0.346 J5.995
G1 Y58
G2 X2 Y61.005 I3.005 J0
G1 X8
G2 X11.005 Y58 I0 J-3.005
G1 Y36
G2 X5.346 Y30.005 I-6.005 J0
G1 X8
G2 X11.005 Y27 I0 J-3.005
G1 Y5
G2 X-0.979 Y4.437 I-6.005 J0
X-0.838 Y4.693 I0.259 J0.024
G3 X-0.687 Y4.943 I-0.126 J0.247
G1 X-0.688 Y5
Y27
G2 X2 Y29.688 I2.688 J0
G1 X8
G2 X10.688 Y27 I0 J-2.688
G1 Y5
G2 X-0.687 Y4.943 I-5.688 J0
G3 X-1.008 Y5.257 I-0.317 J-0.003 F600
G1 X-1.325 Y5.254
X-1.396 Y5.253 Z7.028
X-1.463 Y5.252 Z7.051
X-1.523 Z7.089
X-1.574 Y5.251 Z7.14
X-1.611 Z7.2
X-1.635 Z7.267
X-1.643 Z7.337
G0 Z18.02
X-3.241 Y61.397
Z11.02
G1 Z7.337 F300
X-3.234 Y61.392 Z7.267 F600
X-3.215 Y61.379 Z7.2
X-3.185 Y61.356 Z7.14
X-3.144 Y61.327 Z7.089
X-3.095 Y61.292 Z7.051
X-3.041 Y61.252 Z7.028
X-2.983 Y61.211 Z7.02
X-0.621 Y59.503
G3 X-0.178 Y59.575 I0.186 J0.257
G2 X2 Y60.688 I2.178 J-1.575 F1000
G1 X8
G2 X10.688 Y58 I0 J-2.688
G1 Y36
G2 X-0.688 Y36 I-5.688 J0
G1 Y58
G2 X-0.178 Y59.575 I2.688 J0
G3 X-0.249 Y60.018 I-0.257 J0.186 F600
G1 X-0.507 Y60.204
X-0.564 Y60.245 Z7.028
X-0.618 Y60.285 Z7.051
X-0.667 Y60.32 Z7.089
X-0.708 Y60.349 Z7.14
X-0.738 Y60.371 Z7.2
X-0.757 Y60.385 Z7.267
X-0.764 Y60.39 Z7.337
X-2.574 Y59.806 F1000
Z6.837 F300
X-2.567 Y59.803 Z6.767 F600
X-2.546 Y59.793 Z6.7
X-2.511 Y59.777 Z6.64
X-2.466 Y59.755 Z6.589
X-2.411 Y59.73 Z6.551
X-2.351 Y59.701 Z6.528
X-2.287 Y59.671 Z6.52
X-2 Y59.535
G3 X-1.577 Y59.687 I0.135 J0.287
G2 X0.313 Y61.577 I3.577 J-1.687 F1000
G3 X0.465 Y62 I-0.135 J0.287 F600
G1 X0.33 Y62.287
X0.299 Y62.351 Z6.528
X0.271 Y62.412 Z6.551
X0.245 Y62.466 Z6.589
X0.224 Y62.512 Z6.64
X0.208 Y62.546 Z6.7
X0.198 Y62.567 Z6.767
X0.194 Y62.574 Z6.837
X9.806 F1000
X9.803 Y62.567 Z6.767 F600
X9.793 Y62.546 Z6.7
X9.777 Y62.511 Z6.64
X9.755 Y62.466 Z6.589
X9.73 Y62.411 Z6.551
X9.701 Y62.351 Z6.528
X9.671 Y62.287 Z6.52
X9.535 Y62
G3 X9.687 Y61.577 I0.287 J-0.135
G2 X11.955 Y58 I-1.687 J-3.577 F1000
G1 Y36
G2 X11.327 Y33.168 I-6.706 J0
X9.596 Y30.84 I-6.504 J3.031
G3 X9.639 Y30.55 I0.117 J-0.131
G2 X11.316 Y29.114 I-1.7 J-3.683
X11.955 Y27 I-3.177 J-2.114
G1 Y5
G2 X7.26 Y-1.577 I-6.955 J0
G3 X7.063 Y-1.981 I0.103 J-0.3 F600
G1 X7.166 Y-2.281
X7.189 Y-2.348 Z6.528
X7.211 Y-2.411 Z6.551
X7.231 Y-2.468 Z6.589
X7.247 Y-2.516 Z6.64
X7.259 Y-2.552 Z6.7
X7.267 Y-2.574 Z6.767
X7.27 Y-2.581 Z6.837
X2.73 F1000
X2.732 Y-2.574 Z6.767 F600
X2.74 Y-2.552 Z6.7
X2.752 Y-2.516 Z6.64
X2.769 Y-2.468 Z6.589
X2.788 Y-2.411 Z6.551
X2.81 Y-2.348 Z6.528
X2.833 Y-2.281 Z6.52
X2.936 Y-1.981
G3 X2.739 Y-1.577 I-0.3 J0.103
G2 X-1.577 Y2.739 I2.261 J6.577 F1000
G3 X-1.981 Y2.936 I-0.3 J-0.103 F600
G1 X-2.281 Y2.833
X-2.348 Y2.81 Z6.528
X-2.411 Y2.788 Z6.551
X-2.468 Y2.768 Z6.589
X-2.516 Y2.752 Z6.64
X-2.551 Y2.74 Z6.7
X-2.574 Y2.732 Z6.767
X-2.581 Y2.73 Z6.837
X-2.573 Y28.783 F1000
X-2.566 Y28.779 Z6.767 F600
X-2.545 Y28.769 Z6.7
X-2.511 Y28.753 Z6.64
X-2.465 Y28.731 Z6.589
X-2.411 Y28.705 Z6.551
X-2.351 Y28.675 Z6.528
X-2.287 Y28.645 Z6.52
X-2.001 Y28.507
G3 X-1.577 Y28.655 I0.138 J0.286
G2 X-1.316 Y29.114 I3.438 J-1.655 F1000
X0.361 Y30.55 I3.378 J-2.247
G3 X0.404 Y30.84 I-0.073 J0.159
G2 X-1.327 Y33.168 I4.772 J5.358
X-1.577 Y33.781 I6.079 J2.832
X-1.331 Y34.641 I0.73 J0.256
G3 X-0.981 Y35.463 I-0.592 J0.738
G2 X-1.005 Y36 I5.981 J0.537
G1 Y58
G2 X2 Y61.005 I3.005 J0
G1 X8
G2 X11.005 Y58 I0 J-3.005
G1 Y36
G2 X5.346 Y30.005 I-6.005 J0
G1 X8
G2 X11.005 Y27 I0 J-3.005
G1 Y5
G2 X-1.005 Y5 I-6.005 J0
G1 Y27
G2 X2 Y30.005 I3.005 J0
G1 X4.654
G2 X-0.981 Y35.463 I0.346 J5.995
X-0.839 Y35.718 I0.259 J0.023
G3 X-0.687 Y35.967 I-0.125 J0.247
G1 X-0.688 Y36
Y58
G2 X2 Y60.688 I2.688 J0
G1 X8
G2 X10.688 Y58 I0 J-2.688
G1 Y36
G2 X-0.687 Y35.967 I-5.688 J0
G3 X-1.007 Y36.283 I-0.317 J-0.002 F600
G1 X-1.324 Y36.281
X-1.395 Y36.28 Z6.528
X-1.462 Z6.551
X-1.522 Z6.589
X-1.572 Y36.279 Z6.64
X-1.61 Z6.7
X-1.634 Z6.767
X-1.642 Z6.837
X-3.489 Y29.836 F1000
X-3.482 Y29.832 Z6.767 F600
X-3.462 Y29.82 Z6.7
X-3.429 Y29.801 Z6.64
X-3.386 Y29.775 Z6.589
X-3.334 Y29.745 Z6.551
X-3.276 Y29.711 Z6.528
X-3.215 Y29.676 Z6.52
X-0.755 Y28.24
G3 X-0.321 Y28.355 I0.16 J0.274
G2 X2 Y29.688 I2.321 J-1.355 F1000
G1 X8
G2 X10.688 Y27 I0 J-2.688
G1 Y5
G2 X-0.688 Y5 I-5.688 J0
G1 Y27
G2 X-0.321 Y28.355 I2.688 J0
G3 X-0.435 Y28.789 I-0.274 J0.16 F600
G1 X-0.71 Y28.949
X-0.771 Y28.985 Z6.528
X-0.829 Y29.018 Z6.551
X-0.881 Y29.049 Z6.589
X-0.924 Y29.074 Z6.64
X-0.957 Y29.093 Z6.7
X-0.977 Y29.105 Z6.767
X-0.984 Y29.109 Z6.837
X-2.573 Y28.783 F1000
Z6.337 F300
X-2.566 Y28.779 Z6.267 F600
X-2.545 Y28.769 Z6.2
X-2.511 Y28.753 Z6.14
X-2.465 Y28.731 Z6.089
X-2.411 Y28.705 Z6.051
X-2.351 Y28.675 Z6.028
X-2.287 Y28.645 Z6.02
X-2.001 Y28.507
G3 X-1.577 Y28.655 I0.138 J0.286
G2 X-1.316 Y29.114 I3.438 J-1.655 F1000
X0.361 Y30.55 I3.378 J-2.247
G3 X0.404 Y30.84 I-0.073 J0.159
G2 X-1.327 Y33.168 I4.772 J5.358
X-1.577 Y33.781 I6.079 J2.832
G3 X-1.982 Y33.976 I-0.3 J-0.105 F600
G1 X-2.282 Y33.871
X-2.348 Y33.847 Z6.028
X-2.412 Y33.825 Z6.051
X-2.468 Y33.805 Z6.089
X-2.516 Y33.789 Z6.14
X-2.552 Y33.776 Z6.2
X-2.574 Y33.768 Z6.267
X-2.581 Y33.766 Z6.337
X-2.574 Y59.806 F1000
X-2.567 Y59.803 Z6.267 F600
X-2.546 Y59.793 Z6.2
X-2.511 Y59.777 Z6.14
X-2.466 Y59.755 Z6.089
X-2.411 Y59.73 Z6.051
X-2.351 Y59.701 Z6.028
X-2.287 Y59.671 Z6.02
X-2 Y59.535
G3 X-1.577 Y59.687 I0.135 J0.287
G2 X0.313 Y61.577 I3.577 J-1.687 F1000
G3 X0.465 Y62 I-0.135 J0.287 F600
G1 X0.33 Y62.287
X0.299 Y62.351 Z6.028
X0.271 Y62.412 Z6.051
X0.245 Y62.466 Z6.089
X0.224 Y62.512 Z6.14
X0.208 Y62.546 Z6.2
X0.198 Y62.567 Z6.267
X0.194 Y62.574 Z6.337
X9.806 F1000
X9.803 Y62.567 Z6.267 F600
X9.793 Y62.546 Z6.2
X9.777 Y62.511 Z6.14
X9.755 Y62.466 Z6.089
X9.73 Y62.411 Z6.051
X9.701 Y62.351 Z6.028
X9.671 Y62.287 Z6.02
X9.535 Y62
G3 X9.687 Y61.577 I0.287 J-0.135
G2 X11.955 Y58 I-1.687 J-3.577 F1000
G1 Y36
G2 X11.327 Y33.168 I-6.706 J0
X9.596 Y30.84 I-6.504 J3.031
G3 X9.639 Y30.55 I0.117 J-0.131
G2 X11.316 Y29.114 I-1.7 J-3.683
X11.955 Y27 I-3.177 J-2.114
G1 Y5
G2 X7.26 Y-1.577 I-6.955 J0
G3 X7.063 Y-1.981 I0.103 J-0.3 F600
G1 X7.166 Y-2.281
X7.189 Y-2.348 Z6.028
X7.211 Y-2.411 Z6.051
X7.231 Y-2.468 Z6.089
X7.247 Y-2.516 Z6.14
X7.259 Y-2.552 Z6.2
X7.267 Y-2.574 Z6.267
X7.27 Y-2.581 Z6.337
X2.73 F1000
X2.732 Y-2.574 Z6.267 F600
X2.74 Y-2.552 Z6.2
X2.752 Y-2.516 Z6.14
X2.769 Y-2.468 Z6.089
X2.788 Y-2.411 Z6.051
X2.81 Y-2.348 Z6.028
X2.833 Y-2.281 Z6.02
X2.936 Y-1.981
G3 X2.739 Y-1.577 I-0.3 J0.103
G2 X-1.577 Y2.739 I2.261 J6.577 F1000
X-1.328 Y3.606 I0.744 J0.256
G3 X-0.979 Y4.437 I-0.601 J0.742
G2 X-1.005 Y5 I5.979 J0.563
G1 Y27
G2 X2 Y30.005 I3.005 J0
G1 X4.654
G2 X-1.005 Y36 I0.346 J5.995
G1 Y58
G2 X2 Y61.005 I3.005 J0
G1 X8
G2 X11.005 Y58 I0 J-3.005
G1 Y36
G2 X5.346 Y30.005 I-6.005 J0
G1 X8
G2 X11.005 Y27 I0 J-3.005
G1 Y5
G2 X-0.979 Y4.437 I-6.005 J0
X-0.838 Y4.693 I0.259 J0.024
G3 X-0.687 Y4.943 I-0.126 J0.247
G1 X-0.688 Y5
Y27
G2 X2 Y29.688 I2.688 J0
G1 X8
G2 X10.688 Y27 I0 J-2.688
G1 Y5
G2 X-0.687 Y4.943 I-5.688 J0
G3 X-1.008 Y5.257 I-0.317 J-0.003 F600
G1 X-1.325 Y5.254
X-1.396 Y5.253 Z6.028
X-1.463 Y5.252 Z6.051
X-1.523 Z6.089
X-1.574 Y5.251 Z6.14
X-1.611 Z6.2
X-1.635 Z6.267
X-1.643 Z6.337
G0 Z18.02
X-3.241 Y61.397
Z11.02
G1 Z6.337 F300
X-3.234 Y61.392 Z6.267 F600
X-3.215 Y61.379 Z6.2
X-3.185 Y61.356 Z6.14
X-3.144 Y61.327 Z6.089
X-3.095 Y61.292 Z6.051
X-3.041 Y61.252 Z6.028
X-2.983 Y61.211 Z6.02
X-0.621 Y59.503
G3 X-0.178 Y59.575 I0.186 J0.257
G2 X2 Y60.688 I2.178 J-1.575 F1000
G1 X8
G2 X10.688 Y58 I0 J-2.688
G1 Y36
G2 X-0.688 Y36 I-5.688 J0
G1 Y58
G2 X-0.178 Y59.575 I2.688 J0
G3 X-0.249 Y60.018 I-0.257 J0.186 F600
G1 X-0.507 Y60.204
X-0.564 Y60.245 Z6.028
X-0.618 Y60.285 Z6.051
X-0.667 Y60.32 Z6.089
X-0.708 Y60.349 Z6.14
X-0.738 Y60.371 Z6.2
X-0.757 Y60.385 Z6.267
X-0.764 Y60.39 Z6.337
X-2.574 Y59.806 F1000
Z5.837 F300
X-2.567 Y59.803 Z5.767 F600
X-2.546 Y59.793 Z5.7
X-2.511 Y59.777 Z5.64
X-2.466 Y59.755 Z5.589
X-2.411 Y59.73 Z5.551
X-2.351 Y59.701 Z5.528
X-2.287 Y59.671 Z5.52
X-2 Y59.535
G3 X-1.577 Y59.687 I0.135 J0.287
G2 X0.313 Y61.577 I3.577 J-1.687 F1000
G3 X0.465 Y62 I-0.135 J0.287 F600
G1 X0.33 Y62.287
X0.299 Y62.351 Z5.528
X0.271 Y62.412 Z5.551
X0.245 Y62.466 Z5.589
X0.224 Y62.512 Z5.64
X0.208 Y62.546 Z5.7
X0.198 Y62.567 Z5.767
X0.194 Y62.574 Z5.837
X9.806 F1000
X9.803 Y62.567 Z5.767 F600
X9.793 Y62.546 Z5.7
X9.777 Y62.511 Z5.64
X9.755 Y62.466 Z5.589
X9.73 Y62.411 Z5.551
X9.701 Y62.351 Z5.528
X9.671 Y62.287 Z5.52
X9.535 Y62
G3 X9.687 Y61.577 I0.287 J-0.135
G2 X11.955 Y58 I-1.687 J-3.577 F1000
G1 Y36
G2 X11.327 Y33.168 I-6.706 J0
X9.596 Y30.84 I-6.504 J3.031
G3 X9.639 Y30.55 I0.117 J-0.131
G2 X11.316 Y29.114 I-1.7 J-3.683
X11.955 Y27 I-3.177 J-2.114
G1 Y5
G2 X7.26 Y-1.577 I-6.955 J0
G3 X7.063 Y-1.981 I0.103 J-0.3 F600
G1 X7.166 Y-2.281
X7.189 Y-2.348 Z5.528
X7.211 Y-2.411 Z5.551
X7.231 Y-2.468 Z5.589
X7.247 Y-2.516 Z5.64
X7.259 Y-2.552 Z5.7
X7.267 Y-2.574 Z5.767
X7.27 Y-2.581 Z5.837
X2.73 F1000
X2.732 Y-2.574 Z5.767 F600
X2.74 Y-2.552 Z5.7
X2.752 Y-2.516 Z5.64
X2.769 Y-2.468 Z5.589
X2.788 Y-2.411 Z5.551
X2.81 Y-2.348 Z5.528
X2.833 Y-2.281 Z5.52
X2.936 Y-1.981
G3 X2.739 Y-1.577 I-0.3 J0.103
G2 X-1.577 Y2.739 I2.261 J6.577 F1000
G3 X-1.981 Y2.936 I-0.3 J-0.103 F600
G1 X-2.281 Y2.833
X-2.348 Y2.81 Z5.528
X-2.411 Y2.788 Z5.551
X-2.468 Y2.768 Z5.589
X-2.516 Y2.752 Z5.64
X-2.551 Y2.74 Z5.7
X-2.574 Y2.732 Z5.767
X-2.581 Y2.73 Z5.837
X-2.573 Y28.783 F1000
X-2.566 Y28.779 Z5.767 F600
X-2.545 Y28.769 Z5.7
X-2.511 Y28.753 Z5.64
X-2.465 Y28.731 Z5.589
X-2.411 Y28.705 Z5.551
X-2.351 Y28.675 Z5.528
X-2.287 Y28.645 Z5.52
X-2.001 Y28.507
G3 X-1.577 Y28.655 I0.138 J0.286
G2 X-1.316 Y29.114 I3.438 J-1.655 F1000
X0.361 Y30.55 I3.378 J-2.247
G3 X0.404 Y30.84 I-0.073 J0.159
G2 X-1.327 Y33.168 I4.772 J5.358
X-1.577 Y33.781 I6.079 J2.832
X-1.331 Y34.641 I0.73 J0.256
G3 X-0.981 Y35.463 I-0.592 J0.738
G2 X-1.005 Y36 I5.981 J0.537
G1 Y58
G2 X2 Y61.005 I3.005 J0
G1 X8
G2 X11.005 Y58 I0 J-3.005
G1 Y36
G2 X5.346 Y30.005 I-6.005 J0
G1 X8
G2 X11.005 Y27 I0 J-3.005
G1 Y5
G2 X-1.005 Y5 I-6.005 J0
G1 Y27
G2 X2 Y30.005 I3.005 J0
G1 X4.654
G2 X-0.981 Y35.463 I0.346 J5.995
X-0.839 Y35.718 I0.259 J0.023
G3 X-0.687 Y35.967 I-0.125 J0.247
G1 X-0.688 Y36
Y58
G2 X2 Y60.688 I2.688 J0
G1 X8
G2 X10.688 Y58 I0 J-2.688
G1 Y36
G2 X-0.687 Y35.967 I-5.688 J0
G3 X-1.007 Y36.283 I-0.317 J-0.002 F600
G1 X-1.324 Y36.281
X-1.395 Y36.28 Z5.528
X-1.462 Z5.551
X-1.522 Z5.589
X-1.572 Y36.279 Z5.64
X-1.61 Z5.7
X-1.634 Z5.767
X-1.642 Z5.837
X-3.489 Y29.836 F1000
X-3.482 Y29.832 Z5.767 F600
X-3.462 Y29.82 Z5.7
X-3.429 Y29.801 Z5.64
X-3.386 Y29.775 Z5.589
X-3.334 Y29.745 Z5.551
X-3.276 Y29.711 Z5.528
X-3.215 Y29.676 Z5.52
X-0.755 Y28.24
G3 X-0.321 Y28.355 I0.16 J0.274
G2 X2 Y29.688 I2.321 J-1.355 F1000
G1 X8
G2 X10.688 Y27 I0 J-2.688
G1 Y5
G2 X-0.688 Y5 I-5.688 J0
G1 Y27
G2 X-0.321 Y28.355 I2.688 J0
G3 X-0.435 Y28.789 I-0.274 J0.16 F600
G1 X-0.71 Y28.949
X-0.771 Y28.985 Z5.528
X-0.829 Y29.018 Z5.551
X-0.881 Y29.049 Z5.589
X-0.924 Y29.074 Z5.64
X-0.957 Y29.093 Z5.7
X-0.977 Y29.105 Z5.767
X-0.984 Y29.109 Z5.837
X-2.573 Y28.783 F1000
Z5.337 F300
X-2.566 Y28.779 Z5.267 F600
X-2.545 Y28.769 Z5.2
X-2.511 Y28.753 Z5.14
X-2.465 Y28.731 Z5.089
X-2.411 Y28.705 Z5.051
X-2.351 Y28.675 Z5.028
X-2.287 Y28.645 Z5.02
X-2.001 Y28.507
G3 X-1.577 Y28.655 I0.138 J0.286
G2 X-1.316 Y29.114 I3.438 J-1.655 F1000
X0.361 Y30.55 I3.378 J-2.247
G3 X0.404 Y30.84 I-0.073 J0.159
G2 X-1.327 Y33.168 I4.772 J5.358
X-1.577 Y33.781 I6.079 J2.832
G3 X-1.982 Y33.976 I-0.3 J-0.105 F600
G1 X-2.282 Y33.871
X-2.348 Y33.847 Z5.028
X-2.412 Y33.825 Z5.051
X-2.468 Y33.805 Z5.089
X-2.516 Y33.789 Z5.14
X-2.552 Y33.776 Z5.2
X-2.574 Y33.768 Z5.267
X-2.581 Y33.766 Z5.337
X-2.574 Y59.806 F1000
X-2.567 Y59.803 Z5.267 F600
X-2.546 Y59.793 Z5.2
X-2.511 Y59.777 Z5.14
X-2.466 Y59.755 Z5.089
X-2.411 Y59.73 Z5.051
X-2.351 Y59.701 Z5.028
X-2.287 Y59.671 Z5.02
X-2 Y59.535
G3 X-1.577 Y59.687 I0.135 J0.287
G2 X0.313 Y61.577 I3.577 J-1.687 F1000
G3 X0.465 Y62 I-0.135 J0.287 F600
G1 X0.33 Y62.287
X0.299 Y62.351 Z5.028
X0.271 Y62.412 Z5.051
X0.245 Y62.466 Z5.089
X0.224 Y62.512 Z5.14
X0.208 Y62.546 Z5.2
X0.198 Y62.567 Z5.267
X0.194 Y62.574 Z5.337
X9.806 F1000
X9.803 Y62.567 Z5.267 F600
X9.793 Y62.546 Z5.2
X9.777 Y62.511 Z5.14
X9.755 Y62.466 Z5.089
X9.73 Y62.411 Z5.051
X9.701 Y62.351 Z5.028
X9.671 Y62.287 Z5.02
X9.535 Y62
G3 X9.687 Y61.577 I0.287 J-0.135
G2 X11.955 Y58 I-1.687 J-3.577 F1000
G1 Y36
G2 X11.327 Y33.168 I-6.706 J0
X9.596 Y30.84 I-6.504 J3.031
G3 X9.639 Y30.55 I0.117 J-0.131
G2 X11.316 Y29.114 I-1.7 J-3.683
X11.955 Y27 I-3.177 J-2.114
G1 Y5
G2 X7.26 Y-1.577 I-6.955 J0
G3 X7.063 Y-1.981 I0.103 J-0.3 F600
G1 X7.166 Y-2.281
X7.189 Y-2.348 Z5.028
X7.211 Y-2.411 Z5.051
X7.231 Y-2.468 Z5.089
X7.247 Y-2.516 Z5.14
X7.259 Y-2.552 Z5.2
X7.267 Y-2.574 Z5.267
X7.27 Y-2.581 Z5.337
X2.73 F1000
X2.732 Y-2.574 Z5.267 F600
X2.74 Y-2.552 Z5.2
X2.752 Y-2.516 Z5.14
X2.769 Y-2.468 Z5.089
X2.788 Y-2.411 Z5.051
X2.81 Y-2.348 Z5.028
X2.833 Y-2.281 Z5.02
X2.936 Y-1.981
G3 X2.739 Y-1.577 I-0.3 J0.103
G2 X-1.577 Y2.739 I2.261 J6.577 F1000
X-1.328 Y3.606 I0.744 J0.256
G3 X-0.979 Y4.437 I-0.601 J0.742
G2 X-1.005 Y5 I5.979 J0.563
G1 Y27
G2 X2 Y30.005 I3.005 J0
G1 X4.654
G2 X-1.005 Y36 I0.346 J5.995
G1 Y58
G2 X2 Y61.005 I3.005 J0
G1 X8
G2 X11.005 Y58 I0 J-3.005
G1 Y36
G2 X5.346 Y30.005 I-6.005 J0
G1 X8
G2 X11.005 Y27 I0 J-3.005
G1 Y5
G2 X-0.979 Y4.437 I-6.005 J0
X-0.838 Y4.693 I0.259 J0.024
G3 X-0.687 Y4.943 I-0.126 J0.247
G1 X-0.688 Y5
Y27
G2 X2 Y29.688 I2.688 J0
G1 X8
G2 X10.688 Y27 I0 J-2.688
G1 Y5
G2 X-0.687 Y4.943 I-5.688 J0
G3 X-1.008 Y5.257 I-0.317 J-0.003 F600
G1 X-1.325 Y5.254
X-1.396 Y5.253 Z5.028
X-1.463 Y5.252 Z5.051
X-1.523 Z5.089
X-1.574 Y5.251 Z5.14
X-1.611 Z5.2
X-1.635 Z5.267
X-1.643 Z5.337
G0 Z18.02
X-3.241 Y61.397
Z11.02
G1 Z5.337 F300
X-3.234 Y61.392 Z5.267 F600
X-3.215 Y61.379 Z5.2
X-3.185 Y61.356 Z5.14
X-3.144 Y61.327 Z5.089
X-3.095 Y61.292 Z5.051
X-3.041 Y61.252 Z5.028
X-2.983 Y61.211 Z5.02
X-0.621 Y59.503
G3 X-0.178 Y59.575 I0.186 J0.257
G2 X2 Y60.688 I2.178 J-1.575 F1000
G1 X8
G2 X10.688 Y58 I0 J-2.688
G1 Y36
G2 X-0.688 Y36 I-5.688 J0
G1 Y58
G2 X-0.178 Y59.575 I2.688 J0
G3 X-0.249 Y60.018 I-0.257 J0.186 F600
G1 X-0.507 Y60.204
X-0.564 Y60.245 Z5.028
X-0.618 Y60.285 Z5.051
X-0.667 Y60.32 Z5.089
X-0.708 Y60.349 Z5.14
X-0.738 Y60.371 Z5.2
X-0.757 Y60.385 Z5.267
X-0.764 Y60.39 Z5.337
X-2.574 Y59.806 F1000
Z4.837 F300
X-2.567 Y59.803 Z4.767 F600
X-2.546 Y59.793 Z4.7
X-2.511 Y59.777 Z4.64
X-2.466 Y59.755 Z4.589
X-2.411 Y59.73 Z4.551
X-2.351 Y59.701 Z4.528
X-2.287 Y59.671 Z4.52
X-2 Y59.535
G3 X-1.577 Y59.687 I0.135 J0.287
G2 X0.313 Y61.577 I3.577 J-1.687 F1000
G3 X0.465 Y62 I-0.135 J0.287 F600
G1 X0.33 Y62.287
X0.299 Y62.351 Z4.528
X0.271 Y62.412 Z4.551
X0.245 Y62.466 Z4.589
X0.224 Y62.512 Z4.64
X0.208 Y62.546 Z4.7
X0.198 Y62.567 Z4.767
X0.194 Y62.574 Z4.837
X9.806 F1000
X9.803 Y62.567 Z4.767 F600
X9.793 Y62.546 Z4.7
X9.777 Y62.511 Z4.64
X9.755 Y62.466 Z4.589
X9.73 Y62.411 Z4.551
X9.701 Y62.351 Z4.528
X9.671 Y62.287 Z4.52
X9.535 Y62
G3 X9.687 Y61.577 I0.287 J-0.135
G2 X11.955 Y58 I-1.687 J-3.577 F1000
G1 Y36
G2 X11.327 Y33.168 I-6.706 J0
X9.596 Y30.84 I-6.504 J3.031
G3 X9.639 Y30.55 I0.117 J-0.131
G2 X11.316 Y29.114 I-1.7 J-3.683
X11.955 Y27 I-3.177 J-2.114
G1 Y5
G2 X7.26 Y-1.577 I-6.955 J0
G3 X7.063 Y-1.981 I0.103 J-0.3 F600
G1 X7.166 Y-2.281
X7.189 Y-2.348 Z4.528
X7.211 Y-2.411 Z4.551
X7.231 Y-2.468 Z4.589
X7.247 Y-2.516 Z4.64
X7.259 Y-2.552 Z4.7
X7.267 Y-2.574 Z4.767
X7.27 Y-2.581 Z4.837
X2.73 F1000
X2.732 Y-2.574 Z4.767 F600
X2.74 Y-2.552 Z4.7
X2.752 Y-2.516 Z4.64
X2.769 Y-2.468 Z4.589
X2.788 Y-2.411 Z4.551
X2.81 Y-2.348 Z4.528
X2.833 Y-2.281 Z4.52
X2.936 Y-1.981
G3 X2.739 Y-1.577 I-0.3 J0.103
G2 X-1.577 Y2.739 I2.261 J6.577 F1000
G3 X-1.981 Y2.936 I-0.3 J-0.103 F600
G1 X-2.281 Y2.833
X-2.348 Y2.81 Z4.528
X-2.411 Y2.788 Z4.551
X-2.468 Y2.768 Z4.589
X-2.516 Y2.752 Z4.64
X-2.551 Y2.74 Z4.7
X-2.574 Y2.732 Z4.767
X-2.581 Y2.73 Z4.837
X-2.573 Y28.783 F1000
X-2.566 Y28.779 Z4.767 F600
X-2.545 Y28.769 Z4.7
X-2.511 Y28.753 Z4.64
X-2.465 Y28.731 Z4.589
X-2.411 Y28.705 Z4.551
X-2.351 Y28.675 Z4.528
X-2.287 Y28.645 Z4.52
X-2.001 Y28.507
G3 X-1.577 Y28.655 I0.138 J0.286
G2 X-1.316 Y29.114 I3.438 J-1.655 F1000
X0.361 Y30.55 I3.378 J-2.247
G3 X0.404 Y30.84 I-0.073 J0.159
G2 X-1.327 Y33.168 I4.772 J5.358
X-1.577 Y33.781 I6.079 J2.832
X-1.331 Y34.641 I0.73 J0.256
G3 X-0.981 Y35.463 I-0.592 J0.738
G2 X-1.005 Y36 I5.981 J0.537
G1 Y58
G2 X2 Y61.005 I3.005 J0
G1 X8
G2 X11.005 Y58 I0 J-3.005
G1 Y36
G2 X5.346 Y30.005 I-6.005 J0
G1 X8
G2 X11.005 Y27 I0 J-3.005
G1 Y5
G2 X-1.005 Y5 I-6.005 J0
G1 Y27
G2 X2 Y30.005 I3.005 J0
G1 X4.654
G2 X-0.981 Y35.463 I0.346 J5.995
X-0.839 Y35.718 I0.259 J0.023
G3 X-0.687 Y35.967 I-0.125 J0.247
G1 X-0.688 Y36
Y58
G2 X2 Y60.688 I2.688 J0
G1 X8
G2 X10.688 Y58 I0 J-2.688
G1 Y36
G2 X-0.687 Y35.967 I-5.688 J0
G3 X-1.007 Y36.283 I-0.317 J-0.002 F600
G1 X-1.324 Y36.281
X-1.395 Y36.28 Z4.528
X-1.462 Z4.551
X-1.522 Z4.589
X-1.572 Y36.279 Z4.64
X-1.61 Z4.7
X-1.634 Z4.767
X-1.642 Z4.837
X-3.489 Y29.836 F1000
X-3.482 Y29.832 Z4.767 F600
X-3.462 Y29.82 Z4.7
X-3.429 Y29.801 Z4.64
X-3.386 Y29.775 Z4.589
X-3.334 Y29.745 Z4.551
X-3.276 Y29.711 Z4.528
X-3.215 Y29.676 Z4.52
X-0.755 Y28.24
G3 X-0.321 Y28.355 I0.16 J0.274
G2 X2 Y29.688 I2.321 J-1.355 F1000
G1 X8
G2 X10.688 Y27 I0 J-2.688
G1 Y5
G2 X-0.688 Y5 I-5.688 J0
G1 Y27
G2 X-0.321 Y28.355 I2.688 J0
G3 X-0.435 Y28.789 I-0.274 J0.16 F600
G1 X-0.71 Y28.949
X-0.771 Y28.985 Z4.528
X-0.829 Y29.018 Z4.551
X-0.881 Y29.049 Z4.589
X-0.924 Y29.074 Z4.64
X-0.957 Y29.093 Z4.7
X-0.977 Y29.105 Z4.767
X-0.984 Y29.109 Z4.837
X-2.573 Y28.783 F1000
Z4.337 F300
X-2.566 Y28.779 Z4.267 F600
X-2.545 Y28.769 Z4.2
X-2.511 Y28.753 Z4.14
X-2.465 Y28.731 Z4.089
X-2.411 Y28.705 Z4.051
X-2.351 Y28.675 Z4.028
X-2.287 Y28.645 Z4.02
X-2.001 Y28.507
G3 X-1.577 Y28.655 I0.138 J0.286
G2 X-1.316 Y29.114 I3.438 J-1.655 F1000
X0.361 Y30.55 I3.378 J-2.247
G3 X0.404 Y30.84 I-0.073 J0.159
G2 X-1.327 Y33.168 I4.772 J5.358
X-1.577 Y33.781 I6.079 J2.832
G3 X-1.982 Y33.976 I-0.3 J-0.105 F600
G1 X-2.282 Y33.871
X-2.348 Y33.847 Z4.028
X-2.412 Y33.825 Z4.051
X-2.468 Y33.805 Z4.089
X-2.516 Y33.789 Z4.14
X-2.552 Y33.776 Z4.2
X-2.574 Y33.768 Z4.267
X-2.581 Y33.766 Z4.337
X-2.574 Y59.806 F1000
X-2.567 Y59.803 Z4.267 F600
X-2.546 Y59.793 Z4.2
X-2.511 Y59.777 Z4.14
X-2.466 Y59.755 Z4.089
X-2.411 Y59.73 Z4.051
X-2.351 Y59.701 Z4.028
X-2.287 Y59.671 Z4.02
X-2 Y59.535
G3 X-1.577 Y59.687 I0.135 J0.287
G2 X0.313 Y61.577 I3.577 J-1.687 F1000
G3 X0.465 Y62 I-0.135 J0.287 F600
G1 X0.33 Y62.287
X0.299 Y62.351 Z4.028
X0.271 Y62.412 Z4.051
X0.245 Y62.466 Z4.089
X0.224 Y62.512 Z4.14
X0.208 Y62.546 Z4.2
X0.198 Y62.567 Z4.267
X0.194 Y62.574 Z4.337
X9.806 F1000
X9.803 Y62.567 Z4.267 F600
X9.793 Y62.546 Z4.2
X9.777 Y62.511 Z4.14
X9.755 Y62.466 Z4.089
X9.73 Y62.411 Z4.051
X9.701 Y62.351 Z4.028
X9.671 Y62.287 Z4.02
X9.535 Y62
G3 X9.687 Y61.577 I0.287 J-0.135
G2 X11.955 Y58 I-1.687 J-3.577 F1000
G1 Y36
G2 X11.327 Y33.168 I-6.706 J0
X9.596 Y30.84 I-6.504 J3.031
G3 X9.639 Y30.55 I0.117 J-0.131
G2 X11.316 Y29.114 I-1.7 J-3.683
X11.955 Y27 I-3.177 J-2.114
G1 Y5
G2 X7.26 Y-1.577 I-6.955 J0
G3 X7.063 Y-1.981 I0.103 J-0.3 F600
G1 X7.166 Y-2.281
X7.189 Y-2.348 Z4.028
X7.211 Y-2.411 Z4.051
X7.231 Y-2.468 Z4.089
X7.247 Y-2.516 Z4.14
X7.259 Y-2.552 Z4.2
X7.267 Y-2.574 Z4.267
X7.27 Y-2.581 Z4.337
X2.73 F1000
X2.732 Y-2.574 Z4.267 F600
X2.74 Y-2.552 Z4.2
X2.752 Y-2.516 Z4.14
X2.769 Y-2.468 Z4.089
X2.788 Y-2.411 Z4.051
X2.81 Y-2.348 Z4.028
X2.833 Y-2.281 Z4.02
X2.936 Y-1.981
G3 X2.739 Y-1.577 I-0.3 J0.103
G2 X-1.577 Y2.739 I2.261 J6.577 F1000
X-1.328 Y3.606 I0.744 J0.256
G3 X-0.979 Y4.437 I-0.601 J0.742
G2 X-1.005 Y5 I5.979 J0.563
G1 Y27
G2 X2 Y30.005 I3.005 J0
G1 X4.654
G2 X-1.005 Y36 I0.346 J5.995
G1 Y58
G2 X2 Y61.005 I3.005 J0
G1 X8
G2 X11.005 Y58 I0 J-3.005
G1 Y36
G2 X5.346 Y30.005 I-6.005 J0
G1 X8
G2 X11.005 Y27 I0 J-3.005
G1 Y5
G2 X-0.979 Y4.437 I-6.005 J0
X-0.838 Y4.693 I0.259 J0.024
G3 X-0.687 Y4.943 I-0.126 J0.247
G1 X-0.688 Y5
Y27
G2 X2 Y29.688 I2.688 J0
G1 X8
G2 X10.688 Y27 I0 J-2.688
G1 Y5
G2 X-0.687 Y4.943 I-5.688 J0
G3 X-1.008 Y5.257 I-0.317 J-0.003 F600
G1 X-1.325 Y5.254
X-1.396 Y5.253 Z4.028
X-1.463 Y5.252 Z4.051
X-1.523 Z4.089
X-1.574 Y5.251 Z4.14
X-1.611 Z4.2
X-1.635 Z4.267
X-1.643 Z4.337
G0 Z18.02
X-3.241 Y61.397
Z11.02
G1 Z4.337 F300
X-3.234 Y61.392 Z4.267 F600
X-3.215 Y61.379 Z4.2
X-3.185 Y61.356 Z4.14
X-3.144 Y61.327 Z4.089
X-3.095 Y61.292 Z4.051
X-3.041 Y61.252 Z4.028
X-2.983 Y61.211 Z4.02
X-0.621 Y59.503
G3 X-0.178 Y59.575 I0.186 J0.257
G2 X2 Y60.688 I2.178 J-1.575 F1000
G1 X8
G2 X10.688 Y58 I0 J-2.688
G1 Y36
G2 X-0.688 Y36 I-5.688 J0
G1 Y58
G2 X-0.178 Y59.575 I2.688 J0
G3 X-0.249 Y60.018 I-0.257 J0.186 F600
G1 X-0.507 Y60.204
X-0.564 Y60.245 Z4.028
X-0.618 Y60.285 Z4.051
X-0.667 Y60.32 Z4.089
X-0.708 Y60.349 Z4.14
X-0.738 Y60.371 Z4.2
X-0.757 Y60.385 Z4.267
X-0.764 Y60.39 Z4.337
X-2.574 Y59.806 F1000
Z3.837 F300
X-2.567 Y59.803 Z3.767 F600
X-2.546 Y59.793 Z3.7
X-2.511 Y59.777 Z3.64
X-2.466 Y59.755 Z3.589
X-2.411 Y59.73 Z3.551
X-2.351 Y59.701 Z3.528
X-2.287 Y59.671 Z3.52
X-2 Y59.535
G3 X-1.577 Y59.687 I0.135 J0.287
G2 X0.313 Y61.577 I3.577 J-1.687 F1000
G3 X0.465 Y62 I-0.135 J0.287 F600
G1 X0.33 Y62.287
X0.299 Y62.351 Z3.528
X0.271 Y62.412 Z3.551
X0.245 Y62.466 Z3.589
X0.224 Y62.512 Z3.64
X0.208 Y62.546 Z3.7
X0.198 Y62.567 Z3.767
X0.194 Y62.574 Z3.837
X9.806 F1000
X9.803 Y62.567 Z3.767 F600
X9.793 Y62.546 Z3.7
X9.777 Y62.511 Z3.64
X9.755 Y62.466 Z3.589
X9.73 Y62.411 Z3.551
X9.701 Y62.351 Z3.528
X9.671 Y62.287 Z3.52
X9.535 Y62
G3 X9.687 Y61.577 I0.287 J-0.135
G2 X11.955 Y58 I-1.687 J-3.577 F1000
G1 Y36
G2 X11.327 Y33.168 I-6.706 J0
X9.596 Y30.84 I-6.504 J3.031
G3 X9.639 Y30.55 I0.117 J-0.131
G2 X11.316 Y29.114 I-1.7 J-3.683
X11.955 Y27 I-3.177 J-2.114
G1 Y5
G2 X7.26 Y-1.577 I-6.955 J0
G3 X7.063 Y-1.981 I0.103 J-0.3 F600
G1 X7.166 Y-2.281
X7.189 Y-2.348 Z3.528
X7.211 Y-2.411 Z3.551
X7.231 Y-2.468 Z3.589
X7.247 Y-2.516 Z3.64
X7.259 Y-2.552 Z3.7
X7.267 Y-2.574 Z3.767
X7.27 Y-2.581 Z3.837
X2.73 F1000
X2.732 Y-2.574 Z3.767 F600
X2.74 Y-2.552 Z3.7
X2.752 Y-2.516 Z3.64
X2.769 Y-2.468 Z3.589
X2.788 Y-2.411 Z3.551
X2.81 Y-2.348 Z3.528
X2.833 Y-2.281 Z3.52
X2.936 Y-1.981
G3 X2.739 Y-1.577 I-0.3 J0.103
G2 X-1.577 Y2.739 I2.261 J6.577 F1000
G3 X-1.981 Y2.936 I-0.3 J-0.103 F600
G1 X-2.281 Y2.833
X-2.348 Y2.81 Z3.528
X-2.411 Y2.788 Z3.551
X-2.468 Y2.768 Z3.589
X-2.516 Y2.752 Z3.64
X-2.551 Y2.74 Z3.7
X-2.574 Y2.732 Z3.767
X-2.581 Y2.73 Z3.837
X-2.573 Y28.783 F1000
X-2.566 Y28.779 Z3.767 F600
X-2.545 Y28.769 Z3.7
X-2.511 Y28.753 Z3.64
X-2.465 Y28.731 Z3.589
X-2.411 Y28.705 Z3.551
X-2.351 Y28.675 Z3.528
X-2.287 Y28.645 Z3.52
X-2.001 Y28.507
G3 X-1.577 Y28.655 I0.138 J0.286
G2 X-1.316 Y29.114 I3.438 J-1.655 F1000
X0.361 Y30.55 I3.378 J-2.247
G3 X0.404 Y30.84 I-0.073 J0.159
G2 X-1.327 Y33.168 I4.772 J5.358
X-1.577 Y33.781 I6.079 J2.832
X-1.331 Y34.641 I0.73 J0.256
G3 X-0.981 Y35.463 I-0.592 J0.738
G2 X-1.005 Y36 I5.981 J0.537
G1 Y58
G2 X2 Y61.005 I3.005 J0
G1 X8
G2 X11.005 Y58 I0 J-3.005
G1 Y36
G2 X5.346 Y30.005 I-6.005 J0
G1 X8
G2 X11.005 Y27 I0 J-3.005
G1 Y5
G2 X-1.005 Y5 I-6.005 J0
G1 Y27
G2 X2 Y30.005 I3.005 J0
G1 X4.654
G2 X-0.981 Y35.463 I0.346 J5.995
X-0.839 Y35.718 I0.259 J0.023
G3 X-0.687 Y35.967 I-0.125 J0.247
G1 X-0.688 Y36
Y58
G2 X2 Y60.688 I2.688 J0
G1 X8
G2 X10.688 Y58 I0 J-2.688
G1 Y36
G2 X-0.687 Y35.967 I-5.688 J0
G3 X-1.007 Y36.283 I-0.317 J-0.002 F600
G1 X-1.324 Y36.281
X-1.395 Y36.28 Z3.528
X-1.462 Z3.551
X-1.522 Z3.589
X-1.572 Y36.279 Z3.64
X-1.61 Z3.7
X-1.634 Z3.767
X-1.642 Z3.837
X-3.489 Y29.836 F1000
X-3.482 Y29.832 Z3.767 F600
X-3.462 Y29.82 Z3.7
X-3.429 Y29.801 Z3.64
X-3.386 Y29.775 Z3.589
X-3.334 Y29.745 Z3.551
X-3.276 Y29.711 Z3.528
X-3.215 Y29.676 Z3.52
X-0.755 Y28.24
G3 X-0.321 Y28.355 I0.16 J0.274
G2 X2 Y29.688 I2.321 J-1.355 F1000
G1 X8
G2 X10.688 Y27 I0 J-2.688
G1 Y5
G2 X-0.688 Y5 I-5.688 J0
G1 Y27
G2 X-0.321 Y28.355 I2.688 J0
G3 X-0.435 Y28.789 I-0.274 J0.16 F600
G1 X-0.71 Y28.949
X-0.771 Y28.985 Z3.528
X-0.829 Y29.018 Z3.551
X-0.881 Y29.049 Z3.589
X-0.924 Y29.074 Z3.64
X-0.957 Y29.093 Z3.7
X-0.977 Y29.105 Z3.767
X-0.984 Y29.109 Z3.837
X-2.573 Y28.783 F1000
Z3.337 F300
X-2.566 Y28.779 Z3.267 F600
X-2.545 Y28.769 Z3.2
X-2.511 Y28.753 Z3.14
X-2.465 Y28.731 Z3.089
X-2.411 Y28.705 Z3.051
X-2.351 Y28.675 Z3.028
X-2.287 Y28.645 Z3.02
X-2.001 Y28.507
G3 X-1.577 Y28.655 I0.138 J0.286
G2 X-1.316 Y29.114 I3.438 J-1.655 F1000
X0.361 Y30.55 I3.378 J-2.247
G3 X0.404 Y30.84 I-0.073 J0.159
G2 X-1.327 Y33.168 I4.772 J5.358
X-1.577 Y33.781 I6.079 J2.832
G3 X-1.982 Y33.976 I-0.3 J-0.105 F600
G1 X-2.282 Y33.871
X-2.348 Y33.847 Z3.028
X-2.412 Y33.825 Z3.051
X-2.468 Y33.805 Z3.089
X-2.516 Y33.789 Z3.14
X-2.552 Y33.776 Z3.2
X-2.574 Y33.768 Z3.267
X-2.581 Y33.766 Z3.337
X-2.574 Y59.806 F1000
X-2.567 Y59.803 Z3.267 F600
X-2.546 Y59.793 Z3.2
X-2.511 Y59.777 Z3.14
X-2.466 Y59.755 Z3.089
X-2.411 Y59.73 Z3.051
X-2.351 Y59.701 Z3.028
X-2.287 Y59.671 Z3.02
X-2 Y59.535
G3 X-1.577 Y59.687 I0.135 J0.287
G2 X0.313 Y61.577 I3.577 J-1.687 F1000
G3 X0.465 Y62 I-0.135 J0.287 F600
G1 X0.33 Y62.287
X0.299 Y62.351 Z3.028
X0.271 Y62.412 Z3.051
X0.245 Y62.466 Z3.089
X0.224 Y62.512 Z3.14
X0.208 Y62.546 Z3.2
X0.198 Y62.567 Z3.267
X0.194 Y62.574 Z3.337
X9.806 F1000
X9.803 Y62.567 Z3.267 F600
X9.793 Y62.546 Z3.2
X9.777 Y62.511 Z3.14
X9.755 Y62.466 Z3.089
X9.73 Y62.411 Z3.051
X9.701 Y62.351 Z3.028
X9.671 Y62.287 Z3.02
X9.535 Y62
G3 X9.687 Y61.577 I0.287 J-0.135
G2 X11.955 Y58 I-1.687 J-3.577 F1000
G1 Y36
G2 X11.327 Y33.168 I-6.706 J0
X9.596 Y30.84 I-6.504 J3.031
G3 X9.639 Y30.55 I0.117 J-0.131
G2 X11.316 Y29.114 I-1.7 J-3.683
X11.955 Y27 I-3.177 J-2.114
G1 Y5
G2 X7.26 Y-1.577 I-6.955 J0
G3 X7.063 Y-1.981 I0.103 J-0.3 F600
G1 X7.166 Y-2.281
X7.189 Y-2.348 Z3.028
X7.211 Y-2.411 Z3.051
X7.231 Y-2.468 Z3.089
X7.247 Y-2.516 Z3.14
X7.259 Y-2.552 Z3.2
X7.267 Y-2.574 Z3.267
X7.27 Y-2.581 Z3.337
X2.73 F1000
X2.732 Y-2.574 Z3.267 F600
X2.74 Y-2.552 Z3.2
X2.752 Y-2.516 Z3.14
X2.769 Y-2.468 Z3.089
X2.788 Y-2.411 Z3.051
X2.81 Y-2.348 Z3.028
X2.833 Y-2.281 Z3.02
X2.936 Y-1.981
G3 X2.739 Y-1.577 I-0.3 J0.103
G2 X-1.577 Y2.739 I2.261 J6.577 F1000
X-1.328 Y3.606 I0.744 J0.256
G3 X-0.979 Y4.437 I-0.601 J0.742
G2 X-1.005 Y5 I5.979 J0.563
G1 Y27
G2 X2 Y30.005 I3.005 J0
G1 X4.654
G2 X-1.005 Y36 I0.346 J5.995
G1 Y58
G2 X2 Y61.005 I3.005 J0
G1 X8
G2 X11.005 Y58 I0 J-3.005
G1 Y36
G2 X5.346 Y30.005 I-6.005 J0
G1 X8
G2 X11.005 Y27 I0 J-3.005
G1 Y5
G2 X-0.979 Y4.437 I-6.005 J0
X-0.838 Y4.693 I0.259 J0.024
G3 X-0.687 Y4.943 I-0.126 J0.247
G1 X-0.688 Y5
Y27
G2 X2 Y29.688 I2.688 J0
G1 X8
G2 X10.688 Y27 I0 J-2.688
G1 Y5
G2 X-0.687 Y4.943 I-5.688 J0
G3 X-1.008 Y5.257 I-0.317 J-0.003 F600
G1 X-1.325 Y5.254
X-1.396 Y5.253 Z3.028
X-1.463 Y5.252 Z3.051
X-1.523 Z3.089
X-1.574 Y5.251 Z3.14
X-1.611 Z3.2
X-1.635 Z3.267
X-1.643 Z3.337
G0 Z18.02
X-3.241 Y61.397
Z11.02
G1 Z3.337 F300
X-3.234 Y61.392 Z3.267 F600
X-3.215 Y61.379 Z3.2
X-3.185 Y61.356 Z3.14
X-3.144 Y61.327 Z3.089
X-3.095 Y61.292 Z3.051
X-3.041 Y61.252 Z3.028
X-2.983 Y61.211 Z3.02
X-0.621 Y59.503
G3 X-0.178 Y59.575 I0.186 J0.257
G2 X2 Y60.688 I2.178 J-1.575 F1000
G1 X8
G2 X10.688 Y58 I0 J-2.688
G1 Y36
G2 X-0.688 Y36 I-5.688 J0
G1 Y58
G2 X-0.178 Y59.575 I2.688 J0
G3 X-0.249 Y60.018 I-0.257 J0.186 F600
G1 X-0.507 Y60.204
X-0.564 Y60.245 Z3.028
X-0.618 Y60.285 Z3.051
X-0.667 Y60.32 Z3.089
X-0.708 Y60.349 Z3.14
X-0.738 Y60.371 Z3.2
X-0.757 Y60.385 Z3.267
X-0.764 Y60.39 Z3.337
X-2.574 Y59.806 F1000
Z2.837 F300
X-2.567 Y59.803 Z2.767 F600
X-2.546 Y59.793 Z2.7
X-2.511 Y59.777 Z2.64
X-2.466 Y59.755 Z2.589
X-2.411 Y59.73 Z2.551
X-2.351 Y59.701 Z2.528
X-2.287 Y59.671 Z2.52
X-2 Y59.535
G3 X-1.577 Y59.687 I0.135 J0.287
G2 X0.313 Y61.577 I3.577 J-1.687 F1000
G3 X0.465 Y62 I-0.135 J0.287 F600
G1 X0.33 Y62.287
X0.299 Y62.351 Z2.528
X0.271 Y62.412 Z2.551
X0.245 Y62.466 Z2.589
X0.224 Y62.512 Z2.64
X0.208 Y62.546 Z2.7
X0.198 Y62.567 Z2.767
X0.194 Y62.574 Z2.837
X9.806 F1000
X9.803 Y62.567 Z2.767 F600
X9.793 Y62.546 Z2.7
X9.777 Y62.511 Z2.64
X9.755 Y62.466 Z2.589
X9.73 Y62.411 Z2.551
X9.701 Y62.351 Z2.528
X9.671 Y62.287 Z2.52
X9.535 Y62
G3 X9.687 Y61.577 I0.287 J-0.135
G2 X11.955 Y58 I-1.687 J-3.577 F1000
G1 Y36
G2 X11.327 Y33.168 I-6.706 J0
X9.596 Y30.84 I-6.504 J3.031
G3 X9.639 Y30.55 I0.117 J-0.131
G2 X11.316 Y29.114 I-1.7 J-3.683
X11.955 Y27 I-3.177 J-2.114
G1 Y5
G2 X7.26 Y-1.577 I-6.955 J0
G3 X7.063 Y-1.981 I0.103 J-0.3 F600
G1 X7.166 Y-2.281
X7.189 Y-2.348 Z2.528
X7.211 Y-2.411 Z2.551
X7.231 Y-2.468 Z2.589
X7.247 Y-2.516 Z2.64
X7.259 Y-2.552 Z2.7
X7.267 Y-2.574 Z2.767
X7.27 Y-2.581 Z2.837
X2.73 F1000
X2.732 Y-2.574 Z2.767 F600
X2.74 Y-2.552 Z2.7
X2.752 Y-2.516 Z2.64
X2.769 Y-2.468 Z2.589
X2.788 Y-2.411 Z2.551
X2.81 Y-2.348 Z2.528
X2.833 Y-2.281 Z2.52
X2.936 Y-1.981
G3 X2.739 Y-1.577 I-0.3 J0.103
G2 X-1.577 Y2.739 I2.261 J6.577 F1000
G3 X-1.981 Y2.936 I-0.3 J-0.103 F600
G1 X-2.281 Y2.833
X-2.348 Y2.81 Z2.528
X-2.411 Y2.788 Z2.551
X-2.468 Y2.768 Z2.589
X-2.516 Y2.752 Z2.64
X-2.551 Y2.74 Z2.7
X-2.574 Y2.732 Z2.767
X-2.581 Y2.73 Z2.837
X-2.573 Y28.783 F1000
X-2.566 Y28.779 Z2.767 F600
X-2.545 Y28.769 Z2.7
X-2.511 Y28.753 Z2.64
X-2.465 Y28.731 Z2.589
X-2.411 Y28.705 Z2.551
X-2.351 Y28.675 Z2.528
X-2.287 Y28.645 Z2.52
X-2.001 Y28.507
G3 X-1.577 Y28.655 I0.138 J0.286
G2 X-1.316 Y29.114 I3.438 J-1.655 F1000
X0.361 Y30.55 I3.378 J-2.247
G3 X0.404 Y30.84 I-0.073 J0.159
G2 X-1.327 Y33.168 I4.772 J5.358
X-1.577 Y33.781 I6.079 J2.832
X-1.331 Y34.641 I0.73 J0.256
G3 X-0.981 Y35.463 I-0.592 J0.738
G2 X-1.005 Y36 I5.981 J0.537
G1 Y58
G2 X2 Y61.005 I3.005 J0
G1 X8
G2 X11.005 Y58 I0 J-3.005
G1 Y36
G2 X5.346 Y30.005 I-6.005 J0
G1 X8
G2 X11.005 Y27 I0 J-3.005
G1 Y5
G2 X-1.005 Y5 I-6.005 J0
G1 Y27
G2 X2 Y30.005 I3.005 J0
G1 X4.654
G2 X-0.981 Y35.463 I0.346 J5.995
X-0.839 Y35.718 I0.259 J0.023
G3 X-0.687 Y35.967 I-0.125 J0.247
G1 X-0.688 Y36
Y58
G2 X2 Y60.688 I2.688 J0
G1 X8
G2 X10.688 Y58 I0 J-2.688
G1 Y36
G2 X-0.687 Y35.967 I-5.688 J0
G3 X-1.007 Y36.283 I-0.317 J-0.002 F600
G1 X-1.324 Y36.281
X-1.395 Y36.28 Z2.528
X-1.462 Z2.551
X-1.522 Z2.589
X-1.572 Y36.279 Z2.64
X-1.61 Z2.7
X-1.634 Z2.767
X-1.642 Z2.837
X-3.489 Y29.836 F1000
X-3.482 Y29.832 Z2.767 F600
X-3.462 Y29.82 Z2.7
X-3.429 Y29.801 Z2.64
X-3.386 Y29.775 Z2.589
X-3.334 Y29.745 Z2.551
X-3.276 Y29.711 Z2.528
X-3.215 Y29.676 Z2.52
X-0.755 Y28.24
G3 X-0.321 Y28.355 I0.16 J0.274
G2 X2 Y29.688 I2.321 J-1.355 F1000
G1 X8
G2 X10.688 Y27 I0 J-2.688
G1 Y5
G2 X-0.688 Y5 I-5.688 J0
G1 Y27
G2 X-0.321 Y28.355 I2.688 J0
G3 X-0.435 Y28.789 I-0.274 J0.16 F600
G1 X-0.71 Y28.949
X-0.771 Y28.985 Z2.528
X-0.829 Y29.018 Z2.551
X-0.881 Y29.049 Z2.589
X-0.924 Y29.074 Z2.64
X-0.957 Y29.093 Z2.7
X-0.977 Y29.105 Z2.767
X-0.984 Y29.109 Z2.837
X-2.573 Y28.783 F1000
Z2.337 F300
X-2.566 Y28.779 Z2.267 F600
X-2.545 Y28.769 Z2.2
X-2.511 Y28.753 Z2.14
X-2.465 Y28.731 Z2.089
X-2.411 Y28.705 Z2.051
X-2.351 Y28.675 Z2.028
X-2.287 Y28.645 Z2.02
X-2.001 Y28.507
G3 X-1.577 Y28.655 I0.138 J0.286
G2 X-1.316 Y29.114 I3.438 J-1.655 F1000
X0.361 Y30.55 I3.378 J-2.247
G3 X0.404 Y30.84 I-0.073 J0.159
G2 X-1.327 Y33.168 I4.772 J5.358
X-1.577 Y33.781 I6.079 J2.832
G3 X-1.982 Y33.976 I-0.3 J-0.105 F600
G1 X-2.282 Y33.871
X-2.348 Y33.847 Z2.028
X-2.412 Y33.825 Z2.051
X-2.468 Y33.805 Z2.089
X-2.516 Y33.789 Z2.14
X-2.552 Y33.776 Z2.2
X-2.574 Y33.768 Z2.267
X-2.581 Y33.766 Z2.337
X-2.574 Y59.806 F1000
X-2.567 Y59.803 Z2.267 F600
X-2.546 Y59.793 Z2.2
X-2.511 Y59.777 Z2.14
X-2.466 Y59.755 Z2.089
X-2.411 Y59.73 Z2.051
X-2.351 Y59.701 Z2.028
X-2.287 Y59.671 Z2.02
X-2 Y59.535
G3 X-1.577 Y59.687 I0.135 J0.287
G2 X0.313 Y61.577 I3.577 J-1.687 F1000
G3 X0.465 Y62 I-0.135 J0.287 F600
G1 X0.33 Y62.287
X0.299 Y62.351 Z2.028
X0.271 Y62.412 Z2.051
X0.245 Y62.466 Z2.089
X0.224 Y62.512 Z2.14
X0.208 Y62.546 Z2.2
X0.198 Y62.567 Z2.267
X0.194 Y62.574 Z2.337
X9.806 F1000
X9.803 Y62.567 Z2.267 F600
X9.793 Y62.546 Z2.2
X9.777 Y62.511 Z2.14
X9.755 Y62.466 Z2.089
X9.73 Y62.411 Z2.051
X9.701 Y62.351 Z2.028
X9.671 Y62.287 Z2.02
X9.535 Y62
G3 X9.687 Y61.577 I0.287 J-0.135
G2 X11.955 Y58 I-1.687 J-3.577 F1000
G1 Y36
G2 X11.327 Y33.168 I-6.706 J0
X9.596 Y30.84 I-6.504 J3.031
G3 X9.639 Y30.55 I0.117 J-0.131
G2 X11.316 Y29.114 I-1.7 J-3.683
X11.955 Y27 I-3.177 J-2.114
G1 Y5
G2 X7.26 Y-1.577 I-6.955 J0
G3 X7.063 Y-1.981 I0.103 J-0.3 F600
G1 X7.166 Y-2.281
X7.189 Y-2.348 Z2.028
X7.211 Y-2.411 Z2.051
X7.231 Y-2.468 Z2.089
X7.247 Y-2.516 Z2.14
X7.259 Y-2.552 Z2.2
X7.267 Y-2.574 Z2.267
X7.27 Y-2.581 Z2.337
X2.73 F1000
X2.732 Y-2.574 Z2.267 F600
X2.74 Y-2.552 Z2.2
X2.752 Y-2.516 Z2.14
X2.769 Y-2.468 Z2.089
X2.788 Y-2.411 Z2.051
X2.81 Y-2.348 Z2.028
X2.833 Y-2.281 Z2.02
X2.936 Y-1.981
G3 X2.739 Y-1.577 I-0.3 J0.103
G2 X-1.577 Y2.739 I2.261 J6.577 F1000
X-1.328 Y3.606 I0.744 J0.256
G3 X-0.979 Y4.437 I-0.601 J0.742
G2 X-1.005 Y5 I5.979 J0.563
G1 Y27
G2 X2 Y30.005 I3.005 J0
G1 X4.654
G2 X-1.005 Y36 I0.346 J5.995
G1 Y58
G2 X2 Y61.005 I3.005 J0
G1 X8
G2 X11.005 Y58 I0 J-3.005
G1 Y36
G2 X5.346 Y30.005 I-6.005 J0
G1 X8
G2 X11.005 Y27 I0 J-3.005
G1 Y5
G2 X-0.979 Y4.437 I-6.005 J0
X-0.838 Y4.693 I0.259 J0.024
G3 X-0.687 Y4.943 I-0.126 J0.247
G1 X-0.688 Y5
Y27
G2 X2 Y29.688 I2.688 J0
G1 X8
G2 X10.688 Y27 I0 J-2.688
G1 Y5
G2 X-0.687 Y4.943 I-5.688 J0
G3 X-1.008 Y5.257 I-0.317 J-0.003 F600
G1 X-1.325 Y5.254
X-1.396 Y5.253 Z2.028
X-1.463 Y5.252 Z2.051
X-1.523 Z2.089
X-1.574 Y5.251 Z2.14
X-1.611 Z2.2
X-1.635 Z2.267
X-1.643 Z2.337
G0 Z18.02
X-3.241 Y61.397
Z11.02
G1 Z2.337 F300
X-3.234 Y61.392 Z2.267 F600
X-3.215 Y61.379 Z2.2
X-3.185 Y61.356 Z2.14
X-3.144 Y61.327 Z2.089
X-3.095 Y61.292 Z2.051
X-3.041 Y61.252 Z2.028
X-2.983 Y61.211 Z2.02
X-0.621 Y59.503
G3 X-0.178 Y59.575 I0.186 J0.257
G2 X2 Y60.688 I2.178 J-1.575 F1000
G1 X8
G2 X10.688 Y58 I0 J-2.688
G1 Y36
G2 X-0.688 Y36 I-5.688 J0
G1 Y58
G2 X-0.178 Y59.575 I2.688 J0
G3 X-0.249 Y60.018 I-0.257 J0.186 F600
G1 X-0.507 Y60.204
X-0.564 Y60.245 Z2.028
X-0.618 Y60.285 Z2.051
X-0.667 Y60.32 Z2.089
X-0.708 Y60.349 Z2.14
X-0.738 Y60.371 Z2.2
X-0.757 Y60.385 Z2.267
X-0.764 Y60.39 Z2.337
X-2.574 Y59.806 F1000
Z1.837 F300
X-2.567 Y59.803 Z1.767 F600
X-2.546 Y59.793 Z1.7
X-2.511 Y59.777 Z1.64
X-2.466 Y59.755 Z1.589
X-2.411 Y59.73 Z1.551
X-2.351 Y59.701 Z1.528
X-2.287 Y59.671 Z1.52
X-2 Y59.535
G3 X-1.577 Y59.687 I0.135 J0.287
G2 X0.313 Y61.577 I3.577 J-1.687 F1000
G3 X0.465 Y62 I-0.135 J0.287 F600
G1 X0.33 Y62.287
X0.299 Y62.351 Z1.528
X0.271 Y62.412 Z1.551
X0.245 Y62.466 Z1.589
X0.224 Y62.512 Z1.64
X0.208 Y62.546 Z1.7
X0.198 Y62.567 Z1.767
X0.194 Y62.574 Z1.837
X9.806 F1000
X9.803 Y62.567 Z1.767 F600
X9.793 Y62.546 Z1.7
X9.777 Y62.511 Z1.64
X9.755 Y62.466 Z1.589
X9.73 Y62.411 Z1.551
X9.701 Y62.351 Z1.528
X9.671 Y62.287 Z1.52
X9.535 Y62
G3 X9.687 Y61.577 I0.287 J-0.135
G2 X11.955 Y58 I-1.687 J-3.577 F1000
G1 Y36
G2 X11.327 Y33.168 I-6.706 J0
X9.596 Y30.84 I-6.504 J3.031
G3 X9.639 Y30.55 I0.117 J-0.131
G2 X11.316 Y29.114 I-1.7 J-3.683
X11.955 Y27 I-3.177 J-2.114
G1 Y5
G2 X7.26 Y-1.577 I-6.955 J0
G3 X7.063 Y-1.981 I0.103 J-0.3 F600
G1 X7.166 Y-2.281
X7.189 Y-2.348 Z1.528
X7.211 Y-2.411 Z1.551
X7.231 Y-2.468 Z1.589
X7.247 Y-2.516 Z1.64
X7.259 Y-2.552 Z1.7
X7.267 Y-2.574 Z1.767
X7.27 Y-2.581 Z1.837
X2.73 F1000
X2.732 Y-2.574 Z1.767 F600
X2.74 Y-2.552 Z1.7
X2.752 Y-2.516 Z1.64
X2.769 Y-2.468 Z1.589
X2.788 Y-2.411 Z1.551
X2.81 Y-2.348 Z1.528
X2.833 Y-2.281 Z1.52
X2.936 Y-1.981
G3 X2.739 Y-1.577 I-0.3 J0.103
G2 X-1.577 Y2.739 I2.261 J6.577 F1000
G3 X-1.981 Y2.936 I-0.3 J-0.103 F600
G1 X-2.281 Y2.833
X-2.348 Y2.81 Z1.528
X-2.411 Y2.788 Z1.551
X-2.468 Y2.768 Z1.589
X-2.516 Y2.752 Z1.64
X-2.551 Y2.74 Z1.7
X-2.574 Y2.732 Z1.767
X-2.581 Y2.73 Z1.837
X-2.573 Y28.783 F1000
X-2.566 Y28.779 Z1.767 F600
X-2.545 Y28.769 Z1.7
X-2.511 Y28.753 Z1.64
X-2.465 Y28.731 Z1.589
X-2.411 Y28.705 Z1.551
X-2.351 Y28.675 Z1.528
X-2.287 Y28.645 Z1.52
X-2.001 Y28.507
G3 X-1.577 Y28.655 I0.138 J0.286
G2 X-1.316 Y29.114 I3.438 J-1.655 F1000
X0.361 Y30.55 I3.378 J-2.247
G3 X0.404 Y30.84 I-0.073 J0.159
G2 X-1.327 Y33.168 I4.772 J5.358
X-1.577 Y33.781 I6.079 J2.832
X-1.331 Y34.641 I0.73 J0.256
G3 X-0.981 Y35.463 I-0.592 J0.738
G2 X-1.005 Y36 I5.981 J0.537
G1 Y58
G2 X2 Y61.005 I3.005 J0
G1 X8
G2 X11.005 Y58 I0 J-3.005
G1 Y36
G2 X5.346 Y30.005 I-6.005 J0
G1 X8
G2 X11.005 Y27 I0 J-3.005
G1 Y5
G2 X-1.005 Y5 I-6.005 J0
G1 Y27
G2 X2 Y30.005 I3.005 J0
G1 X4.654
G2 X-0.981 Y35.463 I0.346 J5.995
X-0.839 Y35.718 I0.259 J0.023
G3 X-0.687 Y35.967 I-0.125 J0.247
G1 X-0.688 Y36
Y58
G2 X2 Y60.688 I2.688 J0
G1 X8
G2 X10.688 Y58 I0 J-2.688
G1 Y36
G2 X-0.687 Y35.967 I-5.688 J0
G3 X-1.007 Y36.283 I-0.317 J-0.002 F600
G1 X-1.324 Y36.281
X-1.395 Y36.28 Z1.528
X-1.462 Z1.551
X-1.522 Z1.589
X-1.572 Y36.279 Z1.64
X-1.61 Z1.7
X-1.634 Z1.767
X-1.642 Z1.837
X-3.489 Y29.836 F1000
X-3.482 Y29.832 Z1.767 F600
X-3.462 Y29.82 Z1.7
X-3.429 Y29.801 Z1.64
X-3.386 Y29.775 Z1.589
X-3.334 Y29.745 Z1.551
X-3.276 Y29.711 Z1.528
X-3.215 Y29.676 Z1.52
X-0.755 Y28.24
G3 X-0.321 Y28.355 I0.16 J0.274
G2 X2 Y29.688 I2.321 J-1.355 F1000
G1 X8
G2 X10.688 Y27 I0 J-2.688
G1 Y5
G2 X-0.688 Y5 I-5.688 J0
G1 Y27
G2 X-0.321 Y28.355 I2.688 J0
G3 X-0.435 Y28.789 I-0.274 J0.16 F600
G1 X-0.71 Y28.949
X-0.771 Y28.985 Z1.528
X-0.829 Y29.018 Z1.551
X-0.881 Y29.049 Z1.589
X-0.924 Y29.074 Z1.64
X-0.957 Y29.093 Z1.7
X-0.977 Y29.105 Z1.767
X-0.984 Y29.109 Z1.837
X-2.573 Y28.783 F1000
Z1.337 F300
X-2.566 Y28.779 Z1.267 F600
X-2.545 Y28.769 Z1.2
X-2.511 Y28.753 Z1.14
X-2.465 Y28.731 Z1.089
X-2.411 Y28.705 Z1.051
X-2.351 Y28.675 Z1.028
X-2.287 Y28.645 Z1.02
X-2.001 Y28.507
G3 X-1.577 Y28.655 I0.138 J0.286
G2 X-1.316 Y29.114 I3.438 J-1.655 F1000
X0.361 Y30.55 I3.378 J-2.247
G3 X0.404 Y30.84 I-0.073 J0.159
G2 X-1.327 Y33.168 I4.772 J5.358
X-1.577 Y33.781 I6.079 J2.832
G3 X-1.982 Y33.976 I-0.3 J-0.105 F600
G1 X-2.282 Y33.871
X-2.348 Y33.847 Z1.028
X-2.412 Y33.825 Z1.051
X-2.468 Y33.805 Z1.089
X-2.516 Y33.789 Z1.14
X-2.552 Y33.776 Z1.2
X-2.574 Y33.768 Z1.267
X-2.581 Y33.766 Z1.337
X-2.574 Y59.806 F1000
X-2.567 Y59.803 Z1.267 F600
X-2.546 Y59.793 Z1.2
X-2.511 Y59.777 Z1.14
X-2.466 Y59.755 Z1.089
X-2.411 Y59.73 Z1.051
X-2.351 Y59.701 Z1.028
X-2.287 Y59.671 Z1.02
X-2 Y59.535
G3 X-1.577 Y59.687 I0.135 J0.287
G2 X0.313 Y61.577 I3.577 J-1.687 F1000
G3 X0.465 Y62 I-0.135 J0.287 F600
G1 X0.33 Y62.287
X0.299 Y62.351 Z1.028
X0.271 Y62.412 Z1.051
X0.245 Y62.466 Z1.089
X0.224 Y62.512 Z1.14
X0.208 Y62.546 Z1.2
X0.198 Y62.567 Z1.267
X0.194 Y62.574 Z1.337
X9.806 F1000
X9.803 Y62.567 Z1.267 F600
X9.793 Y62.546 Z1.2
X9.777 Y62.511 Z1.14
X9.755 Y62.466 Z1.089
X9.73 Y62.411 Z1.051
X9.701 Y62.351 Z1.028
X9.671 Y62.287 Z1.02
X9.535 Y62
G3 X9.687 Y61.577 I0.287 J-0.135
G2 X11.955 Y58 I-1.687 J-3.577 F1000
G1 Y36
G2 X11.327 Y33.168 I-6.706 J0
X9.596 Y30.84 I-6.504 J3.031
G3 X9.639 Y30.55 I0.117 J-0.131
G2 X11.316 Y29.114 I-1.7 J-3.683
X11.955 Y27 I-3.177 J-2.114
G1 Y5
G2 X7.26 Y-1.577 I-6.955 J0
G3 X7.063 Y-1.981 I0.103 J-0.3 F600
G1 X7.166 Y-2.281
X7.189 Y-2.348 Z1.028
X7.211 Y-2.411 Z1.051
X7.231 Y-2.468 Z1.089
X7.247 Y-2.516 Z1.14
X7.259 Y-2.552 Z1.2
X7.267 Y-2.574 Z1.267
X7.27 Y-2.581 Z1.337
X2.73 F1000
X2.732 Y-2.574 Z1.267 F600
X2.74 Y-2.552 Z1.2
X2.752 Y-2.516 Z1.14
X2.769 Y-2.468 Z1.089
X2.788 Y-2.411 Z1.051
X2.81 Y-2.348 Z1.028
X2.833 Y-2.281 Z1.02
X2.936 Y-1.981
G3 X2.739 Y-1.577 I-0.3 J0.103
G2 X-1.577 Y2.739 I2.261 J6.577 F1000
X-1.328 Y3.606 I0.744 J0.256
G3 X-0.979 Y4.437 I-0.601 J0.742
G2 X-1.005 Y5 I5.979 J0.563
G1 Y27
G2 X2 Y30.005 I3.005 J0
G1 X4.654
G2 X-1.005 Y36 I0.346 J5.995
G1 Y58
G2 X2 Y61.005 I3.005 J0
G1 X8
G2 X11.005 Y58 I0 J-3.005
G1 Y36
G2 X5.346 Y30.005 I-6.005 J0
G1 X8
G2 X11.005 Y27 I0 J-3.005
G1 Y5
G2 X-0.979 Y4.437 I-6.005 J0
X-0.838 Y4.693 I0.259 J0.024
G3 X-0.687 Y4.943 I-0.126 J0.247
G1 X-0.688 Y5
Y27
G2 X2 Y29.688 I2.688 J0
G1 X8
G2 X10.688 Y27 I0 J-2.688
G1 Y5
G2 X-0.687 Y4.943 I-5.688 J0
G3 X-1.008 Y5.257 I-0.317 J-0.003 F600
G1 X-1.325 Y5.254
X-1.396 Y5.253 Z1.028
X-1.463 Y5.252 Z1.051
X-1.523 Z1.089
X-1.574 Y5.251 Z1.14
X-1.611 Z1.2
X-1.635 Z1.267
X-1.643 Z1.337
G0 Z18.02
X-3.241 Y61.397
Z11.02
G1 Z1.337 F300
X-3.234 Y61.392 Z1.267 F600
X-3.215 Y61.379 Z1.2
X-3.185 Y61.356 Z1.14
X-3.144 Y61.327 Z1.089
X-3.095 Y61.292 Z1.051
X-3.041 Y61.252 Z1.028
X-2.983 Y61.211 Z1.02
X-0.621 Y59.503
G3 X-0.178 Y59.575 I0.186 J0.257
G2 X2 Y60.688 I2.178 J-1.575 F1000
G1 X8
G2 X10.688 Y58 I0 J-2.688
G1 Y36
G2 X-0.688 Y36 I-5.688 J0
G1 Y58
G2 X-0.178 Y59.575 I2.688 J0
G3 X-0.249 Y60.018 I-0.257 J0.186 F600
G1 X-0.507 Y60.204
X-0.564 Y60.245 Z1.028
X-0.618 Y60.285 Z1.051
X-0.667 Y60.32 Z1.089
X-0.708 Y60.349 Z1.14
X-0.738 Y60.371 Z1.2
X-0.757 Y60.385 Z1.267
X-0.764 Y60.39 Z1.337
X-2.574 Y59.806 F1000
Z0.837 F300
X-2.567 Y59.803 Z0.767 F600
X-2.546 Y59.793 Z0.7
X-2.511 Y59.777 Z0.64
X-2.466 Y59.755 Z0.589
X-2.411 Y59.73 Z0.551
X-2.351 Y59.701 Z0.528
X-2.287 Y59.671 Z0.52
X-2 Y59.535
G3 X-1.577 Y59.687 I0.135 J0.287
G2 X0.313 Y61.577 I3.577 J-1.687 F1000
G3 X0.465 Y62 I-0.135 J0.287 F600
G1 X0.33 Y62.287
X0.299 Y62.351 Z0.528
X0.271 Y62.412 Z0.551
X0.245 Y62.466 Z0.589
X0.224 Y62.512 Z0.64
X0.208 Y62.546 Z0.7
X0.198 Y62.567 Z0.767
X0.194 Y62.574 Z0.837
X9.806 F1000
X9.803 Y62.567 Z0.767 F600
X9.793 Y62.546 Z0.7
X9.777 Y62.511 Z0.64
X9.755 Y62.466 Z0.589
X9.73 Y62.411 Z0.551
X9.701 Y62.351 Z0.528
X9.671 Y62.287 Z0.52
X9.535 Y62
G3 X9.687 Y61.577 I0.287 J-0.135
G2 X11.955 Y58 I-1.687 J-3.577 F1000
G1 Y57.201
Y56.439 Z1
Y53.264
Y52.502 Z0.52 F300
Y49.141 F1000
Y48.379 Z1
Y45.204
Y44.442 Z0.52 F300
Y41.072 F1000
Y40.31 Z1
Y37.135
Y36.373 Z0.52 F300
Y36 F1000
G2 X11.327 Y33.168 I-6.706 J0
X9.596 Y30.84 I-6.504 J3.031
G3 X9.639 Y30.55 I0.117 J-0.131
G2 X11.316 Y29.114 I-1.7 J-3.683
X11.955 Y27 I-3.177 J-2.114
G1 Y26.009
Y25.247 Z1
Y22.072
Y21.31 Z0.52 F300
Y18.145 F1000
Y17.383 Z1
Y14.208
Y13.446 Z0.52 F300
Y9.505 F1000
Y8.743 Z1
Y5.568
Y5 Z0.642 F300
X11.952 Y4.806 Z0.52
G2 X7.26 Y-1.577 I-6.952 J0.194 F1000
G3 X7.063 Y-1.981 I0.103 J-0.3 F600
G1 X7.166 Y-2.281
X7.189 Y-2.348 Z0.528
X7.211 Y-2.411 Z0.551
X7.231 Y-2.468 Z0.589
X7.247 Y-2.516 Z0.64
X7.259 Y-2.552 Z0.7
X7.267 Y-2.574 Z0.767
X7.27 Y-2.581 Z0.837
X2.73 F1000
X2.732 Y-2.574 Z0.767 F600
X2.74 Y-2.552 Z0.7
X2.752 Y-2.516 Z0.64
X2.769 Y-2.468 Z0.589
X2.788 Y-2.411 Z0.551
X2.81 Y-2.348 Z0.528
X2.833 Y-2.281 Z0.52
X2.936 Y-1.981
G3 X2.739 Y-1.577 I-0.3 J0.103
G2 X-1.577 Y2.739 I2.261 J6.577 F1000
G3 X-1.981 Y2.936 I-0.3 J-0.103 F600
G1 X-2.281 Y2.833
X-2.348 Y2.81 Z0.528
X-2.411 Y2.788 Z0.551
X-2.468 Y2.768 Z0.589
X-2.516 Y2.752 Z0.64
X-2.551 Y2.74 Z0.7
X-2.574 Y2.732 Z0.767
X-2.581 Y2.73 Z0.837
X-2.573 Y28.783 F1000
X-2.566 Y28.779 Z0.767 F600
X-2.545 Y28.769 Z0.7
X-2.511 Y28.753 Z0.64
X-2.465 Y28.731 Z0.589
X-2.411 Y28.705 Z0.551
X-2.351 Y28.675 Z0.528
X-2.287 Y28.645 Z0.52
X-2.001 Y28.507
G3 X-1.577 Y28.655 I0.138 J0.286
G2 X-1.316 Y29.114 I3.438 J-1.655 F1000
X0.361 Y30.55 I3.378 J-2.247
G3 X0.404 Y30.84 I-0.073 J0.159
G2 X-1.327 Y33.168 I4.772 J5.358
X-1.577 Y33.781 I6.079 J2.832
X-1.331 Y34.641 I0.73 J0.256
G3 X-0.981 Y35.463 I-0.592 J0.738
G2 X-1.005 Y36 I5.981 J0.537
G1 Y58
G2 X2 Y61.005 I3.005 J0
G1 X8
G2 X11.005 Y58 I0 J-3.005
G1 Y57.201
Y56.439 Z1
Y53.264
Y52.502 Z0.52 F300
Y49.141 F1000
Y48.379 Z1
Y45.204
Y44.442 Z0.52 F300
Y41.072 F1000
Y40.31 Z1
Y37.135
Y36.373 Z0.52 F300
Y36 F1000
G2 X5.346 Y30.005 I-6.005 J0
G1 X8
G2 X11.005 Y27 I0 J-3.005
G1 Y26.009
Y25.247 Z1
Y22.072
Y21.31 Z0.52 F300
Y18.145 F1000
Y17.383 Z1
Y14.208
Y13.446 Z0.52 F300
Y9.505 F1000
Y8.743 Z1
Y5.568
Y5 Z0.642 F300
X11.002 Y4.806 Z0.52
G2 X-1.005 Y5 I-6.002 J0.194 F1000
G1 Y27
G2 X2 Y30.005 I3.005 J0
G1 X4.654
G2 X-0.981 Y35.463 I0.346 J5.995
X-0.839 Y35.718 I0.259 J0.023
G3 X-0.687 Y35.967 I-0.125 J0.247
G1 X-0.688 Y36
Y58
G2 X2 Y60.688 I2.688 J0
G1 X8
G2 X10.688 Y58 I0 J-2.688
G1 Y57.201
Y56.439 Z1
Y53.264
Y52.502 Z0.52 F300
Y49.141 F1000
Y48.379 Z1
Y45.204
Y44.442 Z0.52 F300
Y41.072 F1000
Y40.31 Z1
Y37.135
Y36.373 Z0.52 F300
Y36 F1000
G2 X-0.687 Y35.967 I-5.688 J0
G3 X-1.007 Y36.283 I-0.317 J-0.002 F600
G1 X-1.324 Y36.281
X-1.395 Y36.28 Z0.528
X-1.462 Z0.551
X-1.522 Z0.589
X-1.572 Y36.279 Z0.64
X-1.61 Z0.7
X-1.634 Z0.767
X-1.642 Z0.837
X-3.489 Y29.836 F1000
X-3.482 Y29.832 Z0.767 F600
X-3.462 Y29.82 Z0.7
X-3.429 Y29.801 Z0.64
X-3.386 Y29.775 Z0.589
X-3.334 Y29.745 Z0.551
X-3.276 Y29.711 Z0.528
X-3.215 Y29.676 Z0.52
X-0.755 Y28.24
G3 X-0.321 Y28.355 I0.16 J0.274
G2 X2 Y29.688 I2.321 J-1.355 F1000
G1 X8
G2 X10.688 Y27 I0 J-2.688
G1 Y26.009
Y25.247 Z1
Y22.072
Y21.31 Z0.52 F300
Y18.145 F1000
Y17.383 Z1
Y14.208
Y13.446 Z0.52 F300
Y9.505 F1000
Y8.743 Z1
Y5.568
Y5 Z0.642 F300
X10.684 Y4.806 Z0.52
G2 X-0.688 Y5 I-5.684 J0.194 F1000
G1 Y27
G2 X-0.321 Y28.355 I2.688 J0
G3 X-0.435 Y28.789 I-0.274 J0.16 F600
G1 X-0.71 Y28.949
X-0.771 Y28.985 Z0.528
X-0.829 Y29.018 Z0.551
X-0.881 Y29.049 Z0.589
X-0.924 Y29.074 Z0.64
X-0.957 Y29.093 Z0.7
X-0.977 Y29.105 Z0.767
X-0.984 Y29.109 Z0.837
X-2.573 Y28.783 F1000
Z0.577 F300
X-2.566 Y28.779 Z0.507 F600
X-2.545 Y28.769 Z0.44
X-2.511 Y28.753 Z0.38
X-2.465 Y28.731 Z0.329
X-2.411 Y28.705 Z0.291
X-2.351 Y28.675 Z0.268
X-2.287 Y28.645 Z0.26
X-2.001 Y28.507
G3 X-1.577 Y28.655 I0.138 J0.286
G2 X-1.316 Y29.114 I3.438 J-1.655 F1000
X0.361 Y30.55 I3.378 J-2.247
G3 X0.404 Y30.84 I-0.073 J0.159
G2 X-1.327 Y33.168 I4.772 J5.358
X-1.577 Y33.781 I6.079 J2.832
G3 X-1.982 Y33.976 I-0.3 J-0.105 F600
G1 X-2.282 Y33.871
X-2.348 Y33.847 Z0.268
X-2.412 Y33.825 Z0.291
X-2.468 Y33.805 Z0.329
X-2.516 Y33.789 Z0.38
X-2.552 Y33.776 Z0.44
X-2.574 Y33.768 Z0.507
X-2.581 Y33.766 Z0.577
X-2.574 Y59.806 F1000
X-2.567 Y59.803 Z0.507 F600
X-2.546 Y59.793 Z0.44
X-2.511 Y59.777 Z0.38
X-2.466 Y59.755 Z0.329
X-2.411 Y59.73 Z0.291
X-2.351 Y59.701 Z0.268
X-2.287 Y59.671 Z0.26
X-2 Y59.535
G3 X-1.577 Y59.687 I0.135 J0.287
G2 X0.313 Y61.577 I3.577 J-1.687 F1000
G3 X0.465 Y62 I-0.135 J0.287 F600
G1 X0.33 Y62.287
X0.299 Y62.351 Z0.268
X0.271 Y62.412 Z0.291
X0.245 Y62.466 Z0.329
X0.224 Y62.512 Z0.38
X0.208 Y62.546 Z0.44
X0.198 Y62.567 Z0.507
X0.194 Y62.574 Z0.577
X9.806 F1000
X9.803 Y62.567 Z0.507 F600
X9.793 Y62.546 Z0.44
X9.777 Y62.511 Z0.38
X9.755 Y62.466 Z0.329
X9.73 Y62.411 Z0.291
X9.701 Y62.351 Z0.268
X9.671 Y62.287 Z0.26
X9.535 Y62
G3 X9.687 Y61.577 I0.287 J-0.135
G2 X11.955 Y58 I-1.687 J-3.577 F1000
G1 Y57.614
Y56.439 Z1
Y53.264
Y52.09 Z0.26 F300
Y49.554 F1000
Y48.379 Z1
Y45.204
Y44.029 Z0.26 F300
Y41.485 F1000
Y40.31 Z1
Y37.135
Y36 Z0.285 F300
Y35.96 Z0.26
G2 X11.327 Y33.168 I-6.706 J0.04 F1000
X9.596 Y30.84 I-6.504 J3.031
G3 X9.639 Y30.55 I0.117 J-0.131
G2 X11.316 Y29.114 I-1.7 J-3.683
X11.955 Y27 I-3.177 J-2.114
G1 Y26.422
Y25.247 Z1
Y22.072
Y20.897 Z0.26 F300
Y18.558 F1000
Y17.383 Z1
Y14.208
Y13.034 Z0.26 F300
Y9.918 F1000
Y8.743 Z1
Y5.568
Y5 Z0.642 F300
G2 X11.929 Y4.393 Z0.26 I-6.955 J0
X7.26 Y-1.577 I-6.929 J0.607 F1000
G3 X7.063 Y-1.981 I0.103 J-0.3 F600
G1 X7.166 Y-2.281
X7.189 Y-2.348 Z0.268
X7.211 Y-2.411 Z0.291
X7.231 Y-2.468 Z0.329
X7.247 Y-2.516 Z0.38
X7.259 Y-2.552 Z0.44
X7.267 Y-2.574 Z0.507
X7.27 Y-2.581 Z0.577
X2.73 F1000
X2.732 Y-2.574 Z0.507 F600
X2.74 Y-2.552 Z0.44
X2.752 Y-2.516 Z0.38
X2.769 Y-2.468 Z0.329
X2.788 Y-2.411 Z0.291
X2.81 Y-2.348 Z0.268
X2.833 Y-2.281 Z0.26
X2.936 Y-1.981
G3 X2.739 Y-1.577 I-0.3 J0.103
G2 X-1.577 Y2.739 I2.261 J6.577 F1000
X-1.328 Y3.606 I0.744 J0.256
G3 X-0.979 Y4.437 I-0.601 J0.742
G2 X-1.005 Y5 I5.979 J0.563
G1 Y27
G2 X2 Y30.005 I3.005 J0
G1 X4.654
G2 X-1.005 Y36 I0.346 J5.995
G1 Y58
G2 X2 Y61.005 I3.005 J0
G1 X8
G2 X11.005 Y58 I0 J-3.005
G1 Y57.614
Y56.439 Z1
Y53.264
Y52.09 Z0.26 F300
Y49.554 F1000
Y48.379 Z1
Y45.204
Y44.029 Z0.26 F300
Y41.485 F1000
Y40.31 Z1
Y37.135
Y36 Z0.285 F300
Y35.96 Z0.26
G2 X5.346 Y30.005 I-6.005 J0.04 F1000
G1 X8
G2 X11.005 Y27 I0 J-3.005
G1 Y26.422
Y25.247 Z1
Y22.072
Y20.897 Z0.26 F300
Y18.558 F1000
Y17.383 Z1
Y14.208
Y13.034 Z0.26 F300
Y9.918 F1000
Y8.743 Z1
Y5.568
Y5 Z0.642 F300
G2 X10.974 Y4.393 Z0.26 I-6.005 J0
X-0.979 Y4.437 I-5.974 J0.607 F1000
X-0.838 Y4.693 I0.259 J0.024
G3 X-0.687 Y4.943 I-0.126 J0.247
G1 X-0.688 Y5
Y27
G2 X2 Y29.688 I2.688 J0
G1 X8
G2 X10.688 Y27 I0 J-2.688
G1 Y26.422
Y25.247 Z1
Y22.072
Y20.897 Z0.26 F300
Y18.558 F1000
Y17.383 Z1
Y14.208
Y13.034 Z0.26 F300
Y9.918 F1000
Y8.743 Z1
Y5.568
Y5 Z0.642 F300
G2 X10.655 Y4.393 Z0.26 I-5.688 J0
X-0.687 Y4.943 I-5.655 J0.607 F1000
G3 X-1.008 Y5.257 I-0.317 J-0.003 F600
G1 X-1.325 Y5.254
X-1.396 Y5.253 Z0.268
X-1.463 Y5.252 Z0.291
X-1.523 Z0.329
X-1.574 Y5.251 Z0.38
X-1.611 Z0.44
X-1.635 Z0.507
X-1.643 Z0.577
G0 Z18.02
X-3.241 Y61.397
Z11.02
G1 Z0.577 F300
X-3.234 Y61.392 Z0.507 F600
X-3.215 Y61.379 Z0.44
X-3.185 Y61.356 Z0.38
X-3.144 Y61.327 Z0.329
X-3.095 Y61.292 Z0.291
X-3.041 Y61.252 Z0.268
X-2.983 Y61.211 Z0.26
X-0.621 Y59.503
G3 X-0.178 Y59.575 I0.186 J0.257
G2 X2 Y60.688 I2.178 J-1.575 F1000
G1 X8
G2 X10.688 Y58 I0 J-2.688
G1 Y57.614
Y56.439 Z1
Y53.264
Y52.09 Z0.26 F300
Y49.554 F1000
Y48.379 Z1
Y45.204
Y44.029 Z0.26 F300
Y41.485 F1000
Y40.31 Z1
Y37.135
Y36 Z0.285 F300
X10.687 Y35.96 Z0.26
G2 X-0.688 Y36 I-5.687 J0.04 F1000
G1 Y58
G2 X-0.178 Y59.575 I2.688 J0
G3 X-0.249 Y60.018 I-0.257 J0.186 F600
G1 X-0.507 Y60.204
X-0.564 Y60.245 Z0.268
X-0.618 Y60.285 Z0.291
X-0.667 Y60.32 Z0.329
X-0.708 Y60.349 Z0.38
X-0.738 Y60.371 Z0.44
X-0.757 Y60.385 Z0.507
X-0.764 Y60.39 Z0.577
X-2.574 Y59.806 F1000
Z0.317 F300
X-2.567 Y59.803 Z0.247 F600
X-2.546 Y59.793 Z0.18
X-2.511 Y59.777 Z0.12
X-2.466 Y59.755 Z0.069
X-2.411 Y59.73 Z0.031
X-2.351 Y59.701 Z0.008
X-2.287 Y59.671 Z0
X-2 Y59.535
G3 X-1.577 Y59.687 I0.135 J0.287
G2 X0.313 Y61.577 I3.577 J-1.687 F1000
G3 X0.465 Y62 I-0.135 J0.287 F600
G1 X0.33 Y62.287
X0.299 Y62.351 Z0.008
X0.271 Y62.412 Z0.031
X0.245 Y62.466 Z0.069
X0.224 Y62.512 Z0.12
X0.208 Y62.546 Z0.18
X0.198 Y62.567 Z0.247
X0.194 Y62.574 Z0.317
X9.806 F1000
X9.803 Y62.567 Z0.247 F600
X9.793 Y62.546 Z0.18
X9.777 Y62.511 Z0.12
X9.755 Y62.466 Z0.069
X9.73 Y62.411 Z0.031
X9.701 Y62.351 Z0.008
X9.671 Y62.287 Z0
X9.535 Y62
G3 X9.687 Y61.577 I0.287 J-0.135
G2 X11.955 Y58.027 I-1.687 J-3.577 F1000
G1 Y58 Z0.017
Y56.439 Z1
Y53.264
Y51.677 Z0 F300
Y49.966 F1000
Y48.379 Z1
Y45.204
Y43.616 Z0 F300
Y41.898 F1000
Y40.31 Z1
Y37.135
Y36 Z0.285 F300
G2 X11.94 Y35.548 Z0 I-6.706 J0
X11.327 Y33.168 I-6.691 J0.452 F1000
X9.596 Y30.84 I-6.504 J3.031
G3 X9.639 Y30.55 I0.117 J-0.131
G2 X11.316 Y29.114 I-1.7 J-3.683
X11.955 Y27 I-3.177 J-2.114
G1 Y26.834
Y25.247 Z1
Y22.072
Y20.484 Z0 F300
Y18.971 F1000
Y17.383 Z1
Y14.208
Y12.621 Z0 F300
Y10.331 F1000
Y8.743 Z1
Y5.568
Y5 Z0.642 F300
G2 X11.915 Y4.255 Z0.173 I-6.955 J0
X11.88 Y3.981 Z0 I-6.915 J0.745
X7.26 Y-1.577 I-6.88 J1.019 F1000
G3 X7.063 Y-1.981 I0.103 J-0.3 F600
G1 X7.166 Y-2.281
X7.189 Y-2.348 Z0.008
X7.211 Y-2.411 Z0.031
X7.231 Y-2.468 Z0.069
X7.247 Y-2.516 Z0.12
X7.259 Y-2.552 Z0.18
X7.267 Y-2.574 Z0.247
X7.27 Y-2.581 Z0.317
X2.73 F1000
X2.732 Y-2.574 Z0.247 F600
X2.74 Y-2.552 Z0.18
X2.752 Y-2.516 Z0.12
X2.769 Y-2.468 Z0.069
X2.788 Y-2.411 Z0.031
X2.81 Y-2.348 Z0.008
X2.833 Y-2.281 Z0
X2.936 Y-1.981
G3 X2.739 Y-1.577 I-0.3 J0.103
G2 X-1.577 Y2.739 I2.261 J6.577 F1000
G3 X-1.981 Y2.936 I-0.3 J-0.103 F600
G1 X-2.281 Y2.833
X-2.348 Y2.81 Z0.008
X-2.411 Y2.788 Z0.031
X-2.468 Y2.768 Z0.069
X-2.516 Y2.752 Z0.12
X-2.551 Y2.74 Z0.18
X-2.574 Y2.732 Z0.247
X-2.581 Y2.73 Z0.317
X-2.573 Y28.783 F1000
X-2.566 Y28.779 Z0.247 F600
X-2.545 Y28.769 Z0.18
X-2.511 Y28.753 Z0.12
X-2.465 Y28.731 Z0.069
X-2.411 Y28.705 Z0.031
X-2.351 Y28.675 Z0.008
X-2.287 Y28.645 Z0
X-2.001 Y28.507
G3 X-1.577 Y28.655 I0.138 J0.286
G2 X-1.316 Y29.114 I3.438 J-1.655 F1000
X0.361 Y30.55 I3.378 J-2.247
G3 X0.404 Y30.84 I-0.073 J0.159
G2 X-1.327 Y33.168 I4.772 J5.358
X-1.577 Y33.781 I6.079 J2.832
X-1.331 Y34.641 I0.73 J0.256
G3 X-0.981 Y35.463 I-0.592 J0.738
G2 X-1.005 Y36 I5.981 J0.537
G1 Y58
G2 X2 Y61.005 I3.005 J0
G1 X8
G2 X11.005 Y58.027 I0 J-3.005
G1 Y58 Z0.017
Y56.439 Z1
Y53.264
Y51.677 Z0 F300
Y49.966 F1000
Y48.379 Z1
Y45.204
Y43.616 Z0 F300
Y41.898 F1000
Y40.31 Z1
Y37.135
Y36 Z0.285 F300
G2 X10.988 Y35.548 Z0 I-6.005 J0
X5.346 Y30.005 I-5.988 J0.452 F1000
G1 X8
G2 X11.005 Y27 I0 J-3.005
G1 Y26.834
Y25.247 Z1
Y22.072
Y20.484 Z0 F300
Y18.971 F1000
Y17.383 Z1
Y14.208
Y12.621 Z0 F300
Y10.331 F1000
Y8.743 Z1
Y5.568
Y5 Z0.642 F300
G2 X10.965 Y4.308 Z0.206 I-6.005 J0
X10.918 Y3.981 Z0 I-5.965 J0.692
X-1.005 Y5 I-5.918 J1.019 F1000
G1 Y27
G2 X2 Y30.005 I3.005 J0
G1 X4.654
G2 X-0.981 Y35.463 I0.346 J5.995
X-0.839 Y35.718 I0.259 J0.023
G3 X-0.687 Y35.967 I-0.125 J0.247
G1 X-0.688 Y36
Y58
G2 X2 Y60.688 I2.688 J0
G1 X8
G2 X10.687 Y58.027 I0 J-2.688
G1 X10.688 Y58 Z0.017
Y56.439 Z1
Y53.264
Y51.677 Z0 F300
Y49.966 F1000
Y48.379 Z1
Y45.204
Y43.616 Z0 F300
Y41.898 F1000
Y40.31 Z1
Y37.135
Y36 Z0.285 F300
G2 X10.669 Y35.548 Z0 I-5.688 J0
X-0.687 Y35.967 I-5.669 J0.452 F1000
G3 X-1.007 Y36.283 I-0.317 J-0.002 F600
G1 X-1.324 Y36.281
X-1.395 Y36.28 Z0.008
X-1.462 Z0.031
X-1.522 Z0.069
X-1.572 Y36.279 Z0.12
X-1.61 Z0.18
X-1.634 Z0.247
X-1.642 Z0.317
X-3.489 Y29.836 F1000
X-3.482 Y29.832 Z0.247 F600
X-3.462 Y29.82 Z0.18
X-3.429 Y29.801 Z0.12
X-3.386 Y29.775 Z0.069
X-3.334 Y29.745 Z0.031
X-3.276 Y29.711 Z0.008
X-3.215 Y29.676 Z0
X-0.755 Y28.24
G3 X-0.321 Y28.355 I0.16 J0.274
G2 X2 Y29.688 I2.321 J-1.355 F1000
G1 X8
G2 X10.688 Y27 I0 J-2.688
G1 Y26.834
Y25.247 Z1
Y22.072
Y20.484 Z0 F300
Y18.971 F1000
Y17.383 Z1
Y14.208
Y12.621 Z0 F300
Y10.331 F1000
Y8.743 Z1
Y5.568
Y5 Z0.642 F300
G2 X10.648 Y4.327 Z0.218 I-5.688 J0
X10.595 Y3.981 Z0 I-5.648 J0.673
X-0.688 Y5 I-5.595 J1.019 F1000
G1 Y27
G2 X-0.321 Y28.355 I2.688 J0
G3 X-0.435 Y28.789 I-0.274 J0.16 F600
G1 X-0.71 Y28.949
X-0.771 Y28.985 Z0.008
X-0.829 Y29.018 Z0.031
X-0.881 Y29.049 Z0.069
X-0.924 Y29.074 Z0.12
X-0.957 Y29.093 Z0.18
X-0.977 Y29.105 Z0.247
X-0.984 Y29.109 Z0.317
G0 Z28.02
G28 G91 Z0
G90
G28 G91 X0 Y0
G90
M5
M30
