(face1)
(T6 D=3.175 CR=0 - ZMIN=7.5 - flat end mill)
G90 G94
G17
G21
G28 G91 Z0
G90

(Face1)
T6
(18 Flat-45 degree helix)
S18000 M3
G17 G90 G94
G54
G0 X10.215 Y70.064
Z23.02
G0 Z13.02
G1 Z8.167 F300
G19 G2 Y69.746 Z7.85 J-0.318 K0 F600
G1 Y69.598
Y-8.597 F1000
G2 Y-8.915 Z8.167 J0 K0.317 F600
G0 Z13.02
X8.449 Y70.064
G1 Z8.167 F300
G2 Y69.746 Z7.85 J-0.318 K0 F600
G1 Y69.598
Y-8.597 F1000
G2 Y-8.915 Z8.167 J0 K0.317 F600
G0 Z13.02
X6.684 Y70.064
G1 Z8.167 F300
G2 Y69.746 Z7.85 J-0.318 K0 F600
G1 Y69.598
Y-8.597 F1000
G2 Y-8.915 Z8.167 J0 K0.317 F600
G0 Z13.02
X4.918 Y70.064
G1 Z8.167 F300
G2 Y69.746 Z7.85 J-0.318 K0 F600
G1 Y69.598
Y-8.597 F1000
G2 Y-8.915 Z8.167 J0 K0.317 F600
G0 Z13.02
X3.152 Y70.064
G1 Z8.167 F300
G2 Y69.746 Z7.85 J-0.318 K0 F600
G1 Y69.598
Y-8.597 F1000
G2 Y-8.915 Z8.167 J0 K0.317 F600
G0 Z13.02
X1.386 Y70.064
G1 Z8.167 F300
G2 Y69.746 Z7.85 J-0.318 K0 F600
G1 Y69.598
Y-8.597 F1000
G2 Y-8.915 Z8.167 J0 K0.317 F600
G0 Z13.02
X10.215 Y70.064
G1 Z7.918 F300
G2 Y69.746 Z7.6 J-0.318 K0 F600
G1 Y69.598
Y-8.597 F1000
G2 Y-8.915 Z7.918 J0 K0.318 F600
G0 Z13.02
X8.449 Y70.064
G1 Z7.918 F300
G2 Y69.746 Z7.6 J-0.318 K0 F600
G1 Y69.598
Y-8.597 F1000
G2 Y-8.915 Z7.918 J0 K0.318 F600
G0 Z13.02
X6.684 Y70.064
G1 Z7.918 F300
G2 Y69.746 Z7.6 J-0.318 K0 F600
G1 Y69.598
Y-8.597 F1000
G2 Y-8.915 Z7.918 J0 K0.318 F600
G0 Z13.02
X4.918 Y70.064
G1 Z7.918 F300
G2 Y69.746 Z7.6 J-0.318 K0 F600
G1 Y69.598
Y-8.597 F1000
G2 Y-8.915 Z7.918 J0 K0.318 F600
G0 Z13.02
X3.152 Y70.064
G1 Z7.918 F300
G2 Y69.746 Z7.6 J-0.318 K0 F600
G1 Y69.598
Y-8.597 F1000
G2 Y-8.915 Z7.918 J0 K0.318 F600
G0 Z13.02
X1.386 Y70.064
G1 Z7.918 F300
G2 Y69.746 Z7.6 J-0.318 K0 F600
G1 Y69.598
Y-8.597 F1000
G2 Y-8.915 Z7.918 J0 K0.318 F600
G0 Z13.02
X10.215 Y70.064
G1 Z7.818 F300
G2 Y69.746 Z7.5 J-0.318 K0 F600
G1 Y69.598
Y-8.597 F1000
G2 Y-8.915 Z7.818 J0 K0.318 F600
G0 Z13.02
X8.449 Y70.064
G1 Z7.818 F300
G2 Y69.746 Z7.5 J-0.318 K0 F600
G1 Y69.598
Y-8.597 F1000
G2 Y-8.915 Z7.818 J0 K0.318 F600
G0 Z13.02
X6.684 Y70.064
G1 Z7.818 F300
G2 Y69.746 Z7.5 J-0.318 K0 F600
G1 Y69.598
Y-8.597 F1000
G2 Y-8.915 Z7.818 J0 K0.318 F600
G0 Z13.02
X4.918 Y70.064
G1 Z7.818 F300
G2 Y69.746 Z7.5 J-0.318 K0 F600
G1 Y69.598
Y-8.597 F1000
G2 Y-8.915 Z7.818 J0 K0.318 F600
G0 Z13.02
X3.152 Y70.064
G1 Z7.818 F300
G2 Y69.746 Z7.5 J-0.318 K0 F600
G1 Y69.598
Y-8.597 F1000
G2 Y-8.915 Z7.818 J0 K0.318 F600
G0 Z13.02
X1.386 Y70.064
G1 Z7.818 F300
G2 Y69.746 Z7.5 J-0.318 K0 F600
G1 Y69.598
Y-8.597 F1000
G2 Y-8.915 Z7.818 J0 K0.318 F600
G0 Z23.02
G17
G28 G91 Z0
G90
G28 G91 X0 Y0
G90
M5
M30
