(drill1)
(T2 D=5 CR=0 TAPER=120deg - ZMIN=-1 - center drill)
G90 G94
G17
G21
G28 G91 Z0
G90

(Drill1 4)
T2
S5000 M3
G17 G90 G94
G54
G0 X-24.25 Y12.639
Z2
G0 Z1
G1 Z-0.5 F100.3
G0 Z1
G1 Z-1 F100.3
G0 Z1
X-15.75
G1 Z-0.5 F100.3
G0 Z1
G1 Z-1 F100.3
G0 Z1
X-11.5 Y20
G1 Z-0.5 F100.3
G0 Z1
G1 Z-1 F100.3
G0 Z1
X-20
G1 Z-0.5 F100.3
G0 Z1
G1 Z-1 F100.3
G0 Z1
X-28.5
G1 Z-0.5 F100.3
G0 Z1
G1 Z-1 F100.3
G0 Z1
X-24.25 Y27.361
G1 Z-0.5 F100.3
G0 Z1
G1 Z-1 F100.3
G0 Z1
X-15.75
G1 Z-0.5 F100.3
G0 Z1
G1 Z-1 F100.3
G0 Z1
Z2
G28 G91 Z0
G90
G28 G91 X0 Y0
G90
M5
M30
