(face1)
(T1 D=6 CR=0 - ZMIN=-10 - flat end mill)
G90 G94
G17
G21
G28 G91 Z0
G90

(Face2)
T1
S18000 M3
G17 G90 G94
G54
G0 X7.32 Y-4.491
Z2
G0 Z1
G1 Z-0.4 F600
G18 G3 X6.72 Z-1 I-0.6 K0
G1 X-60.72 F1000
X-61.01
G17 G2 X-61.01 Y-2.007 I0 J1.242
G1 X7.01
G3 X7.01 Y0.477 I0 J1.242
G1 X-61.01
G2 X-61.01 Y2.961 I0 J1.242
G1 X7.01
G3 X7.01 Y5.445 I0 J1.242
G1 X-61.01
G2 X-61.01 Y7.929 I0 J1.242
G1 X7.01
G3 X7.01 Y10.413 I0 J1.242
G1 X-61.01
G2 X-61.01 Y12.897 I0 J1.242
G1 X7.01
G3 X7.01 Y15.381 I0 J1.242
G1 X-61.01
G2 X-61.01 Y17.865 I0 J1.242
G1 X7.01
G3 X7.01 Y20.349 I0 J1.242
G1 X-61.01
G2 X-61.01 Y22.833 I0 J1.242
G1 X7.01
G3 X7.01 Y25.317 I0 J1.242
G1 X-61.01
G2 X-61.01 Y27.801 I0 J1.242
G1 X7.01
G3 X7.01 Y30.285 I0 J1.242
G1 X-61.01
G2 X-61.01 Y32.769 I0 J1.242
G1 X7.01
G3 X7.01 Y35.253 I0 J1.242
G1 X-61.01
G2 X-61.01 Y37.737 I0 J1.242
G1 X7.01
G3 X7.01 Y40.221 I0 J1.242
G1 X-61.01
G2 X-61.01 Y42.705 I0 J1.242
G1 X7.01
G3 X7.01 Y45.189 I0 J1.242
G1 X-61.01
G2 X-61.01 Y47.673 I0 J1.242
G1 X7.01
G3 X7.01 Y50.157 I0 J1.242
G1 X-61.01
G2 X-61.01 Y52.641 I0 J1.242
G1 X7.01
G3 X7.01 Y55.125 I0 J1.242
G1 X-61.01
G18 G3 X-61.61 Z-0.4 I0 K0.6 F800
G0 Z1
X-61.32 Y-4.491
G1 Z-1.4 F600
G2 X-60.72 Z-2 I0.6 K0
G1 X6.72 F1000
X7.01
G17 G3 X7.01 Y-2.007 I0 J1.242
G1 X-61.01
G2 X-61.01 Y0.477 I0 J1.242
G1 X7.01
G3 X7.01 Y2.961 I0 J1.242
G1 X-61.01
G2 X-61.01 Y5.445 I0 J1.242
G1 X7.01
G3 X7.01 Y7.929 I0 J1.242
G1 X-61.01
G2 X-61.01 Y10.413 I0 J1.242
G1 X7.01
G3 X7.01 Y12.897 I0 J1.242
G1 X-61.01
G2 X-61.01 Y15.381 I0 J1.242
G1 X7.01
G3 X7.01 Y17.865 I0 J1.242
G1 X-61.01
G2 X-61.01 Y20.349 I0 J1.242
G1 X7.01
G3 X7.01 Y22.833 I0 J1.242
G1 X-61.01
G2 X-61.01 Y25.317 I0 J1.242
G1 X7.01
G3 X7.01 Y27.801 I0 J1.242
G1 X-61.01
G2 X-61.01 Y30.285 I0 J1.242
G1 X7.01
G3 X7.01 Y32.769 I0 J1.242
G1 X-61.01
G2 X-61.01 Y35.253 I0 J1.242
G1 X7.01
G3 X7.01 Y37.737 I0 J1.242
G1 X-61.01
G2 X-61.01 Y40.221 I0 J1.242
G1 X7.01
G3 X7.01 Y42.705 I0 J1.242
G1 X-61.01
G2 X-61.01 Y45.189 I0 J1.242
G1 X7.01
G3 X7.01 Y47.673 I0 J1.242
G1 X-61.01
G2 X-61.01 Y50.157 I0 J1.242
G1 X7.01
G3 X7.01 Y52.641 I0 J1.242
G1 X-61.01
G2 X-61.01 Y55.125 I0 J1.242
G1 X7.01
G18 G2 X7.61 Z-1.4 I0 K0.6 F800
G0 Z1
X7.32 Y-4.491
G1 Z-2.4 F600
G3 X6.72 Z-3 I-0.6 K0
G1 X-60.72 F1000
X-61.01
G17 G2 X-61.01 Y-2.007 I0 J1.242
G1 X7.01
G3 X7.01 Y0.477 I0 J1.242
G1 X-61.01
G2 X-61.01 Y2.961 I0 J1.242
G1 X7.01
G3 X7.01 Y5.445 I0 J1.242
G1 X-61.01
G2 X-61.01 Y7.929 I0 J1.242
G1 X7.01
G3 X7.01 Y10.413 I0 J1.242
G1 X-61.01
G2 X-61.01 Y12.897 I0 J1.242
G1 X7.01
G3 X7.01 Y15.381 I0 J1.242
G1 X-61.01
G2 X-61.01 Y17.865 I0 J1.242
G1 X7.01
G3 X7.01 Y20.349 I0 J1.242
G1 X-61.01
G2 X-61.01 Y22.833 I0 J1.242
G1 X7.01
G3 X7.01 Y25.317 I0 J1.242
G1 X-61.01
G2 X-61.01 Y27.801 I0 J1.242
G1 X7.01
G3 X7.01 Y30.285 I0 J1.242
G1 X-61.01
G2 X-61.01 Y32.769 I0 J1.242
G1 X7.01
G3 X7.01 Y35.253 I0 J1.242
G1 X-61.01
G2 X-61.01 Y37.737 I0 J1.242
G1 X7.01
G3 X7.01 Y40.221 I0 J1.242
G1 X-61.01
G2 X-61.01 Y42.705 I0 J1.242
G1 X7.01
G3 X7.01 Y45.189 I0 J1.242
G1 X-61.01
G2 X-61.01 Y47.673 I0 J1.242
G1 X7.01
G3 X7.01 Y50.157 I0 J1.242
G1 X-61.01
G2 X-61.01 Y52.641 I0 J1.242
G1 X7.01
G3 X7.01 Y55.125 I0 J1.242
G1 X-61.01
G18 G3 X-61.61 Z-2.4 I0 K0.6 F800
G0 Z1
X-61.32 Y-4.491
G1 Z-3.4 F600
G2 X-60.72 Z-4 I0.6 K0
G1 X6.72 F1000
X7.01
G17 G3 X7.01 Y-2.007 I0 J1.242
G1 X-61.01
G2 X-61.01 Y0.477 I0 J1.242
G1 X7.01
G3 X7.01 Y2.961 I0 J1.242
G1 X-61.01
G2 X-61.01 Y5.445 I0 J1.242
G1 X7.01
G3 X7.01 Y7.929 I0 J1.242
G1 X-61.01
G2 X-61.01 Y10.413 I0 J1.242
G1 X7.01
G3 X7.01 Y12.897 I0 J1.242
G1 X-61.01
G2 X-61.01 Y15.381 I0 J1.242
G1 X7.01
G3 X7.01 Y17.865 I0 J1.242
G1 X-61.01
G2 X-61.01 Y20.349 I0 J1.242
G1 X7.01
G3 X7.01 Y22.833 I0 J1.242
G1 X-61.01
G2 X-61.01 Y25.317 I0 J1.242
G1 X7.01
G3 X7.01 Y27.801 I0 J1.242
G1 X-61.01
G2 X-61.01 Y30.285 I0 J1.242
G1 X7.01
G3 X7.01 Y32.769 I0 J1.242
G1 X-61.01
G2 X-61.01 Y35.253 I0 J1.242
G1 X7.01
G3 X7.01 Y37.737 I0 J1.242
G1 X-61.01
G2 X-61.01 Y40.221 I0 J1.242
G1 X7.01
G3 X7.01 Y42.705 I0 J1.242
G1 X-61.01
G2 X-61.01 Y45.189 I0 J1.242
G1 X7.01
G3 X7.01 Y47.673 I0 J1.242
G1 X-61.01
G2 X-61.01 Y50.157 I0 J1.242
G1 X7.01
G3 X7.01 Y52.641 I0 J1.242
G1 X-61.01
G2 X-61.01 Y55.125 I0 J1.242
G1 X7.01
G18 G2 X7.61 Z-3.4 I0 K0.6 F800
G0 Z1
X7.32 Y-4.491
G1 Z-4.4 F600
G3 X6.72 Z-5 I-0.6 K0
G1 X-60.72 F1000
X-61.01
G17 G2 X-61.01 Y-2.007 I0 J1.242
G1 X7.01
G3 X7.01 Y0.477 I0 J1.242
G1 X-61.01
G2 X-61.01 Y2.961 I0 J1.242
G1 X7.01
G3 X7.01 Y5.445 I0 J1.242
G1 X-61.01
G2 X-61.01 Y7.929 I0 J1.242
G1 X7.01
G3 X7.01 Y10.413 I0 J1.242
G1 X-61.01
G2 X-61.01 Y12.897 I0 J1.242
G1 X7.01
G3 X7.01 Y15.381 I0 J1.242
G1 X-61.01
G2 X-61.01 Y17.865 I0 J1.242
G1 X7.01
G3 X7.01 Y20.349 I0 J1.242
G1 X-61.01
G2 X-61.01 Y22.833 I0 J1.242
G1 X7.01
G3 X7.01 Y25.317 I0 J1.242
G1 X-61.01
G2 X-61.01 Y27.801 I0 J1.242
G1 X7.01
G3 X7.01 Y30.285 I0 J1.242
G1 X-61.01
G2 X-61.01 Y32.769 I0 J1.242
G1 X7.01
G3 X7.01 Y35.253 I0 J1.242
G1 X-61.01
G2 X-61.01 Y37.737 I0 J1.242
G1 X7.01
G3 X7.01 Y40.221 I0 J1.242
G1 X-61.01
G2 X-61.01 Y42.705 I0 J1.242
G1 X7.01
G3 X7.01 Y45.189 I0 J1.242
G1 X-61.01
G2 X-61.01 Y47.673 I0 J1.242
G1 X7.01
G3 X7.01 Y50.157 I0 J1.242
G1 X-61.01
G2 X-61.01 Y52.641 I0 J1.242
G1 X7.01
G3 X7.01 Y55.125 I0 J1.242
G1 X-61.01
G18 G3 X-61.61 Z-4.4 I0 K0.6 F800
G0 Z1
X-61.32 Y-4.491
G1 Z-5.4 F600
G2 X-60.72 Z-6 I0.6 K0
G1 X6.72 F1000
X7.01
G17 G3 X7.01 Y-2.007 I0 J1.242
G1 X-61.01
G2 X-61.01 Y0.477 I0 J1.242
G1 X7.01
G3 X7.01 Y2.961 I0 J1.242
G1 X-61.01
G2 X-61.01 Y5.445 I0 J1.242
G1 X7.01
G3 X7.01 Y7.929 I0 J1.242
G1 X-61.01
G2 X-61.01 Y10.413 I0 J1.242
G1 X7.01
G3 X7.01 Y12.897 I0 J1.242
G1 X-61.01
G2 X-61.01 Y15.381 I0 J1.242
G1 X7.01
G3 X7.01 Y17.865 I0 J1.242
G1 X-61.01
G2 X-61.01 Y20.349 I0 J1.242
G1 X7.01
G3 X7.01 Y22.833 I0 J1.242
G1 X-61.01
G2 X-61.01 Y25.317 I0 J1.242
G1 X7.01
G3 X7.01 Y27.801 I0 J1.242
G1 X-61.01
G2 X-61.01 Y30.285 I0 J1.242
G1 X7.01
G3 X7.01 Y32.769 I0 J1.242
G1 X-61.01
G2 X-61.01 Y35.253 I0 J1.242
G1 X7.01
G3 X7.01 Y37.737 I0 J1.242
G1 X-61.01
G2 X-61.01 Y40.221 I0 J1.242
G1 X7.01
G3 X7.01 Y42.705 I0 J1.242
G1 X-61.01
G2 X-61.01 Y45.189 I0 J1.242
G1 X7.01
G3 X7.01 Y47.673 I0 J1.242
G1 X-61.01
G2 X-61.01 Y50.157 I0 J1.242
G1 X7.01
G3 X7.01 Y52.641 I0 J1.242
G1 X-61.01
G2 X-61.01 Y55.125 I0 J1.242
G1 X7.01
G18 G2 X7.61 Z-5.4 I0 K0.6 F800
G0 Z1
X7.32 Y-4.491
G1 Z-6.4 F600
G3 X6.72 Z-7 I-0.6 K0
G1 X-60.72 F1000
X-61.01
G17 G2 X-61.01 Y-2.007 I0 J1.242
G1 X7.01
G3 X7.01 Y0.477 I0 J1.242
G1 X-61.01
G2 X-61.01 Y2.961 I0 J1.242
G1 X7.01
G3 X7.01 Y5.445 I0 J1.242
G1 X-61.01
G2 X-61.01 Y7.929 I0 J1.242
G1 X7.01
G3 X7.01 Y10.413 I0 J1.242
G1 X-61.01
G2 X-61.01 Y12.897 I0 J1.242
G1 X7.01
G3 X7.01 Y15.381 I0 J1.242
G1 X-61.01
G2 X-61.01 Y17.865 I0 J1.242
G1 X7.01
G3 X7.01 Y20.349 I0 J1.242
G1 X-61.01
G2 X-61.01 Y22.833 I0 J1.242
G1 X7.01
G3 X7.01 Y25.317 I0 J1.242
G1 X-61.01
G2 X-61.01 Y27.801 I0 J1.242
G1 X7.01
G3 X7.01 Y30.285 I0 J1.242
G1 X-61.01
G2 X-61.01 Y32.769 I0 J1.242
G1 X7.01
G3 X7.01 Y35.253 I0 J1.242
G1 X-61.01
G2 X-61.01 Y37.737 I0 J1.242
G1 X7.01
G3 X7.01 Y40.221 I0 J1.242
G1 X-61.01
G2 X-61.01 Y42.705 I0 J1.242
G1 X7.01
G3 X7.01 Y45.189 I0 J1.242
G1 X-61.01
G2 X-61.01 Y47.673 I0 J1.242
G1 X7.01
G3 X7.01 Y50.157 I0 J1.242
G1 X-61.01
G2 X-61.01 Y52.641 I0 J1.242
G1 X7.01
G3 X7.01 Y55.125 I0 J1.242
G1 X-61.01
G18 G3 X-61.61 Z-6.4 I0 K0.6 F800
G0 Z1
X-61.32 Y-4.491
G1 Z-7.4 F600
G2 X-60.72 Z-8 I0.6 K0
G1 X6.72 F1000
X7.01
G17 G3 X7.01 Y-2.007 I0 J1.242
G1 X-61.01
G2 X-61.01 Y0.477 I0 J1.242
G1 X7.01
G3 X7.01 Y2.961 I0 J1.242
G1 X-61.01
G2 X-61.01 Y5.445 I0 J1.242
G1 X7.01
G3 X7.01 Y7.929 I0 J1.242
G1 X-61.01
G2 X-61.01 Y10.413 I0 J1.242
G1 X7.01
G3 X7.01 Y12.897 I0 J1.242
G1 X-61.01
G2 X-61.01 Y15.381 I0 J1.242
G1 X7.01
G3 X7.01 Y17.865 I0 J1.242
G1 X-61.01
G2 X-61.01 Y20.349 I0 J1.242
G1 X7.01
G3 X7.01 Y22.833 I0 J1.242
G1 X-61.01
G2 X-61.01 Y25.317 I0 J1.242
G1 X7.01
G3 X7.01 Y27.801 I0 J1.242
G1 X-61.01
G2 X-61.01 Y30.285 I0 J1.242
G1 X7.01
G3 X7.01 Y32.769 I0 J1.242
G1 X-61.01
G2 X-61.01 Y35.253 I0 J1.242
G1 X7.01
G3 X7.01 Y37.737 I0 J1.242
G1 X-61.01
G2 X-61.01 Y40.221 I0 J1.242
G1 X7.01
G3 X7.01 Y42.705 I0 J1.242
G1 X-61.01
G2 X-61.01 Y45.189 I0 J1.242
G1 X7.01
G3 X7.01 Y47.673 I0 J1.242
G1 X-61.01
G2 X-61.01 Y50.157 I0 J1.242
G1 X7.01
G3 X7.01 Y52.641 I0 J1.242
G1 X-61.01
G2 X-61.01 Y55.125 I0 J1.242
G1 X7.01
G18 G2 X7.61 Z-7.4 I0 K0.6 F800
G0 Z1
X7.32 Y-4.491
G1 Z-8.4 F600
G3 X6.72 Z-9 I-0.6 K0
G1 X-60.72 F1000
X-61.01
G17 G2 X-61.01 Y-2.007 I0 J1.242
G1 X7.01
G3 X7.01 Y0.477 I0 J1.242
G1 X-61.01
G2 X-61.01 Y2.961 I0 J1.242
G1 X7.01
G3 X7.01 Y5.445 I0 J1.242
G1 X-61.01
G2 X-61.01 Y7.929 I0 J1.242
G1 X7.01
G3 X7.01 Y10.413 I0 J1.242
G1 X-61.01
G2 X-61.01 Y12.897 I0 J1.242
G1 X7.01
G3 X7.01 Y15.381 I0 J1.242
G1 X-61.01
G2 X-61.01 Y17.865 I0 J1.242
G1 X7.01
G3 X7.01 Y20.349 I0 J1.242
G1 X-61.01
G2 X-61.01 Y22.833 I0 J1.242
G1 X7.01
G3 X7.01 Y25.317 I0 J1.242
G1 X-61.01
G2 X-61.01 Y27.801 I0 J1.242
G1 X7.01
G3 X7.01 Y30.285 I0 J1.242
G1 X-61.01
G2 X-61.01 Y32.769 I0 J1.242
G1 X7.01
G3 X7.01 Y35.253 I0 J1.242
G1 X-61.01
G2 X-61.01 Y37.737 I0 J1.242
G1 X7.01
G3 X7.01 Y40.221 I0 J1.242
G1 X-61.01
G2 X-61.01 Y42.705 I0 J1.242
G1 X7.01
G3 X7.01 Y45.189 I0 J1.242
G1 X-61.01
G2 X-61.01 Y47.673 I0 J1.242
G1 X7.01
G3 X7.01 Y50.157 I0 J1.242
G1 X-61.01
G2 X-61.01 Y52.641 I0 J1.242
G1 X7.01
G3 X7.01 Y55.125 I0 J1.242
G1 X-61.01
G18 G3 X-61.61 Z-8.4 I0 K0.6 F800
G0 Z1
X-61.32 Y-4.491
G1 Z-9.4 F600
G2 X-60.72 Z-10 I0.6 K0
G1 X6.72 F1000
X7.01
G17 G3 X7.01 Y-2.007 I0 J1.242
G1 X-61.01
G2 X-61.01 Y0.477 I0 J1.242
G1 X7.01
G3 X7.01 Y2.961 I0 J1.242
G1 X-61.01
G2 X-61.01 Y5.445 I0 J1.242
G1 X7.01
G3 X7.01 Y7.929 I0 J1.242
G1 X-61.01
G2 X-61.01 Y10.413 I0 J1.242
G1 X7.01
G3 X7.01 Y12.897 I0 J1.242
G1 X-61.01
G2 X-61.01 Y15.381 I0 J1.242
G1 X7.01
G3 X7.01 Y17.865 I0 J1.242
G1 X-61.01
G2 X-61.01 Y20.349 I0 J1.242
G1 X7.01
G3 X7.01 Y22.833 I0 J1.242
G1 X-61.01
G2 X-61.01 Y25.317 I0 J1.242
G1 X7.01
G3 X7.01 Y27.801 I0 J1.242
G1 X-61.01
G2 X-61.01 Y30.285 I0 J1.242
G1 X7.01
G3 X7.01 Y32.769 I0 J1.242
G1 X-61.01
G2 X-61.01 Y35.253 I0 J1.242
G1 X7.01
G3 X7.01 Y37.737 I0 J1.242
G1 X-61.01
G2 X-61.01 Y40.221 I0 J1.242
G1 X7.01
G3 X7.01 Y42.705 I0 J1.242
G1 X-61.01
G2 X-61.01 Y45.189 I0 J1.242
G1 X7.01
G3 X7.01 Y47.673 I0 J1.242
G1 X-61.01
G2 X-61.01 Y50.157 I0 J1.242
G1 X7.01
G3 X7.01 Y52.641 I0 J1.242
G1 X-61.01
G2 X-61.01 Y55.125 I0 J1.242
G1 X7.01
G18 G2 X7.61 Z-9.4 I0 K0.6 F800
G0 Z2
G17
G28 G91 Z0
G90
G28 G91 X0 Y0
G90
M5
M30
